(G-CODE GENERATED BY FLATCAM v8.992 - www.flatcam.org - Version Date: 2020/05/03)

(Name: Phoenix612_Stage_2_PA_Testing_v1-F_Cu.gbr_iso_cnc)
(Type: G-code from Geometry)
(Units: MM)

(Created on Thursday, 19 January 2023 at 20:54)

(This preprocessor is the default preprocessor used by FlatCAM.)
(It is made to work with MACH3 compatible motion controllers.)

(TOOL DIAMETER: 0.2458 mm)
(Feedrate_XY: 50.0 mm/min)
(Feedrate_Z: 40.0 mm/min)
(Feedrate rapids 1500.0 mm/min)

(Z_Cut: -0.13 mm)
(Z_Move: 2.0 mm)
(Z Start: None mm)
(Z End: 10.0 mm)
(Steps per circle: 64)
(Preprocessor Geometry: default)

(X range:    1.1007 ...  120.4564  mm)
(Y range:  -34.0480 ...   69.5851  mm)

(Spindle Speed: None RPM)
G21
G90
G94



G01 F50.00
G00 Z2.0000

M03
G00 X1.1170 Y1.6902
G01 F40.00
G01 Z-0.1300
G01 F50.00
G01 X1.1284 Y1.6378
G01 X1.1368 Y1.6032
G01 X1.1417 Y1.5861
G01 X1.1527 Y1.5522
G01 X1.1654 Y1.5189
G01 X1.1797 Y1.4863
G01 X1.1956 Y1.4545
G01 X1.2132 Y1.4234
G01 X1.2322 Y1.3933
G01 X1.2423 Y1.3787
G01 X1.2635 Y1.3501
G01 X1.2862 Y1.3226
G01 X1.3327 Y1.2689
G01 X1.3565 Y1.2427
G01 X1.3816 Y1.2178
G01 X1.4079 Y1.1941
G01 X1.4354 Y1.1718
G01 X1.4639 Y1.1508
G01 X1.4935 Y1.1313
G01 X1.5239 Y1.1133
G01 X1.5553 Y1.0968
G01 X1.5712 Y1.0891
G01 X1.6037 Y1.0750
G01 X1.6368 Y1.0626
G01 X1.6706 Y1.0518
G01 X1.7550 Y1.0272
G01 X1.7880 Y1.0192
G01 X1.8046 Y1.0158
G01 X1.8381 Y1.0101
G01 X1.8717 Y1.0061
G01 X1.9056 Y1.0037
G01 X1.9395 Y1.0029
G01 X114.4879 Y1.0029
G01 X114.5218 Y1.0037
G01 X114.5388 Y1.0047
G01 X114.5725 Y1.0079
G01 X114.5893 Y1.0101
G01 X114.6228 Y1.0158
G01 X114.6394 Y1.0192
G01 X114.6918 Y1.0306
G01 X114.7264 Y1.0390
G01 X114.7435 Y1.0439
G01 X114.7774 Y1.0549
G01 X114.7941 Y1.0610
G01 X114.8271 Y1.0745
G01 X114.8593 Y1.0897
G01 X114.8751 Y1.0978
G01 X114.9062 Y1.1154
G01 X114.9363 Y1.1344
G01 X114.9509 Y1.1445
G01 X114.9795 Y1.1657
G01 X115.0070 Y1.1884
G01 X115.0607 Y1.2349
G01 X115.0869 Y1.2587
G01 X115.0995 Y1.2711
G01 X115.1238 Y1.2968
G01 X115.1355 Y1.3101
G01 X115.1578 Y1.3376
G01 X115.1788 Y1.3661
G01 X115.1983 Y1.3957
G01 X115.2075 Y1.4108
G01 X115.2248 Y1.4417
G01 X115.2405 Y1.4734
G01 X115.2477 Y1.4896
G01 X115.2610 Y1.5224
G01 X115.2726 Y1.5558
G01 X115.3024 Y1.6572
G01 X115.3104 Y1.6902
G01 X115.3169 Y1.7235
G01 X115.3195 Y1.7403
G01 X115.3217 Y1.7571
G01 X115.3249 Y1.7908
G01 X115.3265 Y1.8247
G01 X115.3267 Y1.8417
G01 X115.3267 Y68.7463
G01 X115.3259 Y68.7802
G01 X115.3249 Y68.7972
G01 X115.3235 Y68.8141
G01 X115.3195 Y68.8477
G01 X115.3169 Y68.8645
G01 X115.3104 Y68.8978
G01 X115.2990 Y68.9502
G01 X115.2906 Y68.9848
G01 X115.2804 Y69.0189
G01 X115.2747 Y69.0358
G01 X115.2620 Y69.0691
G01 X115.2551 Y69.0855
G01 X115.2399 Y69.1177
G01 X115.2232 Y69.1492
G01 X115.2142 Y69.1646
G01 X115.1952 Y69.1947
G01 X115.1747 Y69.2238
G01 X115.1639 Y69.2379
G01 X115.1412 Y69.2654
G01 X115.0947 Y69.3191
G01 X115.0709 Y69.3453
G01 X115.0458 Y69.3702
G01 X115.0328 Y69.3822
G01 X115.0059 Y69.4052
G01 X114.9779 Y69.4269
G01 X114.9635 Y69.4372
G01 X114.9488 Y69.4471
G01 X114.9188 Y69.4659
G01 X114.8879 Y69.4832
G01 X114.8562 Y69.4989
G01 X114.8400 Y69.5061
G01 X114.8072 Y69.5194
G01 X114.7738 Y69.5310
G01 X114.6724 Y69.5608
G01 X114.6394 Y69.5688
G01 X114.6228 Y69.5722
G01 X114.6061 Y69.5753
G01 X114.5725 Y69.5801
G01 X114.5557 Y69.5819
G01 X114.5218 Y69.5843
G01 X114.4879 Y69.5851
G01 X1.9395 Y69.5851
G01 X1.9056 Y69.5843
G01 X1.8886 Y69.5833
G01 X1.8717 Y69.5819
G01 X1.8381 Y69.5779
G01 X1.8213 Y69.5753
G01 X1.7880 Y69.5688
G01 X1.7356 Y69.5574
G01 X1.7010 Y69.5490
G01 X1.6669 Y69.5388
G01 X1.6500 Y69.5331
G01 X1.6333 Y69.5270
G01 X1.6003 Y69.5135
G01 X1.5681 Y69.4983
G01 X1.5366 Y69.4816
G01 X1.5212 Y69.4726
G01 X1.4911 Y69.4536
G01 X1.4620 Y69.4331
G01 X1.4479 Y69.4223
G01 X1.4204 Y69.3996
G01 X1.3667 Y69.3531
G01 X1.3405 Y69.3293
G01 X1.3156 Y69.3042
G01 X1.3036 Y69.2912
G01 X1.2806 Y69.2643
G01 X1.2696 Y69.2504
G01 X1.2486 Y69.2219
G01 X1.2291 Y69.1923
G01 X1.2199 Y69.1772
G01 X1.2111 Y69.1619
G01 X1.1946 Y69.1305
G01 X1.1797 Y69.0984
G01 X1.1664 Y69.0656
G01 X1.1548 Y69.0322
G01 X1.1250 Y68.9308
G01 X1.1208 Y68.9144
G01 X1.1136 Y68.8812
G01 X1.1105 Y68.8645
G01 X1.1057 Y68.8309
G01 X1.1039 Y68.8141
G01 X1.1015 Y68.7802
G01 X1.1007 Y68.7463
G01 X1.1007 Y1.8417
G01 X1.1015 Y1.8078
G01 X1.1039 Y1.7739
G01 X1.1079 Y1.7403
G01 X1.1105 Y1.7235
G01 X1.1170 Y1.6902
G00 Z2.0000
G00 X1.2611 Y1.7215
G01 F40.00
G01 Z-0.1300
G01 F50.00
G01 X1.2756 Y1.6554
G01 X1.2830 Y1.6282
G01 X1.2917 Y1.6013
G01 X1.3018 Y1.5749
G01 X1.3132 Y1.5490
G01 X1.3258 Y1.5238
G01 X1.3397 Y1.4991
G01 X1.3471 Y1.4871
G01 X1.3628 Y1.4636
G01 X1.3797 Y1.4409
G01 X1.3976 Y1.4191
G01 X1.4441 Y1.3655
G01 X1.4630 Y1.3447
G01 X1.4829 Y1.3249
G01 X1.5038 Y1.3062
G01 X1.5256 Y1.2884
G01 X1.5482 Y1.2718
G01 X1.5599 Y1.2639
G01 X1.5837 Y1.2491
G01 X1.6082 Y1.2354
G01 X1.6333 Y1.2229
G01 X1.6591 Y1.2117
G01 X1.6854 Y1.2018
G01 X1.7121 Y1.1933
G01 X1.7932 Y1.1696
G01 X1.8193 Y1.1633
G01 X1.8325 Y1.1606
G01 X1.8590 Y1.1561
G01 X1.8858 Y1.1529
G01 X1.9126 Y1.1510
G01 X1.9395 Y1.1504
G01 X114.4879 Y1.1504
G01 X114.5014 Y1.1505
G01 X114.5282 Y1.1518
G01 X114.5550 Y1.1544
G01 X114.5684 Y1.1561
G01 X114.5816 Y1.1582
G01 X114.6081 Y1.1633
G01 X114.6604 Y1.1747
G01 X114.6879 Y1.1814
G01 X114.7149 Y1.1894
G01 X114.7283 Y1.1939
G01 X114.7547 Y1.2040
G01 X114.7806 Y1.2154
G01 X114.7933 Y1.2215
G01 X114.8058 Y1.2280
G01 X114.8305 Y1.2419
G01 X114.8543 Y1.2570
G01 X114.8774 Y1.2733
G01 X114.8887 Y1.2819
G01 X114.9105 Y1.2998
G01 X114.9641 Y1.3463
G01 X114.9849 Y1.3652
G01 X114.9949 Y1.3751
G01 X115.0142 Y1.3955
G01 X115.0324 Y1.4168
G01 X115.0412 Y1.4278
G01 X115.0496 Y1.4390
G01 X115.0657 Y1.4621
G01 X115.0805 Y1.4859
G01 X115.0942 Y1.5104
G01 X115.1067 Y1.5355
G01 X115.1179 Y1.5613
G01 X115.1230 Y1.5744
G01 X115.1278 Y1.5876
G01 X115.1363 Y1.6143
G01 X115.1600 Y1.6954
G01 X115.1663 Y1.7215
G01 X115.1690 Y1.7347
G01 X115.1714 Y1.7480
G01 X115.1752 Y1.7746
G01 X115.1778 Y1.8014
G01 X115.1791 Y1.8282
G01 X115.1792 Y1.8417
G01 X115.1792 Y68.7463
G01 X115.1786 Y68.7732
G01 X115.1778 Y68.7866
G01 X115.1752 Y68.8134
G01 X115.1735 Y68.8268
G01 X115.1690 Y68.8533
G01 X115.1663 Y68.8665
G01 X115.1549 Y68.9188
G01 X115.1482 Y68.9463
G01 X115.1402 Y68.9733
G01 X115.1357 Y68.9867
G01 X115.1256 Y69.0131
G01 X115.1142 Y69.0390
G01 X115.1081 Y69.0517
G01 X115.0948 Y69.0766
G01 X115.0877 Y69.0889
G01 X115.0803 Y69.1009
G01 X115.0646 Y69.1244
G01 X115.0477 Y69.1471
G01 X115.0298 Y69.1689
G01 X114.9833 Y69.2225
G01 X114.9644 Y69.2433
G01 X114.9545 Y69.2533
G01 X114.9341 Y69.2726
G01 X114.9128 Y69.2908
G01 X114.9018 Y69.2996
G01 X114.8792 Y69.3162
G01 X114.8557 Y69.3317
G01 X114.8437 Y69.3389
G01 X114.8192 Y69.3526
G01 X114.7941 Y69.3651
G01 X114.7683 Y69.3763
G01 X114.7552 Y69.3814
G01 X114.7420 Y69.3862
G01 X114.7153 Y69.3947
G01 X114.6342 Y69.4184
G01 X114.6081 Y69.4247
G01 X114.5949 Y69.4274
G01 X114.5684 Y69.4319
G01 X114.5550 Y69.4336
G01 X114.5282 Y69.4362
G01 X114.5014 Y69.4375
G01 X114.4879 Y69.4376
G01 X1.9395 Y69.4376
G01 X1.9126 Y69.4370
G01 X1.8992 Y69.4362
G01 X1.8858 Y69.4351
G01 X1.8590 Y69.4319
G01 X1.8325 Y69.4274
G01 X1.8193 Y69.4247
G01 X1.7670 Y69.4133
G01 X1.7395 Y69.4066
G01 X1.7260 Y69.4028
G01 X1.6991 Y69.3941
G01 X1.6858 Y69.3892
G01 X1.6597 Y69.3785
G01 X1.6341 Y69.3665
G01 X1.6216 Y69.3600
G01 X1.5969 Y69.3461
G01 X1.5731 Y69.3310
G01 X1.5614 Y69.3230
G01 X1.5387 Y69.3061
G01 X1.5169 Y69.2882
G01 X1.4633 Y69.2417
G01 X1.4425 Y69.2228
G01 X1.4325 Y69.2129
G01 X1.4132 Y69.1925
G01 X1.3950 Y69.1712
G01 X1.3778 Y69.1490
G01 X1.3696 Y69.1376
G01 X1.3541 Y69.1141
G01 X1.3469 Y69.1021
G01 X1.3332 Y69.0776
G01 X1.3207 Y69.0525
G01 X1.3095 Y69.0267
G01 X1.3044 Y69.0136
G01 X1.2952 Y68.9871
G01 X1.2911 Y68.9737
G01 X1.2674 Y68.8926
G01 X1.2611 Y68.8665
G01 X1.2584 Y68.8533
G01 X1.2560 Y68.8400
G01 X1.2522 Y68.8134
G01 X1.2496 Y68.7866
G01 X1.2488 Y68.7732
G01 X1.2482 Y68.7463
G01 X1.2482 Y1.8417
G01 X1.2488 Y1.8148
G01 X1.2507 Y1.7880
G01 X1.2522 Y1.7746
G01 X1.2560 Y1.7480
G01 X1.2611 Y1.7215
G00 Z2.0000
G00 X1.4052 Y1.7529
G01 F40.00
G01 Z-0.1300
G01 F50.00
G01 X1.4189 Y1.6904
G01 X1.4244 Y1.6702
G01 X1.4275 Y1.6602
G01 X1.4344 Y1.6405
G01 X1.4423 Y1.6212
G01 X1.4512 Y1.6023
G01 X1.4610 Y1.5839
G01 X1.4663 Y1.5749
G01 X1.4774 Y1.5572
G01 X1.4895 Y1.5401
G01 X1.5023 Y1.5237
G01 X1.5625 Y1.4543
G01 X1.5768 Y1.4393
G01 X1.5919 Y1.4251
G01 X1.5997 Y1.4182
G01 X1.6158 Y1.4051
G01 X1.6325 Y1.3928
G01 X1.6498 Y1.3814
G01 X1.6587 Y1.3760
G01 X1.6768 Y1.3659
G01 X1.6954 Y1.3567
G01 X1.7145 Y1.3484
G01 X1.7339 Y1.3411
G01 X1.7537 Y1.3348
G01 X1.8218 Y1.3148
G01 X1.8507 Y1.3074
G01 X1.8702 Y1.3036
G01 X1.8899 Y1.3008
G01 X1.9196 Y1.2983
G01 X1.9395 Y1.2978
G01 X114.4879 Y1.2978
G01 X114.5177 Y1.2989
G01 X114.5375 Y1.3008
G01 X114.5572 Y1.3036
G01 X114.5767 Y1.3074
G01 X114.6291 Y1.3188
G01 X114.6494 Y1.3237
G01 X114.6694 Y1.3297
G01 X114.6891 Y1.3366
G01 X114.6988 Y1.3405
G01 X114.7179 Y1.3489
G01 X114.7273 Y1.3534
G01 X114.7457 Y1.3632
G01 X114.7547 Y1.3685
G01 X114.7724 Y1.3796
G01 X114.7810 Y1.3856
G01 X114.7895 Y1.3917
G01 X114.8059 Y1.4045
G01 X114.8675 Y1.4578
G01 X114.8829 Y1.4718
G01 X114.8903 Y1.4790
G01 X114.9045 Y1.4941
G01 X114.9180 Y1.5099
G01 X114.9245 Y1.5180
G01 X114.9368 Y1.5347
G01 X114.9426 Y1.5433
G01 X114.9536 Y1.5609
G01 X114.9637 Y1.5790
G01 X114.9729 Y1.5976
G01 X114.9812 Y1.6167
G01 X114.9850 Y1.6263
G01 X114.9918 Y1.6459
G01 X114.9948 Y1.6559
G01 X115.0175 Y1.7336
G01 X115.0222 Y1.7529
G01 X115.0275 Y1.7822
G01 X115.0307 Y1.8119
G01 X115.0318 Y1.8417
G01 X115.0318 Y68.7463
G01 X115.0313 Y68.7662
G01 X115.0299 Y68.7860
G01 X115.0260 Y68.8156
G01 X115.0222 Y68.8351
G01 X115.0108 Y68.8875
G01 X115.0059 Y68.9078
G01 X115.0030 Y68.9178
G01 X114.9966 Y68.9377
G01 X114.9891 Y68.9572
G01 X114.9851 Y68.9668
G01 X114.9762 Y68.9857
G01 X114.9714 Y68.9950
G01 X114.9611 Y69.0131
G01 X114.9556 Y69.0220
G01 X114.9440 Y69.0394
G01 X114.9316 Y69.0562
G01 X114.9251 Y69.0643
G01 X114.8718 Y69.1259
G01 X114.8578 Y69.1413
G01 X114.8506 Y69.1487
G01 X114.8355 Y69.1629
G01 X114.8197 Y69.1764
G01 X114.8116 Y69.1829
G01 X114.7949 Y69.1952
G01 X114.7863 Y69.2010
G01 X114.7687 Y69.2120
G01 X114.7506 Y69.2221
G01 X114.7320 Y69.2313
G01 X114.7129 Y69.2396
G01 X114.7033 Y69.2434
G01 X114.6837 Y69.2502
G01 X114.6737 Y69.2532
G01 X114.5960 Y69.2759
G01 X114.5767 Y69.2806
G01 X114.5474 Y69.2859
G01 X114.5177 Y69.2891
G01 X114.4879 Y69.2902
G01 X1.9395 Y69.2902
G01 X1.9097 Y69.2891
G01 X1.8899 Y69.2872
G01 X1.8702 Y69.2844
G01 X1.8507 Y69.2806
G01 X1.7983 Y69.2692
G01 X1.7780 Y69.2643
G01 X1.7680 Y69.2614
G01 X1.7481 Y69.2550
G01 X1.7383 Y69.2514
G01 X1.7190 Y69.2435
G01 X1.7001 Y69.2346
G01 X1.6817 Y69.2248
G01 X1.6727 Y69.2195
G01 X1.6638 Y69.2140
G01 X1.6464 Y69.2024
G01 X1.6379 Y69.1963
G01 X1.6215 Y69.1835
G01 X1.5599 Y69.1302
G01 X1.5445 Y69.1162
G01 X1.5299 Y69.1015
G01 X1.5229 Y69.0939
G01 X1.5160 Y69.0861
G01 X1.5029 Y69.0700
G01 X1.4906 Y69.0533
G01 X1.4792 Y69.0360
G01 X1.4738 Y69.0271
G01 X1.4637 Y69.0090
G01 X1.4545 Y68.9904
G01 X1.4502 Y68.9809
G01 X1.4424 Y68.9617
G01 X1.4356 Y68.9421
G01 X1.4326 Y68.9321
G01 X1.4099 Y68.8544
G01 X1.4032 Y68.8254
G01 X1.3999 Y68.8058
G01 X1.3967 Y68.7761
G01 X1.3956 Y68.7463
G01 X1.3956 Y1.8417
G01 X1.3961 Y1.8218
G01 X1.3986 Y1.7921
G01 X1.4014 Y1.7724
G01 X1.4052 Y1.7529
G00 Z2.0000
G00 X1.5493 Y1.7842
G01 F40.00
G01 Z-0.1300
G01 F50.00
G01 X1.5622 Y1.7253
G01 X1.5677 Y1.7058
G01 X1.5722 Y1.6931
G01 X1.5774 Y1.6806
G01 X1.5831 Y1.6683
G01 X1.5895 Y1.6564
G01 X1.5964 Y1.6448
G01 X1.6039 Y1.6336
G01 X1.6162 Y1.6175
G01 X1.6715 Y1.5536
G01 X1.6856 Y1.5392
G01 X1.6956 Y1.5303
G01 X1.7114 Y1.5178
G01 X1.7224 Y1.5101
G01 X1.7338 Y1.5030
G01 X1.7455 Y1.4964
G01 X1.7575 Y1.4905
G01 X1.7699 Y1.4851
G01 X1.7824 Y1.4804
G01 X1.7952 Y1.4763
G01 X1.8633 Y1.4563
G01 X1.8820 Y1.4515
G01 X1.8947 Y1.4491
G01 X1.9074 Y1.4472
G01 X1.9266 Y1.4456
G01 X1.9395 Y1.4453
G01 X114.4879 Y1.4453
G01 X114.5008 Y1.4456
G01 X114.5136 Y1.4465
G01 X114.5327 Y1.4491
G01 X114.5977 Y1.4629
G01 X114.6108 Y1.4661
G01 X114.6302 Y1.4721
G01 X114.6490 Y1.4796
G01 X114.6613 Y1.4853
G01 X114.6790 Y1.4950
G01 X114.6960 Y1.5061
G01 X114.7121 Y1.5184
G01 X114.7710 Y1.5692
G01 X114.7809 Y1.5783
G01 X114.7949 Y1.5927
G01 X114.8078 Y1.6082
G01 X114.8158 Y1.6190
G01 X114.8266 Y1.6360
G01 X114.8332 Y1.6477
G01 X114.8391 Y1.6597
G01 X114.8445 Y1.6721
G01 X114.8492 Y1.6846
G01 X114.8533 Y1.6974
G01 X114.8751 Y1.7717
G01 X114.8794 Y1.7905
G01 X114.8815 Y1.8032
G01 X114.8836 Y1.8224
G01 X114.8843 Y1.8417
G01 X114.8843 Y68.7463
G01 X114.8836 Y68.7656
G01 X114.8824 Y68.7784
G01 X114.8805 Y68.7911
G01 X114.8667 Y68.8561
G01 X114.8635 Y68.8692
G01 X114.8597 Y68.8822
G01 X114.8527 Y68.9012
G01 X114.8443 Y68.9197
G01 X114.8346 Y68.9374
G01 X114.8235 Y68.9544
G01 X114.8112 Y68.9705
G01 X114.7604 Y69.0294
G01 X114.7513 Y69.0393
G01 X114.7369 Y69.0533
G01 X114.7267 Y69.0620
G01 X114.7106 Y69.0742
G01 X114.6936 Y69.0850
G01 X114.6819 Y69.0916
G01 X114.6699 Y69.0975
G01 X114.6575 Y69.1029
G01 X114.6450 Y69.1076
G01 X114.6322 Y69.1117
G01 X114.5579 Y69.1335
G01 X114.5391 Y69.1378
G01 X114.5200 Y69.1408
G01 X114.5008 Y69.1424
G01 X114.4879 Y69.1427
G01 X1.9395 Y69.1427
G01 X1.9202 Y69.1420
G01 X1.9074 Y69.1408
G01 X1.8947 Y69.1389
G01 X1.8297 Y69.1251
G01 X1.8166 Y69.1219
G01 X1.8036 Y69.1181
G01 X1.7846 Y69.1111
G01 X1.7661 Y69.1027
G01 X1.7484 Y69.0930
G01 X1.7314 Y69.0819
G01 X1.7153 Y69.0696
G01 X1.6564 Y69.0188
G01 X1.6465 Y69.0097
G01 X1.6325 Y68.9953
G01 X1.6238 Y68.9851
G01 X1.6116 Y68.9690
G01 X1.6008 Y68.9520
G01 X1.5942 Y68.9403
G01 X1.5883 Y68.9283
G01 X1.5829 Y68.9159
G01 X1.5782 Y68.9034
G01 X1.5741 Y68.8906
G01 X1.5523 Y68.8163
G01 X1.5480 Y68.7975
G01 X1.5450 Y68.7784
G01 X1.5438 Y68.7656
G01 X1.5431 Y68.7463
G01 X1.5431 Y1.8417
G01 X1.5438 Y1.8224
G01 X1.5450 Y1.8096
G01 X1.5469 Y1.7969
G01 X1.5493 Y1.7842
G00 Z2.0000
G00 X1.6934 Y1.8156
G01 F40.00
G01 Z-0.1300
G01 F50.00
G01 X1.7062 Y1.7573
G01 X1.7112 Y1.7427
G01 X1.7179 Y1.7289
G01 X1.7244 Y1.7185
G01 X1.7300 Y1.7112
G01 X1.7785 Y1.6552
G01 X1.7892 Y1.6443
G01 X1.7986 Y1.6366
G01 X1.8088 Y1.6299
G01 X1.8196 Y1.6242
G01 X1.8309 Y1.6196
G01 X1.9105 Y1.5963
G01 X1.9249 Y1.5937
G01 X1.9395 Y1.5928
G01 X114.4879 Y1.5928
G01 X114.4996 Y1.5934
G01 X114.5112 Y1.5950
G01 X114.5694 Y1.6077
G01 X114.5782 Y1.6102
G01 X114.5869 Y1.6134
G01 X114.5953 Y1.6172
G01 X114.6033 Y1.6216
G01 X114.6111 Y1.6266
G01 X114.6184 Y1.6322
G01 X114.6767 Y1.6827
G01 X114.6832 Y1.6891
G01 X114.6892 Y1.6960
G01 X114.6947 Y1.7033
G01 X114.6997 Y1.7110
G01 X114.7066 Y1.7246
G01 X114.7109 Y1.7360
G01 X114.7318 Y1.8071
G01 X114.7340 Y1.8156
G01 X114.7355 Y1.8242
G01 X114.7365 Y1.8329
G01 X114.7368 Y1.8417
G01 X114.7368 Y68.7463
G01 X114.7362 Y68.7580
G01 X114.7346 Y68.7696
G01 X114.7219 Y68.8278
G01 X114.7194 Y68.8366
G01 X114.7162 Y68.8453
G01 X114.7124 Y68.8537
G01 X114.7080 Y68.8617
G01 X114.7030 Y68.8695
G01 X114.6974 Y68.8768
G01 X114.6469 Y68.9351
G01 X114.6405 Y68.9416
G01 X114.6336 Y68.9476
G01 X114.6263 Y68.9531
G01 X114.6186 Y68.9581
G01 X114.6050 Y68.9650
G01 X114.5936 Y68.9693
G01 X114.5225 Y68.9902
G01 X114.5140 Y68.9924
G01 X114.5054 Y68.9939
G01 X114.4967 Y68.9949
G01 X114.4879 Y68.9952
G01 X1.9395 Y68.9952
G01 X1.9278 Y68.9946
G01 X1.9162 Y68.9930
G01 X1.8580 Y68.9803
G01 X1.8492 Y68.9778
G01 X1.8405 Y68.9746
G01 X1.8321 Y68.9708
G01 X1.8241 Y68.9664
G01 X1.8163 Y68.9614
G01 X1.8090 Y68.9558
G01 X1.7507 Y68.9053
G01 X1.7442 Y68.8989
G01 X1.7382 Y68.8920
G01 X1.7327 Y68.8847
G01 X1.7277 Y68.8770
G01 X1.7208 Y68.8634
G01 X1.7165 Y68.8520
G01 X1.6956 Y68.7809
G01 X1.6934 Y68.7724
G01 X1.6919 Y68.7638
G01 X1.6909 Y68.7551
G01 X1.6906 Y68.7463
G01 X1.6906 Y1.8417
G01 X1.6915 Y1.8271
G01 X1.6934 Y1.8156
G00 Z2.0000
G00 X6.6779 Y5.3751
G01 F40.00
G01 Z-0.1300
G01 F50.00
G01 X6.6779 Y5.1857
G01 X6.6822 Y5.1456
G01 X6.7217 Y5.0403
G01 X6.7878 Y4.9520
G01 X6.8763 Y4.8857
G01 X6.9813 Y4.8463
G01 X7.0217 Y4.8419
G01 X7.7861 Y4.8419
G01 X7.7861 Y5.1041
G01 X7.0630 Y5.1041
G01 X7.0480 Y5.1050
G01 X7.0331 Y5.1078
G01 X7.0188 Y5.1123
G01 X7.0051 Y5.1186
G01 X6.9922 Y5.1265
G01 X6.9805 Y5.1359
G01 X6.9699 Y5.1467
G01 X6.9608 Y5.1587
G01 X6.9532 Y5.1717
G01 X6.9473 Y5.1856
G01 X6.9446 Y5.1942
G01 X6.9425 Y5.2030
G01 X6.9410 Y5.2120
G01 X6.9402 Y5.2210
G01 X6.9401 Y5.3751
G01 X6.6779 Y5.3751
G00 Z2.0000
G00 X7.4859 Y6.5474
G01 F40.00
G01 Z-0.1300
G01 F50.00
G01 X7.4748 Y6.5607
G01 X7.4669 Y6.5713
G01 X7.4596 Y6.5823
G01 X7.4527 Y6.5937
G01 X7.4465 Y6.6054
G01 X7.4408 Y6.6174
G01 X7.4357 Y6.6297
G01 X7.4313 Y6.6422
G01 X7.4274 Y6.6549
G01 X7.4242 Y6.6678
G01 X7.4216 Y6.6808
G01 X7.4197 Y6.6939
G01 X7.4184 Y6.7071
G01 X7.4177 Y6.7204
G01 X7.4176 Y6.7625
G01 X7.4125 Y6.7476
G01 X7.4075 Y6.7352
G01 X7.4018 Y6.7230
G01 X7.3922 Y6.7053
G01 X7.3851 Y6.6939
G01 X7.3774 Y6.6829
G01 X7.3649 Y6.6671
G01 X7.3560 Y6.6571
G01 X7.3465 Y6.6476
G01 X7.3366 Y6.6385
G01 X7.2829 Y6.5920
G01 X7.2671 Y6.5794
G01 X7.2504 Y6.5679
G01 X7.2388 Y6.5610
G01 X7.2269 Y6.5546
G01 X7.2112 Y6.5474
G01 X7.4859 Y6.5474
G00 Z2.0000
G00 X7.4176 Y7.6995
G01 F40.00
G01 Z-0.1300
G01 F50.00
G01 X7.4177 Y7.7336
G01 X7.4184 Y7.7469
G01 X7.4197 Y7.7601
G01 X7.4216 Y7.7732
G01 X7.4242 Y7.7862
G01 X7.4274 Y7.7991
G01 X7.4313 Y7.8118
G01 X7.4357 Y7.8243
G01 X7.4408 Y7.8366
G01 X7.4465 Y7.8486
G01 X7.4527 Y7.8603
G01 X7.4596 Y7.8717
G01 X7.4669 Y7.8827
G01 X7.4748 Y7.8933
G01 X7.4859 Y7.9066
G01 X7.2037 Y7.9066
G01 X7.2169 Y7.9020
G01 X7.2293 Y7.8970
G01 X7.2415 Y7.8913
G01 X7.2592 Y7.8817
G01 X7.2706 Y7.8746
G01 X7.2870 Y7.8629
G01 X7.2974 Y7.8544
G01 X7.3074 Y7.8455
G01 X7.3169 Y7.8360
G01 X7.3260 Y7.8261
G01 X7.3725 Y7.7724
G01 X7.3851 Y7.7566
G01 X7.3929 Y7.7456
G01 X7.4035 Y7.7283
G01 X7.4099 Y7.7164
G01 X7.4176 Y7.6995
G00 Z2.0000
G00 X6.6779 Y9.0789
G01 F40.00
G01 Z-0.1300
G01 F50.00
G01 X6.9401 Y9.0789
G01 X6.9402 Y9.2330
G01 X6.9410 Y9.2420
G01 X6.9425 Y9.2510
G01 X6.9446 Y9.2598
G01 X6.9473 Y9.2684
G01 X6.9532 Y9.2823
G01 X6.9608 Y9.2953
G01 X6.9699 Y9.3073
G01 X6.9805 Y9.3181
G01 X6.9922 Y9.3275
G01 X7.0051 Y9.3354
G01 X7.0188 Y9.3417
G01 X7.0331 Y9.3462
G01 X7.0480 Y9.3490
G01 X7.0630 Y9.3499
G01 X7.7861 Y9.3499
G01 X7.7861 Y9.6121
G01 X7.0217 Y9.6121
G01 X6.9813 Y9.6077
G01 X6.8763 Y9.5683
G01 X6.7880 Y9.5022
G01 X6.7217 Y9.4137
G01 X6.6822 Y9.3084
G01 X6.6779 Y9.2683
G01 X6.6779 Y9.0789
G00 Z2.0000
G00 X8.5399 Y9.6121
G01 F40.00
G01 Z-0.1300
G01 F50.00
G01 X8.5399 Y9.3499
G01 X9.2630 Y9.3499
G01 X9.2780 Y9.3490
G01 X9.2929 Y9.3462
G01 X9.3072 Y9.3417
G01 X9.3209 Y9.3354
G01 X9.3338 Y9.3275
G01 X9.3455 Y9.3181
G01 X9.3561 Y9.3073
G01 X9.3652 Y9.2953
G01 X9.3728 Y9.2823
G01 X9.3787 Y9.2684
G01 X9.3814 Y9.2598
G01 X9.3835 Y9.2510
G01 X9.3850 Y9.2420
G01 X9.3858 Y9.2330
G01 X9.3859 Y9.0789
G01 X9.6481 Y9.0789
G01 X9.6481 Y9.2683
G01 X9.6438 Y9.3084
G01 X9.6043 Y9.4137
G01 X9.5382 Y9.5020
G01 X9.4497 Y9.5683
G01 X9.3447 Y9.6077
G01 X9.3043 Y9.6121
G01 X8.5399 Y9.6121
G00 Z2.0000
G00 X9.4651 Y7.9974
G01 F40.00
G01 Z-0.1300
G01 F50.00
G01 X9.7485 Y7.9974
G01 X9.7336 Y8.0025
G01 X9.7212 Y8.0075
G01 X9.7090 Y8.0132
G01 X9.6971 Y8.0194
G01 X9.6855 Y8.0262
G01 X9.6743 Y8.0336
G01 X9.6635 Y8.0416
G01 X9.6531 Y8.0501
G01 X9.6383 Y8.0637
G01 X9.6290 Y8.0734
G01 X9.5737 Y8.1373
G01 X9.5654 Y8.1479
G01 X9.5576 Y8.1589
G01 X9.5462 Y8.1776
G01 X9.5334 Y8.1776
G01 X9.5326 Y8.1571
G01 X9.5313 Y8.1439
G01 X9.5294 Y8.1308
G01 X9.5268 Y8.1178
G01 X9.5236 Y8.1049
G01 X9.5197 Y8.0922
G01 X9.5153 Y8.0797
G01 X9.5102 Y8.0674
G01 X9.5045 Y8.0554
G01 X9.4949 Y8.0380
G01 X9.4878 Y8.0268
G01 X9.4802 Y8.0159
G01 X9.4720 Y8.0055
G01 X9.4651 Y7.9974
G00 Z2.0000
G00 X9.7405 Y6.4566
G01 F40.00
G01 Z-0.1300
G01 F50.00
G01 X9.4651 Y6.4566
G01 X9.4720 Y6.4485
G01 X9.4802 Y6.4381
G01 X9.4914 Y6.4217
G01 X9.5015 Y6.4045
G01 X9.5102 Y6.3866
G01 X9.5153 Y6.3743
G01 X9.5197 Y6.3618
G01 X9.5236 Y6.3491
G01 X9.5282 Y6.3297
G01 X9.5305 Y6.3167
G01 X9.5321 Y6.3035
G01 X9.5331 Y6.2903
G01 X9.5334 Y6.2764
G01 X9.5467 Y6.2764
G01 X9.5517 Y6.2865
G01 X9.5583 Y6.2982
G01 X9.5654 Y6.3096
G01 X9.5731 Y6.3206
G01 X9.5813 Y6.3313
G01 X9.5900 Y6.3415
G01 X9.5992 Y6.3512
G01 X9.6089 Y6.3605
G01 X9.6676 Y6.4115
G01 X9.6834 Y6.4241
G01 X9.6944 Y6.4319
G01 X9.7117 Y6.4425
G01 X9.7236 Y6.4489
G01 X9.7405 Y6.4566
G00 Z2.0000
G00 X8.5399 Y5.1041
G01 F40.00
G01 Z-0.1300
G01 F50.00
G01 X8.5399 Y4.8419
G01 X9.3043 Y4.8419
G01 X9.3447 Y4.8463
G01 X9.4499 Y4.8858
G01 X9.5382 Y4.9520
G01 X9.6042 Y5.0401
G01 X9.6438 Y5.1456
G01 X9.6481 Y5.1857
G01 X9.6481 Y5.3751
G01 X9.3859 Y5.3751
G01 X9.3858 Y5.2210
G01 X9.3850 Y5.2120
G01 X9.3835 Y5.2030
G01 X9.3814 Y5.1942
G01 X9.3787 Y5.1856
G01 X9.3728 Y5.1717
G01 X9.3652 Y5.1587
G01 X9.3561 Y5.1467
G01 X9.3455 Y5.1359
G01 X9.3338 Y5.1265
G01 X9.3209 Y5.1186
G01 X9.3072 Y5.1123
G01 X9.2929 Y5.1078
G01 X9.2780 Y5.1050
G01 X9.2630 Y5.1041
G01 X8.5399 Y5.1041
G00 Z2.0000
G00 X11.9693 Y6.7423
G01 F40.00
G01 Z-0.1300
G01 F50.00
G01 X11.9584 Y6.7371
G01 X11.9584 Y6.7274
G01 X11.9693 Y6.7423
G00 Z2.0000
G00 X11.7141 Y7.9961
G01 F40.00
G01 Z-0.1300
G01 F50.00
G01 X11.7164 Y7.9959
G01 X11.7193 Y7.9988
G01 X11.7178 Y7.9980
G01 X11.7141 Y7.9961
G00 Z2.0000
G00 X13.0233 Y9.3027
G01 F40.00
G01 Z-0.1300
G01 F50.00
G01 X13.0241 Y9.3036
G01 X13.0241 Y9.3053
G01 X13.0236 Y9.3037
G01 X13.0233 Y9.3027
G00 Z2.0000
G00 X8.6907 Y14.3337
G01 F40.00
G01 Z-0.1300
G01 F50.00
G01 X8.7708 Y14.2847
G01 X8.9904 Y14.1937
G01 X9.2213 Y14.1383
G01 X9.4585 Y14.1196
G01 X9.6955 Y14.1383
G01 X9.9264 Y14.1937
G01 X10.1460 Y14.2847
G01 X10.2261 Y14.3337
G01 X10.0327 Y14.5271
G01 X9.9360 Y14.4815
G01 X9.8264 Y14.4421
G01 X9.8148 Y14.4386
G01 X9.7077 Y14.4118
G01 X9.6959 Y14.4094
G01 X9.5807 Y14.3925
G01 X9.4584 Y14.3865
G01 X9.3361 Y14.3925
G01 X9.2209 Y14.4094
G01 X9.2091 Y14.4118
G01 X9.1020 Y14.4386
G01 X9.0904 Y14.4421
G01 X8.9808 Y14.4815
G01 X8.8841 Y14.5271
G01 X8.6907 Y14.3337
G00 Z2.0000
G00 X8.1577 Y14.8667
G01 F40.00
G01 Z-0.1300
G01 F50.00
G01 X8.3511 Y15.0601
G01 X8.3055 Y15.1568
G01 X8.2661 Y15.2664
G01 X8.2626 Y15.2780
G01 X8.2358 Y15.3851
G01 X8.2334 Y15.3969
G01 X8.2165 Y15.5121
G01 X8.2105 Y15.6344
G01 X8.2165 Y15.7567
G01 X8.2334 Y15.8719
G01 X8.2358 Y15.8837
G01 X8.2626 Y15.9908
G01 X8.2661 Y16.0024
G01 X8.3055 Y16.1120
G01 X8.3511 Y16.2087
G01 X8.1577 Y16.4021
G01 X8.1087 Y16.3220
G01 X8.0177 Y16.1024
G01 X7.9623 Y15.8715
G01 X7.9436 Y15.6343
G01 X7.9623 Y15.3973
G01 X8.0177 Y15.1664
G01 X8.1087 Y14.9468
G01 X8.1577 Y14.8667
G00 Z2.0000
G00 X5.4857 Y15.0601
G01 F40.00
G01 Z-0.1300
G01 F50.00
G01 X5.6791 Y14.8667
G01 X5.7281 Y14.9468
G01 X5.8190 Y15.1662
G01 X5.8745 Y15.3975
G01 X5.8932 Y15.6345
G01 X5.8745 Y15.8715
G01 X5.8190 Y16.1026
G01 X5.7281 Y16.3220
G01 X5.6791 Y16.4021
G01 X5.4857 Y16.2087
G01 X5.5313 Y16.1120
G01 X5.5707 Y16.0024
G01 X5.5742 Y15.9908
G01 X5.6010 Y15.8837
G01 X5.6034 Y15.8719
G01 X5.6203 Y15.7567
G01 X5.6263 Y15.6344
G01 X5.6203 Y15.5121
G01 X5.6034 Y15.3969
G01 X5.6010 Y15.3851
G01 X5.5742 Y15.2780
G01 X5.5707 Y15.2664
G01 X5.5313 Y15.1568
G01 X5.4857 Y15.0601
G00 Z2.0000
G00 X3.6107 Y14.3337
G01 F40.00
G01 Z-0.1300
G01 F50.00
G01 X3.6908 Y14.2847
G01 X3.9104 Y14.1937
G01 X4.1413 Y14.1383
G01 X4.3785 Y14.1196
G01 X4.6155 Y14.1383
G01 X4.8464 Y14.1937
G01 X5.0660 Y14.2847
G01 X5.1461 Y14.3337
G01 X4.9527 Y14.5271
G01 X4.8560 Y14.4815
G01 X4.7464 Y14.4421
G01 X4.7348 Y14.4386
G01 X4.6277 Y14.4118
G01 X4.6159 Y14.4094
G01 X4.5007 Y14.3925
G01 X4.3784 Y14.3865
G01 X4.2561 Y14.3925
G01 X4.1409 Y14.4094
G01 X4.1291 Y14.4118
G01 X4.0220 Y14.4386
G01 X4.0104 Y14.4421
G01 X3.9008 Y14.4815
G01 X3.8041 Y14.5271
G01 X3.6107 Y14.3337
G00 Z2.0000
G00 X2.8636 Y15.6343
G01 F40.00
G01 Z-0.1300
G01 F50.00
G01 X2.8823 Y15.3973
G01 X2.9377 Y15.1664
G01 X3.0287 Y14.9468
G01 X3.0777 Y14.8667
G01 X3.2711 Y15.0601
G01 X3.2255 Y15.1568
G01 X3.1861 Y15.2664
G01 X3.1826 Y15.2780
G01 X3.1558 Y15.3851
G01 X3.1534 Y15.3969
G01 X3.1365 Y15.5121
G01 X3.1305 Y15.6344
G01 X3.1365 Y15.7567
G01 X3.1534 Y15.8719
G01 X3.1558 Y15.8837
G01 X3.1826 Y15.9908
G01 X3.1861 Y16.0024
G01 X3.2255 Y16.1120
G01 X3.2711 Y16.2087
G01 X3.0777 Y16.4021
G01 X3.0287 Y16.3220
G01 X2.9377 Y16.1024
G01 X2.8823 Y15.8715
G01 X2.8636 Y15.6343
G00 Z2.0000
G00 X3.6107 Y16.9351
G01 F40.00
G01 Z-0.1300
G01 F50.00
G01 X3.8041 Y16.7417
G01 X3.9008 Y16.7873
G01 X4.0104 Y16.8267
G01 X4.0220 Y16.8302
G01 X4.1291 Y16.8570
G01 X4.1409 Y16.8594
G01 X4.2561 Y16.8763
G01 X4.3784 Y16.8823
G01 X4.5007 Y16.8763
G01 X4.6159 Y16.8594
G01 X4.6277 Y16.8570
G01 X4.7348 Y16.8302
G01 X4.7464 Y16.8267
G01 X4.8560 Y16.7873
G01 X4.9527 Y16.7417
G01 X5.1461 Y16.9351
G01 X5.0660 Y16.9841
G01 X4.8464 Y17.0751
G01 X4.6155 Y17.1305
G01 X4.3783 Y17.1492
G01 X4.1413 Y17.1305
G01 X3.9104 Y17.0751
G01 X3.6908 Y16.9841
G01 X3.6107 Y16.9351
G00 Z2.0000
G00 X5.4031 Y18.1744
G01 F40.00
G01 Z-0.1300
G01 F50.00
G01 X5.4218 Y17.9374
G01 X5.4773 Y17.7062
G01 X5.5683 Y17.4865
G01 X5.6925 Y17.2837
G01 X5.8469 Y17.1029
G01 X6.0277 Y16.9485
G01 X6.2305 Y16.8243
G01 X6.4502 Y16.7333
G01 X6.6814 Y16.6778
G01 X6.9184 Y16.6591
G01 X7.1554 Y16.6778
G01 X7.3866 Y16.7333
G01 X7.6063 Y16.8243
G01 X7.8091 Y16.9485
G01 X7.9899 Y17.1029
G01 X8.1443 Y17.2837
G01 X8.2124 Y17.3950
G01 X8.2173 Y17.4023
G01 X8.2226 Y17.4092
G01 X8.2326 Y17.4199
G01 X8.2897 Y17.4715
G01 X8.2991 Y17.4788
G01 X8.3092 Y17.4852
G01 X8.3198 Y17.4906
G01 X8.3310 Y17.4949
G01 X8.3425 Y17.4982
G01 X8.3972 Y17.5107
G01 X8.4093 Y17.5128
G01 X8.4246 Y17.5138
G01 X8.7983 Y17.5138
G01 X8.8100 Y17.5132
G01 X8.8244 Y17.5110
G01 X8.8329 Y17.5088
G01 X8.9068 Y17.4870
G01 X8.9209 Y17.4811
G01 X8.9341 Y17.4735
G01 X8.9463 Y17.4643
G01 X8.9573 Y17.4537
G01 X9.0078 Y17.3954
G01 X9.0133 Y17.3881
G01 X9.0183 Y17.3804
G01 X9.0227 Y17.3724
G01 X9.0276 Y17.3613
G01 X9.0306 Y17.3526
G01 X9.0335 Y17.3408
G01 X9.0450 Y17.2614
G01 X9.0459 Y17.2493
G01 X9.0455 Y17.2371
G01 X9.0444 Y17.2280
G01 X9.0427 Y17.2190
G01 X9.0403 Y17.2102
G01 X9.0360 Y17.1987
G01 X9.0040 Y17.1286
G01 X8.9997 Y17.1206
G01 X8.9931 Y17.1104
G01 X8.9835 Y17.0987
G01 X8.9771 Y17.0923
G01 X8.9702 Y17.0864
G01 X8.9184 Y17.0488
G01 X8.9077 Y17.0419
G01 X8.8935 Y17.0349
G01 X8.7708 Y16.9841
G01 X8.6907 Y16.9351
G01 X8.8841 Y16.7417
G01 X8.9808 Y16.7873
G01 X9.0904 Y16.8267
G01 X9.1020 Y16.8302
G01 X9.2091 Y16.8570
G01 X9.2209 Y16.8594
G01 X9.3361 Y16.8763
G01 X9.4584 Y16.8823
G01 X9.5807 Y16.8763
G01 X9.6959 Y16.8594
G01 X9.7077 Y16.8570
G01 X9.8148 Y16.8302
G01 X9.8264 Y16.8267
G01 X9.9360 Y16.7873
G01 X10.0327 Y16.7417
G01 X10.2261 Y16.9351
G01 X10.1460 Y16.9841
G01 X10.0233 Y17.0349
G01 X10.0101 Y17.0413
G01 X10.0026 Y17.0459
G01 X9.9955 Y17.0510
G01 X9.9379 Y17.0973
G01 X9.9310 Y17.1033
G01 X9.9205 Y17.1144
G01 X9.9132 Y17.1242
G01 X9.9055 Y17.1373
G01 X9.8994 Y17.1513
G01 X9.8760 Y17.2216
G01 X9.8734 Y17.2304
G01 X9.8715 Y17.2393
G01 X9.8703 Y17.2484
G01 X9.8697 Y17.2575
G01 X9.8700 Y17.2697
G01 X9.8711 Y17.2788
G01 X9.8728 Y17.2878
G01 X9.8911 Y17.3596
G01 X9.8937 Y17.3684
G01 X9.8994 Y17.3825
G01 X9.9052 Y17.3932
G01 X9.9121 Y17.4033
G01 X9.9199 Y17.4127
G01 X9.9264 Y17.4191
G01 X9.9806 Y17.4696
G01 X9.9925 Y17.4789
G01 X10.0028 Y17.4852
G01 X10.0137 Y17.4905
G01 X10.0280 Y17.4956
G01 X10.0965 Y17.5118
G01 X10.1059 Y17.5131
G01 X10.1185 Y17.5138
G01 X12.3659 Y17.5137
G01 X12.3776 Y17.5125
G01 X12.3919 Y17.5096
G01 X12.4628 Y17.4888
G01 X12.4715 Y17.4859
G01 X12.4800 Y17.4824
G01 X12.4934 Y17.4751
G01 X12.5058 Y17.4662
G01 X12.5127 Y17.4602
G01 X12.5191 Y17.4537
G01 X12.5696 Y17.3954
G01 X12.5752 Y17.3881
G01 X12.5817 Y17.3777
G01 X12.5884 Y17.3639
G01 X12.5934 Y17.3493
G01 X12.6068 Y17.2882
G01 X12.6087 Y17.2737
G01 X12.6090 Y17.2649
G01 X12.6090 Y16.8962
G01 X12.6179 Y16.8101
G01 X12.6651 Y16.6687
G01 X12.7431 Y16.5427
G01 X12.8380 Y16.4479
G01 X12.8457 Y16.4391
G01 X12.8540 Y16.4271
G01 X12.8924 Y16.3571
G01 X12.8985 Y16.3433
G01 X12.9021 Y16.3317
G01 X12.9046 Y16.3199
G01 X12.9083 Y16.2871
G01 X12.9090 Y16.2772
G01 X12.9090 Y9.4543
G01 X12.9081 Y9.4397
G01 X12.9055 Y9.4254
G01 X12.8840 Y9.3516
G01 X12.8812 Y9.3430
G01 X12.8777 Y9.3347
G01 X12.8736 Y9.3266
G01 X12.8689 Y9.3188
G01 X12.8637 Y9.3115
G01 X12.8449 Y9.2881
G01 X12.8361 Y9.2783
G01 X11.7412 Y8.1835
G01 X11.7323 Y8.1758
G01 X11.7203 Y8.1675
G01 X11.6503 Y8.1291
G01 X11.6393 Y8.1241
G01 X11.6308 Y8.1211
G01 X11.6221 Y8.1187
G01 X11.6132 Y8.1170
G01 X11.5804 Y8.1133
G01 X11.5673 Y8.1126
G01 X9.8970 Y8.1126
G01 X9.8853 Y8.1132
G01 X9.8766 Y8.1143
G01 X9.8652 Y8.1168
G01 X9.7943 Y8.1376
G01 X9.7856 Y8.1405
G01 X9.7744 Y8.1453
G01 X9.7637 Y8.1513
G01 X9.7561 Y8.1564
G01 X9.7467 Y8.1641
G01 X9.7360 Y8.1750
G01 X9.6875 Y8.2310
G01 X9.6819 Y8.2383
G01 X9.6754 Y8.2487
G01 X9.6699 Y8.2597
G01 X9.6646 Y8.2741
G01 X9.6623 Y8.2830
G01 X9.6531 Y8.3251
G01 X9.3859 Y8.3251
G01 X9.3858 Y8.1710
G01 X9.3846 Y8.1590
G01 X9.3829 Y8.1501
G01 X9.3806 Y8.1413
G01 X9.3777 Y8.1328
G01 X9.3741 Y8.1245
G01 X9.3699 Y8.1164
G01 X9.3617 Y8.1038
G01 X9.3520 Y8.0923
G01 X9.3455 Y8.0859
G01 X9.3386 Y8.0801
G01 X9.3313 Y8.0748
G01 X9.3236 Y8.0701
G01 X9.3100 Y8.0635
G01 X9.3016 Y8.0603
G01 X9.2929 Y8.0578
G01 X9.2780 Y8.0550
G01 X9.2630 Y8.0541
G01 X7.0570 Y8.0542
G01 X7.0480 Y8.0550
G01 X7.0390 Y8.0565
G01 X7.0302 Y8.0586
G01 X7.0216 Y8.0613
G01 X7.0077 Y8.0672
G01 X6.9998 Y8.0716
G01 X6.9922 Y8.0765
G01 X6.9850 Y8.0820
G01 X6.9783 Y8.0880
G01 X6.9680 Y8.0990
G01 X6.9625 Y8.1062
G01 X6.9576 Y8.1138
G01 X6.9506 Y8.1272
G01 X6.9473 Y8.1356
G01 X6.9438 Y8.1471
G01 X6.9414 Y8.1590
G01 X6.9402 Y8.1710
G01 X6.9401 Y8.3251
G01 X6.6779 Y8.3251
G01 X6.6779 Y8.1357
G01 X6.6823 Y8.0953
G01 X6.7217 Y7.9903
G01 X6.7878 Y7.9020
G01 X6.8763 Y7.8357
G01 X6.9813 Y7.7963
G01 X7.0215 Y7.7919
G01 X7.0593 Y7.7918
G01 X7.0681 Y7.7910
G01 X7.0768 Y7.7897
G01 X7.0881 Y7.7869
G01 X7.1592 Y7.7660
G01 X7.1706 Y7.7617
G01 X7.1788 Y7.7578
G01 X7.1893 Y7.7516
G01 X7.1968 Y7.7462
G01 X7.2061 Y7.7383
G01 X7.2125 Y7.7318
G01 X7.2649 Y7.6711
G01 X7.2736 Y7.6584
G01 X7.2806 Y7.6448
G01 X7.2850 Y7.6333
G01 X7.2882 Y7.6215
G01 X7.3002 Y7.5663
G01 X7.3018 Y7.5547
G01 X7.3024 Y7.5459
G01 X7.3024 Y6.9110
G01 X7.3021 Y6.9022
G01 X7.3011 Y6.8935
G01 X7.2996 Y6.8849
G01 X7.2974 Y6.8764
G01 X7.2765 Y6.8053
G01 X7.2710 Y6.7911
G01 X7.2653 Y6.7803
G01 X7.2567 Y6.7677
G01 X7.2509 Y6.7607
G01 X7.2445 Y6.7541
G01 X7.1863 Y6.7035
G01 X7.1767 Y6.6959
G01 X7.1689 Y6.6909
G01 X7.1609 Y6.6865
G01 X7.1525 Y6.6827
G01 X7.1438 Y6.6795
G01 X7.1320 Y6.6763
G01 X7.0768 Y6.6643
G01 X7.0681 Y6.6630
G01 X7.0593 Y6.6622
G01 X7.0215 Y6.6621
G01 X6.9813 Y6.6577
G01 X6.8763 Y6.6183
G01 X6.7878 Y6.5520
G01 X6.7217 Y6.4637
G01 X6.6823 Y6.3587
G01 X6.6779 Y6.3183
G01 X6.6779 Y6.1289
G01 X6.9401 Y6.1289
G01 X6.9402 Y6.2830
G01 X6.9414 Y6.2950
G01 X6.9438 Y6.3069
G01 X6.9473 Y6.3184
G01 X6.9506 Y6.3268
G01 X6.9546 Y6.3349
G01 X6.9592 Y6.3428
G01 X6.9680 Y6.3550
G01 X6.9740 Y6.3617
G01 X6.9805 Y6.3681
G01 X6.9874 Y6.3739
G01 X6.9947 Y6.3792
G01 X7.0024 Y6.3839
G01 X7.0105 Y6.3881
G01 X7.0244 Y6.3937
G01 X7.0390 Y6.3975
G01 X7.0480 Y6.3990
G01 X7.0570 Y6.3998
G01 X9.2630 Y6.3999
G01 X9.2780 Y6.3990
G01 X9.2929 Y6.3962
G01 X9.3016 Y6.3937
G01 X9.3100 Y6.3905
G01 X9.3236 Y6.3839
G01 X9.3313 Y6.3792
G01 X9.3386 Y6.3739
G01 X9.3455 Y6.3681
G01 X9.3520 Y6.3617
G01 X9.3617 Y6.3502
G01 X9.3699 Y6.3376
G01 X9.3741 Y6.3295
G01 X9.3777 Y6.3212
G01 X9.3806 Y6.3127
G01 X9.3835 Y6.3010
G01 X9.3850 Y6.2920
G01 X9.3858 Y6.2830
G01 X9.3859 Y6.1289
G01 X9.6536 Y6.1289
G01 X9.6731 Y6.1952
G01 X9.6783 Y6.2096
G01 X9.6837 Y6.2205
G01 X9.6919 Y6.2334
G01 X9.6996 Y6.2428
G01 X9.7082 Y6.2515
G01 X9.7665 Y6.3020
G01 X9.7764 Y6.3093
G01 X9.7896 Y6.3170
G01 X9.8009 Y6.3220
G01 X9.8155 Y6.3265
G01 X9.8709 Y6.3386
G01 X9.8853 Y6.3408
G01 X9.8970 Y6.3414
G01 X11.7295 Y6.3414
G01 X11.7697 Y6.3458
G01 X11.8751 Y6.3853
G01 X11.9635 Y6.4515
G01 X12.0297 Y6.5399
G01 X12.0519 Y6.5991
G01 X12.0556 Y6.6074
G01 X12.0599 Y6.6153
G01 X12.0666 Y6.6255
G01 X12.1057 Y6.6791
G01 X12.1111 Y6.6860
G01 X12.1170 Y6.6926
G01 X12.1234 Y6.6987
G01 X12.1301 Y6.7042
G01 X12.2421 Y6.8154
G01 X12.2483 Y6.8220
G01 X14.0303 Y8.6041
G01 X14.0848 Y8.6574
G01 X14.1017 Y8.6836
G01 X14.1109 Y8.6965
G01 X14.1321 Y8.7234
G01 X14.1419 Y8.7433
G01 X14.1512 Y8.7600
G01 X14.1651 Y8.7820
G01 X14.1769 Y8.8141
G01 X14.1831 Y8.8287
G01 X14.1966 Y8.8568
G01 X14.2027 Y8.8821
G01 X14.2082 Y8.9004
G01 X14.2157 Y8.9213
G01 X14.2202 Y8.9552
G01 X14.2230 Y8.9709
G01 X14.2300 Y9.0012
G01 X14.2305 Y9.1564
G01 X14.2302 Y9.1655
G01 X14.2302 Y16.2766
G01 X14.2308 Y16.2854
G01 X14.2319 Y16.2941
G01 X14.2352 Y16.3083
G01 X14.2561 Y16.3793
G01 X14.2603 Y16.3906
G01 X14.2656 Y16.4014
G01 X14.2703 Y16.4092
G01 X14.2755 Y16.4165
G01 X14.2942 Y16.4398
G01 X14.3007 Y16.4472
G01 X14.3968 Y16.5436
G01 X14.4746 Y16.6698
G01 X14.5215 Y16.8113
G01 X14.5302 Y16.8961
G01 X14.5302 Y18.2842
G01 X14.5213 Y18.3703
G01 X14.4741 Y18.5117
G01 X14.3961 Y18.6377
G01 X14.2912 Y18.7424
G01 X14.1650 Y18.8202
G01 X14.0235 Y18.8671
G01 X13.9387 Y18.8758
G01 X13.2006 Y18.8758
G01 X13.1145 Y18.8669
G01 X13.0576 Y18.8479
G01 X13.0466 Y18.8448
G01 X13.0382 Y18.8431
G01 X12.9950 Y18.8362
G01 X12.9808 Y18.8351
G01 X10.1185 Y18.8350
G01 X10.1039 Y18.8359
G01 X10.0895 Y18.8385
G01 X10.0100 Y18.8618
G01 X9.9959 Y18.8677
G01 X9.9852 Y18.8737
G01 X9.9728 Y18.8826
G01 X9.9616 Y18.8929
G01 X9.9110 Y18.9511
G01 X9.9018 Y18.9632
G01 X9.8955 Y18.9737
G01 X9.8892 Y18.9875
G01 X9.8854 Y18.9991
G01 X9.8823 Y19.0141
G01 X9.8721 Y19.0843
G01 X9.8712 Y19.0934
G01 X9.8710 Y19.1056
G01 X9.8724 Y19.1208
G01 X9.8757 Y19.1357
G01 X9.8808 Y19.1501
G01 X9.9115 Y19.2175
G01 X9.9156 Y19.2256
G01 X9.9219 Y19.2359
G01 X9.9273 Y19.2432
G01 X9.9354 Y19.2523
G01 X9.9419 Y19.2585
G01 X9.9514 Y19.2661
G01 X9.9984 Y19.3000
G01 X10.0118 Y19.3084
G01 X10.0233 Y19.3139
G01 X10.1460 Y19.3647
G01 X10.2261 Y19.4137
G01 X10.0327 Y19.6071
G01 X9.9360 Y19.5615
G01 X9.8264 Y19.5221
G01 X9.8148 Y19.5186
G01 X9.7077 Y19.4918
G01 X9.6959 Y19.4894
G01 X9.5807 Y19.4725
G01 X9.4584 Y19.4665
G01 X9.3361 Y19.4725
G01 X9.2209 Y19.4894
G01 X9.2091 Y19.4918
G01 X9.1020 Y19.5186
G01 X9.0904 Y19.5221
G01 X8.9808 Y19.5615
G01 X8.8841 Y19.6071
G01 X8.6907 Y19.4137
G01 X8.7708 Y19.3647
G01 X8.8935 Y19.3139
G01 X8.9015 Y19.3102
G01 X8.9092 Y19.3060
G01 X8.9213 Y19.2978
G01 X8.9813 Y19.2495
G01 X8.9923 Y19.2389
G01 X9.0019 Y19.2271
G01 X9.0069 Y19.2195
G01 X9.0113 Y19.2115
G01 X9.0152 Y19.2031
G01 X9.0184 Y19.1946
G01 X9.0426 Y19.1214
G01 X9.0458 Y19.1065
G01 X9.0470 Y19.0943
G01 X9.0471 Y19.0852
G01 X9.0465 Y19.0760
G01 X9.0452 Y19.0670
G01 X9.0433 Y19.0580
G01 X9.0241 Y18.9833
G01 X9.0187 Y18.9691
G01 X9.0116 Y18.9556
G01 X9.0028 Y18.9431
G01 X8.9926 Y18.9318
G01 X8.9362 Y18.8792
G01 X8.9267 Y18.8717
G01 X8.9192 Y18.8666
G01 X8.9058 Y18.8595
G01 X8.8917 Y18.8540
G01 X8.8830 Y18.8516
G01 X8.8235 Y18.8376
G01 X8.8109 Y18.8357
G01 X8.7983 Y18.8350
G01 X8.4246 Y18.8350
G01 X8.4159 Y18.8353
G01 X8.4072 Y18.8363
G01 X8.3985 Y18.8378
G01 X8.3900 Y18.8400
G01 X8.3219 Y18.8600
G01 X8.3134 Y18.8628
G01 X8.3024 Y18.8675
G01 X8.2945 Y18.8718
G01 X8.2870 Y18.8766
G01 X8.2775 Y18.8838
G01 X8.2687 Y18.8919
G01 X8.2294 Y18.9321
G01 X8.2232 Y18.9389
G01 X8.2175 Y18.9462
G01 X8.2124 Y18.9538
G01 X8.1443 Y19.0651
G01 X7.9899 Y19.2459
G01 X7.8091 Y19.4003
G01 X7.6063 Y19.5245
G01 X7.3866 Y19.6155
G01 X7.1554 Y19.6710
G01 X6.9184 Y19.6897
G01 X6.6814 Y19.6710
G01 X6.4502 Y19.6155
G01 X6.2305 Y19.5245
G01 X6.0277 Y19.4003
G01 X5.8469 Y19.2459
G01 X5.6925 Y19.0651
G01 X5.5683 Y18.8623
G01 X5.4773 Y18.6426
G01 X5.4218 Y18.4114
G01 X5.4031 Y18.1744
G00 Z2.0000
G00 X5.6772 Y18.0461
G01 F40.00
G01 Z-0.1300
G01 F50.00
G01 X5.6945 Y17.9309
G01 X5.7242 Y17.8122
G01 X5.7655 Y17.6968
G01 X5.8179 Y17.5861
G01 X5.8808 Y17.4811
G01 X5.9538 Y17.3827
G01 X6.0360 Y17.2920
G01 X6.1222 Y17.2137
G01 X6.1315 Y17.2060
G01 X6.2202 Y17.1403
G01 X6.2302 Y17.1336
G01 X6.3301 Y17.0739
G01 X6.4353 Y17.0239
G01 X6.4465 Y17.0193
G01 X6.5562 Y16.9802
G01 X6.6749 Y16.9505
G01 X6.7961 Y16.9325
G01 X6.9124 Y16.9266
G01 X6.9244 Y16.9266
G01 X7.0347 Y16.9321
G01 X7.0467 Y16.9332
G01 X7.1619 Y16.9505
G01 X7.2806 Y16.9802
G01 X7.3960 Y17.0215
G01 X7.5013 Y17.0711
G01 X7.5119 Y17.0768
G01 X7.6066 Y17.1336
G01 X7.6142 Y17.1385
G01 X7.7101 Y17.2098
G01 X7.7964 Y17.2878
G01 X7.8050 Y17.2964
G01 X7.8791 Y17.3782
G01 X7.8849 Y17.3851
G01 X7.9560 Y17.4811
G01 X8.0189 Y17.5861
G01 X8.0713 Y17.6968
G01 X8.0999 Y17.7764
G01 X12.8205 Y17.7764
G01 X12.8717 Y17.7252
G01 X12.8717 Y16.9372
G01 X12.8732 Y16.9067
G01 X12.8742 Y16.8977
G01 X12.8789 Y16.8675
G01 X12.8861 Y16.8378
G01 X12.8896 Y16.8262
G01 X12.9001 Y16.7975
G01 X12.9130 Y16.7698
G01 X12.9187 Y16.7592
G01 X12.9345 Y16.7330
G01 X12.9545 Y16.7060
G01 X12.9768 Y16.6809
G01 X12.9853 Y16.6724
G01 X13.0080 Y16.6519
G01 X13.0325 Y16.6336
G01 X13.0425 Y16.6269
G01 X13.0688 Y16.6113
G01 X13.0964 Y16.5981
G01 X13.1075 Y16.5935
G01 X13.1364 Y16.5834
G01 X13.1716 Y16.5745
G01 X13.1716 Y9.2425
G01 X11.7575 Y7.8284
G01 X11.7486 Y7.8339
G01 X11.7405 Y7.8381
G01 X11.7322 Y7.8417
G01 X11.7237 Y7.8446
G01 X11.7149 Y7.8469
G01 X11.7060 Y7.8486
G01 X11.6970 Y7.8496
G01 X11.6880 Y7.8499
G01 X7.6850 Y7.8499
G01 X7.6730 Y7.8490
G01 X7.6640 Y7.8475
G01 X7.6523 Y7.8446
G01 X7.6410 Y7.8405
G01 X7.6301 Y7.8354
G01 X7.6222 Y7.8308
G01 X7.6124 Y7.8239
G01 X7.6033 Y7.8160
G01 X7.5949 Y7.8073
G01 X7.5893 Y7.8002
G01 X7.5842 Y7.7928
G01 X7.5782 Y7.7823
G01 X7.5745 Y7.7740
G01 X7.5704 Y7.7627
G01 X7.5675 Y7.7510
G01 X7.5657 Y7.7390
G01 X7.5651 Y7.7270
G01 X7.5651 Y6.7270
G01 X7.5654 Y6.7180
G01 X7.5664 Y6.7090
G01 X7.5681 Y6.7001
G01 X7.5704 Y6.6913
G01 X7.5733 Y6.6828
G01 X7.5769 Y6.6745
G01 X7.5826 Y6.6638
G01 X7.5875 Y6.6562
G01 X7.5930 Y6.6490
G01 X7.5990 Y6.6423
G01 X7.6055 Y6.6359
G01 X7.6124 Y6.6301
G01 X7.6197 Y6.6248
G01 X7.6274 Y6.6201
G01 X7.6382 Y6.6146
G01 X7.6466 Y6.6113
G01 X7.6552 Y6.6086
G01 X7.6640 Y6.6065
G01 X7.6730 Y6.6050
G01 X7.6880 Y6.6041
G01 X11.6880 Y6.6041
G01 X11.7030 Y6.6050
G01 X11.7179 Y6.6078
G01 X11.7322 Y6.6123
G01 X11.7459 Y6.6186
G01 X11.7563 Y6.6248
G01 X11.7660 Y6.6320
G01 X11.7749 Y6.6401
G01 X11.7830 Y6.6490
G01 X11.7902 Y6.6587
G01 X11.7964 Y6.6691
G01 X11.8015 Y6.6800
G01 X11.8056 Y6.6913
G01 X11.8079 Y6.7001
G01 X11.8096 Y6.7090
G01 X11.8109 Y6.7240
G01 X11.8109 Y6.8400
G01 X11.8345 Y6.8461
G01 X11.8685 Y6.8581
G01 X11.9012 Y6.8733
G01 X11.9093 Y6.8774
G01 X11.9401 Y6.8960
G01 X11.9668 Y6.9156
G01 X11.9738 Y6.9213
G01 X11.9983 Y6.9434
G01 X13.8511 Y8.7961
G01 X13.8733 Y8.8205
G01 X13.8810 Y8.8298
G01 X13.9006 Y8.8565
G01 X13.9206 Y8.8900
G01 X13.9349 Y8.9198
G01 X13.9395 Y8.9309
G01 X13.9505 Y8.9621
G01 X13.9600 Y8.9999
G01 X13.9657 Y9.0386
G01 X13.9676 Y9.0776
G01 X13.9676 Y16.5745
G01 X14.0028 Y16.5834
G01 X14.0317 Y16.5935
G01 X14.0428 Y16.5981
G01 X14.0704 Y16.6113
G01 X14.1018 Y16.6301
G01 X14.1264 Y16.6482
G01 X14.1357 Y16.6559
G01 X14.1561 Y16.6744
G01 X14.1624 Y16.6809
G01 X14.1829 Y16.7036
G01 X14.2029 Y16.7305
G01 X14.2205 Y16.7592
G01 X14.2262 Y16.7698
G01 X14.2391 Y16.7975
G01 X14.2514 Y16.8320
G01 X14.2603 Y16.8675
G01 X14.2650 Y16.8977
G01 X14.2661 Y16.9097
G01 X14.2675 Y16.9402
G01 X14.2675 Y18.2432
G01 X14.2660 Y18.2737
G01 X14.2650 Y18.2827
G01 X14.2603 Y18.3129
G01 X14.2531 Y18.3426
G01 X14.2496 Y18.3542
G01 X14.2391 Y18.3829
G01 X14.2235 Y18.4160
G01 X14.2079 Y18.4423
G01 X14.2012 Y18.4523
G01 X14.1829 Y18.4768
G01 X14.1624 Y18.4995
G01 X14.1539 Y18.5080
G01 X14.1312 Y18.5285
G01 X14.1067 Y18.5468
G01 X14.0967 Y18.5535
G01 X14.0704 Y18.5691
G01 X14.0428 Y18.5823
G01 X14.0317 Y18.5869
G01 X14.0028 Y18.5970
G01 X13.9732 Y18.6046
G01 X13.9614 Y18.6070
G01 X13.9312 Y18.6113
G01 X13.8976 Y18.6131
G01 X13.2446 Y18.6131
G01 X13.2141 Y18.6117
G01 X13.2021 Y18.6106
G01 X13.1719 Y18.6059
G01 X13.1364 Y18.5970
G01 X13.1075 Y18.5869
G01 X13.0991 Y18.5835
G01 X13.0715 Y18.5705
G01 X13.0618 Y18.5650
G01 X13.0244 Y18.5705
G01 X12.9854 Y18.5724
G01 X8.0999 Y18.5724
G01 X8.0713 Y18.6520
G01 X8.0189 Y18.7627
G01 X7.9560 Y18.8677
G01 X7.8849 Y18.9637
G01 X7.8791 Y18.9706
G01 X7.8050 Y19.0524
G01 X7.7964 Y19.0610
G01 X7.7101 Y19.1390
G01 X7.6142 Y19.2103
G01 X7.6066 Y19.2152
G01 X7.5119 Y19.2720
G01 X7.5013 Y19.2777
G01 X7.3960 Y19.3273
G01 X7.2806 Y19.3686
G01 X7.1619 Y19.3983
G01 X7.0467 Y19.4156
G01 X7.0347 Y19.4167
G01 X6.9244 Y19.4222
G01 X6.9124 Y19.4222
G01 X6.7961 Y19.4163
G01 X6.6749 Y19.3983
G01 X6.5562 Y19.3686
G01 X6.4465 Y19.3295
G01 X6.4353 Y19.3249
G01 X6.3301 Y19.2749
G01 X6.2302 Y19.2152
G01 X6.2202 Y19.2085
G01 X6.1315 Y19.1428
G01 X6.1222 Y19.1351
G01 X6.0360 Y19.0568
G01 X5.9577 Y18.9706
G01 X5.9500 Y18.9613
G01 X5.8808 Y18.8677
G01 X5.8179 Y18.7627
G01 X5.7655 Y18.6520
G01 X5.7242 Y18.5366
G01 X5.6945 Y18.4179
G01 X5.6765 Y18.2967
G01 X5.6705 Y18.1744
G01 X5.6761 Y18.0581
G01 X5.6772 Y18.0461
G00 Z2.0000
G00 X5.4857 Y20.1401
G01 F40.00
G01 Z-0.1300
G01 F50.00
G01 X5.6791 Y19.9467
G01 X5.7281 Y20.0268
G01 X5.8190 Y20.2462
G01 X5.8745 Y20.4775
G01 X5.8932 Y20.7145
G01 X5.8745 Y20.9515
G01 X5.8190 Y21.1826
G01 X5.7281 Y21.4020
G01 X5.6791 Y21.4821
G01 X5.4857 Y21.2887
G01 X5.5313 Y21.1920
G01 X5.5707 Y21.0824
G01 X5.5742 Y21.0708
G01 X5.6010 Y20.9637
G01 X5.6034 Y20.9519
G01 X5.6203 Y20.8367
G01 X5.6263 Y20.7144
G01 X5.6203 Y20.5921
G01 X5.6034 Y20.4769
G01 X5.6010 Y20.4651
G01 X5.5742 Y20.3580
G01 X5.5707 Y20.3464
G01 X5.5313 Y20.2368
G01 X5.4857 Y20.1401
G00 Z2.0000
G00 X3.6107 Y19.4137
G01 F40.00
G01 Z-0.1300
G01 F50.00
G01 X3.6908 Y19.3647
G01 X3.9104 Y19.2737
G01 X4.1413 Y19.2183
G01 X4.3785 Y19.1996
G01 X4.6155 Y19.2183
G01 X4.8464 Y19.2737
G01 X5.0660 Y19.3647
G01 X5.1461 Y19.4137
G01 X4.9527 Y19.6071
G01 X4.8560 Y19.5615
G01 X4.7464 Y19.5221
G01 X4.7348 Y19.5186
G01 X4.6277 Y19.4918
G01 X4.6159 Y19.4894
G01 X4.5007 Y19.4725
G01 X4.3784 Y19.4665
G01 X4.2561 Y19.4725
G01 X4.1409 Y19.4894
G01 X4.1291 Y19.4918
G01 X4.0220 Y19.5186
G01 X4.0104 Y19.5221
G01 X3.9008 Y19.5615
G01 X3.8041 Y19.6071
G01 X3.6107 Y19.4137
G00 Z2.0000
G00 X2.8636 Y20.7143
G01 F40.00
G01 Z-0.1300
G01 F50.00
G01 X2.8823 Y20.4773
G01 X2.9377 Y20.2464
G01 X3.0287 Y20.0268
G01 X3.0777 Y19.9467
G01 X3.2711 Y20.1401
G01 X3.2255 Y20.2368
G01 X3.1861 Y20.3464
G01 X3.1826 Y20.3580
G01 X3.1558 Y20.4651
G01 X3.1534 Y20.4769
G01 X3.1365 Y20.5921
G01 X3.1305 Y20.7144
G01 X3.1365 Y20.8367
G01 X3.1534 Y20.9519
G01 X3.1558 Y20.9637
G01 X3.1826 Y21.0708
G01 X3.1861 Y21.0824
G01 X3.2255 Y21.1920
G01 X3.2711 Y21.2887
G01 X3.0777 Y21.4821
G01 X3.0287 Y21.4020
G01 X2.9377 Y21.1824
G01 X2.8823 Y20.9515
G01 X2.8636 Y20.7143
G00 Z2.0000
G00 X3.6107 Y22.0151
G01 F40.00
G01 Z-0.1300
G01 F50.00
G01 X3.8041 Y21.8217
G01 X3.9008 Y21.8673
G01 X4.0104 Y21.9067
G01 X4.0220 Y21.9102
G01 X4.1291 Y21.9370
G01 X4.1409 Y21.9394
G01 X4.2561 Y21.9563
G01 X4.3784 Y21.9623
G01 X4.5007 Y21.9563
G01 X4.6159 Y21.9394
G01 X4.6277 Y21.9370
G01 X4.7348 Y21.9102
G01 X4.7464 Y21.9067
G01 X4.8560 Y21.8673
G01 X4.9527 Y21.8217
G01 X5.1461 Y22.0151
G01 X5.0660 Y22.0641
G01 X4.8464 Y22.1551
G01 X4.6155 Y22.2105
G01 X4.3783 Y22.2292
G01 X4.1413 Y22.2105
G01 X3.9104 Y22.1551
G01 X3.6908 Y22.0641
G01 X3.6107 Y22.0151
G00 Z2.0000
G00 X8.1577 Y19.9467
G01 F40.00
G01 Z-0.1300
G01 F50.00
G01 X8.3511 Y20.1401
G01 X8.3055 Y20.2368
G01 X8.2661 Y20.3464
G01 X8.2626 Y20.3580
G01 X8.2358 Y20.4651
G01 X8.2334 Y20.4769
G01 X8.2165 Y20.5921
G01 X8.2105 Y20.7144
G01 X8.2165 Y20.8367
G01 X8.2334 Y20.9519
G01 X8.2358 Y20.9637
G01 X8.2626 Y21.0708
G01 X8.2661 Y21.0824
G01 X8.3055 Y21.1920
G01 X8.3511 Y21.2887
G01 X8.1577 Y21.4821
G01 X8.1087 Y21.4020
G01 X8.0177 Y21.1824
G01 X7.9623 Y20.9515
G01 X7.9436 Y20.7143
G01 X7.9623 Y20.4773
G01 X8.0177 Y20.2464
G01 X8.1087 Y20.0268
G01 X8.1577 Y19.9467
G00 Z2.0000
G00 X8.1754 Y18.7772
G01 F40.00
G01 Z-0.1300
G01 F50.00
G01 X8.2025 Y18.7199
G01 X8.2757 Y18.7199
G01 X8.2617 Y18.7247
G01 X8.2495 Y18.7296
G01 X8.2375 Y18.7351
G01 X8.2201 Y18.7444
G01 X8.2090 Y18.7513
G01 X8.1981 Y18.7588
G01 X8.1877 Y18.7667
G01 X8.1754 Y18.7772
G00 Z2.0000
G00 X8.9544 Y18.7199
G01 F40.00
G01 Z-0.1300
G01 F50.00
G01 X9.9695 Y18.7199
G01 X9.9551 Y18.7249
G01 X9.9365 Y18.7327
G01 X9.9186 Y18.7418
G01 X9.9014 Y18.7523
G01 X9.8904 Y18.7600
G01 X9.8746 Y18.7725
G01 X9.8598 Y18.7861
G01 X9.8461 Y18.8008
G01 X9.7952 Y18.8596
G01 X9.7830 Y18.8756
G01 X9.7720 Y18.8925
G01 X9.7654 Y18.9042
G01 X9.7594 Y18.9162
G01 X9.7515 Y18.9347
G01 X9.7470 Y18.9474
G01 X9.7431 Y18.9602
G01 X9.7399 Y18.9733
G01 X9.7373 Y18.9864
G01 X9.7253 Y19.0700
G01 X9.7240 Y19.0834
G01 X9.7235 Y19.0968
G01 X9.7238 Y19.1169
G01 X9.7257 Y19.1370
G01 X9.7291 Y19.1568
G01 X9.7339 Y19.1764
G01 X9.7402 Y19.1955
G01 X9.7479 Y19.2142
G01 X9.7802 Y19.2848
G01 X9.7896 Y19.3024
G01 X9.7966 Y19.3138
G01 X9.8041 Y19.3247
G01 X9.8164 Y19.3405
G01 X9.8252 Y19.3505
G01 X9.8346 Y19.3600
G01 X9.8443 Y19.3691
G01 X9.8526 Y19.3761
G01 X9.7436 Y19.3487
G01 X9.7306 Y19.3458
G01 X9.7175 Y19.3436
G01 X9.6083 Y19.3274
G01 X9.5952 Y19.3257
G01 X9.5819 Y19.3248
G01 X9.4717 Y19.3193
G01 X9.4584 Y19.3190
G01 X9.4451 Y19.3193
G01 X9.3349 Y19.3248
G01 X9.3216 Y19.3257
G01 X9.3085 Y19.3274
G01 X9.1993 Y19.3436
G01 X9.1862 Y19.3458
G01 X9.1732 Y19.3487
G01 X9.0568 Y19.3781
G01 X9.0766 Y19.3620
G01 X9.0866 Y19.3531
G01 X9.1008 Y19.3388
G01 X9.1139 Y19.3234
G01 X9.1219 Y19.3127
G01 X9.1330 Y19.2959
G01 X9.1428 Y19.2783
G01 X9.1513 Y19.2600
G01 X9.1583 Y19.2411
G01 X9.1807 Y19.1738
G01 X9.1864 Y19.1545
G01 X9.1893 Y19.1414
G01 X9.1926 Y19.1215
G01 X9.1939 Y19.1081
G01 X9.1945 Y19.0947
G01 X9.1942 Y19.0746
G01 X9.1932 Y19.0612
G01 X9.1915 Y19.0478
G01 X9.1892 Y19.0346
G01 X9.1862 Y19.0215
G01 X9.1669 Y18.9463
G01 X9.1607 Y18.9271
G01 X9.1531 Y18.9084
G01 X9.1442 Y18.8904
G01 X9.1374 Y18.8788
G01 X9.1263 Y18.8620
G01 X9.1182 Y18.8513
G01 X9.1096 Y18.8410
G01 X9.0957 Y18.8264
G01 X9.0389 Y18.7733
G01 X9.0290 Y18.7645
G01 X9.0186 Y18.7562
G01 X9.0078 Y18.7483
G01 X8.9909 Y18.7376
G01 X8.9732 Y18.7282
G01 X8.9544 Y18.7199
G00 Z2.0000
G00 X9.2958 Y18.8674
G01 F40.00
G01 Z-0.1300
G01 F50.00
G01 X9.6197 Y18.8674
G01 X9.6138 Y18.8819
G01 X9.6068 Y18.9014
G01 X9.6008 Y18.9213
G01 X9.5959 Y18.9415
G01 X9.5919 Y18.9618
G01 X9.5903 Y18.9721
G01 X9.5788 Y19.0527
G01 X9.5777 Y19.0630
G01 X9.5763 Y19.0837
G01 X9.5759 Y19.1044
G01 X9.5761 Y19.1148
G01 X9.5766 Y19.1252
G01 X9.5783 Y19.1459
G01 X9.5810 Y19.1664
G01 X9.5828 Y19.1771
G01 X9.4789 Y19.1720
G01 X9.4584 Y19.1715
G01 X9.4379 Y19.1720
G01 X9.3325 Y19.1772
G01 X9.3359 Y19.1600
G01 X9.3389 Y19.1395
G01 X9.3401 Y19.1292
G01 X9.3416 Y19.1085
G01 X9.3421 Y19.0877
G01 X9.3415 Y19.0670
G01 X9.3399 Y19.0463
G01 X9.3388 Y19.0360
G01 X9.3357 Y19.0155
G01 X9.3315 Y18.9951
G01 X9.3291 Y18.9851
G01 X9.3088 Y18.9062
G01 X9.3027 Y18.8864
G01 X9.2958 Y18.8674
G00 Z2.0000
G00 X9.9624 Y17.6289
G01 F40.00
G01 Z-0.1300
G01 F50.00
G01 X8.9473 Y17.6289
G01 X8.9617 Y17.6239
G01 X8.9803 Y17.6161
G01 X8.9982 Y17.6070
G01 X9.0154 Y17.5965
G01 X9.0264 Y17.5888
G01 X9.0422 Y17.5763
G01 X9.0570 Y17.5627
G01 X9.0707 Y17.5480
G01 X9.1216 Y17.4892
G01 X9.1338 Y17.4732
G01 X9.1448 Y17.4563
G01 X9.1514 Y17.4446
G01 X9.1574 Y17.4326
G01 X9.1629 Y17.4203
G01 X9.1677 Y17.4078
G01 X9.1737 Y17.3886
G01 X9.1769 Y17.3755
G01 X9.1795 Y17.3624
G01 X9.1915 Y17.2788
G01 X9.1928 Y17.2654
G01 X9.1933 Y17.2520
G01 X9.1930 Y17.2319
G01 X9.1911 Y17.2118
G01 X9.1877 Y17.1920
G01 X9.1829 Y17.1724
G01 X9.1766 Y17.1533
G01 X9.1689 Y17.1346
G01 X9.1366 Y17.0640
G01 X9.1272 Y17.0464
G01 X9.1202 Y17.0350
G01 X9.1127 Y17.0241
G01 X9.1004 Y17.0083
G01 X9.0916 Y16.9983
G01 X9.0822 Y16.9888
G01 X9.0725 Y16.9797
G01 X9.0642 Y16.9727
G01 X9.1732 Y17.0001
G01 X9.1862 Y17.0030
G01 X9.1993 Y17.0052
G01 X9.3085 Y17.0214
G01 X9.3216 Y17.0231
G01 X9.3349 Y17.0240
G01 X9.4451 Y17.0295
G01 X9.4584 Y17.0298
G01 X9.4717 Y17.0295
G01 X9.5819 Y17.0240
G01 X9.5952 Y17.0231
G01 X9.6083 Y17.0214
G01 X9.7175 Y17.0052
G01 X9.7306 Y17.0030
G01 X9.7436 Y17.0001
G01 X9.8600 Y16.9707
G01 X9.8402 Y16.9868
G01 X9.8302 Y16.9957
G01 X9.8160 Y17.0100
G01 X9.8029 Y17.0254
G01 X9.7949 Y17.0361
G01 X9.7838 Y17.0529
G01 X9.7740 Y17.0705
G01 X9.7655 Y17.0888
G01 X9.7585 Y17.1077
G01 X9.7361 Y17.1750
G01 X9.7321 Y17.1879
G01 X9.7275 Y17.2074
G01 X9.7242 Y17.2273
G01 X9.7229 Y17.2407
G01 X9.7223 Y17.2541
G01 X9.7223 Y17.2675
G01 X9.7230 Y17.2809
G01 X9.7253 Y17.3010
G01 X9.7276 Y17.3142
G01 X9.7306 Y17.3273
G01 X9.7499 Y17.4025
G01 X9.7561 Y17.4217
G01 X9.7637 Y17.4404
G01 X9.7726 Y17.4584
G01 X9.7829 Y17.4757
G01 X9.7905 Y17.4868
G01 X9.8028 Y17.5027
G01 X9.8117 Y17.5128
G01 X9.8211 Y17.5224
G01 X9.8779 Y17.5755
G01 X9.8878 Y17.5843
G01 X9.9036 Y17.5966
G01 X9.9146 Y17.6042
G01 X9.9259 Y17.6112
G01 X9.9436 Y17.6206
G01 X9.9624 Y17.6289
G00 Z2.0000
G00 X9.6210 Y17.4814
G01 F40.00
G01 Z-0.1300
G01 F50.00
G01 X9.2971 Y17.4814
G01 X9.3030 Y17.4669
G01 X9.3100 Y17.4474
G01 X9.3160 Y17.4275
G01 X9.3209 Y17.4073
G01 X9.3249 Y17.3870
G01 X9.3265 Y17.3767
G01 X9.3380 Y17.2961
G01 X9.3399 Y17.2755
G01 X9.3405 Y17.2651
G01 X9.3409 Y17.2444
G01 X9.3407 Y17.2340
G01 X9.3402 Y17.2236
G01 X9.3385 Y17.2029
G01 X9.3358 Y17.1824
G01 X9.3340 Y17.1717
G01 X9.4379 Y17.1768
G01 X9.4584 Y17.1773
G01 X9.4789 Y17.1768
G01 X9.5843 Y17.1716
G01 X9.5809 Y17.1888
G01 X9.5779 Y17.2093
G01 X9.5758 Y17.2299
G01 X9.5752 Y17.2403
G01 X9.5747 Y17.2611
G01 X9.5749 Y17.2714
G01 X9.5759 Y17.2922
G01 X9.5780 Y17.3128
G01 X9.5811 Y17.3333
G01 X9.5853 Y17.3537
G01 X9.5877 Y17.3637
G01 X9.6080 Y17.4426
G01 X9.6141 Y17.4624
G01 X9.6210 Y17.4814
G00 Z2.0000
G00 X8.2682 Y17.6289
G01 F40.00
G01 Z-0.1300
G01 F50.00
G01 X8.2025 Y17.6289
G01 X8.1716 Y17.5636
G01 X8.1984 Y17.5874
G01 X8.2088 Y17.5955
G01 X8.2195 Y17.6031
G01 X8.2306 Y17.6101
G01 X8.2421 Y17.6166
G01 X8.2538 Y17.6226
G01 X8.2682 Y17.6289
G00 Z2.0000
G00 X10.5657 Y16.2087
G01 F40.00
G01 Z-0.1300
G01 F50.00
G01 X10.6113 Y16.1120
G01 X10.6507 Y16.0024
G01 X10.6542 Y15.9908
G01 X10.6810 Y15.8837
G01 X10.6834 Y15.8719
G01 X10.7003 Y15.7567
G01 X10.7063 Y15.6344
G01 X10.7003 Y15.5121
G01 X10.6834 Y15.3969
G01 X10.6810 Y15.3851
G01 X10.6542 Y15.2780
G01 X10.6507 Y15.2664
G01 X10.6113 Y15.1568
G01 X10.5657 Y15.0601
G01 X10.7591 Y14.8667
G01 X10.8081 Y14.9468
G01 X10.8990 Y15.1662
G01 X10.9545 Y15.3973
G01 X10.9732 Y15.6343
G01 X10.9545 Y15.8713
G01 X10.8990 Y16.1026
G01 X10.8081 Y16.3220
G01 X10.7591 Y16.4021
G01 X10.5657 Y16.2087
G00 Z2.0000
G00 X13.0241 Y16.4235
G01 F40.00
G01 Z-0.1300
G01 F50.00
G01 X13.0241 Y16.4692
G01 X13.0052 Y16.4782
G01 X12.9897 Y16.4867
G01 X13.0241 Y16.4235
G00 Z2.0000
G00 X12.7242 Y17.4214
G01 F40.00
G01 Z-0.1300
G01 F50.00
G01 X12.7242 Y17.6289
G01 X12.5091 Y17.6289
G01 X12.5235 Y17.6239
G01 X12.5359 Y17.6189
G01 X12.5541 Y17.6102
G01 X12.5658 Y17.6036
G01 X12.5772 Y17.5965
G01 X12.5882 Y17.5888
G01 X12.6040 Y17.5763
G01 X12.6140 Y17.5674
G01 X12.6235 Y17.5579
G01 X12.6326 Y17.5480
G01 X12.6791 Y17.4943
G01 X12.6917 Y17.4785
G01 X12.6995 Y17.4675
G01 X12.7101 Y17.4502
G01 X12.7165 Y17.4383
G01 X12.7242 Y17.4214
G00 Z2.0000
G00 X14.1422 Y16.4826
G01 F40.00
G01 Z-0.1300
G01 F50.00
G01 X14.1340 Y16.4782
G01 X14.1151 Y16.4692
G01 X14.1151 Y16.4227
G01 X14.1200 Y16.4369
G01 X14.1276 Y16.4552
G01 X14.1335 Y16.4671
G01 X14.1422 Y16.4826
G00 Z2.0000
G00 X15.5590 Y16.8962
G01 F40.00
G01 Z-0.1300
G01 F50.00
G01 X15.5679 Y16.8101
G01 X15.6151 Y16.6687
G01 X15.6931 Y16.5427
G01 X15.7980 Y16.4380
G01 X15.9242 Y16.3602
G01 X16.0657 Y16.3133
G01 X16.1505 Y16.3046
G01 X16.8886 Y16.3046
G01 X16.9747 Y16.3135
G01 X17.1161 Y16.3607
G01 X17.2421 Y16.4387
G01 X17.3468 Y16.5436
G01 X17.4246 Y16.6698
G01 X17.4552 Y16.7618
G01 X17.4584 Y16.7700
G01 X17.4622 Y16.7779
G01 X17.4698 Y16.7904
G01 X17.5103 Y16.8487
G01 X17.5157 Y16.8560
G01 X17.5239 Y16.8651
G01 X17.5329 Y16.8734
G01 X17.5427 Y16.8807
G01 X17.5531 Y16.8870
G01 X17.5641 Y16.8922
G01 X17.6297 Y16.9195
G01 X17.6409 Y16.9235
G01 X17.6525 Y16.9264
G01 X17.6613 Y16.9279
G01 X17.6702 Y16.9287
G01 X17.6904 Y16.9296
G01 X18.6858 Y16.9296
G01 X18.6975 Y16.9287
G01 X18.7118 Y16.9261
G01 X18.7856 Y16.9046
G01 X18.7942 Y16.9018
G01 X18.8025 Y16.8983
G01 X18.8106 Y16.8942
G01 X18.8184 Y16.8895
G01 X18.8281 Y16.8824
G01 X18.8491 Y16.8655
G01 X18.8565 Y16.8590
G01 X19.1505 Y16.5650
G01 X19.1600 Y16.5538
G01 X19.1680 Y16.5416
G01 X19.2035 Y16.4768
G01 X19.2087 Y16.4659
G01 X19.2138 Y16.4517
G01 X19.2165 Y16.4399
G01 X19.2207 Y16.4042
G01 X19.2214 Y16.3944
G01 X19.2214 Y15.8113
G01 X19.2303 Y15.7252
G01 X19.2775 Y15.5838
G01 X19.3555 Y15.4578
G01 X19.4604 Y15.3531
G01 X19.5866 Y15.2753
G01 X19.7281 Y15.2284
G01 X19.8129 Y15.2197
G01 X21.1510 Y15.2197
G01 X21.2371 Y15.2286
G01 X21.3785 Y15.2758
G01 X21.5045 Y15.3538
G01 X21.6092 Y15.4587
G01 X21.6870 Y15.5849
G01 X21.7339 Y15.7264
G01 X21.7426 Y15.8112
G01 X21.7426 Y16.5243
G01 X21.7337 Y16.6104
G01 X21.6865 Y16.7518
G01 X21.6085 Y16.8778
G01 X21.5987 Y16.8876
G01 X21.5910 Y16.8965
G01 X21.5842 Y16.9060
G01 X21.5798 Y16.9135
G01 X21.5457 Y16.9758
G01 X21.5392 Y16.9896
G01 X21.5362 Y16.9983
G01 X21.5331 Y17.0101
G01 X21.5312 Y17.0221
G01 X21.5306 Y17.0343
G01 X21.5309 Y17.0435
G01 X21.5362 Y17.1173
G01 X21.5385 Y17.1324
G01 X21.5428 Y17.1470
G01 X21.5488 Y17.1611
G01 X21.5565 Y17.1742
G01 X21.6044 Y17.2385
G01 X21.6124 Y17.2477
G01 X21.6236 Y17.2580
G01 X21.6361 Y17.2669
G01 X21.6467 Y17.2728
G01 X21.6579 Y17.2776
G01 X21.7244 Y17.3025
G01 X21.7331 Y17.3054
G01 X21.7419 Y17.3076
G01 X21.7570 Y17.3098
G01 X21.7766 Y17.3106
G01 X31.5459 Y17.3106
G01 X31.5576 Y17.3100
G01 X31.5692 Y17.3084
G01 X31.5806 Y17.3056
G01 X31.6516 Y17.2847
G01 X31.6658 Y17.2792
G01 X31.6792 Y17.2719
G01 X31.6916 Y17.2630
G01 X31.7028 Y17.2527
G01 X31.7534 Y17.1945
G01 X31.7592 Y17.1874
G01 X31.7675 Y17.1746
G01 X31.7742 Y17.1609
G01 X31.7791 Y17.1465
G01 X31.7817 Y17.1345
G01 X31.7923 Y17.0613
G01 X31.7933 Y17.0522
G01 X31.7935 Y17.0400
G01 X31.7929 Y17.0308
G01 X31.7916 Y17.0218
G01 X31.7888 Y17.0099
G01 X31.7837 Y16.9955
G01 X31.7503 Y16.9226
G01 X31.7441 Y16.9120
G01 X31.7388 Y16.9045
G01 X31.7309 Y16.8952
G01 X31.7244 Y16.8887
G01 X31.6938 Y16.8620
G01 X31.6848 Y16.8551
G01 X31.4977 Y16.7325
G01 X31.3163 Y16.5706
G01 X31.1609 Y16.3837
G01 X31.0348 Y16.1758
G01 X30.9408 Y15.9516
G01 X30.8809 Y15.7160
G01 X30.8739 Y15.6462
G01 X30.8566 Y15.4741
G01 X30.8682 Y15.2313
G01 X30.9157 Y14.9929
G01 X30.9978 Y14.7641
G01 X31.1129 Y14.5499
G01 X31.2583 Y14.3551
G01 X31.4310 Y14.1840
G01 X31.6270 Y14.0402
G01 X31.8422 Y13.9270
G01 X32.0717 Y13.8469
G01 X32.3105 Y13.8016
G01 X32.5534 Y13.7920
G01 X32.7951 Y13.8185
G01 X33.0302 Y13.8804
G01 X33.2536 Y13.9763
G01 X33.4603 Y14.1043
G01 X33.6458 Y14.2613
G01 X33.8061 Y14.4441
G01 X33.9460 Y14.6612
G01 X33.9515 Y14.6684
G01 X33.9597 Y14.6773
G01 X33.9686 Y14.6853
G01 X33.9770 Y14.6915
G01 X34.0081 Y14.7227
G01 X34.0173 Y14.7303
G01 X34.0273 Y14.7371
G01 X34.0378 Y14.7428
G01 X34.0489 Y14.7475
G01 X34.0604 Y14.7510
G01 X34.1213 Y14.7667
G01 X34.1365 Y14.7696
G01 X34.1520 Y14.7706
G01 X41.4026 Y14.7706
G01 X41.4788 Y14.7698
G01 X41.5092 Y14.7764
G01 X41.5249 Y14.7790
G01 X41.5589 Y14.7829
G01 X41.5799 Y14.7902
G01 X41.5983 Y14.7954
G01 X41.6236 Y14.8011
G01 X41.6519 Y14.8143
G01 X41.6665 Y14.8203
G01 X41.6988 Y14.8317
G01 X41.7210 Y14.8452
G01 X41.7378 Y14.8543
G01 X41.7580 Y14.8638
G01 X41.7826 Y14.8828
G01 X41.7956 Y14.8919
G01 X41.8245 Y14.9102
G01 X41.9347 Y15.0196
G01 X41.9409 Y15.0262
G01 X42.3128 Y15.3982
G01 X42.3215 Y15.4061
G01 X42.3308 Y15.4131
G01 X42.3408 Y15.4192
G01 X42.4031 Y15.4532
G01 X42.4168 Y15.4596
G01 X42.4311 Y15.4643
G01 X42.4429 Y15.4667
G01 X42.4757 Y15.4704
G01 X42.4855 Y15.4711
G01 X43.3584 Y15.4711
G01 X43.3701 Y15.4705
G01 X43.3817 Y15.4689
G01 X43.3931 Y15.4661
G01 X43.4641 Y15.4452
G01 X43.4781 Y15.4398
G01 X43.4914 Y15.4326
G01 X43.5036 Y15.4239
G01 X43.5245 Y15.4071
G01 X43.5319 Y15.4006
G01 X43.6158 Y15.3170
G01 X43.7420 Y15.2392
G01 X43.8835 Y15.1923
G01 X43.9683 Y15.1836
G01 X45.3064 Y15.1836
G01 X45.3925 Y15.1925
G01 X45.5339 Y15.2397
G01 X45.6599 Y15.3177
G01 X45.7422 Y15.4001
G01 X45.7533 Y15.4095
G01 X45.7630 Y15.4161
G01 X45.8330 Y15.4545
G01 X45.8469 Y15.4606
G01 X45.8584 Y15.4642
G01 X45.8702 Y15.4667
G01 X45.9031 Y15.4704
G01 X45.9163 Y15.4711
G01 X46.6355 Y15.4711
G01 X46.6472 Y15.4705
G01 X46.6588 Y15.4689
G01 X46.6702 Y15.4661
G01 X46.7412 Y15.4452
G01 X46.7552 Y15.4398
G01 X46.7659 Y15.4342
G01 X46.7784 Y15.4258
G01 X46.8041 Y15.4050
G01 X46.8114 Y15.3984
G01 X46.8420 Y15.3678
G01 X46.9682 Y15.2900
G01 X47.1097 Y15.2431
G01 X47.1945 Y15.2344
G01 X48.5826 Y15.2344
G01 X48.6687 Y15.2433
G01 X48.8101 Y15.2905
G01 X48.9361 Y15.3685
G01 X49.0408 Y15.4734
G01 X49.1186 Y15.5996
G01 X49.1655 Y15.7411
G01 X49.1742 Y15.8259
G01 X49.1742 Y16.5640
G01 X49.1653 Y16.6501
G01 X49.1181 Y16.7915
G01 X49.0401 Y16.9175
G01 X48.9352 Y17.0222
G01 X48.8090 Y17.1000
G01 X48.6675 Y17.1469
G01 X48.5827 Y17.1556
G01 X47.1946 Y17.1556
G01 X47.1085 Y17.1467
G01 X46.9671 Y17.0995
G01 X46.8411 Y17.0215
G01 X46.7364 Y16.9166
G01 X46.7311 Y16.9081
G01 X46.7261 Y16.9009
G01 X46.7205 Y16.8941
G01 X46.7145 Y16.8877
G01 X46.6553 Y16.8343
G01 X46.6459 Y16.8270
G01 X46.6384 Y16.8221
G01 X46.6305 Y16.8178
G01 X46.6224 Y16.8141
G01 X46.6140 Y16.8110
G01 X46.6054 Y16.8084
G01 X46.5451 Y16.7947
G01 X46.5330 Y16.7929
G01 X46.5239 Y16.7923
G01 X45.9164 Y16.7923
G01 X45.9018 Y16.7932
G01 X45.8874 Y16.7958
G01 X45.8079 Y16.8191
G01 X45.7940 Y16.8249
G01 X45.7809 Y16.8324
G01 X45.7712 Y16.8395
G01 X45.7503 Y16.8563
G01 X45.7429 Y16.8628
G01 X45.6590 Y16.9464
G01 X45.5328 Y17.0242
G01 X45.3913 Y17.0711
G01 X45.3065 Y17.0798
G01 X43.9684 Y17.0798
G01 X43.8823 Y17.0709
G01 X43.7409 Y17.0237
G01 X43.6149 Y16.9457
G01 X43.5326 Y16.8633
G01 X43.5260 Y16.8575
G01 X43.5167 Y16.8505
G01 X43.5067 Y16.8444
G01 X43.4391 Y16.8075
G01 X43.4308 Y16.8039
G01 X43.4222 Y16.8008
G01 X43.4135 Y16.7985
G01 X43.4046 Y16.7967
G01 X43.3717 Y16.7930
G01 X43.3585 Y16.7923
G01 X42.1211 Y16.7923
G01 X42.0449 Y16.7931
G01 X42.0145 Y16.7865
G01 X41.9988 Y16.7839
G01 X41.9648 Y16.7800
G01 X41.9438 Y16.7727
G01 X41.9254 Y16.7675
G01 X41.9001 Y16.7618
G01 X41.8689 Y16.7474
G01 X41.8542 Y16.7415
G01 X41.8249 Y16.7312
G01 X41.8074 Y16.7203
G01 X41.7892 Y16.7103
G01 X41.7657 Y16.6991
G01 X41.7411 Y16.6801
G01 X41.7281 Y16.6710
G01 X41.6992 Y16.6527
G01 X41.5890 Y16.5433
G01 X41.5828 Y16.5367
G01 X41.2109 Y16.1647
G01 X41.1999 Y16.1550
G01 X41.1929 Y16.1498
G01 X41.1829 Y16.1437
G01 X41.1206 Y16.1097
G01 X41.1069 Y16.1033
G01 X41.0955 Y16.0994
G01 X41.0837 Y16.0967
G01 X41.0748 Y16.0954
G01 X41.0447 Y16.0922
G01 X41.0349 Y16.0918
G01 X35.9798 Y16.0918
G01 X35.9682 Y16.0927
G01 X35.9538 Y16.0953
G01 X35.8800 Y16.1168
G01 X35.8713 Y16.1197
G01 X35.8629 Y16.1232
G01 X35.8495 Y16.1305
G01 X35.8419 Y16.1356
G01 X35.8347 Y16.1413
G01 X35.8280 Y16.1475
G01 X35.8217 Y16.1542
G01 X35.7733 Y16.2102
G01 X35.7643 Y16.2226
G01 X35.7583 Y16.2332
G01 X35.7545 Y16.2415
G01 X35.7513 Y16.2501
G01 X35.7488 Y16.2589
G01 X35.7469 Y16.2679
G01 X35.7357 Y16.3472
G01 X35.7352 Y16.3624
G01 X35.7362 Y16.3746
G01 X35.7377 Y16.3836
G01 X35.7399 Y16.3925
G01 X35.7450 Y16.4069
G01 X35.7770 Y16.4770
G01 X35.7843 Y16.4900
G01 X35.7913 Y16.4996
G01 X35.7991 Y16.5086
G01 X35.8056 Y16.5148
G01 X35.8367 Y16.5414
G01 X35.8466 Y16.5490
G01 X36.0003 Y16.6443
G01 X36.1858 Y16.8013
G01 X36.3461 Y16.9841
G01 X36.4826 Y17.1962
G01 X36.4915 Y17.2084
G01 X36.5018 Y17.2194
G01 X36.5086 Y17.2253
G01 X36.5170 Y17.2315
G01 X36.5459 Y17.2606
G01 X36.5549 Y17.2685
G01 X36.5647 Y17.2755
G01 X36.5725 Y17.2801
G01 X36.5833 Y17.2853
G01 X36.5917 Y17.2884
G01 X36.6004 Y17.2910
G01 X36.6643 Y17.3074
G01 X36.6765 Y17.3096
G01 X36.6920 Y17.3106
G01 X38.8626 Y17.3106
G01 X38.9388 Y17.3098
G01 X38.9692 Y17.3164
G01 X38.9849 Y17.3190
G01 X39.0189 Y17.3229
G01 X39.0399 Y17.3302
G01 X39.0583 Y17.3354
G01 X39.0836 Y17.3411
G01 X39.1119 Y17.3543
G01 X39.1265 Y17.3603
G01 X39.1588 Y17.3717
G01 X39.1810 Y17.3852
G01 X39.1978 Y17.3943
G01 X39.2180 Y17.4038
G01 X39.2426 Y17.4228
G01 X39.2556 Y17.4319
G01 X39.2845 Y17.4502
G01 X39.3947 Y17.5596
G01 X39.4009 Y17.5662
G01 X44.0313 Y22.1967
G01 X44.0858 Y22.2500
G01 X44.1027 Y22.2762
G01 X44.1119 Y22.2891
G01 X44.1331 Y22.3160
G01 X44.1429 Y22.3359
G01 X44.1522 Y22.3526
G01 X44.1661 Y22.3746
G01 X44.1779 Y22.4067
G01 X44.1841 Y22.4213
G01 X44.1976 Y22.4494
G01 X44.2037 Y22.4747
G01 X44.2092 Y22.4930
G01 X44.2167 Y22.5139
G01 X44.2212 Y22.5479
G01 X44.2240 Y22.5635
G01 X44.2310 Y22.5938
G01 X44.2315 Y22.7490
G01 X44.2312 Y22.7581
G01 X44.2312 Y23.0124
G01 X44.2315 Y23.0211
G01 X44.2329 Y23.0327
G01 X44.2354 Y23.0442
G01 X44.2562 Y23.1151
G01 X44.2601 Y23.1264
G01 X44.2651 Y23.1372
G01 X44.2695 Y23.1450
G01 X44.2745 Y23.1525
G01 X44.2800 Y23.1595
G01 X44.2881 Y23.1683
G01 X44.3328 Y23.2118
G01 X44.3399 Y23.2176
G01 X44.3475 Y23.2229
G01 X44.3876 Y23.2476
G01 X44.5534 Y23.3892
G01 X44.6950 Y23.5550
G01 X44.8090 Y23.7410
G01 X44.8925 Y23.9425
G01 X44.9434 Y24.1546
G01 X44.9605 Y24.3720
G01 X44.9434 Y24.5894
G01 X44.9428 Y24.5916
G01 X44.8925 Y24.8015
G01 X44.8090 Y25.0030
G01 X44.6950 Y25.1890
G01 X44.5534 Y25.3548
G01 X44.3876 Y25.4964
G01 X44.2016 Y25.6104
G01 X44.0001 Y25.6939
G01 X43.7880 Y25.7448
G01 X43.5706 Y25.7619
G01 X43.3532 Y25.7448
G01 X43.1411 Y25.6939
G01 X42.9396 Y25.6104
G01 X42.7536 Y25.4964
G01 X42.5878 Y25.3548
G01 X42.4462 Y25.1890
G01 X42.3322 Y25.0030
G01 X42.2668 Y24.8450
G01 X42.2487 Y24.8015
G01 X42.1978 Y24.5894
G01 X42.1807 Y24.3720
G01 X42.1978 Y24.1546
G01 X42.2487 Y23.9425
G01 X42.3322 Y23.7410
G01 X42.4462 Y23.5550
G01 X42.5878 Y23.3892
G01 X42.7536 Y23.2476
G01 X42.7746 Y23.2345
G01 X42.7817 Y23.2293
G01 X42.7884 Y23.2237
G01 X42.7966 Y23.2154
G01 X42.8463 Y23.1604
G01 X42.8555 Y23.1483
G01 X42.8631 Y23.1351
G01 X42.8669 Y23.1267
G01 X42.8701 Y23.1181
G01 X42.8725 Y23.1093
G01 X42.8744 Y23.1004
G01 X42.8864 Y23.0273
G01 X42.8876 Y23.0121
G01 X42.8872 Y22.9999
G01 X42.8861 Y22.9908
G01 X42.8843 Y22.9818
G01 X42.8799 Y22.9672
G01 X42.8495 Y22.8964
G01 X42.8429 Y22.8834
G01 X42.8383 Y22.8760
G01 X42.8331 Y22.8689
G01 X42.8275 Y22.8623
G01 X42.8157 Y22.8495
G01 X38.6666 Y18.7007
G01 X38.6553 Y18.6915
G01 X38.6454 Y18.6852
G01 X38.5806 Y18.6497
G01 X38.5669 Y18.6433
G01 X38.5526 Y18.6386
G01 X38.5408 Y18.6362
G01 X38.5080 Y18.6325
G01 X38.4982 Y18.6318
G01 X36.6871 Y18.6318
G01 X36.6754 Y18.6324
G01 X36.6609 Y18.6346
G01 X36.6524 Y18.6368
G01 X36.5843 Y18.6568
G01 X36.5699 Y18.6620
G01 X36.5588 Y18.6675
G01 X36.5484 Y18.6740
G01 X36.5387 Y18.6816
G01 X36.5298 Y18.6901
G01 X36.4865 Y18.7357
G01 X36.4808 Y18.7425
G01 X36.4756 Y18.7497
G01 X36.4710 Y18.7572
G01 X36.3960 Y18.8884
G01 X36.2455 Y19.0793
G01 X36.0684 Y19.2459
G01 X35.8687 Y19.3844
G01 X35.6506 Y19.4920
G01 X35.4191 Y19.5661
G01 X35.1792 Y19.6052
G01 X34.9361 Y19.6083
G01 X34.6952 Y19.5756
G01 X34.4618 Y19.5075
G01 X34.2765 Y19.4221
G01 X34.2627 Y19.4171
G01 X34.2542 Y19.4149
G01 X34.2456 Y19.4133
G01 X34.1754 Y19.4030
G01 X34.1663 Y19.4020
G01 X34.1571 Y19.4017
G01 X34.1480 Y19.4020
G01 X34.1389 Y19.4031
G01 X34.1299 Y19.4048
G01 X34.1181 Y19.4081
G01 X34.1096 Y19.4114
G01 X34.0393 Y19.4432
G01 X34.0313 Y19.4474
G01 X34.0235 Y19.4523
G01 X34.0161 Y19.4577
G01 X34.0070 Y19.4658
G01 X33.9987 Y19.4748
G01 X33.9913 Y19.4845
G01 X33.9510 Y19.5466
G01 X33.9463 Y19.5545
G01 X33.9422 Y19.5627
G01 X33.9368 Y19.5769
G01 X33.9344 Y19.5858
G01 X33.9327 Y19.5947
G01 X33.9313 Y19.6099
G01 X33.9310 Y19.6869
G01 X33.9322 Y19.7014
G01 X33.9337 Y19.7101
G01 X33.9367 Y19.7213
G01 X33.9468 Y19.7489
G01 X34.0375 Y19.9502
G01 X34.1035 Y20.1842
G01 X34.1345 Y20.4283
G01 X34.1366 Y20.5082
G01 X34.1184 Y20.7536
G01 X34.0647 Y20.9907
G01 X33.9766 Y21.2173
G01 X33.8560 Y21.4284
G01 X33.7055 Y21.6193
G01 X33.5284 Y21.7859
G01 X33.3287 Y21.9244
G01 X33.1106 Y22.0320
G01 X33.0732 Y22.0439
G01 X32.8791 Y22.1061
G01 X32.6392 Y22.1452
G01 X32.3961 Y22.1483
G01 X32.1552 Y22.1156
G01 X31.9218 Y22.0475
G01 X31.7010 Y21.9457
G01 X31.4977 Y21.8125
G01 X31.3163 Y21.6506
G01 X31.2856 Y21.6137
G01 X31.2796 Y21.6073
G01 X31.2732 Y21.6013
G01 X31.2616 Y21.5925
G01 X31.2001 Y21.5512
G01 X31.1895 Y21.5452
G01 X31.1811 Y21.5414
G01 X31.1726 Y21.5382
G01 X31.1638 Y21.5357
G01 X31.1518 Y21.5333
G01 X31.1427 Y21.5323
G01 X31.0626 Y21.5306
G01 X31.0504 Y21.5312
G01 X31.0383 Y21.5331
G01 X31.0295 Y21.5353
G01 X31.0208 Y21.5381
G01 X31.0068 Y21.5442
G01 X30.9429 Y21.5811
G01 X30.9357 Y21.5859
G01 X30.9287 Y21.5913
G01 X30.9202 Y21.5991
G01 X22.8349 Y29.6844
G01 X22.8264 Y29.6937
G01 X22.8189 Y29.7040
G01 X22.7868 Y29.7558
G01 X22.7794 Y29.7698
G01 X22.7748 Y29.7816
G01 X22.7275 Y29.9233
G01 X22.6495 Y30.0493
G01 X22.5446 Y30.1540
G01 X22.4184 Y30.2318
G01 X22.3264 Y30.2624
G01 X22.3182 Y30.2656
G01 X22.3078 Y30.2708
G01 X22.2978 Y30.2770
G01 X22.2370 Y30.3192
G01 X22.2298 Y30.3249
G01 X22.2209 Y30.3333
G01 X22.2148 Y30.3401
G01 X22.2093 Y30.3473
G01 X22.2042 Y30.3550
G01 X22.1998 Y30.3630
G01 X22.1960 Y30.3713
G01 X22.1676 Y30.4397
G01 X22.1639 Y30.4510
G01 X22.1607 Y30.4655
G01 X22.1597 Y30.4744
G01 X22.1586 Y30.4976
G01 X22.1586 Y35.4513
G01 X22.1595 Y35.4659
G01 X22.1621 Y35.4803
G01 X22.1845 Y35.5570
G01 X22.1888 Y35.5684
G01 X22.1942 Y35.5793
G01 X22.2007 Y35.5897
G01 X22.2081 Y35.5993
G01 X22.2187 Y35.6103
G01 X22.2770 Y35.6608
G01 X22.2869 Y35.6681
G01 X22.2974 Y35.6744
G01 X22.3114 Y35.6808
G01 X22.3260 Y35.6853
G01 X22.3842 Y35.6980
G01 X22.3929 Y35.6993
G01 X22.4017 Y35.7001
G01 X24.8922 Y35.7002
G01 X24.9684 Y35.6994
G01 X24.9988 Y35.7060
G01 X25.0145 Y35.7086
G01 X25.0485 Y35.7125
G01 X25.0695 Y35.7198
G01 X25.0879 Y35.7250
G01 X25.1132 Y35.7307
G01 X25.1415 Y35.7439
G01 X25.1561 Y35.7499
G01 X25.1884 Y35.7613
G01 X25.2106 Y35.7748
G01 X25.2274 Y35.7839
G01 X25.2476 Y35.7934
G01 X25.2747 Y35.8142
G01 X25.2877 Y35.8233
G01 X25.3141 Y35.8398
G01 X25.4243 Y35.9492
G01 X25.4305 Y35.9558
G01 X25.5522 Y36.0776
G01 X25.5632 Y36.0873
G01 X25.5702 Y36.0925
G01 X25.5777 Y36.0971
G01 X25.6479 Y36.1353
G01 X25.6589 Y36.1400
G01 X25.6674 Y36.1428
G01 X25.6762 Y36.1450
G01 X25.6880 Y36.1469
G01 X25.7030 Y36.1476
G01 X25.7685 Y36.1452
G01 X25.7778 Y36.1445
G01 X25.7869 Y36.1432
G01 X25.7989 Y36.1402
G01 X26.0411 Y36.0685
G01 X26.2952 Y36.0296
G01 X26.5523 Y36.0256
G01 X26.8076 Y36.0565
G01 X27.0562 Y36.1217
G01 X27.2938 Y36.2201
G01 X27.5157 Y36.3498
G01 X27.7181 Y36.5085
G01 X27.8970 Y36.6931
G01 X28.0492 Y36.9003
G01 X28.1719 Y37.1262
G01 X28.2627 Y37.3667
G01 X28.3201 Y37.6173
G01 X28.3433 Y37.8770
G01 X28.3436 Y37.9095
G01 X28.3259 Y38.1695
G01 X28.2738 Y38.4213
G01 X28.1880 Y38.6636
G01 X28.0700 Y38.8921
G01 X27.9222 Y39.1024
G01 X27.7472 Y39.2908
G01 X27.5482 Y39.4536
G01 X27.3290 Y39.5879
G01 X27.0936 Y39.6913
G01 X26.8464 Y39.7617
G01 X26.5918 Y39.7979
G01 X26.3347 Y39.7993
G01 X26.0798 Y39.7657
G01 X25.8318 Y39.6979
G01 X25.5954 Y39.5970
G01 X25.3747 Y39.4650
G01 X25.1741 Y39.3042
G01 X24.9971 Y39.1177
G01 X24.8471 Y38.9090
G01 X24.7268 Y38.6817
G01 X24.6384 Y38.4403
G01 X24.5837 Y38.1891
G01 X24.5635 Y37.9328
G01 X24.5783 Y37.6761
G01 X24.6278 Y37.4238
G01 X24.6537 Y37.3481
G01 X24.6572 Y37.3340
G01 X24.6586 Y37.3253
G01 X24.6593 Y37.3166
G01 X24.6625 Y37.2395
G01 X24.6615 Y37.2243
G01 X24.6586 Y37.2093
G01 X24.6560 Y37.2006
G01 X24.6527 Y37.1920
G01 X24.6459 Y37.1784
G01 X24.6101 Y37.1170
G01 X24.6017 Y37.1043
G01 X24.5938 Y37.0950
G01 X24.5873 Y37.0886
G01 X24.5780 Y37.0807
G01 X24.5679 Y37.0739
G01 X24.5599 Y37.0694
G01 X24.4967 Y37.0371
G01 X24.4824 Y37.0309
G01 X24.4705 Y37.0273
G01 X24.4584 Y37.0249
G01 X24.4288 Y37.0219
G01 X24.4201 Y37.0214
G01 X21.9134 Y37.0214
G01 X21.8372 Y37.0222
G01 X21.8068 Y37.0156
G01 X21.7911 Y37.0130
G01 X21.7571 Y37.0091
G01 X21.7361 Y37.0018
G01 X21.7177 Y36.9966
G01 X21.6924 Y36.9909
G01 X21.6641 Y36.9777
G01 X21.6495 Y36.9717
G01 X21.6172 Y36.9603
G01 X21.5950 Y36.9468
G01 X21.5782 Y36.9377
G01 X21.5580 Y36.9282
G01 X21.5334 Y36.9092
G01 X21.5204 Y36.9001
G01 X21.4915 Y36.8818
G01 X21.3813 Y36.7724
G01 X21.3751 Y36.7658
G01 X21.0373 Y36.4279
G01 X20.9828 Y36.3746
G01 X20.9659 Y36.3484
G01 X20.9567 Y36.3355
G01 X20.9355 Y36.3086
G01 X20.9257 Y36.2887
G01 X20.9164 Y36.2720
G01 X20.9025 Y36.2500
G01 X20.8907 Y36.2179
G01 X20.8845 Y36.2033
G01 X20.8710 Y36.1752
G01 X20.8649 Y36.1499
G01 X20.8594 Y36.1316
G01 X20.8519 Y36.1107
G01 X20.8480 Y36.0801
G01 X20.8452 Y36.0642
G01 X20.8376 Y36.0308
G01 X20.8371 Y35.8756
G01 X20.8374 Y35.8665
G01 X20.8374 Y30.4977
G01 X20.8365 Y30.4831
G01 X20.8339 Y30.4687
G01 X20.8106 Y30.3891
G01 X20.8060 Y30.3778
G01 X20.8003 Y30.3670
G01 X20.7936 Y30.3568
G01 X20.7859 Y30.3474
G01 X20.7750 Y30.3367
G01 X20.7191 Y30.2883
G01 X20.7095 Y30.2811
G01 X20.7019 Y30.2764
G01 X20.6886 Y30.2698
G01 X20.6704 Y30.2626
G01 X20.5765 Y30.2313
G01 X20.4505 Y30.1533
G01 X20.3557 Y30.0584
G01 X20.3469 Y30.0507
G01 X20.3349 Y30.0424
G01 X20.2649 Y30.0040
G01 X20.2511 Y29.9979
G01 X20.2395 Y29.9943
G01 X20.2277 Y29.9918
G01 X20.1883 Y29.9876
G01 X19.1575 Y29.9874
G01 X19.1429 Y29.9883
G01 X19.1342 Y29.9896
G01 X19.1257 Y29.9916
G01 X19.0548 Y30.0124
G01 X19.0434 Y30.0163
G01 X19.0324 Y30.0214
G01 X19.0246 Y30.0259
G01 X19.0171 Y30.0309
G01 X18.9900 Y30.0522
G01 X18.8628 Y30.1306
G01 X18.7213 Y30.1775
G01 X18.6365 Y30.1862
G01 X17.2984 Y30.1862
G01 X17.2123 Y30.1773
G01 X17.0709 Y30.1301
G01 X16.9449 Y30.0521
G01 X16.8402 Y29.9472
G01 X16.7624 Y29.8210
G01 X16.7155 Y29.6795
G01 X16.7068 Y29.5947
G01 X16.7068 Y28.8816
G01 X16.7157 Y28.7955
G01 X16.7629 Y28.6541
G01 X16.8409 Y28.5281
G01 X16.9458 Y28.4234
G01 X17.0720 Y28.3456
G01 X17.2135 Y28.2987
G01 X17.2983 Y28.2900
G01 X18.6364 Y28.2900
G01 X18.7225 Y28.2989
G01 X18.8639 Y28.3461
G01 X18.9899 Y28.4241
G01 X19.0946 Y28.5290
G01 X19.1111 Y28.5552
G01 X19.1184 Y28.5644
G01 X19.1244 Y28.5708
G01 X19.1837 Y28.6242
G01 X19.1907 Y28.6298
G01 X19.1981 Y28.6348
G01 X19.2058 Y28.6393
G01 X19.2138 Y28.6432
G01 X19.2221 Y28.6466
G01 X19.2335 Y28.6501
G01 X19.2939 Y28.6638
G01 X19.3060 Y28.6656
G01 X19.3181 Y28.6662
G01 X20.1815 Y28.6662
G01 X20.1932 Y28.6656
G01 X20.2076 Y28.6634
G01 X20.2161 Y28.6612
G01 X20.2900 Y28.6394
G01 X20.3039 Y28.6336
G01 X20.3170 Y28.6261
G01 X20.3267 Y28.6190
G01 X20.3476 Y28.6022
G01 X20.3550 Y28.5957
G01 X20.4514 Y28.4996
G01 X20.5776 Y28.4218
G01 X20.7191 Y28.3749
G01 X20.8039 Y28.3662
G01 X22.1844 Y28.3662
G01 X22.1990 Y28.3649
G01 X22.2104 Y28.3627
G01 X22.2842 Y28.3412
G01 X22.2928 Y28.3384
G01 X22.3011 Y28.3349
G01 X22.3092 Y28.3308
G01 X22.3170 Y28.3261
G01 X22.3243 Y28.3209
G01 X22.3477 Y28.3021
G01 X22.3575 Y28.2933
G01 X30.6003 Y20.0505
G01 X30.6536 Y19.9960
G01 X30.6798 Y19.9791
G01 X30.6927 Y19.9699
G01 X30.7196 Y19.9487
G01 X30.7395 Y19.9389
G01 X30.7562 Y19.9296
G01 X30.7782 Y19.9157
G01 X30.8103 Y19.9039
G01 X30.8249 Y19.8977
G01 X30.8530 Y19.8842
G01 X30.8746 Y19.8791
G01 X30.8966 Y19.8726
G01 X30.9196 Y19.8641
G01 X30.9327 Y19.8577
G01 X30.9450 Y19.8497
G01 X31.0021 Y19.8076
G01 X31.0092 Y19.8021
G01 X31.0157 Y19.7960
G01 X31.0238 Y19.7872
G01 X31.0293 Y19.7801
G01 X31.0467 Y19.7530
G01 X31.1129 Y19.6299
G01 X31.2583 Y19.4351
G01 X31.4310 Y19.2640
G01 X31.6270 Y19.1202
G01 X31.6662 Y19.0996
G01 X31.6737 Y19.0950
G01 X31.6809 Y19.0900
G01 X31.6920 Y19.0804
G01 X31.7429 Y19.0310
G01 X31.7493 Y19.0244
G01 X31.7569 Y19.0149
G01 X31.7636 Y19.0047
G01 X31.7679 Y18.9966
G01 X31.7716 Y18.9882
G01 X31.7755 Y18.9767
G01 X31.7939 Y18.8987
G01 X31.7958 Y18.8866
G01 X31.7965 Y18.8744
G01 X31.7962 Y18.8653
G01 X31.7952 Y18.8562
G01 X31.7936 Y18.8472
G01 X31.7913 Y18.8383
G01 X31.7656 Y18.7656
G01 X31.7609 Y18.7543
G01 X31.7552 Y18.7436
G01 X31.7484 Y18.7334
G01 X31.7427 Y18.7263
G01 X31.7342 Y18.7175
G01 X31.7249 Y18.7095
G01 X31.6688 Y18.6661
G01 X31.6562 Y18.6575
G01 X31.6481 Y18.6532
G01 X31.6398 Y18.6494
G01 X31.6311 Y18.6463
G01 X31.6223 Y18.6438
G01 X31.5677 Y18.6334
G01 X31.5592 Y18.6323
G01 X31.5506 Y18.6318
G01 X21.7375 Y18.6318
G01 X21.7287 Y18.6321
G01 X21.7171 Y18.6335
G01 X21.7057 Y18.6360
G01 X21.6318 Y18.6577
G01 X21.6176 Y18.6632
G01 X21.6042 Y18.6705
G01 X21.5966 Y18.6756
G01 X21.5895 Y18.6813
G01 X21.5785 Y18.6919
G01 X21.5300 Y18.7479
G01 X21.5207 Y18.7601
G01 X21.5159 Y18.7679
G01 X21.5116 Y18.7761
G01 X21.5080 Y18.7846
G01 X21.5051 Y18.7933
G01 X21.5028 Y18.8022
G01 X21.4914 Y18.8546
G01 X21.4895 Y18.8661
G01 X21.4886 Y18.8807
G01 X21.4886 Y19.0242
G01 X21.4797 Y19.1103
G01 X21.4325 Y19.2517
G01 X21.3545 Y19.3777
G01 X21.2496 Y19.4824
G01 X21.1234 Y19.5602
G01 X20.9819 Y19.6071
G01 X20.8971 Y19.6158
G01 X19.5590 Y19.6158
G01 X19.4729 Y19.6069
G01 X19.3315 Y19.5597
G01 X19.2055 Y19.4817
G01 X19.1008 Y19.3768
G01 X19.0230 Y19.2506
G01 X18.9761 Y19.1091
G01 X18.9674 Y19.0243
G01 X18.9674 Y18.4997
G01 X18.9665 Y18.4851
G01 X18.9646 Y18.4736
G01 X18.9624 Y18.4651
G01 X18.9424 Y18.3970
G01 X18.9395 Y18.3883
G01 X18.9360 Y18.3798
G01 X18.9318 Y18.3717
G01 X18.9271 Y18.3639
G01 X18.9217 Y18.3564
G01 X18.9159 Y18.3494
G01 X18.9073 Y18.3407
G01 X18.8513 Y18.2922
G01 X18.8441 Y18.2864
G01 X18.8339 Y18.2796
G01 X18.8231 Y18.2738
G01 X18.8117 Y18.2692
G01 X18.8000 Y18.2657
G01 X18.7418 Y18.2530
G01 X18.7331 Y18.2517
G01 X18.7214 Y18.2508
G01 X17.6905 Y18.2508
G01 X17.6759 Y18.2517
G01 X17.6615 Y18.2543
G01 X17.5848 Y18.2767
G01 X17.5734 Y18.2810
G01 X17.5625 Y18.2864
G01 X17.5496 Y18.2946
G01 X17.5402 Y18.3023
G01 X17.5295 Y18.3132
G01 X17.4830 Y18.3669
G01 X17.4774 Y18.3738
G01 X17.4707 Y18.3837
G01 X17.4664 Y18.3915
G01 X17.4626 Y18.3996
G01 X17.4566 Y18.4148
G01 X17.4241 Y18.5117
G01 X17.3461 Y18.6377
G01 X17.2412 Y18.7424
G01 X17.1150 Y18.8202
G01 X16.9735 Y18.8671
G01 X16.8887 Y18.8758
G01 X16.1506 Y18.8758
G01 X16.0645 Y18.8669
G01 X15.9231 Y18.8197
G01 X15.7971 Y18.7417
G01 X15.6924 Y18.6368
G01 X15.6146 Y18.5106
G01 X15.5677 Y18.3691
G01 X15.5590 Y18.2843
G01 X15.5590 Y16.8962
G00 Z2.0000
G00 X15.8217 Y18.2402
G01 F40.00
G01 Z-0.1300
G01 F50.00
G01 X15.8217 Y16.9402
G01 X15.8235 Y16.9036
G01 X15.8289 Y16.8675
G01 X15.8378 Y16.8320
G01 X15.8501 Y16.7975
G01 X15.8630 Y16.7698
G01 X15.8687 Y16.7592
G01 X15.8845 Y16.7330
G01 X15.9026 Y16.7084
G01 X15.9083 Y16.7013
G01 X15.9268 Y16.6809
G01 X15.9331 Y16.6744
G01 X15.9557 Y16.6539
G01 X15.9628 Y16.6482
G01 X15.9849 Y16.6319
G01 X16.0136 Y16.6143
G01 X16.0242 Y16.6086
G01 X16.0519 Y16.5957
G01 X16.0864 Y16.5834
G01 X16.1160 Y16.5758
G01 X16.1278 Y16.5734
G01 X16.1580 Y16.5691
G01 X16.1916 Y16.5673
G01 X16.8506 Y16.5674
G01 X16.8812 Y16.5691
G01 X16.9173 Y16.5745
G01 X16.9528 Y16.5834
G01 X16.9817 Y16.5935
G01 X16.9901 Y16.5969
G01 X17.0204 Y16.6113
G01 X17.0518 Y16.6301
G01 X17.0812 Y16.6519
G01 X17.1083 Y16.6765
G01 X17.1329 Y16.7036
G01 X17.1547 Y16.7330
G01 X17.1735 Y16.7644
G01 X17.1867 Y16.7920
G01 X17.1902 Y16.8003
G01 X17.2014 Y16.8320
G01 X17.2090 Y16.8616
G01 X17.2114 Y16.8734
G01 X17.2160 Y16.9067
G01 X17.2175 Y16.9402
G01 X17.2175 Y17.1922
G01 X18.8947 Y17.1922
G01 X19.4997 Y16.5871
G01 X19.4926 Y16.5589
G01 X19.4902 Y16.5471
G01 X19.4859 Y16.5169
G01 X19.4841 Y16.4833
G01 X19.4841 Y15.8553
G01 X19.4855 Y15.8248
G01 X19.4866 Y15.8128
G01 X19.4913 Y15.7826
G01 X19.5002 Y15.7471
G01 X19.5103 Y15.7182
G01 X19.5149 Y15.7071
G01 X19.5281 Y15.6795
G01 X19.5469 Y15.6481
G01 X19.5650 Y15.6235
G01 X19.5727 Y15.6142
G01 X19.5933 Y15.5916
G01 X19.6204 Y15.5670
G01 X19.6498 Y15.5452
G01 X19.6760 Y15.5294
G01 X19.6866 Y15.5237
G01 X19.7143 Y15.5108
G01 X19.7488 Y15.4985
G01 X19.7784 Y15.4909
G01 X19.7902 Y15.4885
G01 X19.8235 Y15.4839
G01 X19.8570 Y15.4824
G01 X21.1070 Y15.4824
G01 X21.1375 Y15.4838
G01 X21.1495 Y15.4849
G01 X21.1797 Y15.4896
G01 X21.2094 Y15.4968
G01 X21.2210 Y15.5003
G01 X21.2497 Y15.5108
G01 X21.2774 Y15.5237
G01 X21.2880 Y15.5294
G01 X21.3142 Y15.5452
G01 X21.3412 Y15.5652
G01 X21.3663 Y15.5875
G01 X21.3748 Y15.5960
G01 X21.3953 Y15.6187
G01 X21.4136 Y15.6432
G01 X21.4203 Y15.6532
G01 X21.4359 Y15.6795
G01 X21.4491 Y15.7071
G01 X21.4537 Y15.7182
G01 X21.4638 Y15.7471
G01 X21.4727 Y15.7826
G01 X21.4781 Y15.8187
G01 X21.4799 Y15.8523
G01 X21.4799 Y16.4803
G01 X21.4781 Y16.5169
G01 X21.4727 Y16.5530
G01 X21.4638 Y16.5885
G01 X21.4515 Y16.6230
G01 X21.4359 Y16.6561
G01 X21.4203 Y16.6824
G01 X21.4136 Y16.6924
G01 X21.3971 Y16.7145
G01 X21.3913 Y16.7214
G01 X21.3707 Y16.7440
G01 X21.3481 Y16.7646
G01 X21.3388 Y16.7723
G01 X21.3142 Y16.7904
G01 X21.2828 Y16.8092
G01 X21.2497 Y16.8248
G01 X21.2210 Y16.8353
G01 X21.2124 Y16.8380
G01 X21.1797 Y16.8460
G01 X21.1495 Y16.8507
G01 X21.1405 Y16.8517
G01 X21.1100 Y16.8532
G01 X20.6260 Y16.8532
G01 X20.6260 Y17.7068
G01 X20.6452 Y17.6876
G01 X20.6697 Y17.6655
G01 X20.6767 Y17.6598
G01 X20.7009 Y17.6420
G01 X20.7085 Y17.6370
G01 X20.7369 Y17.6202
G01 X20.7694 Y17.6046
G01 X20.7778 Y17.6013
G01 X20.8090 Y17.5903
G01 X20.8468 Y17.5808
G01 X20.8855 Y17.5751
G01 X20.9245 Y17.5732
G01 X33.7223 Y17.5732
G01 X33.7678 Y17.4458
G01 X33.8254 Y17.3240
G01 X33.8947 Y17.2085
G01 X33.9749 Y17.1002
G01 X34.0654 Y17.0004
G01 X34.1652 Y16.9099
G01 X34.2735 Y16.8297
G01 X34.3838 Y16.7634
G01 X34.3944 Y16.7577
G01 X34.5053 Y16.7053
G01 X34.5164 Y16.7006
G01 X34.6377 Y16.6574
G01 X34.7625 Y16.6260
G01 X34.7743 Y16.6236
G01 X34.9016 Y16.6049
G01 X35.0362 Y16.5983
G01 X35.1708 Y16.6049
G01 X35.2981 Y16.6236
G01 X35.3070 Y16.6253
G01 X35.4347 Y16.6574
G01 X35.5560 Y16.7006
G01 X35.5671 Y16.7053
G01 X35.6834 Y16.7604
G01 X35.7938 Y16.8264
G01 X35.8039 Y16.8331
G01 X35.9072 Y16.9099
G01 X36.0026 Y16.9963
G01 X36.0111 Y17.0048
G01 X36.0975 Y17.1002
G01 X36.1743 Y17.2035
G01 X36.1810 Y17.2136
G01 X36.2470 Y17.3240
G01 X36.3021 Y17.4403
G01 X36.3068 Y17.4514
G01 X36.3501 Y17.5732
G01 X38.8746 Y17.5732
G01 X38.9106 Y17.5751
G01 X38.9493 Y17.5808
G01 X38.9871 Y17.5903
G01 X39.0183 Y17.6013
G01 X39.0267 Y17.6046
G01 X39.0538 Y17.6175
G01 X39.0645 Y17.6231
G01 X39.0927 Y17.6402
G01 X39.1194 Y17.6598
G01 X39.1264 Y17.6655
G01 X39.1531 Y17.6897
G01 X43.8521 Y22.3887
G01 X43.8743 Y22.4131
G01 X43.8802 Y22.4200
G01 X43.9016 Y22.4491
G01 X43.9187 Y22.4773
G01 X43.9243 Y22.4880
G01 X43.9383 Y22.5179
G01 X43.9515 Y22.5547
G01 X43.9597 Y22.5867
G01 X43.9620 Y22.5985
G01 X43.9667 Y22.6312
G01 X43.9686 Y22.6702
G01 X43.9686 Y23.3231
G01 X43.9947 Y23.3324
G01 X44.0031 Y23.3358
G01 X44.0945 Y23.3790
G01 X44.1026 Y23.3831
G01 X44.1944 Y23.4383
G01 X44.2782 Y23.5003
G01 X44.2853 Y23.5059
G01 X44.3646 Y23.5780
G01 X44.4386 Y23.6596
G01 X44.5043 Y23.7482
G01 X44.5595 Y23.8400
G01 X44.5636 Y23.8481
G01 X44.6080 Y23.9423
G01 X44.6451 Y24.0460
G01 X44.6719 Y24.1529
G01 X44.6874 Y24.2559
G01 X44.6885 Y24.2680
G01 X44.6934 Y24.3660
G01 X44.6934 Y24.3780
G01 X44.6881 Y24.4821
G01 X44.6730 Y24.5851
G01 X44.6713 Y24.5940
G01 X44.6451 Y24.6980
G01 X44.6102 Y24.7961
G01 X44.6056 Y24.8072
G01 X44.5609 Y24.9013
G01 X44.5075 Y24.9908
G01 X44.5008 Y25.0008
G01 X44.4386 Y25.0844
G01 X44.3688 Y25.1616
G01 X44.3602 Y25.1702
G01 X44.2830 Y25.2400
G01 X44.1994 Y25.3022
G01 X44.1894 Y25.3089
G01 X44.0999 Y25.3623
G01 X44.0058 Y25.4070
G01 X43.9947 Y25.4116
G01 X43.8966 Y25.4465
G01 X43.7897 Y25.4733
G01 X43.6867 Y25.4888
G01 X43.6746 Y25.4899
G01 X43.5706 Y25.4949
G01 X43.4666 Y25.4899
G01 X43.4545 Y25.4888
G01 X43.3515 Y25.4733
G01 X43.2505 Y25.4482
G01 X43.2389 Y25.4447
G01 X43.1409 Y25.4094
G01 X43.0467 Y25.3650
G01 X43.0360 Y25.3593
G01 X42.9468 Y25.3057
G01 X42.8630 Y25.2437
G01 X42.8537 Y25.2361
G01 X42.7810 Y25.1702
G01 X42.7745 Y25.1639
G01 X42.7065 Y25.0889
G01 X42.6989 Y25.0796
G01 X42.6369 Y24.9958
G01 X42.5833 Y24.9066
G01 X42.5776 Y24.8959
G01 X42.5332 Y24.8017
G01 X42.4961 Y24.6980
G01 X42.4693 Y24.5911
G01 X42.4538 Y24.4881
G01 X42.4527 Y24.4760
G01 X42.4477 Y24.3720
G01 X42.4527 Y24.2680
G01 X42.4538 Y24.2559
G01 X42.4687 Y24.1559
G01 X42.4706 Y24.1470
G01 X42.4961 Y24.0460
G01 X42.5310 Y23.9479
G01 X42.5356 Y23.9368
G01 X42.5803 Y23.8427
G01 X42.6337 Y23.7532
G01 X42.6404 Y23.7432
G01 X42.6989 Y23.6644
G01 X42.7045 Y23.6573
G01 X42.7724 Y23.5824
G01 X42.7810 Y23.5738
G01 X42.8582 Y23.5040
G01 X42.9443 Y23.4400
G01 X42.9518 Y23.4351
G01 X43.0360 Y23.3847
G01 X43.0439 Y23.3803
G01 X43.1381 Y23.3358
G01 X43.1465 Y23.3324
G01 X43.1726 Y23.3231
G01 X43.1726 Y22.8351
G01 X38.7067 Y18.3692
G01 X36.3501 Y18.3692
G01 X36.3068 Y18.4910
G01 X36.3021 Y18.5021
G01 X36.2470 Y18.6184
G01 X36.1777 Y18.7339
G01 X36.0975 Y18.8422
G01 X36.0111 Y18.9376
G01 X36.0026 Y18.9461
G01 X35.9117 Y19.0285
G01 X35.9024 Y19.0362
G01 X35.7989 Y19.1127
G01 X35.6834 Y19.1820
G01 X35.5616 Y19.2396
G01 X35.4405 Y19.2831
G01 X35.4289 Y19.2866
G01 X35.3099 Y19.3164
G01 X35.2981 Y19.3188
G01 X35.1708 Y19.3375
G01 X35.0362 Y19.3441
G01 X34.9016 Y19.3375
G01 X34.7743 Y19.3188
G01 X34.7625 Y19.3164
G01 X34.6435 Y19.2866
G01 X34.6319 Y19.2831
G01 X34.5108 Y19.2396
G01 X34.3890 Y19.1820
G01 X34.2735 Y19.1127
G01 X34.1700 Y19.0362
G01 X34.1607 Y19.0285
G01 X34.0698 Y18.9461
G01 X34.0613 Y18.9376
G01 X33.9749 Y18.8422
G01 X33.8947 Y18.7339
G01 X33.8254 Y18.6184
G01 X33.7703 Y18.5021
G01 X33.7656 Y18.4910
G01 X33.7223 Y18.3692
G01 X21.2259 Y18.3692
G01 X21.2259 Y18.9802
G01 X21.2241 Y19.0168
G01 X21.2193 Y19.0500
G01 X21.2174 Y19.0588
G01 X21.2098 Y19.0884
G01 X21.1975 Y19.1229
G01 X21.1819 Y19.1560
G01 X21.1631 Y19.1874
G01 X21.1413 Y19.2168
G01 X21.1167 Y19.2439
G01 X21.0896 Y19.2685
G01 X21.0651 Y19.2868
G01 X21.0551 Y19.2935
G01 X21.0288 Y19.3091
G01 X21.0012 Y19.3223
G01 X20.9901 Y19.3269
G01 X20.9612 Y19.3370
G01 X20.9316 Y19.3446
G01 X20.9198 Y19.3470
G01 X20.8896 Y19.3513
G01 X20.8590 Y19.3530
G01 X19.6030 Y19.3531
G01 X19.5725 Y19.3517
G01 X19.5605 Y19.3506
G01 X19.5303 Y19.3459
G01 X19.4948 Y19.3370
G01 X19.4603 Y19.3247
G01 X19.4326 Y19.3118
G01 X19.4246 Y19.3076
G01 X19.4009 Y19.2935
G01 X19.3909 Y19.2868
G01 X19.3664 Y19.2685
G01 X19.3393 Y19.2439
G01 X19.3147 Y19.2168
G01 X19.2964 Y19.1923
G01 X19.2897 Y19.1823
G01 X19.2727 Y19.1533
G01 X19.2585 Y19.1229
G01 X19.2480 Y19.0942
G01 X19.2445 Y19.0826
G01 X19.2367 Y19.0500
G01 X19.2319 Y19.0168
G01 X19.2301 Y18.9832
G01 X19.2301 Y18.3552
G01 X19.2315 Y18.3247
G01 X19.2322 Y18.3157
G01 X19.2367 Y18.2854
G01 X19.2386 Y18.2766
G01 X19.2462 Y18.2470
G01 X19.2563 Y18.2181
G01 X19.2609 Y18.2070
G01 X19.2741 Y18.1794
G01 X19.2929 Y18.1480
G01 X19.3147 Y18.1186
G01 X19.3352 Y18.0959
G01 X19.3437 Y18.0874
G01 X19.3664 Y18.0669
G01 X19.3909 Y18.0486
G01 X19.3984 Y18.0435
G01 X19.4246 Y18.0278
G01 X19.4326 Y18.0236
G01 X19.4603 Y18.0107
G01 X19.4948 Y17.9984
G01 X19.5303 Y17.9895
G01 X19.5635 Y17.9844
G01 X19.5725 Y17.9837
G01 X19.6030 Y17.9823
G01 X19.8300 Y17.9823
G01 X19.8300 Y17.3827
G01 X19.3411 Y17.8717
G01 X19.3144 Y17.8959
G01 X19.3074 Y17.9016
G01 X19.2807 Y17.9212
G01 X19.2525 Y17.9383
G01 X19.2418 Y17.9439
G01 X19.2119 Y17.9579
G01 X19.1809 Y17.9692
G01 X19.1722 Y17.9719
G01 X19.1402 Y17.9800
G01 X19.1313 Y17.9816
G01 X19.0986 Y17.9863
G01 X19.0596 Y17.9882
G01 X17.2175 Y17.9882
G01 X17.2175 Y18.2402
G01 X17.2157 Y18.2768
G01 X17.2103 Y18.3129
G01 X17.2014 Y18.3484
G01 X17.1891 Y18.3829
G01 X17.1762 Y18.4106
G01 X17.1705 Y18.4212
G01 X17.1547 Y18.4474
G01 X17.1329 Y18.4768
G01 X17.1083 Y18.5039
G01 X17.0857 Y18.5245
G01 X17.0788 Y18.5303
G01 X17.0567 Y18.5468
G01 X17.0492 Y18.5519
G01 X17.0230 Y18.5676
G01 X17.0150 Y18.5718
G01 X16.9873 Y18.5847
G01 X16.9586 Y18.5952
G01 X16.9500 Y18.5979
G01 X16.9203 Y18.6053
G01 X16.9114 Y18.6070
G01 X16.8812 Y18.6113
G01 X16.8446 Y18.6131
G01 X16.1946 Y18.6131
G01 X16.1580 Y18.6113
G01 X16.1278 Y18.6070
G01 X16.1160 Y18.6046
G01 X16.0835 Y18.5961
G01 X16.0519 Y18.5847
G01 X16.0215 Y18.5705
G01 X15.9925 Y18.5535
G01 X15.9825 Y18.5468
G01 X15.9580 Y18.5285
G01 X15.9309 Y18.5039
G01 X15.9063 Y18.4768
G01 X15.8880 Y18.4523
G01 X15.8829 Y18.4448
G01 X15.8687 Y18.4212
G01 X15.8630 Y18.4106
G01 X15.8501 Y18.3829
G01 X15.8378 Y18.3484
G01 X15.8289 Y18.3129
G01 X15.8242 Y18.2827
G01 X15.8231 Y18.2707
G01 X15.8217 Y18.2402
G00 Z2.0000
G00 X17.3633 Y18.2803
G01 F40.00
G01 Z-0.1300
G01 F50.00
G01 X17.3650 Y18.2402
G01 X17.3650 Y18.1357
G01 X17.5415 Y18.1357
G01 X17.5208 Y18.1431
G01 X17.5085 Y18.1485
G01 X17.4965 Y18.1544
G01 X17.4848 Y18.1610
G01 X17.4734 Y18.1681
G01 X17.4623 Y18.1758
G01 X17.4517 Y18.1840
G01 X17.4366 Y18.1972
G01 X17.4225 Y18.2116
G01 X17.3715 Y18.2703
G01 X17.3633 Y18.2803
G00 Z2.0000
G00 X17.5467 Y17.0447
G01 F40.00
G01 Z-0.1300
G01 F50.00
G01 X17.3650 Y17.0447
G01 X17.3649 Y16.9336
G01 X17.3630 Y16.8951
G01 X17.3890 Y16.9327
G01 X17.4011 Y16.9488
G01 X17.4098 Y16.9590
G01 X17.4190 Y16.9688
G01 X17.4287 Y16.9781
G01 X17.4388 Y16.9870
G01 X17.4494 Y16.9953
G01 X17.4603 Y17.0030
G01 X17.4716 Y17.0103
G01 X17.4833 Y17.0169
G01 X17.5014 Y17.0258
G01 X17.5467 Y17.0447
G00 Z2.0000
G00 X18.8345 Y17.0439
G01 F40.00
G01 Z-0.1300
G01 F50.00
G01 X18.8336 Y17.0447
G01 X18.8319 Y17.0447
G01 X18.8335 Y17.0442
G01 X18.8345 Y17.0439
G00 Z2.0000
G00 X19.3395 Y16.5346
G01 F40.00
G01 Z-0.1300
G01 F50.00
G01 X19.3399 Y16.5384
G01 X19.3352 Y16.5431
G01 X19.3360 Y16.5416
G01 X19.3395 Y16.5346
G00 Z2.0000
G00 X19.5859 Y17.8353
G01 F40.00
G01 Z-0.1300
G01 F50.00
G01 X19.6825 Y17.7388
G01 X19.6825 Y17.8348
G01 X19.6030 Y17.8348
G01 X19.5859 Y17.8353
G00 Z2.0000
G00 X18.8753 Y18.1357
G01 F40.00
G01 Z-0.1300
G01 F50.00
G01 X19.0662 Y18.1356
G01 X19.1065 Y18.1337
G01 X19.1197 Y18.1324
G01 X19.1341 Y18.1303
G01 X19.1222 Y18.1561
G01 X19.1175 Y18.1684
G01 X19.1070 Y18.1978
G01 X19.1032 Y18.2105
G01 X19.0940 Y18.2472
G01 X19.0904 Y18.2668
G01 X19.0851 Y18.3042
G01 X19.0841 Y18.3174
G01 X19.0827 Y18.3513
G01 X19.0775 Y18.3363
G01 X19.0725 Y18.3239
G01 X19.0638 Y18.3057
G01 X19.0572 Y18.2940
G01 X19.0501 Y18.2826
G01 X19.0424 Y18.2716
G01 X19.0342 Y18.2609
G01 X19.0210 Y18.2458
G01 X19.0115 Y18.2363
G01 X19.0016 Y18.2272
G01 X18.9479 Y18.1807
G01 X18.9321 Y18.1681
G01 X18.9211 Y18.1603
G01 X18.9038 Y18.1497
G01 X18.8919 Y18.1433
G01 X18.8753 Y18.1357
G00 Z2.0000
G00 X21.2780 Y17.2782
G01 F40.00
G01 Z-0.1300
G01 F50.00
G01 X20.9210 Y17.2782
G01 X20.9210 Y17.1482
G01 X21.1070 Y17.1482
G01 X21.1275 Y17.1477
G01 X21.1622 Y17.1458
G01 X21.1827 Y17.1438
G01 X21.2171 Y17.1388
G01 X21.2416 Y17.1344
G01 X21.2425 Y17.1454
G01 X21.2450 Y17.1660
G01 X21.2485 Y17.1865
G01 X21.2530 Y17.2067
G01 X21.2586 Y17.2267
G01 X21.2651 Y17.2464
G01 X21.2725 Y17.2658
G01 X21.2780 Y17.2782
G00 Z2.0000
G00 X21.6328 Y17.4257
G01 F40.00
G01 Z-0.1300
G01 F50.00
G01 X20.9179 Y17.4258
G01 X20.8776 Y17.4277
G01 X20.8579 Y17.4299
G01 X20.8181 Y17.4362
G01 X20.8051 Y17.4391
G01 X20.7735 Y17.4471
G01 X20.7735 Y17.0007
G01 X21.1136 Y17.0006
G01 X21.1448 Y16.9992
G01 X21.1580 Y16.9982
G01 X21.1712 Y16.9965
G01 X21.2020 Y16.9919
G01 X21.2215 Y16.9878
G01 X21.2581 Y16.9783
G01 X21.2938 Y16.9658
G01 X21.3122 Y16.9585
G01 X21.3464 Y16.9423
G01 X21.3639 Y16.9327
G01 X21.3961 Y16.9130
G01 X21.4224 Y16.8939
G01 X21.4131 Y16.9110
G01 X21.4073 Y16.9230
G01 X21.4020 Y16.9354
G01 X21.3953 Y16.9544
G01 X21.3917 Y16.9673
G01 X21.3874 Y16.9870
G01 X21.3853 Y17.0003
G01 X21.3835 Y17.0203
G01 X21.3831 Y17.0337
G01 X21.3834 Y17.0472
G01 X21.3888 Y17.1247
G01 X21.3901 Y17.1381
G01 X21.3932 Y17.1579
G01 X21.3961 Y17.1710
G01 X21.4017 Y17.1904
G01 X21.4063 Y17.2030
G01 X21.4114 Y17.2154
G01 X21.4172 Y17.2276
G01 X21.4269 Y17.2452
G01 X21.4341 Y17.2565
G01 X21.4419 Y17.2675
G01 X21.4885 Y17.3297
G01 X21.4970 Y17.3400
G01 X21.5108 Y17.3547
G01 X21.5257 Y17.3683
G01 X21.5361 Y17.3768
G01 X21.5525 Y17.3885
G01 X21.5639 Y17.3956
G01 X21.5756 Y17.4021
G01 X21.5938 Y17.4107
G01 X21.6328 Y17.4257
G00 Z2.0000
G00 X21.3734 Y18.7242
G01 F40.00
G01 Z-0.1300
G01 F50.00
G01 X21.3734 Y18.5167
G01 X21.5885 Y18.5167
G01 X21.5741 Y18.5217
G01 X21.5617 Y18.5267
G01 X21.5495 Y18.5324
G01 X21.5318 Y18.5420
G01 X21.5204 Y18.5491
G01 X21.5094 Y18.5568
G01 X21.4987 Y18.5650
G01 X21.4836 Y18.5782
G01 X21.4741 Y18.5877
G01 X21.4650 Y18.5976
G01 X21.4185 Y18.6513
G01 X21.4059 Y18.6671
G01 X21.3981 Y18.6781
G01 X21.3875 Y18.6954
G01 X21.3811 Y18.7073
G01 X21.3734 Y18.7242
G00 Z2.0000
G00 X19.2956 Y22.3247
G01 F40.00
G01 Z-0.1300
G01 F50.00
G01 X19.3015 Y22.3291
G01 X19.3015 Y22.3415
G01 X19.2989 Y22.3336
G01 X19.2956 Y22.3247
G00 Z2.0000
G00 X20.8406 Y22.8669
G01 F40.00
G01 Z-0.1300
G01 F50.00
G01 X20.3993 Y22.4256
G01 X20.8596 Y22.4255
G01 X20.8974 Y22.4236
G01 X20.9106 Y22.4223
G01 X20.9480 Y22.4168
G01 X20.9611 Y22.4142
G01 X20.9470 Y22.4244
G01 X20.9368 Y22.4325
G01 X20.9270 Y22.4411
G01 X20.9176 Y22.4501
G01 X20.9043 Y22.4645
G01 X20.8961 Y22.4747
G01 X20.8883 Y22.4852
G01 X20.8811 Y22.4960
G01 X20.8744 Y22.5072
G01 X20.8683 Y22.5187
G01 X20.8601 Y22.5365
G01 X20.8304 Y22.6083
G01 X20.8259 Y22.6209
G01 X20.8220 Y22.6338
G01 X20.8173 Y22.6534
G01 X20.8151 Y22.6666
G01 X20.8134 Y22.6800
G01 X20.8123 Y22.7001
G01 X20.8123 Y22.7135
G01 X20.8130 Y22.7269
G01 X20.8144 Y22.7403
G01 X20.8164 Y22.7535
G01 X20.8302 Y22.8300
G01 X20.8350 Y22.8496
G01 X20.8406 Y22.8669
G00 Z2.0000
G00 X20.9517 Y24.5209
G01 F40.00
G01 Z-0.1300
G01 F50.00
G01 X20.9525 Y24.5218
G01 X20.9525 Y24.5235
G01 X20.9520 Y24.5219
G01 X20.9517 Y24.5209
G00 Z2.0000
G00 X20.9525 Y25.3497
G01 F40.00
G01 Z-0.1300
G01 F50.00
G01 X20.9525 Y25.5314
G01 X20.8414 Y25.5315
G01 X20.8029 Y25.5334
G01 X20.8405 Y25.5074
G01 X20.8566 Y25.4953
G01 X20.8668 Y25.4866
G01 X20.8766 Y25.4774
G01 X20.8859 Y25.4677
G01 X20.8948 Y25.4576
G01 X20.9031 Y25.4470
G01 X20.9108 Y25.4361
G01 X20.9181 Y25.4248
G01 X20.9247 Y25.4131
G01 X20.9336 Y25.3950
G01 X20.9525 Y25.3497
G00 Z2.0000
G00 X20.4179 Y25.7590
G01 F40.00
G01 Z-0.1300
G01 F50.00
G01 X20.4121 Y25.7676
G01 X20.3943 Y25.7676
G01 X20.4085 Y25.7627
G01 X20.4179 Y25.7590
G00 Z2.0000
G00 X20.2865 Y26.8586
G01 F40.00
G01 Z-0.1300
G01 F50.00
G01 X20.3519 Y26.8586
G01 X20.3648 Y26.8948
G01 X20.3738 Y26.9157
G01 X20.3554 Y26.8995
G01 X20.3450 Y26.8914
G01 X20.3343 Y26.8839
G01 X20.3232 Y26.8769
G01 X20.3118 Y26.8705
G01 X20.3001 Y26.8646
G01 X20.2865 Y26.8586
G00 Z2.0000
G00 X19.0457 Y26.8810
G01 F40.00
G01 Z-0.1300
G01 F50.00
G01 X19.0513 Y26.8709
G01 X19.0575 Y26.8586
G01 X19.0974 Y26.8586
G01 X19.0832 Y26.8635
G01 X19.0709 Y26.8684
G01 X19.0589 Y26.8740
G01 X19.0457 Y26.8810
G00 Z2.0000
G00 X19.0966 Y25.7676
G01 F40.00
G01 Z-0.1300
G01 F50.00
G01 X19.0575 Y25.7676
G01 X19.0513 Y25.7553
G01 X19.0409 Y25.7373
G01 X19.0966 Y25.7676
G00 Z2.0000
G00 X16.9720 Y25.9581
G01 F40.00
G01 Z-0.1300
G01 F50.00
G01 X16.9767 Y25.9279
G01 X16.9856 Y25.8924
G01 X16.9979 Y25.8579
G01 X17.0108 Y25.8302
G01 X17.0165 Y25.8196
G01 X17.0307 Y25.7960
G01 X17.0358 Y25.7885
G01 X17.0541 Y25.7640
G01 X17.0787 Y25.7369
G01 X17.1058 Y25.7123
G01 X17.1352 Y25.6905
G01 X17.1666 Y25.6717
G01 X17.1942 Y25.6585
G01 X17.2025 Y25.6550
G01 X17.2284 Y25.6456
G01 X17.2400 Y25.6421
G01 X17.2697 Y25.6349
G01 X17.2999 Y25.6302
G01 X17.3089 Y25.6292
G01 X17.3424 Y25.6277
G01 X18.5924 Y25.6277
G01 X18.6290 Y25.6295
G01 X18.6622 Y25.6343
G01 X18.6948 Y25.6421
G01 X18.7064 Y25.6456
G01 X18.7351 Y25.6561
G01 X18.7682 Y25.6717
G01 X18.7945 Y25.6873
G01 X18.8045 Y25.6940
G01 X18.8290 Y25.7123
G01 X18.8539 Y25.7348
G01 X18.8767 Y25.7595
G01 X18.8844 Y25.7688
G01 X18.9025 Y25.7934
G01 X18.9198 Y25.8222
G01 X18.9240 Y25.8302
G01 X18.9380 Y25.8607
G01 X18.9492 Y25.8924
G01 X18.9551 Y25.9151
G01 X20.5012 Y25.9151
G01 X20.5059 Y25.9036
G01 X20.5191 Y25.8760
G01 X20.5379 Y25.8446
G01 X20.5597 Y25.8152
G01 X20.5843 Y25.7881
G01 X20.6114 Y25.7635
G01 X20.6408 Y25.7417
G01 X20.6722 Y25.7229
G01 X20.6998 Y25.7097
G01 X20.7081 Y25.7062
G01 X20.7398 Y25.6950
G01 X20.7694 Y25.6874
G01 X20.7812 Y25.6850
G01 X20.8145 Y25.6804
G01 X20.8480 Y25.6789
G01 X21.1000 Y25.6789
G01 X21.1000 Y24.4607
G01 X19.5655 Y22.9263
G01 X19.5393 Y22.8973
G01 X19.5195 Y22.8709
G01 X19.5128 Y22.8608
G01 X19.4960 Y22.8324
G01 X19.4817 Y22.8026
G01 X19.4771 Y22.7915
G01 X19.4661 Y22.7603
G01 X19.4579 Y22.7283
G01 X19.4561 Y22.7195
G01 X19.4512 Y22.6868
G01 X19.4504 Y22.6778
G01 X19.4490 Y22.6448
G01 X19.4490 Y22.2445
G01 X19.4272 Y22.2341
G01 X19.3984 Y22.2169
G01 X19.3909 Y22.2118
G01 X19.3641 Y22.1915
G01 X19.3393 Y22.1689
G01 X19.3187 Y22.1463
G01 X19.3110 Y22.1370
G01 X19.2913 Y22.1098
G01 X19.2741 Y22.0810
G01 X19.2609 Y22.0534
G01 X19.2563 Y22.0423
G01 X19.2462 Y22.0134
G01 X19.2373 Y21.9779
G01 X19.2326 Y21.9477
G01 X19.2315 Y21.9357
G01 X19.2301 Y21.9052
G01 X19.2301 Y21.2802
G01 X19.2319 Y21.2436
G01 X19.2373 Y21.2075
G01 X19.2462 Y21.1720
G01 X19.2563 Y21.1431
G01 X19.2609 Y21.1320
G01 X19.2727 Y21.1071
G01 X19.2771 Y21.0992
G01 X19.2929 Y21.0730
G01 X19.3110 Y21.0484
G01 X19.3187 Y21.0391
G01 X19.3393 Y21.0165
G01 X19.3664 Y20.9919
G01 X19.3958 Y20.9701
G01 X19.4220 Y20.9543
G01 X19.4299 Y20.9499
G01 X19.4548 Y20.9381
G01 X19.4631 Y20.9346
G01 X19.4919 Y20.9243
G01 X19.5006 Y20.9217
G01 X19.5303 Y20.9145
G01 X19.5605 Y20.9098
G01 X19.5695 Y20.9088
G01 X19.6000 Y20.9073
G01 X20.8560 Y20.9073
G01 X20.8896 Y20.9091
G01 X20.9257 Y20.9145
G01 X20.9612 Y20.9234
G01 X20.9901 Y20.9335
G01 X20.9985 Y20.9369
G01 X21.0234 Y20.9486
G01 X21.0340 Y20.9543
G01 X21.0602 Y20.9701
G01 X21.0896 Y20.9919
G01 X21.1167 Y21.0165
G01 X21.1413 Y21.0436
G01 X21.1631 Y21.0730
G01 X21.1819 Y21.1044
G01 X21.1975 Y21.1375
G01 X21.2098 Y21.1720
G01 X21.2187 Y21.2075
G01 X21.2234 Y21.2377
G01 X21.2244 Y21.2467
G01 X21.2259 Y21.2802
G01 X21.2259 Y21.9052
G01 X21.2245 Y21.9357
G01 X21.2234 Y21.9477
G01 X21.2187 Y21.9779
G01 X21.2098 Y22.0134
G01 X21.1975 Y22.0479
G01 X21.1846 Y22.0756
G01 X21.1804 Y22.0836
G01 X21.1663 Y22.1073
G01 X21.1613 Y22.1149
G01 X21.1431 Y22.1394
G01 X21.1373 Y22.1463
G01 X21.1167 Y22.1689
G01 X21.0941 Y22.1895
G01 X21.0872 Y22.1953
G01 X21.0651 Y22.2118
G01 X21.0551 Y22.2185
G01 X21.0288 Y22.2341
G01 X20.9957 Y22.2497
G01 X20.9612 Y22.2620
G01 X20.9257 Y22.2709
G01 X20.8896 Y22.2763
G01 X20.8530 Y22.2781
G01 X20.2450 Y22.2781
G01 X20.2450 Y22.4799
G01 X21.7795 Y24.0143
G01 X21.8057 Y24.0433
G01 X21.8255 Y24.0697
G01 X21.8322 Y24.0798
G01 X21.8504 Y24.1108
G01 X21.8646 Y24.1407
G01 X21.8679 Y24.1491
G01 X21.8789 Y24.1803
G01 X21.8871 Y24.2123
G01 X21.8889 Y24.2211
G01 X21.8938 Y24.2538
G01 X21.8946 Y24.2628
G01 X21.8960 Y24.2928
G01 X21.8960 Y25.6789
G01 X22.1480 Y25.6789
G01 X22.1815 Y25.6804
G01 X22.2148 Y25.6850
G01 X22.2266 Y25.6874
G01 X22.2562 Y25.6950
G01 X22.2879 Y25.7062
G01 X22.2962 Y25.7097
G01 X22.3238 Y25.7229
G01 X22.3552 Y25.7417
G01 X22.3846 Y25.7635
G01 X22.4117 Y25.7881
G01 X22.4363 Y25.8152
G01 X22.4581 Y25.8446
G01 X22.4769 Y25.8760
G01 X22.4913 Y25.9063
G01 X22.4947 Y25.9147
G01 X22.5048 Y25.9436
G01 X22.5137 Y25.9791
G01 X22.5191 Y26.0152
G01 X22.5209 Y26.0488
G01 X22.5209 Y26.7018
G01 X22.5195 Y26.7323
G01 X22.5184 Y26.7443
G01 X22.5143 Y26.7716
G01 X22.5124 Y26.7804
G01 X22.5048 Y26.8100
G01 X22.4925 Y26.8445
G01 X22.4796 Y26.8722
G01 X22.4739 Y26.8828
G01 X22.4581 Y26.9090
G01 X22.4363 Y26.9384
G01 X22.4117 Y26.9655
G01 X22.3846 Y26.9901
G01 X22.3552 Y27.0119
G01 X22.3238 Y27.0307
G01 X22.2907 Y27.0463
G01 X22.2562 Y27.0586
G01 X22.2207 Y27.0675
G01 X22.1905 Y27.0722
G01 X22.1815 Y27.0732
G01 X22.1480 Y27.0747
G01 X20.8480 Y27.0747
G01 X20.8145 Y27.0732
G01 X20.8055 Y27.0722
G01 X20.7753 Y27.0675
G01 X20.7398 Y27.0586
G01 X20.7053 Y27.0463
G01 X20.6776 Y27.0334
G01 X20.6670 Y27.0277
G01 X20.6434 Y27.0135
G01 X20.6359 Y27.0084
G01 X20.6114 Y26.9901
G01 X20.5887 Y26.9696
G01 X20.5822 Y26.9633
G01 X20.5597 Y26.9384
G01 X20.5379 Y26.9090
G01 X20.5191 Y26.8776
G01 X20.5035 Y26.8445
G01 X20.4912 Y26.8100
G01 X20.4823 Y26.7745
G01 X20.4769 Y26.7384
G01 X20.4754 Y26.7111
G01 X18.9551 Y26.7111
G01 X18.9492 Y26.7338
G01 X18.9380 Y26.7655
G01 X18.9240 Y26.7960
G01 X18.9198 Y26.8040
G01 X18.9025 Y26.8328
G01 X18.8844 Y26.8574
G01 X18.8767 Y26.8667
G01 X18.8539 Y26.8914
G01 X18.8290 Y26.9139
G01 X18.8045 Y26.9322
G01 X18.7945 Y26.9389
G01 X18.7682 Y26.9545
G01 X18.7351 Y26.9701
G01 X18.7064 Y26.9806
G01 X18.6948 Y26.9841
G01 X18.6622 Y26.9919
G01 X18.6290 Y26.9967
G01 X18.5924 Y26.9985
G01 X17.3424 Y26.9985
G01 X17.3058 Y26.9967
G01 X17.2726 Y26.9919
G01 X17.2400 Y26.9841
G01 X17.2284 Y26.9806
G01 X17.1997 Y26.9701
G01 X17.1720 Y26.9572
G01 X17.1614 Y26.9515
G01 X17.1352 Y26.9357
G01 X17.1106 Y26.9176
G01 X17.1013 Y26.9099
G01 X17.0787 Y26.8893
G01 X17.0581 Y26.8667
G01 X17.0504 Y26.8574
G01 X17.0323 Y26.8328
G01 X17.0135 Y26.8014
G01 X17.0003 Y26.7738
G01 X16.9957 Y26.7627
G01 X16.9856 Y26.7338
G01 X16.9780 Y26.7042
G01 X16.9756 Y26.6924
G01 X16.9713 Y26.6622
G01 X16.9695 Y26.6286
G01 X16.9695 Y26.0006
G01 X16.9709 Y25.9701
G01 X16.9720 Y25.9581
G00 Z2.0000
G00 X16.7068 Y25.9566
G01 F40.00
G01 Z-0.1300
G01 F50.00
G01 X16.7157 Y25.8705
G01 X16.7629 Y25.7291
G01 X16.8409 Y25.6031
G01 X16.9458 Y25.4984
G01 X17.0720 Y25.4206
G01 X17.2135 Y25.3737
G01 X17.2983 Y25.3650
G01 X18.6364 Y25.3650
G01 X18.7225 Y25.3739
G01 X18.8639 Y25.4211
G01 X18.9899 Y25.4991
G01 X19.0722 Y25.5815
G01 X19.0810 Y25.5892
G01 X19.0881 Y25.5943
G01 X19.0981 Y25.6004
G01 X19.1657 Y25.6373
G01 X19.1797 Y25.6430
G01 X19.1884 Y25.6456
G01 X19.1972 Y25.6476
G01 X19.2062 Y25.6489
G01 X19.2331 Y25.6518
G01 X19.2463 Y25.6525
G01 X20.2453 Y25.6525
G01 X20.2541 Y25.6522
G01 X20.2628 Y25.6512
G01 X20.2771 Y25.6483
G01 X20.3510 Y25.6266
G01 X20.3622 Y25.6224
G01 X20.3704 Y25.6185
G01 X20.3782 Y25.6140
G01 X20.3857 Y25.6090
G01 X20.4139 Y25.5864
G01 X20.4212 Y25.5798
G01 X20.4514 Y25.5496
G01 X20.5776 Y25.4718
G01 X20.6696 Y25.4412
G01 X20.6804 Y25.4368
G01 X20.6882 Y25.4328
G01 X20.6982 Y25.4266
G01 X20.7590 Y25.3844
G01 X20.7707 Y25.3746
G01 X20.7792 Y25.3658
G01 X20.7850 Y25.3587
G01 X20.7902 Y25.3512
G01 X20.7975 Y25.3378
G01 X20.8294 Y25.2611
G01 X20.8329 Y25.2497
G01 X20.8353 Y25.2381
G01 X20.8363 Y25.2292
G01 X20.8374 Y25.2093
G01 X20.8373 Y24.6667
G01 X20.8361 Y24.6550
G01 X20.8332 Y24.6407
G01 X20.8124 Y24.5698
G01 X20.8073 Y24.5556
G01 X20.8034 Y24.5474
G01 X20.7989 Y24.5396
G01 X20.7902 Y24.5273
G01 X20.7712 Y24.5038
G01 X20.7645 Y24.4965
G01 X19.3863 Y23.1183
G01 X19.3318 Y23.0650
G01 X19.3149 Y23.0388
G01 X19.3057 Y23.0259
G01 X19.2845 Y22.9990
G01 X19.2747 Y22.9791
G01 X19.2654 Y22.9624
G01 X19.2515 Y22.9404
G01 X19.2397 Y22.9083
G01 X19.2335 Y22.8937
G01 X19.2200 Y22.8656
G01 X19.2139 Y22.8403
G01 X19.2084 Y22.8220
G01 X19.2009 Y22.8011
G01 X19.1970 Y22.7705
G01 X19.1942 Y22.7546
G01 X19.1866 Y22.7212
G01 X19.1861 Y22.5660
G01 X19.1864 Y22.5569
G01 X19.1864 Y22.4905
G01 X19.1861 Y22.4818
G01 X19.1847 Y22.4702
G01 X19.1822 Y22.4587
G01 X19.1614 Y22.3878
G01 X19.1586 Y22.3792
G01 X19.1551 Y22.3709
G01 X19.1510 Y22.3628
G01 X19.1463 Y22.3551
G01 X19.1411 Y22.3477
G01 X19.1203 Y22.3219
G01 X19.1159 Y22.3170
G01 X19.1008 Y22.3018
G01 X19.0230 Y22.1756
G01 X18.9761 Y22.0341
G01 X18.9674 Y21.9493
G01 X18.9674 Y21.2362
G01 X18.9763 Y21.1501
G01 X19.0235 Y21.0087
G01 X19.1015 Y20.8827
G01 X19.2064 Y20.7780
G01 X19.3326 Y20.7002
G01 X19.4741 Y20.6533
G01 X19.5589 Y20.6446
G01 X20.8970 Y20.6446
G01 X20.9831 Y20.6535
G01 X21.1245 Y20.7007
G01 X21.2505 Y20.7787
G01 X21.3552 Y20.8836
G01 X21.4330 Y21.0098
G01 X21.4799 Y21.1513
G01 X21.4886 Y21.2361
G01 X21.4886 Y21.9492
G01 X21.4797 Y22.0353
G01 X21.4325 Y22.1767
G01 X21.3545 Y22.3027
G01 X21.2496 Y22.4074
G01 X21.1226 Y22.4857
G01 X21.1062 Y22.4933
G01 X21.0930 Y22.5011
G01 X21.0382 Y22.5404
G01 X21.0312 Y22.5458
G01 X21.0245 Y22.5518
G01 X21.0184 Y22.5581
G01 X21.0127 Y22.5650
G01 X21.0075 Y22.5722
G01 X21.0014 Y22.5824
G01 X20.9975 Y22.5904
G01 X20.9691 Y22.6587
G01 X20.9641 Y22.6731
G01 X20.9610 Y22.6880
G01 X20.9600 Y22.6971
G01 X20.9597 Y22.7062
G01 X20.9607 Y22.7215
G01 X20.9754 Y22.8034
G01 X20.9778 Y22.8122
G01 X20.9808 Y22.8208
G01 X20.9845 Y22.8292
G01 X20.9903 Y22.8399
G01 X20.9954 Y22.8475
G01 X21.0207 Y22.8826
G01 X21.0299 Y22.8934
G01 X21.9587 Y23.8223
G01 X22.0132 Y23.8756
G01 X22.0301 Y23.9018
G01 X22.0393 Y23.9147
G01 X22.0605 Y23.9416
G01 X22.0703 Y23.9615
G01 X22.0796 Y23.9782
G01 X22.0935 Y24.0002
G01 X22.1053 Y24.0323
G01 X22.1115 Y24.0469
G01 X22.1250 Y24.0750
G01 X22.1311 Y24.1003
G01 X22.1366 Y24.1186
G01 X22.1441 Y24.1395
G01 X22.1486 Y24.1734
G01 X22.1514 Y24.1891
G01 X22.1584 Y24.2194
G01 X22.1589 Y24.3746
G01 X22.1586 Y24.3837
G01 X22.1586 Y25.2088
G01 X22.1599 Y25.2234
G01 X22.1621 Y25.2349
G01 X22.1854 Y25.3145
G01 X22.1900 Y25.3258
G01 X22.1957 Y25.3366
G01 X22.2024 Y25.3468
G01 X22.2101 Y25.3562
G01 X22.2210 Y25.3669
G01 X22.2747 Y25.4134
G01 X22.2816 Y25.4190
G01 X22.2915 Y25.4257
G01 X22.2993 Y25.4300
G01 X22.3074 Y25.4338
G01 X22.3226 Y25.4398
G01 X22.4195 Y25.4723
G01 X22.5455 Y25.5503
G01 X22.6502 Y25.6552
G01 X22.7280 Y25.7814
G01 X22.7749 Y25.9229
G01 X22.7836 Y26.0077
G01 X22.7836 Y26.7458
G01 X22.7747 Y26.8319
G01 X22.7275 Y26.9733
G01 X22.6495 Y27.0993
G01 X22.5446 Y27.2040
G01 X22.4184 Y27.2818
G01 X22.2769 Y27.3287
G01 X22.1921 Y27.3374
G01 X20.8040 Y27.3374
G01 X20.7179 Y27.3285
G01 X20.5765 Y27.2813
G01 X20.4505 Y27.2033
G01 X20.3458 Y27.0984
G01 X20.3403 Y27.0895
G01 X20.3352 Y27.0823
G01 X20.3297 Y27.0755
G01 X20.3237 Y27.0691
G01 X20.2644 Y27.0157
G01 X20.2550 Y27.0084
