(G-CODE GENERATED BY FLATCAM v8.992 - www.flatcam.org - Version Date: 2020/05/03)

(Name: Phoenix612_MultiStage_PA_Testing_v3-shallow_fast_F_Cu.gbr_iso_cnc_1)
(Type: G-code from Geometry)
(Units: MM)

(Created on Saturday, 11 February 2023 at 20:55)

(This preprocessor is the default preprocessor used by FlatCAM.)
(It is made to work with MACH3 compatible motion controllers.)

(TOOL DIAMETER: 0.2423 mm)
(Feedrate_XY: 120.0 mm/min)
(Feedrate_Z: 80.0 mm/min)
(Feedrate rapids 1500.0 mm/min)

(Z_Cut: -0.12 mm)
(Z_Move: 2.0 mm)
(Z Start: None mm)
(Z End: 10.0 mm)
(Steps per circle: 64)
(Preprocessor Geometry: default)

(X range:    0.4730 ...  132.9145  mm)
(Y range:    0.3246 ...   82.6012  mm)

(Spindle Speed: None RPM)
G21
G90
G94



G01 F120.00
G00 Z2.0000

M03
G00 X3.2826 Y8.8964
G01 F80.00
G01 Z-0.1200
G01 F120.00
G01 X3.2854 Y8.8466
G01 X3.2924 Y8.7972
G01 X3.2946 Y8.7843
G01 X3.2975 Y8.7715
G01 X3.3099 Y8.7232
G01 X3.3264 Y8.6761
G01 X3.3311 Y8.6639
G01 X3.3522 Y8.6187
G01 X3.3581 Y8.6070
G01 X3.3645 Y8.5956
G01 X3.3904 Y8.5530
G01 X3.4199 Y8.5127
G01 X3.4279 Y8.5024
G01 X3.4365 Y8.4925
G01 X3.4657 Y8.4604
G01 X7.6612 Y4.2647
G01 X7.6980 Y4.2310
G01 X7.7079 Y4.2224
G01 X7.7182 Y4.2144
G01 X7.7585 Y4.1849
G01 X7.8011 Y4.1590
G01 X7.8125 Y4.1526
G01 X7.8242 Y4.1467
G01 X7.8694 Y4.1256
G01 X7.8816 Y4.1209
G01 X7.9287 Y4.1044
G01 X7.9770 Y4.0920
G01 X7.9898 Y4.0891
G01 X8.0391 Y4.0815
G01 X8.0530 Y4.0798
G01 X8.1019 Y4.0771
G01 X8.1150 Y4.0768
G01 X49.9615 Y4.0768
G01 X50.0114 Y4.0789
G01 X50.0244 Y4.0799
G01 X50.0738 Y4.0869
G01 X50.0867 Y4.0891
G01 X50.1352 Y4.1009
G01 X50.1540 Y4.1064
G01 X50.1949 Y4.1209
G01 X50.2071 Y4.1256
G01 X50.2190 Y4.1309
G01 X50.2640 Y4.1526
G01 X50.2754 Y4.1590
G01 X50.3180 Y4.1849
G01 X50.3287 Y4.1925
G01 X50.3686 Y4.2224
G01 X50.3785 Y4.2310
G01 X50.4106 Y4.2602
G01 X54.5550 Y8.4044
G01 X55.5488 Y8.4044
G01 X55.5590 Y8.3762
G01 X55.5640 Y8.3641
G01 X55.6297 Y8.2251
G01 X55.6387 Y8.2077
G01 X55.7177 Y8.0758
G01 X55.7247 Y8.0647
G01 X55.7322 Y8.0540
G01 X55.8199 Y7.9358
G01 X55.8280 Y7.9255
G01 X55.8365 Y7.9156
G01 X55.9354 Y7.8065
G01 X55.9444 Y7.7970
G01 X55.9538 Y7.7880
G01 X56.0629 Y7.6891
G01 X56.0728 Y7.6806
G01 X56.0831 Y7.6726
G01 X56.2014 Y7.5849
G01 X56.2122 Y7.5773
G01 X56.2231 Y7.5703
G01 X56.3494 Y7.4947
G01 X56.3608 Y7.4882
G01 X56.3724 Y7.4823
G01 X56.5055 Y7.4194
G01 X56.5175 Y7.4141
G01 X56.5297 Y7.4094
G01 X56.6683 Y7.3598
G01 X56.6807 Y7.3557
G01 X56.6933 Y7.3522
G01 X56.8361 Y7.3164
G01 X56.8482 Y7.3137
G01 X56.8605 Y7.3115
G01 X57.0074 Y7.2897
G01 X57.0203 Y7.2881
G01 X57.0334 Y7.2872
G01 X57.1804 Y7.2799
G01 X57.1935 Y7.2796
G01 X57.2066 Y7.2799
G01 X57.3536 Y7.2872
G01 X57.3667 Y7.2881
G01 X57.3796 Y7.2897
G01 X57.5252 Y7.3113
G01 X57.5381 Y7.3136
G01 X57.5509 Y7.3164
G01 X57.6937 Y7.3522
G01 X57.7063 Y7.3557
G01 X57.7187 Y7.3598
G01 X57.8573 Y7.4094
G01 X57.8695 Y7.4141
G01 X57.8815 Y7.4194
G01 X58.0146 Y7.4823
G01 X58.0262 Y7.4882
G01 X58.0376 Y7.4947
G01 X58.1639 Y7.5703
G01 X58.1749 Y7.5773
G01 X58.1856 Y7.5849
G01 X58.3039 Y7.6726
G01 X58.3142 Y7.6806
G01 X58.3241 Y7.6891
G01 X58.4332 Y7.7880
G01 X58.4426 Y7.7970
G01 X58.4516 Y7.8065
G01 X58.5505 Y7.9156
G01 X58.5590 Y7.9255
G01 X58.5671 Y7.9358
G01 X58.6548 Y8.0540
G01 X58.6624 Y8.0648
G01 X58.6693 Y8.0758
G01 X58.7450 Y8.2020
G01 X58.7514 Y8.2134
G01 X58.7573 Y8.2251
G01 X58.8203 Y8.3582
G01 X58.8256 Y8.3701
G01 X58.8303 Y8.3823
G01 X58.8799 Y8.5209
G01 X58.8840 Y8.5334
G01 X58.8875 Y8.5460
G01 X58.9232 Y8.6888
G01 X58.9261 Y8.7015
G01 X58.9283 Y8.7144
G01 X58.9499 Y8.8600
G01 X58.9521 Y8.8795
G01 X58.9597 Y9.0331
G01 X58.9600 Y9.0462
G01 X58.9597 Y9.0592
G01 X58.9525 Y9.2063
G01 X58.9515 Y9.2193
G01 X58.9499 Y9.2323
G01 X58.9283 Y9.3779
G01 X58.9261 Y9.3908
G01 X58.9232 Y9.4035
G01 X58.8875 Y9.5463
G01 X58.8840 Y9.5589
G01 X58.8799 Y9.5714
G01 X58.8303 Y9.7100
G01 X58.8256 Y9.7222
G01 X58.8203 Y9.7341
G01 X58.7573 Y9.8672
G01 X58.7514 Y9.8789
G01 X58.7450 Y9.8903
G01 X58.6693 Y10.0165
G01 X58.6623 Y10.0276
G01 X58.6548 Y10.0383
G01 X58.5671 Y10.1565
G01 X58.5590 Y10.1668
G01 X58.5505 Y10.1767
G01 X58.4516 Y10.2858
G01 X58.4426 Y10.2953
G01 X58.4332 Y10.3043
G01 X58.3241 Y10.4032
G01 X58.3142 Y10.4117
G01 X58.3039 Y10.4197
G01 X58.1856 Y10.5074
G01 X58.1748 Y10.5150
G01 X58.1639 Y10.5220
G01 X58.0376 Y10.5976
G01 X58.0262 Y10.6041
G01 X58.0146 Y10.6100
G01 X57.8815 Y10.6729
G01 X57.8695 Y10.6782
G01 X57.8573 Y10.6829
G01 X57.7187 Y10.7325
G01 X57.7063 Y10.7366
G01 X57.6937 Y10.7401
G01 X57.5509 Y10.7759
G01 X57.5388 Y10.7786
G01 X57.5265 Y10.7808
G01 X57.3796 Y10.8026
G01 X57.3667 Y10.8042
G01 X57.3536 Y10.8051
G01 X57.2066 Y10.8124
G01 X57.1935 Y10.8127
G01 X57.1804 Y10.8124
G01 X57.0334 Y10.8051
G01 X57.0203 Y10.8042
G01 X57.0074 Y10.8026
G01 X56.8618 Y10.7810
G01 X56.8489 Y10.7787
G01 X56.8361 Y10.7759
G01 X56.6933 Y10.7401
G01 X56.6807 Y10.7366
G01 X56.6683 Y10.7325
G01 X56.5236 Y10.6806
G01 X56.5055 Y10.6729
G01 X56.3724 Y10.6100
G01 X56.3608 Y10.6041
G01 X56.3494 Y10.5976
G01 X56.2231 Y10.5220
G01 X56.2121 Y10.5150
G01 X56.2014 Y10.5074
G01 X56.0831 Y10.4197
G01 X56.0728 Y10.4117
G01 X56.0629 Y10.4032
G01 X55.9538 Y10.3043
G01 X55.9444 Y10.2953
G01 X55.9354 Y10.2858
G01 X55.8365 Y10.1767
G01 X55.8280 Y10.1668
G01 X55.8199 Y10.1565
G01 X55.7322 Y10.0383
G01 X55.7247 Y10.0276
G01 X55.7177 Y10.0165
G01 X55.6420 Y9.8903
G01 X55.6325 Y9.8731
G01 X55.5640 Y9.7282
G01 X55.5590 Y9.7161
G01 X55.5488 Y9.6879
G01 X54.2892 Y9.6879
G01 X54.2761 Y9.6875
G01 X54.2328 Y9.6853
G01 X54.2198 Y9.6841
G01 X54.1768 Y9.6778
G01 X54.1640 Y9.6755
G01 X54.1512 Y9.6727
G01 X54.1029 Y9.6602
G01 X54.0558 Y9.6437
G01 X54.0436 Y9.6390
G01 X54.0316 Y9.6337
G01 X53.9925 Y9.6151
G01 X53.9753 Y9.6056
G01 X53.9326 Y9.5797
G01 X53.9219 Y9.5722
G01 X53.8872 Y9.5463
G01 X53.8721 Y9.5337
G01 X53.8354 Y9.4999
G01 X49.6957 Y5.3602
G01 X8.3808 Y5.3602
G01 X4.5657 Y9.1753
G01 X4.5657 Y29.7758
G01 X5.8858 Y28.4557
G01 X5.8858 Y28.4442
G01 X5.8644 Y28.4439
G01 X5.8269 Y28.4417
G01 X5.7896 Y28.4365
G01 X5.7767 Y28.4343
G01 X5.7640 Y28.4314
G01 X5.7276 Y28.4219
G01 X5.6920 Y28.4096
G01 X5.6738 Y28.4023
G01 X5.6340 Y28.3832
G01 X5.6226 Y28.3767
G01 X5.5905 Y28.3571
G01 X5.5601 Y28.3350
G01 X5.5498 Y28.3269
G01 X5.5399 Y28.3184
G01 X5.5123 Y28.2929
G01 X5.4868 Y28.2652
G01 X5.4782 Y28.2553
G01 X5.4702 Y28.2450
G01 X5.4480 Y28.2146
G01 X5.4284 Y28.1825
G01 X5.4220 Y28.1711
G01 X5.4029 Y28.1313
G01 X5.3979 Y28.1192
G01 X5.3852 Y28.0838
G01 X5.3814 Y28.0713
G01 X5.3722 Y28.0348
G01 X5.3697 Y28.0220
G01 X5.3642 Y27.9848
G01 X5.3629 Y27.9718
G01 X5.3613 Y27.9407
G01 X5.3610 Y27.9277
G01 X5.3610 Y27.2777
G01 X5.3613 Y27.2646
G01 X5.3635 Y27.2270
G01 X5.3687 Y27.1898
G01 X5.3709 Y27.1769
G01 X5.3738 Y27.1641
G01 X5.3832 Y27.1277
G01 X5.3979 Y27.0861
G01 X5.4029 Y27.0740
G01 X5.4161 Y27.0458
G01 X5.4251 Y27.0284
G01 X5.4480 Y26.9907
G01 X5.4702 Y26.9603
G01 X5.4824 Y26.9450
G01 X5.5123 Y26.9124
G01 X5.5399 Y26.8869
G01 X5.5549 Y26.8743
G01 X5.5905 Y26.8482
G01 X5.6226 Y26.8286
G01 X5.6398 Y26.8191
G01 X5.6798 Y26.8004
G01 X5.7213 Y26.7853
G01 X5.7402 Y26.7799
G01 X5.7767 Y26.7710
G01 X5.8139 Y26.7652
G01 X5.8348 Y26.7630
G01 X5.8775 Y26.7611
G01 X7.1775 Y26.7611
G01 X7.1906 Y26.7614
G01 X7.2281 Y26.7636
G01 X7.2654 Y26.7688
G01 X7.2783 Y26.7710
G01 X7.2910 Y26.7739
G01 X7.3274 Y26.7834
G01 X7.3399 Y26.7875
G01 X7.3752 Y26.8004
G01 X7.4093 Y26.8162
G01 X7.4267 Y26.8253
G01 X7.4590 Y26.8446
G01 X7.4699 Y26.8519
G01 X7.5001 Y26.8743
G01 X7.5102 Y26.8826
G01 X7.5381 Y26.9078
G01 X7.5473 Y26.9171
G01 X7.5726 Y26.9450
G01 X7.5853 Y26.9609
G01 X10.8742 Y26.9609
G01 X10.9120 Y26.8804
G01 X10.9179 Y26.8687
G01 X10.9244 Y26.8574
G01 X10.9647 Y26.7900
G01 X10.9717 Y26.7790
G01 X10.9792 Y26.7683
G01 X11.0260 Y26.7052
G01 X11.0341 Y26.6949
G01 X11.0426 Y26.6850
G01 X11.0953 Y26.6268
G01 X11.1043 Y26.6173
G01 X11.1138 Y26.6083
G01 X11.1720 Y26.5556
G01 X11.1819 Y26.5471
G01 X11.1922 Y26.5390
G01 X11.2553 Y26.4922
G01 X11.2660 Y26.4847
G01 X11.2770 Y26.4777
G01 X11.3444 Y26.4374
G01 X11.3557 Y26.4309
G01 X11.3674 Y26.4250
G01 X11.4384 Y26.3915
G01 X11.4504 Y26.3862
G01 X11.4626 Y26.3814
G01 X11.5365 Y26.3550
G01 X11.5489 Y26.3509
G01 X11.5615 Y26.3474
G01 X11.6377 Y26.3283
G01 X11.6569 Y26.3243
G01 X11.7410 Y26.3117
G01 X11.7540 Y26.3101
G01 X11.7670 Y26.3091
G01 X11.8454 Y26.3053
G01 X11.8585 Y26.3050
G01 X14.6585 Y26.3050
G01 X14.6716 Y26.3053
G01 X14.7500 Y26.3091
G01 X14.7630 Y26.3101
G01 X14.7760 Y26.3117
G01 X14.8537 Y26.3232
G01 X14.8666 Y26.3255
G01 X14.8793 Y26.3283
G01 X14.9555 Y26.3474
G01 X14.9681 Y26.3509
G01 X14.9805 Y26.3550
G01 X15.0544 Y26.3814
G01 X15.0666 Y26.3862
G01 X15.0786 Y26.3915
G01 X15.1555 Y26.4279
G01 X15.1726 Y26.4374
G01 X15.2400 Y26.4777
G01 X15.2510 Y26.4847
G01 X15.2617 Y26.4922
G01 X15.3248 Y26.5390
G01 X15.3401 Y26.5513
G01 X15.4032 Y26.6083
G01 X15.4172 Y26.6220
G01 X15.4787 Y26.6899
G01 X15.4870 Y26.7000
G01 X15.5092 Y26.7298
G01 X21.6410 Y26.7298
G01 X21.6585 Y26.7001
G01 X21.6692 Y26.6836
G01 X21.6916 Y26.6534
G01 X21.7043 Y26.6384
G01 X21.7298 Y26.6108
G01 X21.7574 Y26.5853
G01 X21.7724 Y26.5726
G01 X21.8026 Y26.5502
G01 X21.8191 Y26.5395
G01 X21.8515 Y26.5205
G01 X21.8632 Y26.5146
G01 X21.8973 Y26.4988
G01 X21.9326 Y26.4858
G01 X21.9513 Y26.4799
G01 X21.9878 Y26.4707
G01 X22.0071 Y26.4672
G01 X22.0444 Y26.4620
G01 X22.0574 Y26.4610
G01 X22.0950 Y26.4595
G01 X23.3450 Y26.4595
G01 X23.3891 Y26.4614
G01 X23.4021 Y26.4627
G01 X23.4393 Y26.4682
G01 X23.4522 Y26.4707
G01 X23.4823 Y26.4782
G01 X23.5012 Y26.4837
G01 X23.5305 Y26.4941
G01 X23.5427 Y26.4988
G01 X23.5546 Y26.5041
G01 X23.5885 Y26.5205
G01 X23.5999 Y26.5269
G01 X23.6320 Y26.5465
G01 X23.6624 Y26.5687
G01 X23.6727 Y26.5767
G01 X23.7008 Y26.6017
G01 X23.7102 Y26.6108
G01 X23.7193 Y26.6202
G01 X23.7443 Y26.6483
G01 X23.7523 Y26.6586
G01 X23.7745 Y26.6890
G01 X23.7941 Y26.7211
G01 X23.8005 Y26.7325
G01 X23.8169 Y26.7664
G01 X23.8222 Y26.7783
G01 X23.8269 Y26.7905
G01 X23.8373 Y26.8198
G01 X23.8428 Y26.8387
G01 X23.8503 Y26.8688
G01 X23.8528 Y26.8817
G01 X23.8583 Y26.9189
G01 X23.8596 Y26.9319
G01 X23.8615 Y26.9760
G01 X23.8614 Y27.9075
G01 X23.8590 Y27.9516
G01 X23.8528 Y27.9953
G01 X23.8487 Y28.0145
G01 X23.8411 Y28.0447
G01 X23.8373 Y28.0572
G01 X23.8222 Y28.0987
G01 X23.8036 Y28.1387
G01 X23.7941 Y28.1559
G01 X23.7780 Y28.1825
G01 X23.7708 Y28.1934
G01 X23.7443 Y28.2287
G01 X23.7148 Y28.2616
G01 X23.7008 Y28.2753
G01 X23.6777 Y28.2961
G01 X23.6676 Y28.3044
G01 X23.6320 Y28.3305
G01 X23.5999 Y28.3501
G01 X23.5827 Y28.3596
G01 X23.5546 Y28.3729
G01 X23.5424 Y28.3783
G01 X23.5074 Y28.3912
G01 X23.4949 Y28.3953
G01 X23.4585 Y28.4047
G01 X23.4458 Y28.4076
G01 X23.4329 Y28.4098
G01 X23.4021 Y28.4143
G01 X23.3891 Y28.4156
G01 X23.3450 Y28.4175
G01 X22.0950 Y28.4175
G01 X22.0574 Y28.4160
G01 X22.0444 Y28.4150
G01 X22.0071 Y28.4098
G01 X21.9878 Y28.4063
G01 X21.9451 Y28.3953
G01 X21.9095 Y28.3829
G01 X21.8913 Y28.3756
G01 X21.8515 Y28.3565
G01 X21.8135 Y28.3340
G01 X21.7973 Y28.3229
G01 X21.7673 Y28.3003
G01 X21.7392 Y28.2753
G01 X21.7298 Y28.2662
G01 X21.6999 Y28.2337
G01 X21.6877 Y28.2184
G01 X21.6655 Y28.1880
G01 X21.6459 Y28.1559
G01 X21.6395 Y28.1445
G01 X21.6336 Y28.1328
G01 X21.6203 Y28.1045
G01 X21.6131 Y28.0865
G01 X21.6007 Y28.0509
G01 X21.5910 Y28.0133
G01 X15.5078 Y28.0151
G01 X15.4870 Y28.0430
G01 X15.4787 Y28.0531
G01 X15.4172 Y28.1210
G01 X15.4032 Y28.1347
G01 X15.3401 Y28.1917
G01 X15.3248 Y28.2040
G01 X15.2617 Y28.2508
G01 X15.2510 Y28.2583
G01 X15.2400 Y28.2653
G01 X15.1726 Y28.3056
G01 X15.1555 Y28.3151
G01 X15.0786 Y28.3515
G01 X15.0666 Y28.3568
G01 X15.0544 Y28.3616
G01 X14.9805 Y28.3880
G01 X14.9688 Y28.3919
G01 X14.9555 Y28.3956
G01 X14.8793 Y28.4147
G01 X14.8666 Y28.4175
G01 X14.8537 Y28.4198
G01 X14.7760 Y28.4313
G01 X14.7630 Y28.4329
G01 X14.7500 Y28.4339
G01 X14.6650 Y28.4379
G01 X11.8585 Y28.4380
G01 X11.8454 Y28.4377
G01 X11.7670 Y28.4339
G01 X11.7540 Y28.4329
G01 X11.7410 Y28.4313
G01 X11.6633 Y28.4198
G01 X11.6504 Y28.4175
G01 X11.6377 Y28.4147
G01 X11.5615 Y28.3956
G01 X11.5489 Y28.3921
G01 X11.5365 Y28.3880
G01 X11.4626 Y28.3616
G01 X11.4504 Y28.3568
G01 X11.4384 Y28.3515
G01 X11.3674 Y28.3180
G01 X11.3557 Y28.3121
G01 X11.3444 Y28.3056
G01 X11.2715 Y28.2619
G01 X11.2606 Y28.2546
G01 X11.2467 Y28.2444
G01 X7.5853 Y28.2444
G01 X7.5726 Y28.2603
G01 X7.5473 Y28.2882
G01 X7.5333 Y28.3019
G01 X7.5052 Y28.3269
G01 X7.4752 Y28.3496
G01 X7.4590 Y28.3607
G01 X7.4267 Y28.3800
G01 X7.4093 Y28.3891
G01 X7.3752 Y28.4049
G01 X7.3399 Y28.4178
G01 X7.3212 Y28.4238
G01 X7.2847 Y28.4329
G01 X7.2654 Y28.4365
G01 X7.2281 Y28.4417
G01 X7.1906 Y28.4439
G01 X7.1692 Y28.4442
G01 X7.1691 Y28.7280
G01 X7.1671 Y28.7714
G01 X7.1661 Y28.7844
G01 X7.1591 Y28.8338
G01 X7.1555 Y28.8531
G01 X7.1451 Y28.8952
G01 X7.1416 Y28.9078
G01 X7.1251 Y28.9549
G01 X7.1178 Y28.9731
G01 X7.0965 Y29.0182
G01 X7.0870 Y29.0354
G01 X7.0611 Y29.0780
G01 X7.0535 Y29.0887
G01 X7.0276 Y29.1235
G01 X7.0150 Y29.1385
G01 X6.9813 Y29.1753
G01 X4.5657 Y31.5908
G01 X4.5657 Y73.7947
G01 X9.0793 Y78.3083
G01 X37.4268 Y78.3083
G01 X33.5327 Y74.4143
G01 X33.5237 Y74.4048
G01 X33.4904 Y74.3676
G01 X33.4605 Y74.3277
G01 X33.4529 Y74.3169
G01 X33.4459 Y74.3060
G01 X33.4237 Y74.2687
G01 X33.4175 Y74.2572
G01 X33.3989 Y74.2180
G01 X33.3936 Y74.2061
G01 X33.3765 Y74.1592
G01 X33.3706 Y74.1405
G01 X33.3600 Y74.0985
G01 X33.3559 Y74.0793
G01 X33.3486 Y74.0299
G01 X33.3469 Y74.0104
G01 X33.3448 Y73.9605
G01 X33.3448 Y72.9568
G01 X33.3324 Y72.9523
G01 X33.3203 Y72.9473
G01 X33.2863 Y72.9312
G01 X33.2691 Y72.9217
G01 X33.2425 Y72.9057
G01 X33.2316 Y72.8984
G01 X33.1963 Y72.8719
G01 X33.1634 Y72.8425
G01 X33.1497 Y72.8284
G01 X33.1289 Y72.8053
G01 X33.1206 Y72.7952
G01 X33.0945 Y72.7596
G01 X33.0749 Y72.7275
G01 X33.0654 Y72.7103
G01 X33.0521 Y72.6823
G01 X33.0467 Y72.6700
G01 X33.0317 Y72.6288
G01 X33.0262 Y72.6100
G01 X33.0174 Y72.5734
G01 X33.0107 Y72.5298
G01 X33.0090 Y72.5102
G01 X33.0075 Y72.4726
G01 X33.0076 Y71.2161
G01 X33.0100 Y71.1720
G01 X33.0116 Y71.1590
G01 X33.0174 Y71.1219
G01 X33.0203 Y71.1091
G01 X33.0297 Y71.0727
G01 X33.0421 Y71.0372
G01 X33.0468 Y71.0250
G01 X33.0626 Y70.9908
G01 X33.0685 Y70.9792
G01 X33.0749 Y70.9678
G01 X33.0945 Y70.9357
G01 X33.1167 Y70.9053
G01 X33.1247 Y70.8950
G01 X33.1497 Y70.8669
G01 X33.1588 Y70.8574
G01 X33.1682 Y70.8484
G01 X33.1963 Y70.8234
G01 X33.2066 Y70.8153
G01 X33.2370 Y70.7932
G01 X33.2691 Y70.7736
G01 X33.2805 Y70.7671
G01 X33.2922 Y70.7612
G01 X33.3263 Y70.7454
G01 X33.3385 Y70.7407
G01 X33.3741 Y70.7284
G01 X33.4105 Y70.7189
G01 X33.4232 Y70.7160
G01 X33.4604 Y70.7102
G01 X33.4734 Y70.7086
G01 X33.5175 Y70.7062
G01 X34.4490 Y70.7061
G01 X34.4866 Y70.7076
G01 X34.4996 Y70.7086
G01 X34.5369 Y70.7138
G01 X34.5562 Y70.7174
G01 X34.5927 Y70.7265
G01 X34.6052 Y70.7303
G01 X34.6345 Y70.7407
G01 X34.6467 Y70.7454
G01 X34.6586 Y70.7507
G01 X34.6867 Y70.7641
G01 X34.7039 Y70.7736
G01 X34.7305 Y70.7896
G01 X34.7414 Y70.7969
G01 X34.7716 Y70.8193
G01 X34.7817 Y70.8276
G01 X34.8096 Y70.8528
G01 X34.8188 Y70.8621
G01 X34.8441 Y70.8900
G01 X34.8563 Y70.9053
G01 X34.8785 Y70.9357
G01 X34.9014 Y70.9734
G01 X34.9104 Y70.9908
G01 X34.9236 Y71.0190
G01 X34.9286 Y71.0311
G01 X34.9433 Y71.0727
G01 X34.9543 Y71.1155
G01 X34.9568 Y71.1283
G01 X34.9614 Y71.1590
G01 X34.9636 Y71.1785
G01 X34.9655 Y71.2227
G01 X34.9655 Y72.4726
G01 X34.9636 Y72.5168
G01 X34.9614 Y72.5363
G01 X34.9568 Y72.5670
G01 X34.9543 Y72.5798
G01 X34.9433 Y72.6226
G01 X34.9286 Y72.6642
G01 X34.9209 Y72.6823
G01 X34.9076 Y72.7103
G01 X34.9014 Y72.7219
G01 X34.8785 Y72.7596
G01 X34.8524 Y72.7952
G01 X34.8441 Y72.8053
G01 X34.8233 Y72.8284
G01 X34.8096 Y72.8425
G01 X34.7767 Y72.8719
G01 X34.7414 Y72.8984
G01 X34.7305 Y72.9057
G01 X34.7039 Y72.9217
G01 X34.6867 Y72.9312
G01 X34.6525 Y72.9473
G01 X34.6402 Y72.9525
G01 X34.6282 Y72.9568
G01 X34.6282 Y73.6947
G01 X39.2418 Y78.3083
G01 X67.9472 Y78.3083
G01 X68.1945 Y78.0610
G01 X67.4310 Y77.2975
G01 X66.7280 Y77.2974
G01 X66.6904 Y77.2956
G01 X66.6709 Y77.2934
G01 X66.6337 Y77.2876
G01 X66.5908 Y77.2771
G01 X66.5721 Y77.2712
G01 X66.5368 Y77.2582
G01 X66.5027 Y77.2424
G01 X66.4853 Y77.2334
G01 X66.4530 Y77.2140
G01 X66.4368 Y77.2029
G01 X66.4068 Y77.1803
G01 X66.3787 Y77.1553
G01 X66.3647 Y77.1416
G01 X66.3394 Y77.1137
G01 X66.3272 Y77.0984
G01 X66.3050 Y77.0680
G01 X66.2854 Y77.0359
G01 X66.2759 Y77.0187
G01 X66.2598 Y76.9845
G01 X66.2526 Y76.9665
G01 X66.2402 Y76.9309
G01 X66.2308 Y76.8945
G01 X66.2279 Y76.8818
G01 X66.2221 Y76.8446
G01 X66.2205 Y76.8316
G01 X66.2181 Y76.7875
G01 X66.2180 Y75.5310
G01 X66.2195 Y75.4934
G01 X66.2212 Y75.4739
G01 X66.2267 Y75.4367
G01 X66.2308 Y75.4175
G01 X66.2402 Y75.3811
G01 X66.2526 Y75.3455
G01 X66.2573 Y75.3333
G01 X66.2731 Y75.2992
G01 X66.2790 Y75.2875
G01 X66.2980 Y75.2551
G01 X66.3050 Y75.2440
G01 X66.3126 Y75.2333
G01 X66.3311 Y75.2084
G01 X66.3394 Y75.1983
G01 X66.3693 Y75.1658
G01 X66.3787 Y75.1567
G01 X66.4068 Y75.1317
G01 X66.4171 Y75.1237
G01 X66.4475 Y75.1015
G01 X66.4853 Y75.0786
G01 X66.4968 Y75.0724
G01 X66.5249 Y75.0591
G01 X66.5368 Y75.0538
G01 X66.5490 Y75.0491
G01 X66.5846 Y75.0367
G01 X66.6210 Y75.0273
G01 X66.6337 Y75.0244
G01 X66.6709 Y75.0186
G01 X66.6839 Y75.0170
G01 X66.7280 Y75.0146
G01 X67.6595 Y75.0145
G01 X67.6971 Y75.0160
G01 X67.7101 Y75.0170
G01 X67.7231 Y75.0186
G01 X67.7603 Y75.0244
G01 X67.8032 Y75.0349
G01 X67.8157 Y75.0387
G01 X67.8450 Y75.0491
G01 X67.8572 Y75.0538
G01 X67.8691 Y75.0591
G01 X67.9030 Y75.0755
G01 X67.9144 Y75.0819
G01 X67.9465 Y75.1015
G01 X67.9769 Y75.1237
G01 X67.9872 Y75.1317
G01 X68.0153 Y75.1567
G01 X68.0247 Y75.1658
G01 X68.0338 Y75.1752
G01 X68.0546 Y75.1983
G01 X68.0629 Y75.2084
G01 X68.0890 Y75.2440
G01 X68.1086 Y75.2761
G01 X68.1150 Y75.2875
G01 X68.1209 Y75.2992
G01 X68.1367 Y75.3333
G01 X68.1518 Y75.3748
G01 X68.1556 Y75.3873
G01 X68.1632 Y75.4175
G01 X68.1661 Y75.4302
G01 X68.1683 Y75.4431
G01 X68.1735 Y75.4804
G01 X68.1745 Y75.4934
G01 X68.1760 Y75.5310
G01 X68.1760 Y76.2275
G01 X69.3678 Y77.4193
G01 X79.5541 Y77.4193
G01 X71.6230 Y69.4882
G01 X70.9265 Y69.4882
G01 X70.8889 Y69.4867
G01 X70.8759 Y69.4857
G01 X70.8322 Y69.4795
G01 X70.8193 Y69.4769
G01 X70.7828 Y69.4678
G01 X70.7703 Y69.4640
G01 X70.7410 Y69.4536
G01 X70.7288 Y69.4489
G01 X70.7169 Y69.4436
G01 X70.6888 Y69.4302
G01 X70.6773 Y69.4240
G01 X70.6395 Y69.4011
G01 X70.6091 Y69.3790
G01 X70.5988 Y69.3709
G01 X70.5707 Y69.3459
G01 X70.5613 Y69.3369
G01 X70.5314 Y69.3043
G01 X70.5231 Y69.2942
G01 X70.5046 Y69.2693
G01 X70.4970 Y69.2586
G01 X70.4900 Y69.2476
G01 X70.4710 Y69.2151
G01 X70.4546 Y69.1813
G01 X70.4492 Y69.1690
G01 X70.4363 Y69.1340
G01 X70.4322 Y69.1216
G01 X70.4228 Y69.0852
G01 X70.4199 Y69.0724
G01 X70.4177 Y69.0595
G01 X70.4132 Y69.0288
G01 X70.4119 Y69.0158
G01 X70.4100 Y68.9716
G01 X70.4100 Y68.0467
G01 X70.4115 Y68.0091
G01 X70.4125 Y67.9960
G01 X70.4177 Y67.9588
G01 X70.4212 Y67.9395
G01 X70.4322 Y67.8967
G01 X70.4446 Y67.8612
G01 X70.4493 Y67.8490
G01 X70.4651 Y67.8148
G01 X70.4710 Y67.8032
G01 X70.4900 Y67.7707
G01 X70.4970 Y67.7597
G01 X70.5046 Y67.7490
G01 X70.5231 Y67.7241
G01 X70.5314 Y67.7140
G01 X70.5613 Y67.6814
G01 X70.5707 Y67.6724
G01 X70.5988 Y67.6474
G01 X70.6091 Y67.6393
G01 X70.6395 Y67.6172
G01 X70.6773 Y67.5943
G01 X70.6888 Y67.5881
G01 X70.7169 Y67.5747
G01 X70.7288 Y67.5694
G01 X70.7410 Y67.5647
G01 X70.7766 Y67.5524
G01 X70.8130 Y67.5429
G01 X70.8257 Y67.5400
G01 X70.8629 Y67.5342
G01 X70.8759 Y67.5326
G01 X70.9200 Y67.5302
G01 X72.1765 Y67.5301
G01 X72.2141 Y67.5316
G01 X72.2271 Y67.5326
G01 X72.2401 Y67.5342
G01 X72.2773 Y67.5400
G01 X72.3202 Y67.5505
G01 X72.3327 Y67.5543
G01 X72.3620 Y67.5647
G01 X72.3742 Y67.5694
G01 X72.3861 Y67.5747
G01 X72.4200 Y67.5911
G01 X72.4314 Y67.5976
G01 X72.4635 Y67.6172
G01 X72.4939 Y67.6393
G01 X72.5042 Y67.6474
G01 X72.5371 Y67.6768
G01 X72.5463 Y67.6861
G01 X72.5716 Y67.7140
G01 X72.5799 Y67.7241
G01 X72.5984 Y67.7490
G01 X72.6060 Y67.7597
G01 X72.6130 Y67.7707
G01 X72.6289 Y67.7974
G01 X72.6351 Y67.8090
G01 X72.6537 Y67.8490
G01 X72.6584 Y67.8612
G01 X72.6708 Y67.8967
G01 X72.6802 Y67.9331
G01 X72.6831 Y67.9459
G01 X72.6889 Y67.9830
G01 X72.6911 Y68.0025
G01 X72.6930 Y68.0467
G01 X72.6930 Y68.7432
G01 X81.3057 Y77.3558
G01 X88.6078 Y77.3558
G01 X86.1472 Y74.8953
G01 X86.1382 Y74.8858
G01 X86.1049 Y74.8486
G01 X86.0750 Y74.8087
G01 X86.0674 Y74.7979
G01 X86.0415 Y74.7554
G01 X86.0351 Y74.7440
G01 X86.0292 Y74.7323
G01 X86.0081 Y74.6871
G01 X86.0034 Y74.6749
G01 X85.9869 Y74.6278
G01 X85.9745 Y74.5795
G01 X85.9716 Y74.5667
G01 X85.9694 Y74.5538
G01 X85.9624 Y74.5044
G01 X85.9596 Y74.4546
G01 X85.9593 Y74.4415
G01 X85.9593 Y69.2980
G01 X85.9596 Y69.2849
G01 X85.9624 Y69.2351
G01 X85.9694 Y69.1857
G01 X85.9730 Y69.1664
G01 X85.9834 Y69.1243
G01 X85.9869 Y69.1117
G01 X86.0034 Y69.0646
G01 X86.0081 Y69.0524
G01 X86.0292 Y69.0072
G01 X86.0351 Y68.9955
G01 X86.0415 Y68.9841
G01 X86.0639 Y68.9470
G01 X86.0711 Y68.9361
G01 X86.0969 Y68.9012
G01 X86.1049 Y68.8909
G01 X86.1382 Y68.8537
G01 X86.1472 Y68.8442
G01 X86.2576 Y68.7339
G01 X86.2671 Y68.7249
G01 X86.2992 Y68.6958
G01 X86.3146 Y68.6835
G01 X86.3548 Y68.6541
G01 X86.3975 Y68.6282
G01 X86.4147 Y68.6187
G01 X86.4538 Y68.6001
G01 X86.4658 Y68.5948
G01 X86.5126 Y68.5777
G01 X86.5251 Y68.5736
G01 X86.5349 Y68.5708
G01 X86.5517 Y68.5238
G01 X86.5590 Y68.5056
G01 X86.6275 Y68.3607
G01 X86.6370 Y68.3435
G01 X86.7127 Y68.2173
G01 X86.7234 Y68.2008
G01 X86.8149 Y68.0773
G01 X86.8230 Y68.0670
G01 X86.8315 Y68.0571
G01 X86.9304 Y67.9480
G01 X86.9394 Y67.9385
G01 X86.9488 Y67.9295
G01 X87.0579 Y67.8306
G01 X87.0729 Y67.8180
G01 X87.1964 Y67.7264
G01 X87.2072 Y67.7188
G01 X87.2181 Y67.7118
G01 X87.3444 Y67.6362
G01 X87.3558 Y67.6297
G01 X87.3674 Y67.6238
G01 X87.5005 Y67.5609
G01 X87.5125 Y67.5556
G01 X87.5247 Y67.5509
G01 X87.6633 Y67.5013
G01 X87.6757 Y67.4972
G01 X87.6883 Y67.4937
G01 X87.8311 Y67.4579
G01 X87.8439 Y67.4551
G01 X87.8568 Y67.4528
G01 X88.0024 Y67.4312
G01 X88.0153 Y67.4296
G01 X88.0284 Y67.4287
G01 X88.1754 Y67.4214
G01 X88.1885 Y67.4211
G01 X88.2016 Y67.4214
G01 X88.3486 Y67.4287
G01 X88.3617 Y67.4296
G01 X88.3746 Y67.4312
G01 X88.5202 Y67.4528
G01 X88.5331 Y67.4551
G01 X88.5459 Y67.4579
G01 X88.6887 Y67.4937
G01 X88.7013 Y67.4972
G01 X88.7137 Y67.5013
G01 X88.8523 Y67.5509
G01 X88.8645 Y67.5556
G01 X88.8765 Y67.5609
G01 X89.0096 Y67.6238
G01 X89.0212 Y67.6297
G01 X89.0326 Y67.6362
G01 X89.1589 Y67.7118
G01 X89.1699 Y67.7188
G01 X89.1806 Y67.7264
G01 X89.2989 Y67.8141
G01 X89.3092 Y67.8221
G01 X89.3191 Y67.8306
G01 X89.4282 Y67.9295
G01 X89.4376 Y67.9385
G01 X89.4466 Y67.9480
G01 X89.5455 Y68.0571
G01 X89.5540 Y68.0670
G01 X89.5621 Y68.0773
G01 X89.6498 Y68.1955
G01 X89.6574 Y68.2063
G01 X89.6643 Y68.2173
G01 X89.7400 Y68.3435
G01 X89.7464 Y68.3549
G01 X89.7523 Y68.3666
G01 X89.8153 Y68.4997
G01 X89.8206 Y68.5116
G01 X89.8253 Y68.5238
G01 X89.8749 Y68.6624
G01 X89.8790 Y68.6749
G01 X89.8825 Y68.6875
G01 X89.9182 Y68.8303
G01 X89.9211 Y68.8430
G01 X89.9233 Y68.8559
G01 X89.9449 Y69.0015
G01 X89.9465 Y69.0145
G01 X89.9475 Y69.0275
G01 X89.9547 Y69.1746
G01 X89.9550 Y69.1877
G01 X89.9547 Y69.2007
G01 X89.9475 Y69.3478
G01 X89.9465 Y69.3608
G01 X89.9449 Y69.3738
G01 X89.9233 Y69.5194
G01 X89.9211 Y69.5323
G01 X89.9182 Y69.5450
G01 X89.8825 Y69.6878
G01 X89.8790 Y69.7004
G01 X89.8749 Y69.7129
G01 X89.8253 Y69.8515
G01 X89.8206 Y69.8637
G01 X89.8153 Y69.8756
G01 X89.7523 Y70.0087
G01 X89.7464 Y70.0204
G01 X89.7400 Y70.0318
G01 X89.6643 Y70.1580
G01 X89.6573 Y70.1691
G01 X89.6498 Y70.1798
G01 X89.5621 Y70.2980
G01 X89.5540 Y70.3083
G01 X89.5455 Y70.3182
G01 X89.4466 Y70.4273
G01 X89.4376 Y70.4368
G01 X89.4282 Y70.4458
G01 X89.3191 Y70.5447
G01 X89.3092 Y70.5532
G01 X89.2989 Y70.5612
G01 X89.1806 Y70.6489
G01 X89.1699 Y70.6565
G01 X89.1589 Y70.6635
G01 X89.0326 Y70.7391
G01 X89.0212 Y70.7456
G01 X89.0096 Y70.7515
G01 X88.8765 Y70.8144
G01 X88.8645 Y70.8197
G01 X88.8523 Y70.8244
G01 X88.7137 Y70.8740
G01 X88.7013 Y70.8781
G01 X88.6887 Y70.8816
G01 X88.5459 Y70.9174
G01 X88.5338 Y70.9201
G01 X88.5215 Y70.9223
G01 X88.3746 Y70.9441
G01 X88.3617 Y70.9457
G01 X88.3486 Y70.9466
G01 X88.2016 Y70.9539
G01 X88.1885 Y70.9542
G01 X88.1754 Y70.9539
G01 X88.0284 Y70.9466
G01 X88.0153 Y70.9457
G01 X88.0024 Y70.9441
G01 X87.8568 Y70.9225
G01 X87.8439 Y70.9202
G01 X87.8311 Y70.9174
G01 X87.6883 Y70.8816
G01 X87.6757 Y70.8781
G01 X87.6633 Y70.8740
G01 X87.5247 Y70.8244
G01 X87.5125 Y70.8197
G01 X87.5005 Y70.8144
G01 X87.3674 Y70.7515
G01 X87.3558 Y70.7456
G01 X87.3444 Y70.7391
G01 X87.2427 Y70.6782
G01 X87.2427 Y74.1757
G01 X90.4228 Y77.3558
G01 X120.3077 Y77.3558
G01 X121.5748 Y76.0887
G01 X121.5534 Y76.0728
G01 X121.5384 Y76.0602
G01 X121.4293 Y75.9613
G01 X121.4153 Y75.9476
G01 X121.3120 Y75.8337
G01 X121.3035 Y75.8238
G01 X121.2954 Y75.8135
G01 X121.2077 Y75.6953
G01 X121.2002 Y75.6846
G01 X121.1932 Y75.6735
G01 X121.1175 Y75.5473
G01 X121.1111 Y75.5359
G01 X121.1052 Y75.5242
G01 X121.0395 Y75.3852
G01 X121.0345 Y75.3731
G01 X121.0243 Y75.3449
G01 X118.3608 Y75.3449
G01 X118.2966 Y75.3833
G01 X118.2853 Y75.3897
G01 X118.2736 Y75.3956
G01 X118.2026 Y75.4292
G01 X118.1906 Y75.4345
G01 X118.1784 Y75.4392
G01 X118.1045 Y75.4657
G01 X118.0921 Y75.4698
G01 X118.0795 Y75.4732
G01 X118.0033 Y75.4923
G01 X117.9906 Y75.4952
G01 X117.9777 Y75.4974
G01 X117.9000 Y75.5089
G01 X117.8870 Y75.5105
G01 X117.8740 Y75.5115
G01 X117.7890 Y75.5156
G01 X114.9825 Y75.5157
G01 X114.9694 Y75.5154
G01 X114.8910 Y75.5115
G01 X114.8780 Y75.5105
G01 X114.8650 Y75.5089
G01 X114.7873 Y75.4974
G01 X114.7744 Y75.4952
G01 X114.7617 Y75.4923
G01 X114.6855 Y75.4732
G01 X114.6729 Y75.4698
G01 X114.6605 Y75.4657
G01 X114.5866 Y75.4392
G01 X114.5744 Y75.4345
G01 X114.5624 Y75.4292
G01 X114.4914 Y75.3956
G01 X114.4797 Y75.3897
G01 X114.4684 Y75.3833
G01 X114.4010 Y75.3429
G01 X114.3900 Y75.3359
G01 X114.3793 Y75.3284
G01 X114.3162 Y75.2816
G01 X114.3059 Y75.2736
G01 X114.2960 Y75.2650
G01 X114.2378 Y75.2123
G01 X114.2283 Y75.2033
G01 X114.2193 Y75.1938
G01 X114.1666 Y75.1357
G01 X114.1581 Y75.1258
G01 X114.1500 Y75.1154
G01 X114.1032 Y75.0524
G01 X114.0957 Y75.0417
G01 X114.0887 Y75.0306
G01 X114.0484 Y74.9633
G01 X114.0419 Y74.9519
G01 X114.0360 Y74.9402
G01 X114.0025 Y74.8693
G01 X113.9972 Y74.8573
G01 X113.9924 Y74.8451
G01 X113.9660 Y74.7712
G01 X113.9621 Y74.7594
G01 X113.9587 Y74.7475
G01 X113.9393 Y74.6700
G01 X113.9365 Y74.6572
G01 X113.9342 Y74.6443
G01 X113.9227 Y74.5667
G01 X113.9211 Y74.5537
G01 X113.9201 Y74.5406
G01 X113.9163 Y74.4622
G01 X113.9160 Y74.4492
G01 X113.9163 Y74.4361
G01 X113.9201 Y74.3577
G01 X113.9211 Y74.3446
G01 X113.9227 Y74.3316
G01 X113.9342 Y74.2540
G01 X113.9365 Y74.2411
G01 X113.9393 Y74.2283
G01 X113.9584 Y74.1522
G01 X113.9619 Y74.1396
G01 X113.9660 Y74.1271
G01 X113.9924 Y74.0532
G01 X113.9972 Y74.0410
G01 X114.0025 Y74.0290
G01 X114.0389 Y73.9522
G01 X114.0484 Y73.9350
G01 X114.0887 Y73.8677
G01 X114.0957 Y73.8566
G01 X114.1032 Y73.8459
G01 X114.1500 Y73.7829
G01 X114.1581 Y73.7726
G01 X114.1666 Y73.7626
G01 X114.2193 Y73.7045
G01 X114.2283 Y73.6950
G01 X114.2378 Y73.6860
G01 X114.2960 Y73.6333
G01 X114.3059 Y73.6247
G01 X114.3162 Y73.6167
G01 X114.3793 Y73.5699
G01 X114.3900 Y73.5624
G01 X114.4010 Y73.5554
G01 X114.4684 Y73.5150
G01 X114.4797 Y73.5086
G01 X114.4914 Y73.5027
G01 X114.5624 Y73.4691
G01 X114.5744 Y73.4638
G01 X114.5866 Y73.4591
G01 X114.6605 Y73.4326
G01 X114.6729 Y73.4285
G01 X114.6855 Y73.4251
G01 X114.7617 Y73.4060
G01 X114.7744 Y73.4031
G01 X114.7873 Y73.4009
G01 X114.8650 Y73.3894
G01 X114.8780 Y73.3878
G01 X114.8910 Y73.3868
G01 X114.9694 Y73.3829
G01 X114.9825 Y73.3826
G01 X117.7890 Y73.3827
G01 X117.8740 Y73.3868
G01 X117.8870 Y73.3878
G01 X117.9000 Y73.3894
G01 X117.9777 Y73.4009
G01 X117.9906 Y73.4031
G01 X118.0033 Y73.4060
G01 X118.0795 Y73.4251
G01 X118.0921 Y73.4285
G01 X118.1045 Y73.4326
G01 X118.1784 Y73.4591
G01 X118.1906 Y73.4638
G01 X118.2026 Y73.4691
G01 X118.2736 Y73.5027
G01 X118.2853 Y73.5086
G01 X118.2966 Y73.5150
G01 X118.3640 Y73.5554
G01 X118.3804 Y73.5661
G01 X118.4488 Y73.6167
G01 X118.4591 Y73.6247
G01 X118.4690 Y73.6333
G01 X118.5272 Y73.6860
G01 X118.5367 Y73.6950
G01 X118.5457 Y73.7045
G01 X118.5984 Y73.7626
G01 X118.6110 Y73.7777
G01 X118.6618 Y73.8459
G01 X118.6693 Y73.8566
G01 X118.6763 Y73.8677
G01 X118.7199 Y73.9407
G01 X118.7290 Y73.9581
G01 X118.7625 Y74.0290
G01 X118.7703 Y74.0471
G01 X118.7755 Y74.0614
G01 X121.0243 Y74.0614
G01 X121.0345 Y74.0332
G01 X121.0395 Y74.0211
G01 X121.1052 Y73.8821
G01 X121.1111 Y73.8704
G01 X121.1175 Y73.8590
G01 X121.1932 Y73.7328
G01 X121.2002 Y73.7217
G01 X121.2077 Y73.7110
G01 X121.2954 Y73.5928
G01 X121.3035 Y73.5825
G01 X121.3120 Y73.5726
G01 X121.4109 Y73.4635
G01 X121.4199 Y73.4540
G01 X121.4293 Y73.4450
G01 X121.5384 Y73.3461
G01 X121.5483 Y73.3376
G01 X121.5586 Y73.3296
G01 X121.6769 Y73.2419
G01 X121.6877 Y73.2343
G01 X121.6986 Y73.2273
G01 X121.8249 Y73.1517
G01 X121.8363 Y73.1452
G01 X121.8479 Y73.1393
G01 X121.9810 Y73.0764
G01 X121.9930 Y73.0711
G01 X122.0052 Y73.0664
G01 X122.1438 Y73.0168
G01 X122.1562 Y73.0127
G01 X122.1688 Y73.0092
G01 X122.3116 Y72.9734
G01 X122.3244 Y72.9706
G01 X122.3373 Y72.9683
G01 X122.4829 Y72.9467
G01 X122.4958 Y72.9451
G01 X122.5089 Y72.9442
G01 X122.6559 Y72.9369
G01 X122.6690 Y72.9366
G01 X122.6821 Y72.9369
G01 X122.8291 Y72.9442
G01 X122.8422 Y72.9451
G01 X122.8551 Y72.9467
G01 X123.0007 Y72.9683
G01 X123.0136 Y72.9706
G01 X123.0264 Y72.9734
G01 X123.1692 Y73.0092
G01 X123.1818 Y73.0127
G01 X123.1942 Y73.0168
G01 X123.3328 Y73.0664
G01 X123.3450 Y73.0711
G01 X123.3570 Y73.0764
G01 X123.4901 Y73.1393
G01 X123.5017 Y73.1452
G01 X123.5131 Y73.1517
G01 X123.6394 Y73.2273
G01 X123.6504 Y73.2343
G01 X123.6611 Y73.2419
G01 X123.7794 Y73.3296
G01 X123.7897 Y73.3376
G01 X123.7996 Y73.3461
G01 X123.9087 Y73.4450
G01 X123.9181 Y73.4540
G01 X123.9271 Y73.4635
G01 X124.0260 Y73.5726
G01 X124.0345 Y73.5825
G01 X124.0426 Y73.5928
G01 X124.1303 Y73.7110
G01 X124.1379 Y73.7218
G01 X124.1448 Y73.7328
G01 X124.2205 Y73.8590
G01 X124.2269 Y73.8704
G01 X124.2328 Y73.8821
G01 X124.2958 Y74.0152
G01 X124.3011 Y74.0271
G01 X124.3058 Y74.0393
G01 X124.3554 Y74.1779
G01 X124.3595 Y74.1904
G01 X124.3630 Y74.2030
G01 X124.3987 Y74.3458
G01 X124.4016 Y74.3585
G01 X124.4038 Y74.3714
G01 X124.4254 Y74.5170
G01 X124.4270 Y74.5300
G01 X124.4280 Y74.5430
G01 X124.4352 Y74.6901
G01 X124.4355 Y74.7032
G01 X124.4352 Y74.7162
G01 X124.4280 Y74.8633
G01 X124.4270 Y74.8763
G01 X124.4254 Y74.8893
G01 X124.4038 Y75.0349
G01 X124.4016 Y75.0478
G01 X124.3987 Y75.0605
G01 X124.3630 Y75.2033
G01 X124.3595 Y75.2159
G01 X124.3554 Y75.2284
G01 X124.3058 Y75.3670
G01 X124.3011 Y75.3792
G01 X124.2958 Y75.3911
G01 X124.2328 Y75.5242
G01 X124.2238 Y75.5416
G01 X124.1448 Y75.6735
G01 X124.1378 Y75.6846
G01 X124.1303 Y75.6953
G01 X124.0426 Y75.8135
G01 X124.0345 Y75.8238
G01 X124.0260 Y75.8337
G01 X123.9271 Y75.9428
G01 X123.9181 Y75.9523
G01 X123.9087 Y75.9613
G01 X123.7996 Y76.0602
G01 X123.7897 Y76.0687
G01 X123.7794 Y76.0767
G01 X123.6611 Y76.1644
G01 X123.6504 Y76.1720
G01 X123.6394 Y76.1790
G01 X123.5131 Y76.2546
G01 X123.5017 Y76.2611
G01 X123.4901 Y76.2670
G01 X123.3570 Y76.3299
G01 X123.3450 Y76.3352
G01 X123.3328 Y76.3399
G01 X123.1942 Y76.3895
G01 X123.1818 Y76.3936
G01 X123.1692 Y76.3971
G01 X123.0521 Y76.4264
G01 X121.0273 Y78.4513
G01 X121.0178 Y78.4603
G01 X120.9856 Y78.4893
G01 X120.9703 Y78.5016
G01 X120.9354 Y78.5274
G01 X120.9244 Y78.5347
G01 X120.8874 Y78.5570
G01 X120.8760 Y78.5634
G01 X120.8643 Y78.5693
G01 X120.8251 Y78.5878
G01 X120.8069 Y78.5951
G01 X120.7598 Y78.6116
G01 X120.7115 Y78.6240
G01 X120.6987 Y78.6269
G01 X120.6858 Y78.6291
G01 X120.6364 Y78.6361
G01 X120.6234 Y78.6371
G01 X120.5800 Y78.6391
G01 X81.9247 Y78.6395
G01 X81.8996 Y78.6513
G01 X81.8875 Y78.6563
G01 X81.8405 Y78.6731
G01 X81.8217 Y78.6786
G01 X81.7796 Y78.6890
G01 X81.7603 Y78.6926
G01 X81.7109 Y78.6996
G01 X81.6979 Y78.7006
G01 X81.6480 Y78.7027
G01 X69.3678 Y78.7027
G01 X68.6668 Y79.4038
G01 X68.6300 Y79.4375
G01 X68.6150 Y79.4501
G01 X68.5802 Y79.4760
G01 X68.5694 Y79.4836
G01 X68.5269 Y79.5095
G01 X68.5155 Y79.5159
G01 X68.5038 Y79.5218
G01 X68.4586 Y79.5429
G01 X68.4117 Y79.5600
G01 X68.3930 Y79.5659
G01 X68.3510 Y79.5765
G01 X68.3382 Y79.5794
G01 X68.3253 Y79.5816
G01 X68.2759 Y79.5886
G01 X68.2629 Y79.5896
G01 X68.2130 Y79.5917
G01 X8.8135 Y79.5917
G01 X8.8004 Y79.5914
G01 X8.7571 Y79.5892
G01 X8.7376 Y79.5870
G01 X8.6883 Y79.5794
G01 X8.6398 Y79.5676
G01 X8.6210 Y79.5621
G01 X8.5801 Y79.5476
G01 X8.5679 Y79.5429
G01 X8.5227 Y79.5218
G01 X8.5053 Y79.5128
G01 X8.4680 Y79.4906
G01 X8.4570 Y79.4836
G01 X8.4167 Y79.4541
G01 X8.4014 Y79.4418
G01 X8.3692 Y79.4128
G01 X8.3597 Y79.4038
G01 X3.4657 Y74.5096
G01 X3.4365 Y74.4775
G01 X3.4279 Y74.4676
G01 X3.3980 Y74.4277
G01 X3.3904 Y74.4169
G01 X3.3645 Y74.3744
G01 X3.3581 Y74.3630
G01 X3.3364 Y74.3180
G01 X3.3311 Y74.3061
G01 X3.3264 Y74.2939
G01 X3.3119 Y74.2530
G01 X3.3064 Y74.2342
G01 X3.2960 Y74.1921
G01 X3.2934 Y74.1793
G01 X3.2870 Y74.1364
G01 X3.2848 Y74.1169
G01 X3.2826 Y74.0736
G01 X3.2823 Y74.0605
G01 X3.2823 Y8.9095
G01 X3.2826 Y8.8964
G00 Z2.0000
G00 X3.4278 Y8.9036
G01 F80.00
G01 Z-0.1200
G01 F120.00
G01 X3.4301 Y8.8609
G01 X3.4372 Y8.8127
G01 X3.4490 Y8.7654
G01 X3.4654 Y8.7196
G01 X3.4863 Y8.6755
G01 X3.5113 Y8.6337
G01 X3.5403 Y8.5946
G01 X3.5710 Y8.5607
G01 X7.7640 Y4.3675
G01 X7.8001 Y4.3348
G01 X7.8392 Y4.3058
G01 X7.8810 Y4.2808
G01 X7.9251 Y4.2599
G01 X7.9709 Y4.2435
G01 X8.0182 Y4.2317
G01 X8.0668 Y4.2245
G01 X8.1150 Y4.2222
G01 X49.9615 Y4.2222
G01 X50.0101 Y4.2246
G01 X50.0583 Y4.2317
G01 X50.0998 Y4.2419
G01 X50.1112 Y4.2454
G01 X50.1459 Y4.2578
G01 X50.1569 Y4.2624
G01 X50.1955 Y4.2808
G01 X50.2373 Y4.3058
G01 X50.2764 Y4.3348
G01 X50.3103 Y4.3655
G01 X54.4947 Y8.5498
G01 X55.6512 Y8.5498
G01 X55.6958 Y8.4258
G01 X55.7638 Y8.2819
G01 X55.8456 Y8.1455
G01 X55.9367 Y8.0224
G01 X55.9442 Y8.0132
G01 X56.0431 Y7.9041
G01 X56.0515 Y7.8957
G01 X56.1651 Y7.7930
G01 X56.2929 Y7.6982
G01 X56.4293 Y7.6164
G01 X56.5677 Y7.5508
G01 X56.5787 Y7.5463
G01 X56.7173 Y7.4967
G01 X56.7286 Y7.4932
G01 X56.8769 Y7.4562
G01 X57.0346 Y7.4328
G01 X57.1935 Y7.4250
G01 X57.3494 Y7.4326
G01 X57.3583 Y7.4335
G01 X57.5098 Y7.4562
G01 X57.6584 Y7.4932
G01 X57.6697 Y7.4967
G01 X57.8083 Y7.5463
G01 X57.8193 Y7.5508
G01 X57.9577 Y7.6164
G01 X58.0942 Y7.6982
G01 X58.2219 Y7.7930
G01 X58.3398 Y7.8998
G01 X58.4467 Y8.0177
G01 X58.5415 Y8.1455
G01 X58.6232 Y8.2819
G01 X58.6888 Y8.4203
G01 X58.6934 Y8.4313
G01 X58.7430 Y8.5699
G01 X58.7464 Y8.5813
G01 X58.7835 Y8.7299
G01 X58.8061 Y8.8813
G01 X58.8071 Y8.8902
G01 X58.8145 Y9.0402
G01 X58.8145 Y9.0521
G01 X58.8068 Y9.2051
G01 X58.7845 Y9.3566
G01 X58.7822 Y9.3682
G01 X58.7448 Y9.5167
G01 X58.6934 Y9.6610
G01 X58.6888 Y9.6720
G01 X58.6232 Y9.8104
G01 X58.5446 Y9.9418
G01 X58.5380 Y9.9517
G01 X58.4467 Y10.0746
G01 X58.3439 Y10.1882
G01 X58.3355 Y10.1966
G01 X58.2219 Y10.2993
G01 X58.0990 Y10.3907
G01 X58.0891 Y10.3973
G01 X57.9577 Y10.4759
G01 X57.8193 Y10.5415
G01 X57.8083 Y10.5460
G01 X57.6641 Y10.5975
G01 X57.5156 Y10.6348
G01 X57.5045 Y10.6371
G01 X57.3524 Y10.6595
G01 X57.1935 Y10.6673
G01 X57.0405 Y10.6599
G01 X57.0287 Y10.6588
G01 X56.8772 Y10.6362
G01 X56.7286 Y10.5991
G01 X56.7173 Y10.5956
G01 X56.5731 Y10.5439
G01 X56.4293 Y10.4759
G01 X56.2928 Y10.3941
G01 X56.1651 Y10.2993
G01 X56.0515 Y10.1966
G01 X56.0431 Y10.1882
G01 X55.9403 Y10.0746
G01 X55.8490 Y9.9517
G01 X55.8424 Y9.9418
G01 X55.7667 Y9.8155
G01 X55.7611 Y9.8050
G01 X55.6958 Y9.6665
G01 X55.6512 Y9.5425
G01 X54.2892 Y9.5425
G01 X54.2435 Y9.5404
G01 X54.2346 Y9.5394
G01 X54.1982 Y9.5340
G01 X54.1865 Y9.5316
G01 X54.1451 Y9.5211
G01 X54.0992 Y9.5047
G01 X54.0605 Y9.4866
G01 X54.0500 Y9.4810
G01 X54.0134 Y9.4588
G01 X53.9766 Y9.4317
G01 X53.9698 Y9.4259
G01 X53.9382 Y9.3971
G01 X49.7559 Y5.2148
G01 X8.3206 Y5.2148
G01 X4.4203 Y9.1151
G01 X4.4203 Y30.1267
G01 X6.0312 Y28.5159
G01 X6.0312 Y28.2988
G01 X5.8745 Y28.2988
G01 X5.8411 Y28.2970
G01 X5.8080 Y28.2922
G01 X5.7993 Y28.2904
G01 X5.7698 Y28.2828
G01 X5.7355 Y28.2705
G01 X5.7025 Y28.2550
G01 X5.6738 Y28.2379
G01 X5.6664 Y28.2328
G01 X5.6420 Y28.2146
G01 X5.6151 Y28.1901
G01 X5.5906 Y28.1631
G01 X5.5723 Y28.1387
G01 X5.5657 Y28.1288
G01 X5.5488 Y28.1000
G01 X5.5358 Y28.0724
G01 X5.5325 Y28.0641
G01 X5.5223 Y28.0354
G01 X5.5148 Y28.0059
G01 X5.5129 Y27.9971
G01 X5.5089 Y27.9699
G01 X5.5077 Y27.9581
G01 X5.5064 Y27.9277
G01 X5.5064 Y27.2747
G01 X5.5081 Y27.2413
G01 X5.5125 Y27.2111
G01 X5.5141 Y27.2023
G01 X5.5215 Y27.1728
G01 X5.5325 Y27.1412
G01 X5.5370 Y27.1302
G01 X5.5502 Y27.1027
G01 X5.5689 Y27.0715
G01 X5.5869 Y27.0469
G01 X5.5945 Y27.0377
G01 X5.6151 Y27.0152
G01 X5.6375 Y26.9946
G01 X5.6467 Y26.9871
G01 X5.6713 Y26.9691
G01 X5.6974 Y26.9533
G01 X5.7079 Y26.9477
G01 X5.7355 Y26.9348
G01 X5.7641 Y26.9243
G01 X5.7755 Y26.9209
G01 X5.8080 Y26.9131
G01 X5.8415 Y26.9082
G01 X5.8775 Y26.9065
G01 X7.1775 Y26.9065
G01 X7.2079 Y26.9079
G01 X7.2168 Y26.9086
G01 X7.2470 Y26.9131
G01 X7.2557 Y26.9149
G01 X7.2852 Y26.9225
G01 X7.3140 Y26.9326
G01 X7.3250 Y26.9372
G01 X7.3525 Y26.9503
G01 X7.3837 Y26.9691
G01 X7.4083 Y26.9871
G01 X7.4175 Y26.9946
G01 X7.4399 Y27.0152
G01 X7.4605 Y27.0377
G01 X7.4681 Y27.0469
G01 X7.4861 Y27.0715
G01 X7.5019 Y27.0975
G01 X7.5067 Y27.1063
G01 X10.9764 Y27.1063
G01 X10.9789 Y27.0985
G01 X11.0053 Y27.0245
G01 X11.0099 Y27.0136
G01 X11.0461 Y26.9373
G01 X11.0926 Y26.8597
G01 X11.1428 Y26.7918
G01 X11.1503 Y26.7826
G01 X11.2071 Y26.7201
G01 X11.2696 Y26.6633
G01 X11.2788 Y26.6558
G01 X11.3467 Y26.6056
G01 X11.4191 Y26.5620
G01 X11.4296 Y26.5564
G01 X11.5060 Y26.5205
G01 X11.5855 Y26.4919
G01 X11.5968 Y26.4884
G01 X11.6730 Y26.4694
G01 X11.6817 Y26.4675
G01 X11.7682 Y26.4548
G01 X11.8585 Y26.4504
G01 X14.6585 Y26.4504
G01 X14.7429 Y26.4543
G01 X14.7547 Y26.4555
G01 X14.8382 Y26.4680
G01 X14.9202 Y26.4884
G01 X14.9315 Y26.4919
G01 X15.0110 Y26.5205
G01 X15.0927 Y26.5591
G01 X15.1652 Y26.6024
G01 X15.1751 Y26.6090
G01 X15.2429 Y26.6594
G01 X15.3055 Y26.7160
G01 X15.3140 Y26.7245
G01 X15.3706 Y26.7871
G01 X15.4227 Y26.8573
G01 X15.4338 Y26.8752
G01 X21.7380 Y26.8752
G01 X21.7407 Y26.8654
G01 X21.7521 Y26.8340
G01 X21.7650 Y26.8064
G01 X21.7706 Y26.7959
G01 X21.7864 Y26.7698
G01 X21.8062 Y26.7429
G01 X21.8285 Y26.7179
G01 X21.8369 Y26.7095
G01 X21.8595 Y26.6891
G01 X21.8839 Y26.6708
G01 X21.8938 Y26.6642
G01 X21.9200 Y26.6487
G01 X21.9530 Y26.6331
G01 X21.9816 Y26.6227
G01 X21.9930 Y26.6192
G01 X22.0255 Y26.6114
G01 X22.0586 Y26.6066
G01 X22.0950 Y26.6049
G01 X23.3450 Y26.6049
G01 X23.3814 Y26.6066
G01 X23.4174 Y26.6120
G01 X23.4527 Y26.6208
G01 X23.4870 Y26.6331
G01 X23.5200 Y26.6487
G01 X23.5512 Y26.6674
G01 X23.5805 Y26.6891
G01 X23.6031 Y26.7095
G01 X23.6095 Y26.7157
G01 X23.6300 Y26.7383
G01 X23.6502 Y26.7649
G01 X23.6552 Y26.7723
G01 X23.6694 Y26.7959
G01 X23.6750 Y26.8064
G01 X23.6879 Y26.8340
G01 X23.7002 Y26.8683
G01 X23.7090 Y26.9036
G01 X23.7136 Y26.9337
G01 X23.7146 Y26.9426
G01 X23.7161 Y26.9760
G01 X23.7161 Y27.9010
G01 X23.7148 Y27.9314
G01 X23.7136 Y27.9433
G01 X23.7090 Y27.9734
G01 X23.7018 Y28.0030
G01 X23.6993 Y28.0116
G01 X23.6900 Y28.0375
G01 X23.6855 Y28.0485
G01 X23.6723 Y28.0760
G01 X23.6536 Y28.1072
G01 X23.6319 Y28.1365
G01 X23.6115 Y28.1591
G01 X23.6031 Y28.1675
G01 X23.5805 Y28.1879
G01 X23.5512 Y28.2096
G01 X23.5251 Y28.2254
G01 X23.5146 Y28.2310
G01 X23.4869 Y28.2440
G01 X23.4527 Y28.2562
G01 X23.4232 Y28.2637
G01 X23.4115 Y28.2660
G01 X23.3784 Y28.2706
G01 X23.3450 Y28.2721
G01 X22.0950 Y28.2721
G01 X22.0586 Y28.2704
G01 X22.0285 Y28.2660
G01 X22.0168 Y28.2637
G01 X21.9873 Y28.2562
G01 X21.9530 Y28.2439
G01 X21.9200 Y28.2283
G01 X21.8888 Y28.2096
G01 X21.8595 Y28.1879
G01 X21.8326 Y28.1634
G01 X21.8081 Y28.1365
G01 X21.7898 Y28.1121
G01 X21.7848 Y28.1047
G01 X21.7706 Y28.0811
G01 X21.7650 Y28.0706
G01 X21.7520 Y28.0429
G01 X21.7417 Y28.0144
G01 X21.7390 Y28.0059
G01 X21.7310 Y27.9734
G01 X21.7256 Y27.9374
G01 X21.7239 Y27.9040
G01 X21.7239 Y27.8678
G01 X15.4338 Y27.8678
G01 X15.4227 Y27.8857
G01 X15.3706 Y27.9559
G01 X15.3140 Y28.0185
G01 X15.3055 Y28.0270
G01 X15.2429 Y28.0836
G01 X15.1751 Y28.1340
G01 X15.1652 Y28.1406
G01 X15.0927 Y28.1839
G01 X15.0110 Y28.2225
G01 X14.9315 Y28.2511
G01 X14.9202 Y28.2546
G01 X14.8382 Y28.2750
G01 X14.7547 Y28.2875
G01 X14.7429 Y28.2887
G01 X14.6615 Y28.2926
G01 X11.8585 Y28.2926
G01 X11.7741 Y28.2887
G01 X11.7623 Y28.2875
G01 X11.6847 Y28.2760
G01 X11.6730 Y28.2736
G01 X11.5911 Y28.2530
G01 X11.5088 Y28.2236
G01 X11.5006 Y28.2201
G01 X11.4296 Y28.1866
G01 X11.4217 Y28.1824
G01 X11.3467 Y28.1374
G01 X11.2947 Y28.0990
G01 X7.5067 Y28.0990
G01 X7.5019 Y28.1078
G01 X7.4877 Y28.1314
G01 X7.4681 Y28.1584
G01 X7.4605 Y28.1676
G01 X7.4420 Y28.1880
G01 X7.4356 Y28.1942
G01 X7.4130 Y28.2146
G01 X7.3837 Y28.2363
G01 X7.3525 Y28.2550
G01 X7.3195 Y28.2705
G01 X7.2852 Y28.2828
G01 X7.2557 Y28.2904
G01 X7.2440 Y28.2927
G01 X7.2139 Y28.2970
G01 X7.1775 Y28.2988
G01 X7.0238 Y28.2988
G01 X7.0238 Y28.7245
G01 X7.0214 Y28.7701
G01 X7.0153 Y28.8125
G01 X7.0130 Y28.8241
G01 X7.0025 Y28.8656
G01 X6.9882 Y28.9059
G01 X6.9836 Y28.9169
G01 X6.9652 Y28.9555
G01 X6.9434 Y28.9922
G01 X6.9368 Y29.0021
G01 X6.9112 Y29.0364
G01 X6.8785 Y29.0725
G01 X4.4203 Y31.5306
G01 X4.4203 Y73.8549
G01 X9.0191 Y78.4537
G01 X37.7777 Y78.4537
G01 X33.6355 Y74.3115
G01 X33.6067 Y74.2799
G01 X33.5992 Y74.2707
G01 X33.5738 Y74.2362
G01 X33.5502 Y74.1971
G01 X33.5461 Y74.1892
G01 X33.5279 Y74.1504
G01 X33.5134 Y74.1102
G01 X33.5099 Y74.0988
G01 X33.5010 Y74.0631
G01 X33.4987 Y74.0515
G01 X33.4926 Y74.0091
G01 X33.4903 Y73.9664
G01 X33.4902 Y72.8422
G01 X33.4817 Y72.8413
G01 X33.4516 Y72.8367
G01 X33.4163 Y72.8278
G01 X33.3820 Y72.8155
G01 X33.3544 Y72.8026
G01 X33.3439 Y72.7970
G01 X33.3203 Y72.7829
G01 X33.3129 Y72.7778
G01 X33.2863 Y72.7576
G01 X33.2637 Y72.7372
G01 X33.2575 Y72.7308
G01 X33.2371 Y72.7081
G01 X33.2154 Y72.6789
G01 X33.1967 Y72.6476
G01 X33.1810 Y72.6146
G01 X33.1688 Y72.5804
G01 X33.1600 Y72.5451
G01 X33.1546 Y72.5090
G01 X33.1529 Y72.4726
G01 X33.1529 Y71.2227
G01 X33.1546 Y71.1863
G01 X33.1590 Y71.1561
G01 X33.1606 Y71.1473
G01 X33.1688 Y71.1149
G01 X33.1811 Y71.0806
G01 X33.1967 Y71.0477
G01 X33.2122 Y71.0215
G01 X33.2171 Y71.0140
G01 X33.2334 Y70.9919
G01 X33.2410 Y70.9827
G01 X33.2616 Y70.9602
G01 X33.2885 Y70.9357
G01 X33.3178 Y70.9141
G01 X33.3439 Y70.8983
G01 X33.3544 Y70.8927
G01 X33.3792 Y70.8809
G01 X33.3875 Y70.8776
G01 X33.4163 Y70.8675
G01 X33.4516 Y70.8586
G01 X33.4876 Y70.8533
G01 X33.5210 Y70.8515
G01 X34.4490 Y70.8515
G01 X34.4854 Y70.8533
G01 X34.5214 Y70.8586
G01 X34.5510 Y70.8659
G01 X34.5624 Y70.8693
G01 X34.5910 Y70.8798
G01 X34.6186 Y70.8927
G01 X34.6291 Y70.8983
G01 X34.6552 Y70.9141
G01 X34.6798 Y70.9321
G01 X34.6890 Y70.9396
G01 X34.7114 Y70.9602
G01 X34.7320 Y70.9827
G01 X34.7396 Y70.9919
G01 X34.7576 Y71.0165
G01 X34.7734 Y71.0425
G01 X34.7790 Y71.0530
G01 X34.7919 Y71.0806
G01 X34.8033 Y71.1121
G01 X34.8117 Y71.1444
G01 X34.8140 Y71.1561
G01 X34.8184 Y71.1863
G01 X34.8201 Y71.2227
G01 X34.8201 Y72.4726
G01 X34.8188 Y72.5031
G01 X34.8180 Y72.5120
G01 X34.8130 Y72.5451
G01 X34.8042 Y72.5804
G01 X34.7919 Y72.6147
G01 X34.7790 Y72.6423
G01 X34.7734 Y72.6528
G01 X34.7592 Y72.6764
G01 X34.7542 Y72.6837
G01 X34.7359 Y72.7081
G01 X34.7114 Y72.7351
G01 X34.6845 Y72.7596
G01 X34.6552 Y72.7813
G01 X34.6240 Y72.8000
G01 X34.5965 Y72.8131
G01 X34.5855 Y72.8177
G01 X34.5596 Y72.8269
G01 X34.5510 Y72.8294
G01 X34.5214 Y72.8367
G01 X34.4913 Y72.8413
G01 X34.4828 Y72.8422
G01 X34.4828 Y73.7549
G01 X39.1816 Y78.4537
G01 X68.0074 Y78.4537
G01 X68.4001 Y78.0610
G01 X67.4912 Y77.1521
G01 X66.7345 Y77.1521
G01 X66.6981 Y77.1504
G01 X66.6621 Y77.1450
G01 X66.6325 Y77.1378
G01 X66.6211 Y77.1343
G01 X66.5925 Y77.1239
G01 X66.5649 Y77.1110
G01 X66.5544 Y77.1054
G01 X66.5283 Y77.0896
G01 X66.4990 Y77.0679
G01 X66.4764 Y77.0475
G01 X66.4680 Y77.0391
G01 X66.4476 Y77.0165
G01 X66.4293 Y76.9921
G01 X66.4227 Y76.9822
G01 X66.4072 Y76.9560
G01 X66.3940 Y76.9285
G01 X66.3904 Y76.9201
G01 X66.3793 Y76.8887
G01 X66.3705 Y76.8534
G01 X66.3651 Y76.8174
G01 X66.3634 Y76.7840
G01 X66.3634 Y75.5310
G01 X66.3651 Y75.4946
G01 X66.3705 Y75.4586
G01 X66.3793 Y75.4233
G01 X66.3895 Y75.3945
G01 X66.3928 Y75.3862
G01 X66.4045 Y75.3614
G01 X66.4101 Y75.3509
G01 X66.4259 Y75.3248
G01 X66.4476 Y75.2955
G01 X66.4721 Y75.2686
G01 X66.4990 Y75.2441
G01 X66.5283 Y75.2224
G01 X66.5544 Y75.2066
G01 X66.5649 Y75.2010
G01 X66.5897 Y75.1893
G01 X66.5980 Y75.1860
G01 X66.6268 Y75.1758
G01 X66.6621 Y75.1670
G01 X66.6981 Y75.1616
G01 X66.7315 Y75.1599
G01 X67.6595 Y75.1599
G01 X67.6959 Y75.1616
G01 X67.7319 Y75.1670
G01 X67.7615 Y75.1742
G01 X67.7701 Y75.1767
G01 X67.7960 Y75.1860
G01 X67.8070 Y75.1905
G01 X67.8345 Y75.2037
G01 X67.8657 Y75.2224
G01 X67.8950 Y75.2441
G01 X67.9198 Y75.2665
G01 X67.9260 Y75.2729
G01 X67.9464 Y75.2955
G01 X67.9647 Y75.3199
G01 X67.9697 Y75.3273
G01 X67.9839 Y75.3509
G01 X67.9895 Y75.3614
G01 X68.0024 Y75.3890
G01 X68.0147 Y75.4233
G01 X68.0235 Y75.4586
G01 X68.0289 Y75.4946
G01 X68.0306 Y75.5310
G01 X68.0306 Y76.2877
G01 X69.3076 Y77.5647
G01 X79.9051 Y77.5647
G01 X71.6832 Y69.3428
G01 X70.9265 Y69.3428
G01 X70.8901 Y69.3410
G01 X70.8541 Y69.3357
G01 X70.8188 Y69.3268
G01 X70.7845 Y69.3145
G01 X70.7569 Y69.3016
G01 X70.7464 Y69.2960
G01 X70.7228 Y69.2819
G01 X70.7154 Y69.2768
G01 X70.6888 Y69.2566
G01 X70.6662 Y69.2362
G01 X70.6600 Y69.2298
G01 X70.6396 Y69.2071
G01 X70.6179 Y69.1779
G01 X70.5992 Y69.1466
G01 X70.5860 Y69.1191
G01 X70.5815 Y69.1081
G01 X70.5722 Y69.0822
G01 X70.5697 Y69.0737
G01 X70.5625 Y69.0441
G01 X70.5579 Y69.0139
G01 X70.5569 Y69.0051
G01 X70.5554 Y68.9716
G01 X70.5554 Y68.0467
G01 X70.5571 Y68.0103
G01 X70.5619 Y67.9772
G01 X70.5638 Y67.9684
G01 X70.5713 Y67.9389
G01 X70.5815 Y67.9102
G01 X70.5848 Y67.9019
G01 X70.5965 Y67.8770
G01 X70.6021 Y67.8665
G01 X70.6179 Y67.8405
G01 X70.6396 Y67.8112
G01 X70.6641 Y67.7842
G01 X70.6910 Y67.7597
G01 X70.7203 Y67.7381
G01 X70.7464 Y67.7223
G01 X70.7569 Y67.7167
G01 X70.7817 Y67.7049
G01 X70.7900 Y67.7016
G01 X70.8188 Y67.6915
G01 X70.8541 Y67.6826
G01 X70.8901 Y67.6773
G01 X70.9235 Y67.6755
G01 X72.1765 Y67.6755
G01 X72.2099 Y67.6770
G01 X72.2188 Y67.6780
G01 X72.2489 Y67.6826
G01 X72.2785 Y67.6899
G01 X72.2871 Y67.6924
G01 X72.3130 Y67.7016
G01 X72.3240 Y67.7062
G01 X72.3515 Y67.7193
G01 X72.3827 Y67.7381
G01 X72.4120 Y67.7597
G01 X72.4368 Y67.7821
G01 X72.4430 Y67.7885
G01 X72.4634 Y67.8112
G01 X72.4817 Y67.8356
G01 X72.4867 Y67.8429
G01 X72.5009 Y67.8665
G01 X72.5065 Y67.8770
G01 X72.5194 Y67.9046
G01 X72.5317 Y67.9389
G01 X72.5405 Y67.9742
G01 X72.5459 Y68.0103
G01 X72.5476 Y68.0467
G01 X72.5476 Y68.8034
G01 X81.2454 Y77.5012
G01 X88.9587 Y77.5012
G01 X86.2480 Y74.7903
G01 X86.2173 Y74.7564
G01 X86.1883 Y74.7172
G01 X86.1633 Y74.6755
G01 X86.1449 Y74.6369
G01 X86.1403 Y74.6259
G01 X86.1279 Y74.5912
G01 X86.1244 Y74.5798
G01 X86.1142 Y74.5383
G01 X86.1078 Y74.4961
G01 X86.1068 Y74.4872
G01 X86.1047 Y74.4415
G01 X86.1047 Y69.2980
G01 X86.1071 Y69.2494
G01 X86.1132 Y69.2070
G01 X86.1155 Y69.1954
G01 X86.1260 Y69.1539
G01 X86.1424 Y69.1081
G01 X86.1633 Y69.0640
G01 X86.1883 Y69.0222
G01 X86.2155 Y68.9854
G01 X86.2212 Y68.9786
G01 X86.2500 Y68.9470
G01 X86.3604 Y68.8367
G01 X86.3942 Y68.8059
G01 X86.4012 Y68.8003
G01 X86.4307 Y68.7784
G01 X86.4406 Y68.7718
G01 X86.4774 Y68.7499
G01 X86.5187 Y68.7303
G01 X86.5270 Y68.7270
G01 X86.5616 Y68.7146
G01 X86.5701 Y68.7119
G01 X86.6145 Y68.7009
G01 X86.6444 Y68.6963
G01 X86.6908 Y68.5673
G01 X86.7561 Y68.4288
G01 X86.7617 Y68.4183
G01 X86.8406 Y68.2870
G01 X86.9353 Y68.1592
G01 X87.0381 Y68.0456
G01 X87.0465 Y68.0372
G01 X87.1556 Y67.9384
G01 X87.1624 Y67.9326
G01 X87.2879 Y67.8397
G01 X87.4191 Y67.7609
G01 X87.4296 Y67.7553
G01 X87.5627 Y67.6923
G01 X87.5737 Y67.6878
G01 X87.7179 Y67.6363
G01 X87.8722 Y67.5977
G01 X88.0296 Y67.5743
G01 X88.1826 Y67.5666
G01 X88.1944 Y67.5666
G01 X88.3474 Y67.5743
G01 X88.5048 Y67.5977
G01 X88.6591 Y67.6363
G01 X88.8033 Y67.6878
G01 X88.8143 Y67.6923
G01 X88.9474 Y67.7553
G01 X88.9579 Y67.7609
G01 X89.0892 Y67.8397
G01 X89.2123 Y67.9308
G01 X89.2214 Y67.9384
G01 X89.3348 Y68.0413
G01 X89.4417 Y68.1592
G01 X89.5365 Y68.2870
G01 X89.6182 Y68.4234
G01 X89.6862 Y68.5673
G01 X89.7380 Y68.7114
G01 X89.7414 Y68.7228
G01 X89.7772 Y68.8656
G01 X89.7795 Y68.8772
G01 X89.8018 Y69.0288
G01 X89.8095 Y69.1817
G01 X89.8095 Y69.1936
G01 X89.8018 Y69.3466
G01 X89.7790 Y69.5010
G01 X89.7772 Y69.5097
G01 X89.7414 Y69.6525
G01 X89.7380 Y69.6639
G01 X89.6862 Y69.8080
G01 X89.6209 Y69.9465
G01 X89.6153 Y69.9570
G01 X89.5364 Y70.0883
G01 X89.4453 Y70.2114
G01 X89.4378 Y70.2206
G01 X89.3348 Y70.3340
G01 X89.2214 Y70.4369
G01 X89.2123 Y70.4445
G01 X89.0892 Y70.5356
G01 X88.9579 Y70.6144
G01 X88.9474 Y70.6201
G01 X88.8089 Y70.6854
G01 X88.6619 Y70.7381
G01 X88.6534 Y70.7406
G01 X88.5051 Y70.7776
G01 X88.3533 Y70.8003
G01 X88.3415 Y70.8014
G01 X88.1885 Y70.8088
G01 X88.0355 Y70.8014
G01 X88.0237 Y70.8003
G01 X87.8781 Y70.7787
G01 X87.8693 Y70.7770
G01 X87.7179 Y70.7390
G01 X87.5737 Y70.6875
G01 X87.5627 Y70.6830
G01 X87.4269 Y70.6187
G01 X87.4191 Y70.6144
G01 X87.2929 Y70.5388
G01 X87.2854 Y70.5339
G01 X87.1624 Y70.4427
G01 X87.1556 Y70.4369
G01 X87.0973 Y70.3842
G01 X87.0973 Y74.2359
G01 X90.3626 Y77.5012
G01 X120.3679 Y77.5012
G01 X121.7993 Y76.0698
G01 X121.7734 Y76.0543
G01 X121.7659 Y76.0494
G01 X121.6452 Y75.9600
G01 X121.6383 Y75.9544
G01 X121.5227 Y75.8495
G01 X121.4197 Y75.7361
G01 X121.4140 Y75.7293
G01 X121.3211 Y75.6038
G01 X121.2393 Y75.4674
G01 X121.1713 Y75.3235
G01 X121.1267 Y75.1995
G01 X118.3155 Y75.1995
G01 X118.2918 Y75.2167
G01 X118.2219 Y75.2586
G01 X118.2141 Y75.2629
G01 X118.1350 Y75.3002
G01 X118.0527 Y75.3297
G01 X118.0442 Y75.3322
G01 X117.9680 Y75.3513
G01 X117.9563 Y75.3536
G01 X117.8728 Y75.3659
G01 X117.7855 Y75.3703
G01 X114.9795 Y75.3703
G01 X114.8922 Y75.3659
G01 X114.8028 Y75.3526
G01 X114.7151 Y75.3306
G01 X114.6355 Y75.3023
G01 X114.6246 Y75.2978
G01 X114.5483 Y75.2615
G01 X114.4758 Y75.2182
G01 X114.4659 Y75.2116
G01 X114.4028 Y75.1649
G01 X114.3936 Y75.1573
G01 X114.3311 Y75.1005
G01 X114.2704 Y75.0335
G01 X114.2166 Y74.9609
G01 X114.1730 Y74.8886
G01 X114.1674 Y74.8781
G01 X114.1339 Y74.8071
G01 X114.1293 Y74.7961
G01 X114.1011 Y74.7168
G01 X114.0790 Y74.6289
G01 X114.0658 Y74.5394
G01 X114.0615 Y74.4551
G01 X114.0615 Y74.4432
G01 X114.0653 Y74.3648
G01 X114.0665 Y74.3530
G01 X114.0790 Y74.2694
G01 X114.1010 Y74.1818
G01 X114.1315 Y74.0966
G01 X114.1674 Y74.0202
G01 X114.1730 Y74.0098
G01 X114.2134 Y73.9424
G01 X114.2200 Y73.9325
G01 X114.2704 Y73.8648
G01 X114.3311 Y73.7978
G01 X114.3981 Y73.7371
G01 X114.4707 Y73.6832
G01 X114.5483 Y73.6368
G01 X114.6246 Y73.6005
G01 X114.6355 Y73.5960
G01 X114.7095 Y73.5695
G01 X114.7208 Y73.5661
G01 X114.8028 Y73.5457
G01 X114.8863 Y73.5332
G01 X114.8981 Y73.5320
G01 X114.9825 Y73.5280
G01 X117.7825 Y73.5280
G01 X117.8728 Y73.5324
G01 X117.9622 Y73.5457
G01 X118.0442 Y73.5661
G01 X118.0555 Y73.5695
G01 X118.1350 Y73.5981
G01 X118.2167 Y73.6368
G01 X118.2892 Y73.6801
G01 X118.2991 Y73.6867
G01 X118.3622 Y73.7334
G01 X118.3691 Y73.7390
G01 X118.4339 Y73.7978
G01 X118.4907 Y73.8603
G01 X118.4982 Y73.8695
G01 X118.5450 Y73.9325
G01 X118.5500 Y73.9399
G01 X118.5949 Y74.0149
G01 X118.6324 Y74.0939
G01 X118.6357 Y74.1022
G01 X118.6631 Y74.1789
G01 X118.6704 Y74.2068
G01 X121.1267 Y74.2068
G01 X121.1713 Y74.0828
G01 X121.2393 Y73.9389
G01 X121.3211 Y73.8025
G01 X121.4158 Y73.6747
G01 X121.5227 Y73.5568
G01 X121.6406 Y73.4500
G01 X121.7684 Y73.3552
G01 X121.8996 Y73.2764
G01 X121.9101 Y73.2708
G01 X122.0432 Y73.2078
G01 X122.0542 Y73.2033
G01 X122.1984 Y73.1518
G01 X122.3469 Y73.1145
G01 X122.3586 Y73.1121
G01 X122.5101 Y73.0898
G01 X122.6690 Y73.0820
G01 X122.8279 Y73.0898
G01 X122.9853 Y73.1132
G01 X123.1339 Y73.1502
G01 X123.1452 Y73.1537
G01 X123.2894 Y73.2054
G01 X123.4279 Y73.2708
G01 X123.4384 Y73.2764
G01 X123.5697 Y73.3552
G01 X123.6974 Y73.4500
G01 X123.8153 Y73.5568
G01 X123.9183 Y73.6702
G01 X123.9258 Y73.6794
G01 X124.0170 Y73.8025
G01 X124.0958 Y73.9338
G01 X124.1014 Y73.9443
G01 X124.1643 Y74.0773
G01 X124.1689 Y74.0883
G01 X124.2203 Y74.2326
G01 X124.2590 Y74.3869
G01 X124.2823 Y74.5443
G01 X124.2900 Y74.6972
G01 X124.2900 Y74.7091
G01 X124.2823 Y74.8621
G01 X124.2600 Y75.0136
G01 X124.2577 Y75.0252
G01 X124.2219 Y75.1680
G01 X124.2185 Y75.1794
G01 X124.1667 Y75.3235
G01 X124.1014 Y75.4620
G01 X124.0973 Y75.4700
G01 X124.0169 Y75.6038
G01 X123.9258 Y75.7269
G01 X123.9183 Y75.7361
G01 X123.8194 Y75.8452
G01 X123.8110 Y75.8536
G01 X123.6974 Y75.9563
G01 X123.5745 Y76.0477
G01 X123.5646 Y76.0543
G01 X123.4332 Y76.1329
G01 X123.2894 Y76.2009
G01 X123.1396 Y76.2545
G01 X122.9911 Y76.2918
G01 X122.9786 Y76.2943
G01 X120.9245 Y78.3485
G01 X120.8906 Y78.3793
G01 X120.8837 Y78.3848
G01 X120.8492 Y78.4102
G01 X120.8126 Y78.4323
G01 X120.8022 Y78.4379
G01 X120.7689 Y78.4536
G01 X120.7579 Y78.4582
G01 X120.7176 Y78.4725
G01 X120.6703 Y78.4843
G01 X120.6221 Y78.4914
G01 X120.5765 Y78.4938
G01 X81.8900 Y78.4941
G01 X81.8793 Y78.5001
G01 X81.8379 Y78.5196
G01 X81.7977 Y78.5341
G01 X81.7863 Y78.5376
G01 X81.7448 Y78.5478
G01 X81.7026 Y78.5542
G01 X81.6907 Y78.5554
G01 X81.6480 Y78.5573
G01 X69.3076 Y78.5573
G01 X68.5640 Y79.3010
G01 X68.5279 Y79.3337
G01 X68.4887 Y79.3627
G01 X68.4521 Y79.3848
G01 X68.4417 Y79.3904
G01 X68.4084 Y79.4061
G01 X68.3974 Y79.4107
G01 X68.3571 Y79.4250
G01 X68.3098 Y79.4368
G01 X68.2616 Y79.4439
G01 X68.2130 Y79.4463
G01 X8.8135 Y79.4463
G01 X8.7708 Y79.4444
G01 X8.7589 Y79.4432
G01 X8.7167 Y79.4368
G01 X8.6752 Y79.4266
G01 X8.6638 Y79.4231
G01 X8.6236 Y79.4086
G01 X8.5848 Y79.3904
G01 X8.5769 Y79.3863
G01 X8.5377 Y79.3627
G01 X8.5033 Y79.3373
G01 X8.4941 Y79.3298
G01 X8.4625 Y79.3010
G01 X3.5710 Y74.4093
G01 X3.5403 Y74.3754
G01 X3.5113 Y74.3362
G01 X3.4863 Y74.2945
G01 X3.4679 Y74.2559
G01 X3.4633 Y74.2449
G01 X3.4509 Y74.2102
G01 X3.4474 Y74.1988
G01 X3.4372 Y74.1573
G01 X3.4308 Y74.1151
G01 X3.4298 Y74.1062
G01 X3.4277 Y74.0605
G01 X3.4278 Y8.9036
G00 Z2.0000
G00 X11.1748 Y14.1955
G01 F80.00
G01 Z-0.1200
G01 F120.00
G01 X11.1835 Y14.1630
G01 X11.2711 Y13.9751
G01 X11.3905 Y13.8047
G01 X11.5374 Y13.6579
G01 X11.7072 Y13.5390
G01 X11.8954 Y13.4512
G01 X12.0959 Y13.3974
G01 X12.2511 Y13.3838
G01 X13.3279 Y13.3838
G01 X13.3279 Y13.6495
G01 X12.3000 Y13.6495
G01 X12.2186 Y13.6535
G01 X12.2068 Y13.6547
G01 X12.1233 Y13.6672
G01 X12.0413 Y13.6876
G01 X12.0300 Y13.6910
G01 X11.9505 Y13.7196
G01 X11.8688 Y13.7583
G01 X11.7912 Y13.8047
G01 X11.7233 Y13.8549
G01 X11.7164 Y13.8605
G01 X11.6516 Y13.9193
G01 X11.5948 Y13.9818
G01 X11.5873 Y13.9910
G01 X11.5405 Y14.0540
G01 X11.5339 Y14.0639
G01 X11.4906 Y14.1364
G01 X11.4625 Y14.1955
G01 X11.1748 Y14.1955
G00 Z2.0000
G00 X11.2789 Y16.7737
G01 F80.00
G01 Z-0.1200
G01 F120.00
G01 X11.2824 Y16.7611
G01 X11.2865 Y16.7486
G01 X11.3129 Y16.6747
G01 X11.3177 Y16.6625
G01 X11.3230 Y16.6505
G01 X11.3565 Y16.5796
G01 X11.3624 Y16.5679
G01 X11.3689 Y16.5565
G01 X11.4092 Y16.4892
G01 X11.4162 Y16.4781
G01 X11.4237 Y16.4674
G01 X11.4705 Y16.4044
G01 X11.4786 Y16.3941
G01 X11.4871 Y16.3841
G01 X11.5398 Y16.3260
G01 X11.5488 Y16.3165
G01 X11.5583 Y16.3075
G01 X11.6165 Y16.2548
G01 X11.6264 Y16.2462
G01 X11.6367 Y16.2382
G01 X11.6998 Y16.1914
G01 X11.7105 Y16.1839
G01 X11.7215 Y16.1769
G01 X11.7889 Y16.1365
G01 X11.8002 Y16.1301
G01 X11.8119 Y16.1242
G01 X11.8829 Y16.0906
G01 X11.8949 Y16.0853
G01 X11.9071 Y16.0806
G01 X11.9810 Y16.0541
G01 X11.9934 Y16.0500
G01 X12.0060 Y16.0466
G01 X12.0822 Y16.0275
G01 X12.0949 Y16.0246
G01 X12.1078 Y16.0224
G01 X12.1855 Y16.0109
G01 X12.1985 Y16.0093
G01 X12.2115 Y16.0083
G01 X12.2899 Y16.0044
G01 X12.3030 Y16.0041
G01 X15.1030 Y16.0041
G01 X15.1161 Y16.0044
G01 X15.1945 Y16.0083
G01 X15.2140 Y16.0100
G01 X15.2982 Y16.0224
G01 X15.3111 Y16.0246
G01 X15.3238 Y16.0275
G01 X15.4000 Y16.0466
G01 X15.4126 Y16.0500
G01 X15.4250 Y16.0541
G01 X15.4989 Y16.0806
G01 X15.5111 Y16.0853
G01 X15.5231 Y16.0906
G01 X15.5941 Y16.1242
G01 X15.6115 Y16.1332
G01 X15.6845 Y16.1769
G01 X15.6955 Y16.1839
G01 X15.7062 Y16.1914
G01 X15.7693 Y16.2382
G01 X15.7846 Y16.2504
G01 X15.8477 Y16.3075
G01 X15.8617 Y16.3212
G01 X15.9232 Y16.3890
G01 X15.9315 Y16.3992
G01 X15.9537 Y16.4289
G01 X19.8558 Y16.4289
G01 X19.8558 Y15.8995
G01 X19.8410 Y15.8994
G01 X19.8099 Y15.8980
G01 X19.7969 Y15.8970
G01 X19.7839 Y15.8954
G01 X19.7532 Y15.8908
G01 X19.7403 Y15.8883
G01 X19.7038 Y15.8791
G01 X19.6913 Y15.8753
G01 X19.6498 Y15.8602
G01 X19.6157 Y15.8444
G01 X19.6040 Y15.8385
G01 X19.5926 Y15.8321
G01 X19.5605 Y15.8125
G01 X19.5249 Y15.7864
G01 X19.5148 Y15.7781
G01 X19.4869 Y15.7528
G01 X19.4777 Y15.7436
G01 X19.4568 Y15.7206
G01 X19.4482 Y15.7107
G01 X19.4402 Y15.7004
G01 X19.4217 Y15.6754
G01 X19.4145 Y15.6645
G01 X19.3920 Y15.6265
G01 X19.3861 Y15.6148
G01 X19.3703 Y15.5807
G01 X19.3656 Y15.5685
G01 X19.3532 Y15.5329
G01 X19.3422 Y15.4902
G01 X19.3387 Y15.4709
G01 X19.3335 Y15.4336
G01 X19.3313 Y15.3961
G01 X19.3310 Y15.3830
G01 X19.3310 Y14.7330
G01 X19.3329 Y14.6889
G01 X19.3351 Y14.6694
G01 X19.3409 Y14.6322
G01 X19.3497 Y14.5957
G01 X19.3552 Y14.5768
G01 X19.3703 Y14.5353
G01 X19.3861 Y14.5012
G01 X19.3951 Y14.4838
G01 X19.4145 Y14.4515
G01 X19.4256 Y14.4353
G01 X19.4482 Y14.4053
G01 X19.4568 Y14.3954
G01 X19.4823 Y14.3678
G01 X19.5099 Y14.3423
G01 X19.5198 Y14.3337
G01 X19.5498 Y14.3111
G01 X19.5660 Y14.3000
G01 X19.5983 Y14.2806
G01 X19.6098 Y14.2744
G01 X19.6438 Y14.2584
G01 X19.6620 Y14.2511
G01 X19.6976 Y14.2387
G01 X19.7340 Y14.2293
G01 X19.7532 Y14.2252
G01 X19.7904 Y14.2197
G01 X19.8099 Y14.2180
G01 X19.8475 Y14.2165
G01 X21.1475 Y14.2165
G01 X21.1606 Y14.2168
G01 X21.1981 Y14.2190
G01 X21.2354 Y14.2242
G01 X21.2483 Y14.2264
G01 X21.2912 Y14.2369
G01 X21.3099 Y14.2428
G01 X21.3452 Y14.2558
G01 X21.3793 Y14.2716
G01 X21.3967 Y14.2806
G01 X21.4345 Y14.3035
G01 X21.4649 Y14.3257
G01 X21.4802 Y14.3379
G01 X21.5127 Y14.3678
G01 X21.5382 Y14.3954
G01 X21.5509 Y14.4104
G01 X21.5770 Y14.4460
G01 X21.5999 Y14.4838
G01 X21.6089 Y14.5012
G01 X21.6247 Y14.5353
G01 X21.6377 Y14.5706
G01 X21.6418 Y14.5831
G01 X21.6453 Y14.5957
G01 X21.6528 Y14.6258
G01 X21.6553 Y14.6387
G01 X21.6599 Y14.6694
G01 X21.6616 Y14.6833
G01 X21.6639 Y14.7265
G01 X21.6639 Y15.3895
G01 X21.6621 Y15.4271
G01 X21.6608 Y15.4401
G01 X21.6553 Y15.4773
G01 X21.6528 Y15.4902
G01 X21.6436 Y15.5267
G01 X21.6398 Y15.5392
G01 X21.6271 Y15.5746
G01 X21.6221 Y15.5867
G01 X21.6061 Y15.6207
G01 X21.5999 Y15.6322
G01 X21.5805 Y15.6645
G01 X21.5733 Y15.6754
G01 X21.5509 Y15.7056
G01 X21.5426 Y15.7157
G01 X21.5173 Y15.7436
G01 X21.5081 Y15.7528
G01 X21.4802 Y15.7781
G01 X21.4701 Y15.7864
G01 X21.4399 Y15.8088
G01 X21.4290 Y15.8160
G01 X21.3967 Y15.8354
G01 X21.3852 Y15.8416
G01 X21.3512 Y15.8576
G01 X21.3391 Y15.8626
G01 X21.3037 Y15.8753
G01 X21.2912 Y15.8791
G01 X21.2547 Y15.8883
G01 X21.2418 Y15.8908
G01 X21.2046 Y15.8963
G01 X21.1916 Y15.8976
G01 X21.1540 Y15.8994
G01 X21.1392 Y15.8995
G01 X21.1392 Y20.6718
G01 X21.5985 Y20.6718
G01 X21.6484 Y20.6739
G01 X21.6614 Y20.6749
G01 X21.7108 Y20.6819
G01 X21.7237 Y20.6841
G01 X21.7365 Y20.6870
G01 X21.7848 Y20.6994
G01 X21.8319 Y20.7159
G01 X21.8441 Y20.7206
G01 X21.8560 Y20.7259
G01 X21.8952 Y20.7445
G01 X21.9067 Y20.7507
G01 X21.9440 Y20.7729
G01 X21.9550 Y20.7799
G01 X21.9657 Y20.7875
G01 X22.0056 Y20.8174
G01 X22.0155 Y20.8260
G01 X22.0476 Y20.8552
G01 X22.5648 Y21.3723
G01 X23.3613 Y21.3723
G01 X23.3715 Y21.3441
G01 X23.3765 Y21.3320
G01 X23.4422 Y21.1929
G01 X23.4512 Y21.1755
G01 X23.5302 Y21.0436
G01 X23.5372 Y21.0326
G01 X23.5447 Y21.0219
G01 X23.6324 Y20.9036
G01 X23.6405 Y20.8933
G01 X23.6490 Y20.8834
G01 X23.7479 Y20.7743
G01 X23.7569 Y20.7649
G01 X23.7663 Y20.7559
G01 X23.8754 Y20.6570
G01 X23.8853 Y20.6485
G01 X23.8956 Y20.6404
G01 X24.0139 Y20.5527
G01 X24.0247 Y20.5451
G01 X24.0356 Y20.5382
G01 X24.1619 Y20.4625
G01 X24.1733 Y20.4561
G01 X24.1849 Y20.4502
G01 X24.3180 Y20.3872
G01 X24.3300 Y20.3819
G01 X24.3422 Y20.3772
G01 X24.4808 Y20.3276
G01 X24.4932 Y20.3235
G01 X24.5058 Y20.3200
G01 X24.6486 Y20.2843
G01 X24.6614 Y20.2814
G01 X24.6743 Y20.2792
G01 X24.8199 Y20.2576
G01 X24.8328 Y20.2560
G01 X24.8459 Y20.2550
G01 X24.9929 Y20.2478
G01 X25.0060 Y20.2475
G01 X25.0191 Y20.2478
G01 X25.1661 Y20.2550
G01 X25.1792 Y20.2560
G01 X25.1921 Y20.2576
G01 X25.3377 Y20.2792
G01 X25.3506 Y20.2814
G01 X25.3634 Y20.2843
G01 X25.5062 Y20.3200
G01 X25.5188 Y20.3235
G01 X25.5312 Y20.3276
G01 X25.6698 Y20.3772
G01 X25.6820 Y20.3819
G01 X25.6940 Y20.3872
G01 X25.8271 Y20.4502
G01 X25.8387 Y20.4561
G01 X25.8501 Y20.4625
G01 X25.9764 Y20.5382
G01 X25.9874 Y20.5452
G01 X25.9981 Y20.5527
G01 X26.1164 Y20.6404
G01 X26.1267 Y20.6485
G01 X26.1366 Y20.6570
G01 X26.2457 Y20.7559
G01 X26.2551 Y20.7649
G01 X26.2641 Y20.7743
G01 X26.3630 Y20.8834
G01 X26.3715 Y20.8933
G01 X26.3796 Y20.9036
G01 X26.4673 Y21.0219
G01 X26.4749 Y21.0327
G01 X26.4818 Y21.0436
G01 X26.5575 Y21.1699
G01 X26.5639 Y21.1813
G01 X26.5698 Y21.1929
G01 X26.6355 Y21.3320
G01 X26.6405 Y21.3441
G01 X26.6507 Y21.3723
G01 X27.7517 Y21.3723
G01 X27.7330 Y21.3200
G01 X27.7271 Y21.3013
G01 X27.7063 Y21.2188
G01 X27.7023 Y21.1996
G01 X27.6897 Y21.1155
G01 X27.6881 Y21.1025
G01 X27.6871 Y21.0895
G01 X27.6833 Y21.0111
G01 X27.6831 Y20.9915
G01 X27.6871 Y20.9065
G01 X27.6881 Y20.8935
G01 X27.6897 Y20.8805
G01 X27.7012 Y20.8028
G01 X27.7035 Y20.7899
G01 X27.7063 Y20.7772
G01 X27.7254 Y20.7010
G01 X27.7289 Y20.6884
G01 X27.7330 Y20.6760
G01 X27.7594 Y20.6021
G01 X27.7667 Y20.5838
G01 X27.8030 Y20.5069
G01 X27.8089 Y20.4952
G01 X27.8154 Y20.4839
G01 X27.8557 Y20.4165
G01 X27.8627 Y20.4055
G01 X27.8702 Y20.3948
G01 X27.9170 Y20.3317
G01 X27.9251 Y20.3214
G01 X27.9336 Y20.3115
G01 X27.9863 Y20.2533
G01 X27.9953 Y20.2438
G01 X28.0048 Y20.2348
G01 X28.0630 Y20.1821
G01 X28.0729 Y20.1736
G01 X28.0832 Y20.1655
G01 X28.1463 Y20.1187
G01 X28.1570 Y20.1112
G01 X28.1680 Y20.1042
G01 X28.2354 Y20.0639
G01 X28.2467 Y20.0574
G01 X28.2584 Y20.0515
G01 X28.3294 Y20.0180
G01 X28.3474 Y20.0102
G01 X28.4275 Y19.9815
G01 X28.4399 Y19.9774
G01 X28.4525 Y19.9739
G01 X28.5287 Y19.9548
G01 X28.5414 Y19.9520
G01 X28.5543 Y19.9497
G01 X28.6320 Y19.9382
G01 X28.6450 Y19.9366
G01 X28.6580 Y19.9356
G01 X28.7430 Y19.9316
G01 X31.5495 Y19.9315
G01 X31.5626 Y19.9318
G01 X31.6410 Y19.9356
G01 X31.6540 Y19.9366
G01 X31.6670 Y19.9382
G01 X31.7447 Y19.9497
G01 X31.7576 Y19.9520
G01 X31.7703 Y19.9548
G01 X31.8465 Y19.9739
G01 X31.8591 Y19.9774
G01 X31.8715 Y19.9815
G01 X31.9454 Y20.0079
G01 X31.9576 Y20.0127
G01 X31.9696 Y20.0180
G01 X32.0406 Y20.0515
G01 X32.0523 Y20.0574
G01 X32.0636 Y20.0639
G01 X32.1310 Y20.1042
G01 X32.1420 Y20.1112
G01 X32.1527 Y20.1187
G01 X32.2158 Y20.1655
G01 X32.2261 Y20.1736
G01 X32.2360 Y20.1821
G01 X32.2942 Y20.2348
G01 X32.3037 Y20.2438
G01 X32.3127 Y20.2533
G01 X32.3654 Y20.3115
G01 X32.3739 Y20.3214
G01 X32.3820 Y20.3317
G01 X32.4288 Y20.3948
G01 X32.4363 Y20.4055
G01 X32.4433 Y20.4165
G01 X32.4836 Y20.4839
G01 X32.4901 Y20.4952
G01 X32.4960 Y20.5069
G01 X32.5295 Y20.5779
G01 X32.5348 Y20.5899
G01 X32.5396 Y20.6021
G01 X32.5660 Y20.6760
G01 X32.5701 Y20.6884
G01 X32.5736 Y20.7010
G01 X32.5927 Y20.7772
G01 X32.5955 Y20.7899
G01 X32.5978 Y20.8028
G01 X32.6093 Y20.8805
G01 X32.6109 Y20.8935
G01 X32.6119 Y20.9065
G01 X32.6157 Y20.9849
G01 X32.6160 Y20.9980
G01 X32.6157 Y21.0111
G01 X32.6119 Y21.0895
G01 X32.6109 Y21.1025
G01 X32.6093 Y21.1155
G01 X32.5978 Y21.1932
G01 X32.5955 Y21.2061
G01 X32.5927 Y21.2188
G01 X32.5736 Y21.2950
G01 X32.5701 Y21.3076
G01 X32.5660 Y21.3200
G01 X32.5396 Y21.3939
G01 X32.5348 Y21.4061
G01 X32.5295 Y21.4181
G01 X32.4960 Y21.4891
G01 X32.4901 Y21.5008
G01 X32.4836 Y21.5121
G01 X32.4433 Y21.5795
G01 X32.4363 Y21.5905
G01 X32.4288 Y21.6012
G01 X32.3820 Y21.6643
G01 X32.3739 Y21.6746
G01 X32.3654 Y21.6845
G01 X32.3127 Y21.7427
G01 X32.3037 Y21.7522
G01 X32.2942 Y21.7612
G01 X32.2360 Y21.8139
G01 X32.2261 Y21.8224
G01 X32.2158 Y21.8305
G01 X32.1527 Y21.8773
G01 X32.1420 Y21.8848
G01 X32.1310 Y21.8918
G01 X32.0636 Y21.9321
G01 X32.0523 Y21.9386
G01 X32.0406 Y21.9445
G01 X31.9696 Y21.9780
G01 X31.9576 Y21.9833
G01 X31.9454 Y21.9881
G01 X31.8657 Y22.0165
G01 X31.8478 Y22.0218
G01 X31.7703 Y22.0412
G01 X31.7576 Y22.0440
G01 X31.7447 Y22.0463
G01 X31.6670 Y22.0578
G01 X31.6540 Y22.0594
G01 X31.6410 Y22.0604
G01 X31.5560 Y22.0644
G01 X29.9905 Y22.0645
G01 X29.5873 Y22.4678
G01 X29.5778 Y22.4768
G01 X29.5456 Y22.5058
G01 X29.5303 Y22.5181
G01 X29.4899 Y22.5476
G01 X29.4474 Y22.5735
G01 X29.4302 Y22.5830
G01 X29.3910 Y22.6016
G01 X29.3791 Y22.6069
G01 X29.3669 Y22.6116
G01 X29.3260 Y22.6261
G01 X29.3072 Y22.6316
G01 X29.2587 Y22.6434
G01 X29.2458 Y22.6456
G01 X29.2029 Y22.6519
G01 X29.1834 Y22.6536
G01 X29.1335 Y22.6557
G01 X26.6507 Y22.6557
G01 X26.6405 Y22.6839
G01 X26.6328 Y22.7020
G01 X26.5698 Y22.8351
G01 X26.5639 Y22.8467
G01 X26.5575 Y22.8581
G01 X26.4818 Y22.9844
G01 X26.4748 Y22.9954
G01 X26.4673 Y23.0061
G01 X26.3796 Y23.1244
G01 X26.3715 Y23.1347
G01 X26.3630 Y23.1446
G01 X26.2641 Y23.2537
G01 X26.2551 Y23.2631
G01 X26.2457 Y23.2721
G01 X26.1366 Y23.3710
G01 X26.1267 Y23.3795
G01 X26.1164 Y23.3876
G01 X25.9981 Y23.4753
G01 X25.9874 Y23.4828
G01 X25.9764 Y23.4898
G01 X25.8501 Y23.5655
G01 X25.8387 Y23.5719
G01 X25.8271 Y23.5778
G01 X25.6940 Y23.6408
G01 X25.6820 Y23.6461
G01 X25.6698 Y23.6508
G01 X25.5312 Y23.7004
G01 X25.5188 Y23.7045
G01 X25.5062 Y23.7080
G01 X25.3634 Y23.7437
G01 X25.3513 Y23.7465
G01 X25.3377 Y23.7488
G01 X25.1921 Y23.7704
G01 X25.1792 Y23.7720
G01 X25.1661 Y23.7730
G01 X25.0191 Y23.7802
G01 X25.0060 Y23.7805
G01 X24.9929 Y23.7802
G01 X24.8459 Y23.7730
G01 X24.8328 Y23.7720
G01 X24.8199 Y23.7704
G01 X24.6743 Y23.7488
G01 X24.6614 Y23.7466
G01 X24.6486 Y23.7437
G01 X24.5058 Y23.7080
G01 X24.4932 Y23.7045
G01 X24.4808 Y23.7004
G01 X24.3422 Y23.6508
G01 X24.3300 Y23.6461
G01 X24.3180 Y23.6408
G01 X24.1849 Y23.5778
G01 X24.1733 Y23.5719
G01 X24.1619 Y23.5655
G01 X24.0356 Y23.4898
G01 X24.0246 Y23.4828
G01 X24.0139 Y23.4753
G01 X23.8956 Y23.3876
G01 X23.8853 Y23.3795
G01 X23.8754 Y23.3710
G01 X23.7663 Y23.2721
G01 X23.7569 Y23.2631
G01 X23.7479 Y23.2537
G01 X23.6490 Y23.1446
G01 X23.6405 Y23.1347
G01 X23.6324 Y23.1244
G01 X23.5447 Y23.0061
G01 X23.5372 Y22.9954
G01 X23.5302 Y22.9844
G01 X23.4545 Y22.8581
G01 X23.4481 Y22.8467
G01 X23.4422 Y22.8351
G01 X23.3765 Y22.6960
G01 X23.3715 Y22.6839
G01 X23.3613 Y22.6557
G01 X22.2925 Y22.6556
G01 X22.2491 Y22.6536
G01 X22.2361 Y22.6526
G01 X22.2231 Y22.6510
G01 X22.1802 Y22.6446
G01 X22.1674 Y22.6420
G01 X22.1253 Y22.6316
G01 X22.1127 Y22.6281
G01 X22.1003 Y22.6240
G01 X22.0595 Y22.6093
G01 X22.0474 Y22.6043
G01 X22.0082 Y22.5858
G01 X21.9908 Y22.5768
G01 X21.9535 Y22.5546
G01 X21.9425 Y22.5476
G01 X21.9022 Y22.5181
G01 X21.8869 Y22.5058
G01 X21.8547 Y22.4768
G01 X21.8452 Y22.4678
G01 X21.3327 Y21.9552
G01 X20.8855 Y21.9552
G01 X20.8618 Y21.9818
G01 X20.8527 Y21.9912
G01 X20.8251 Y22.0167
G01 X20.8152 Y22.0253
G01 X20.8049 Y22.0333
G01 X20.7745 Y22.0555
G01 X20.7424 Y22.0751
G01 X20.7310 Y22.0815
G01 X20.7193 Y22.0874
G01 X20.6852 Y22.1032
G01 X20.6499 Y22.1162
G01 X20.6374 Y22.1203
G01 X20.6010 Y22.1297
G01 X20.5883 Y22.1326
G01 X20.5754 Y22.1348
G01 X20.5381 Y22.1400
G01 X20.5006 Y22.1422
G01 X20.4875 Y22.1425
G01 X19.2375 Y22.1425
G01 X19.1999 Y22.1410
G01 X19.1804 Y22.1393
G01 X19.1432 Y22.1338
G01 X19.1240 Y22.1297
G01 X19.0938 Y22.1221
G01 X19.0751 Y22.1162
G01 X19.0398 Y22.1032
G01 X19.0057 Y22.0874
G01 X18.9883 Y22.0784
G01 X18.9560 Y22.0590
G01 X18.9398 Y22.0479
G01 X18.9098 Y22.0253
G01 X18.8999 Y22.0167
G01 X18.8723 Y21.9912
G01 X18.8468 Y21.9636
G01 X18.8341 Y21.9486
G01 X18.8080 Y21.9130
G01 X18.7851 Y21.8752
G01 X18.7789 Y21.8637
G01 X18.7656 Y21.8356
G01 X18.7603 Y21.8237
G01 X18.7556 Y21.8115
G01 X18.7432 Y21.7759
G01 X18.7338 Y21.7395
G01 X18.7309 Y21.7268
G01 X18.7287 Y21.7139
G01 X18.7235 Y21.6766
G01 X18.7211 Y21.6325
G01 X18.7210 Y21.0010
G01 X18.7213 Y20.9879
G01 X18.7235 Y20.9504
G01 X18.7297 Y20.9067
G01 X18.7338 Y20.8875
G01 X18.7432 Y20.8511
G01 X18.7556 Y20.8155
G01 X18.7629 Y20.7973
G01 X18.7789 Y20.7633
G01 X18.7884 Y20.7461
G01 X18.8080 Y20.7140
G01 X18.8302 Y20.6836
G01 X18.8382 Y20.6733
G01 X18.8468 Y20.6634
G01 X18.8723 Y20.6358
G01 X18.8999 Y20.6103
G01 X18.9098 Y20.6017
G01 X18.9398 Y20.5791
G01 X18.9560 Y20.5680
G01 X18.9826 Y20.5519
G01 X18.9940 Y20.5455
G01 X19.0057 Y20.5396
G01 X19.0338 Y20.5264
G01 X19.0459 Y20.5214
G01 X19.0813 Y20.5087
G01 X19.0938 Y20.5049
G01 X19.1303 Y20.4957
G01 X19.1496 Y20.4922
G01 X19.1878 Y20.4869
G01 X19.2310 Y20.4846
G01 X19.7840 Y20.4845
G01 X19.8558 Y20.4127
G01 X19.8558 Y17.7125
G01 X15.9523 Y17.7142
G01 X15.9315 Y17.7421
G01 X15.9232 Y17.7523
G01 X15.8617 Y17.8201
G01 X15.8477 Y17.8338
G01 X15.7846 Y17.8909
G01 X15.7693 Y17.9031
G01 X15.7062 Y17.9499
G01 X15.6955 Y17.9574
G01 X15.6845 Y17.9644
G01 X15.6115 Y18.0081
G01 X15.5941 Y18.0171
G01 X15.5231 Y18.0507
G01 X15.5111 Y18.0560
G01 X15.4989 Y18.0607
G01 X15.4250 Y18.0872
G01 X15.4126 Y18.0913
G01 X15.4000 Y18.0947
G01 X15.3238 Y18.1138
G01 X15.3111 Y18.1167
G01 X15.2982 Y18.1189
G01 X15.2140 Y18.1313
G01 X15.1945 Y18.1330
G01 X15.1161 Y18.1369
G01 X15.1030 Y18.1372
G01 X12.3030 Y18.1372
G01 X12.2899 Y18.1369
G01 X12.2115 Y18.1330
G01 X12.1985 Y18.1320
G01 X12.1855 Y18.1304
G01 X12.1078 Y18.1189
G01 X12.0949 Y18.1167
G01 X12.0822 Y18.1138
G01 X12.0060 Y18.0947
G01 X11.9934 Y18.0913
G01 X11.9810 Y18.0872
G01 X11.9071 Y18.0607
G01 X11.8949 Y18.0560
G01 X11.8829 Y18.0507
G01 X11.8119 Y18.0171
G01 X11.8002 Y18.0112
G01 X11.7889 Y18.0048
G01 X11.7215 Y17.9644
G01 X11.7105 Y17.9574
G01 X11.6998 Y17.9499
G01 X11.6367 Y17.9031
G01 X11.6264 Y17.8951
G01 X11.6165 Y17.8865
G01 X11.5583 Y17.8338
G01 X11.5488 Y17.8248
G01 X11.5398 Y17.8153
G01 X11.4871 Y17.7572
G01 X11.4786 Y17.7473
G01 X11.4705 Y17.7369
G01 X11.4237 Y17.6739
G01 X11.4162 Y17.6632
G01 X11.4092 Y17.6521
G01 X11.3689 Y17.5848
G01 X11.3624 Y17.5734
G01 X11.3565 Y17.5617
G01 X11.3230 Y17.4908
G01 X11.3177 Y17.4788
G01 X11.3129 Y17.4666
G01 X11.2865 Y17.3927
G01 X11.2822 Y17.3797
G01 X11.2789 Y17.3676
G01 X11.2598 Y17.2915
G01 X11.2570 Y17.2787
G01 X11.2547 Y17.2658
G01 X11.2432 Y17.1882
G01 X11.2416 Y17.1752
G01 X11.2406 Y17.1621
G01 X11.2368 Y17.0837
G01 X11.2365 Y17.0707
G01 X11.2368 Y17.0576
G01 X11.2406 Y16.9792
G01 X11.2416 Y16.9661
G01 X11.2432 Y16.9531
G01 X11.2547 Y16.8755
G01 X11.2570 Y16.8626
G01 X11.2598 Y16.8498
G01 X11.2789 Y16.7737
G00 Z2.0000
G00 X11.4199 Y16.8090
G01 F80.00
G01 Z-0.1200
G01 F120.00
G01 X11.4234 Y16.7976
G01 X11.4498 Y16.7237
G01 X11.4544 Y16.7127
G01 X11.4906 Y16.6364
G01 X11.5371 Y16.5589
G01 X11.5909 Y16.4863
G01 X11.6475 Y16.4236
G01 X11.6560 Y16.4152
G01 X11.7141 Y16.3625
G01 X11.7233 Y16.3549
G01 X11.7912 Y16.3047
G01 X11.8688 Y16.2583
G01 X11.9505 Y16.2196
G01 X12.0300 Y16.1910
G01 X12.0413 Y16.1876
G01 X12.1175 Y16.1685
G01 X12.1292 Y16.1662
G01 X12.2127 Y16.1539
G01 X12.3000 Y16.1495
G01 X15.1030 Y16.1495
G01 X15.1874 Y16.1535
G01 X15.1962 Y16.1543
G01 X15.2827 Y16.1672
G01 X15.3647 Y16.1876
G01 X15.3760 Y16.1910
G01 X15.4555 Y16.2196
G01 X15.5319 Y16.2556
G01 X15.5424 Y16.2612
G01 X15.6097 Y16.3016
G01 X15.6196 Y16.3082
G01 X15.6874 Y16.3586
G01 X15.7544 Y16.4193
G01 X15.8112 Y16.4818
G01 X15.8169 Y16.4886
G01 X15.8672 Y16.5564
G01 X15.8783 Y16.5743
G01 X20.0012 Y16.5743
G01 X20.0012 Y15.7541
G01 X19.8445 Y15.7541
G01 X19.8141 Y15.7526
G01 X19.8052 Y15.7516
G01 X19.7751 Y15.7470
G01 X19.7398 Y15.7382
G01 X19.7055 Y15.7259
G01 X19.6779 Y15.7130
G01 X19.6699 Y15.7089
G01 X19.6413 Y15.6916
G01 X19.6167 Y15.6736
G01 X19.6098 Y15.6680
G01 X19.5894 Y15.6495
G01 X19.5830 Y15.6433
G01 X19.5625 Y15.6207
G01 X19.5569 Y15.6138
G01 X19.5389 Y15.5892
G01 X19.5231 Y15.5631
G01 X19.5188 Y15.5553
G01 X19.5070 Y15.5305
G01 X19.5035 Y15.5223
G01 X19.4932 Y15.4936
G01 X19.4848 Y15.4612
G01 X19.4825 Y15.4495
G01 X19.4781 Y15.4194
G01 X19.4764 Y15.3830
G01 X19.4765 Y14.7271
G01 X19.4781 Y14.6966
G01 X19.4825 Y14.6665
G01 X19.4841 Y14.6577
G01 X19.4907 Y14.6310
G01 X19.4942 Y14.6196
G01 X19.5046 Y14.5910
G01 X19.5175 Y14.5634
G01 X19.5216 Y14.5554
G01 X19.5373 Y14.5293
G01 X19.5423 Y14.5219
G01 X19.5606 Y14.4975
G01 X19.5810 Y14.4749
G01 X19.5894 Y14.4665
G01 X19.6120 Y14.4461
G01 X19.6413 Y14.4244
G01 X19.6725 Y14.4057
G01 X19.7000 Y14.3925
G01 X19.7110 Y14.3880
G01 X19.7398 Y14.3778
G01 X19.7693 Y14.3703
G01 X19.7810 Y14.3680
G01 X19.8111 Y14.3636
G01 X19.8475 Y14.3619
G01 X21.1475 Y14.3619
G01 X21.1839 Y14.3636
G01 X21.2199 Y14.3690
G01 X21.2495 Y14.3762
G01 X21.2609 Y14.3797
G01 X21.2895 Y14.3901
G01 X21.3171 Y14.4030
G01 X21.3276 Y14.4086
G01 X21.3537 Y14.4244
G01 X21.3783 Y14.4424
G01 X21.3875 Y14.4500
G01 X21.4099 Y14.4706
G01 X21.4305 Y14.4930
G01 X21.4381 Y14.5022
G01 X21.4561 Y14.5268
G01 X21.4719 Y14.5529
G01 X21.4775 Y14.5634
G01 X21.4904 Y14.5910
G01 X21.5027 Y14.6253
G01 X21.5102 Y14.6548
G01 X21.5125 Y14.6665
G01 X21.5169 Y14.6970
G01 X21.5186 Y14.7300
G01 X21.5185 Y15.3889
G01 X21.5169 Y15.4194
G01 X21.5125 Y15.4495
G01 X21.5109 Y15.4583
G01 X21.5043 Y15.4850
G01 X21.5008 Y15.4964
G01 X21.4904 Y15.5250
G01 X21.4748 Y15.5580
G01 X21.4561 Y15.5892
G01 X21.4381 Y15.6138
G01 X21.4305 Y15.6230
G01 X21.4099 Y15.6454
G01 X21.3875 Y15.6660
G01 X21.3806 Y15.6718
G01 X21.3562 Y15.6899
G01 X21.3487 Y15.6948
G01 X21.3225 Y15.7103
G01 X21.2895 Y15.7259
G01 X21.2552 Y15.7382
G01 X21.2257 Y15.7457
G01 X21.2170 Y15.7476
G01 X21.1839 Y15.7524
G01 X21.1505 Y15.7541
G01 X20.9938 Y15.7541
G01 X20.9938 Y20.6785
G01 X20.9919 Y20.7212
G01 X20.9907 Y20.7331
G01 X20.9843 Y20.7753
G01 X20.9740 Y20.8172
G01 X21.6044 Y20.8173
G01 X21.6471 Y20.8196
G01 X21.6953 Y20.8267
G01 X21.7426 Y20.8385
G01 X21.7829 Y20.8528
G01 X21.7912 Y20.8561
G01 X21.8325 Y20.8758
G01 X21.8743 Y20.9008
G01 X21.9134 Y20.9298
G01 X21.9452 Y20.9584
G01 X22.5046 Y21.5177
G01 X23.4637 Y21.5177
G01 X23.5083 Y21.3936
G01 X23.5763 Y21.2498
G01 X23.6581 Y21.1133
G01 X23.7492 Y20.9902
G01 X23.7567 Y20.9811
G01 X23.8556 Y20.8720
G01 X23.8640 Y20.8636
G01 X23.9776 Y20.7608
G01 X24.1054 Y20.6660
G01 X24.2418 Y20.5843
G01 X24.3856 Y20.5163
G01 X24.5354 Y20.4627
G01 X24.6839 Y20.4253
G01 X24.6956 Y20.4230
G01 X24.8412 Y20.4014
G01 X24.8530 Y20.4002
G01 X25.0060 Y20.3929
G01 X25.1649 Y20.4007
G01 X25.3164 Y20.4230
G01 X25.3281 Y20.4253
G01 X25.4766 Y20.4627
G01 X25.6264 Y20.5163
G01 X25.7649 Y20.5816
G01 X25.7754 Y20.5872
G01 X25.9067 Y20.6661
G01 X26.0344 Y20.7608
G01 X26.1523 Y20.8677
G01 X26.2553 Y20.9811
G01 X26.2628 Y20.9902
G01 X26.3540 Y21.1134
G01 X26.4328 Y21.2446
G01 X26.4384 Y21.2551
G01 X26.5037 Y21.3936
G01 X26.5483 Y21.5177
G01 X27.9893 Y21.5177
G01 X27.9804 Y21.5047
G01 X27.9371 Y21.4322
G01 X27.8985 Y21.3505
G01 X27.8680 Y21.2654
G01 X27.8474 Y21.1835
G01 X27.8450 Y21.1718
G01 X27.8328 Y21.0883
G01 X27.8285 Y21.0039
G01 X27.8285 Y20.9921
G01 X27.8323 Y20.9136
G01 X27.8335 Y20.9018
G01 X27.8460 Y20.8183
G01 X27.8680 Y20.7306
G01 X27.8985 Y20.6455
G01 X27.9371 Y20.5638
G01 X27.9836 Y20.4862
G01 X28.0338 Y20.4183
G01 X28.0413 Y20.4091
G01 X28.0940 Y20.3510
G01 X28.1025 Y20.3425
G01 X28.1651 Y20.2859
G01 X28.2329 Y20.2355
G01 X28.2428 Y20.2289
G01 X28.3153 Y20.1856
G01 X28.3970 Y20.1470
G01 X28.4821 Y20.1165
G01 X28.5698 Y20.0945
G01 X28.6592 Y20.0813
G01 X28.7465 Y20.0769
G01 X31.5525 Y20.0769
G01 X31.6398 Y20.0813
G01 X31.7233 Y20.0935
G01 X31.7350 Y20.0959
G01 X31.8112 Y20.1149
G01 X31.8225 Y20.1184
G01 X31.9020 Y20.1470
G01 X31.9784 Y20.1829
G01 X31.9889 Y20.1885
G01 X32.0613 Y20.2321
G01 X32.1339 Y20.2859
G01 X32.2009 Y20.3466
G01 X32.2616 Y20.4136
G01 X32.3154 Y20.4862
G01 X32.3619 Y20.5638
G01 X32.4005 Y20.6455
G01 X32.4291 Y20.7250
G01 X32.4326 Y20.7363
G01 X32.4530 Y20.8183
G01 X32.4655 Y20.9018
G01 X32.4667 Y20.9136
G01 X32.4705 Y20.9921
G01 X32.4705 Y21.0039
G01 X32.4662 Y21.0883
G01 X32.4530 Y21.1777
G01 X32.4310 Y21.2654
G01 X32.4027 Y21.3450
G01 X32.3981 Y21.3559
G01 X32.3619 Y21.4322
G01 X32.3186 Y21.5047
G01 X32.3120 Y21.5146
G01 X32.2616 Y21.5824
G01 X32.2050 Y21.6450
G01 X32.1965 Y21.6535
G01 X32.1339 Y21.7101
G01 X32.0661 Y21.7605
G01 X32.0562 Y21.7671
G01 X31.9837 Y21.8104
G01 X31.9020 Y21.8490
G01 X31.8172 Y21.8794
G01 X31.7292 Y21.9015
G01 X31.6398 Y21.9147
G01 X31.5525 Y21.9191
G01 X29.9303 Y21.9191
G01 X29.4845 Y22.3650
G01 X29.4484 Y22.3977
G01 X29.4092 Y22.4267
G01 X29.3726 Y22.4488
G01 X29.3622 Y22.4544
G01 X29.3234 Y22.4726
G01 X29.2832 Y22.4871
G01 X29.2718 Y22.4906
G01 X29.2332 Y22.5002
G01 X29.2245 Y22.5018
G01 X29.1821 Y22.5079
G01 X29.1335 Y22.5103
G01 X26.5483 Y22.5103
G01 X26.5037 Y22.6344
G01 X26.4357 Y22.7782
G01 X26.3539 Y22.9147
G01 X26.2592 Y23.0424
G01 X26.1523 Y23.1603
G01 X26.0344 Y23.2672
G01 X25.9067 Y23.3619
G01 X25.7754 Y23.4408
G01 X25.7649 Y23.4464
G01 X25.6318 Y23.5093
G01 X25.6208 Y23.5139
G01 X25.4766 Y23.5653
G01 X25.3281 Y23.6027
G01 X25.3164 Y23.6050
G01 X25.1649 Y23.6273
G01 X25.0060 Y23.6351
G01 X24.8471 Y23.6273
G01 X24.6897 Y23.6040
G01 X24.5411 Y23.5669
G01 X24.5298 Y23.5635
G01 X24.3856 Y23.5117
G01 X24.2471 Y23.4464
G01 X24.2366 Y23.4408
G01 X24.1053 Y23.3619
G01 X23.9822 Y23.2708
G01 X23.9731 Y23.2633
G01 X23.8597 Y23.1603
G01 X23.7567 Y23.0469
G01 X23.7492 Y23.0378
G01 X23.6581 Y22.9147
G01 X23.5792 Y22.7834
G01 X23.5736 Y22.7729
G01 X23.5083 Y22.6344
G01 X23.4637 Y22.5103
G01 X22.2960 Y22.5103
G01 X22.2504 Y22.5079
G01 X22.2080 Y22.5018
G01 X22.1964 Y22.4995
G01 X22.1607 Y22.4906
G01 X22.1521 Y22.4881
G01 X22.1091 Y22.4726
G01 X22.0650 Y22.4517
G01 X22.0232 Y22.4267
G01 X21.9888 Y22.4013
G01 X21.9796 Y22.3938
G01 X21.9480 Y22.3650
G01 X21.3929 Y21.8098
G01 X20.8097 Y21.8098
G01 X20.7961 Y21.8322
G01 X20.7781 Y21.8568
G01 X20.7705 Y21.8660
G01 X20.7499 Y21.8884
G01 X20.7275 Y21.9090
G01 X20.7183 Y21.9166
G01 X20.6937 Y21.9346
G01 X20.6676 Y21.9504
G01 X20.6571 Y21.9560
G01 X20.6295 Y21.9689
G01 X20.6009 Y21.9793
G01 X20.5924 Y21.9820
G01 X20.5628 Y21.9894
G01 X20.5540 Y21.9910
G01 X20.5239 Y21.9954
G01 X20.4905 Y21.9971
G01 X19.2375 Y21.9971
G01 X19.2011 Y21.9954
G01 X19.1651 Y21.9900
G01 X19.1298 Y21.9812
G01 X19.0955 Y21.9689
G01 X19.0625 Y21.9533
G01 X19.0313 Y21.9346
G01 X19.0020 Y21.9129
G01 X18.9751 Y21.8884
G01 X18.9545 Y21.8660
G01 X18.9487 Y21.8591
G01 X18.9289 Y21.8322
G01 X18.9102 Y21.8010
G01 X18.8946 Y21.7680
G01 X18.8842 Y21.7394
G01 X18.8815 Y21.7309
G01 X18.8748 Y21.7042
G01 X18.8725 Y21.6925
G01 X18.8681 Y21.6624
G01 X18.8664 Y21.6260
G01 X18.8664 Y21.0010
G01 X18.8681 Y20.9646
G01 X18.8725 Y20.9345
G01 X18.8748 Y20.9228
G01 X18.8823 Y20.8933
G01 X18.8946 Y20.8590
G01 X18.9075 Y20.8314
G01 X18.9131 Y20.8209
G01 X18.9289 Y20.7948
G01 X18.9469 Y20.7702
G01 X18.9525 Y20.7633
G01 X18.9730 Y20.7407
G01 X18.9794 Y20.7345
G01 X18.9998 Y20.7160
G01 X19.0067 Y20.7104
G01 X19.0313 Y20.6924
G01 X19.0574 Y20.6766
G01 X19.0679 Y20.6710
G01 X19.0927 Y20.6593
G01 X19.1010 Y20.6560
G01 X19.1326 Y20.6450
G01 X19.1622 Y20.6376
G01 X19.1710 Y20.6360
G01 X19.2015 Y20.6316
G01 X19.2375 Y20.6299
G01 X19.8442 Y20.6299
G01 X20.0012 Y20.4729
G01 X20.0012 Y17.5670
G01 X15.8783 Y17.5670
G01 X15.8672 Y17.5849
G01 X15.8169 Y17.6527
G01 X15.8112 Y17.6595
G01 X15.7544 Y17.7220
G01 X15.6874 Y17.7827
G01 X15.6196 Y17.8331
G01 X15.6097 Y17.8397
G01 X15.5372 Y17.8830
G01 X15.4609 Y17.9193
G01 X15.4500 Y17.9238
G01 X15.3760 Y17.9503
G01 X15.3647 Y17.9537
G01 X15.2827 Y17.9741
G01 X15.1962 Y17.9870
G01 X15.1874 Y17.9878
G01 X15.1030 Y17.9918
G01 X12.3030 Y17.9918
G01 X12.2127 Y17.9874
G01 X12.1233 Y17.9741
G01 X12.0356 Y17.9521
G01 X11.9505 Y17.9217
G01 X11.8741 Y17.8857
G01 X11.8636 Y17.8801
G01 X11.7963 Y17.8397
G01 X11.7864 Y17.8331
G01 X11.7186 Y17.7827
G01 X11.6560 Y17.7261
G01 X11.6475 Y17.7177
G01 X11.5909 Y17.6550
G01 X11.5371 Y17.5824
G01 X11.4906 Y17.5049
G01 X11.4520 Y17.4232
G01 X11.4214 Y17.3378
G01 X11.4009 Y17.2562
G01 X11.3985 Y17.2445
G01 X11.3863 Y17.1609
G01 X11.3820 Y17.0766
G01 X11.3820 Y17.0647
G01 X11.3858 Y16.9863
G01 X11.3870 Y16.9745
G01 X11.3995 Y16.8909
G01 X11.4199 Y16.8090
G00 Z2.0000
G00 X14.0781 Y13.6495
G01 F80.00
G01 Z-0.1200
G01 F120.00
G01 X14.0781 Y13.3838
G01 X15.1547 Y13.3838
G01 X15.3101 Y13.3974
G01 X15.5103 Y13.4511
G01 X15.6985 Y13.5388
G01 X15.8689 Y13.6581
G01 X16.0158 Y13.8050
G01 X16.1347 Y13.9748
G01 X16.2225 Y14.1630
G01 X16.2312 Y14.1955
G01 X15.9435 Y14.1955
G01 X15.9154 Y14.1364
G01 X15.8721 Y14.0639
G01 X15.8655 Y14.0540
G01 X15.8187 Y13.9910
G01 X15.8112 Y13.9818
G01 X15.7544 Y13.9193
G01 X15.6896 Y13.8605
G01 X15.6827 Y13.8549
G01 X15.6148 Y13.8047
G01 X15.5372 Y13.7583
G01 X15.4555 Y13.7196
G01 X15.3760 Y13.6910
G01 X15.3647 Y13.6876
G01 X15.2827 Y13.6672
G01 X15.1992 Y13.6547
G01 X15.1874 Y13.6535
G01 X15.1060 Y13.6495
G01 X14.0781 Y13.6495
G00 Z2.0000
G00 X15.5004 Y15.9267
G01 F80.00
G01 Z-0.1200
G01 F120.00
G01 X15.4644 Y15.9140
G01 X15.4451 Y15.9081
G01 X15.3592 Y15.8865
G01 X15.3295 Y15.8802
G01 X15.2419 Y15.8671
G01 X15.2218 Y15.8646
G01 X15.2016 Y15.8631
G01 X15.1232 Y15.8592
G01 X15.1030 Y15.8587
G01 X12.2929 Y15.8589
G01 X12.2044 Y15.8631
G01 X12.1842 Y15.8646
G01 X12.1641 Y15.8671
G01 X12.0765 Y15.8802
G01 X12.0468 Y15.8865
G01 X11.9609 Y15.9081
G01 X11.9416 Y15.9140
G01 X11.9110 Y15.9248
G01 X11.9217 Y15.8992
G01 X11.9285 Y15.8799
G01 X11.9344 Y15.8603
G01 X11.9392 Y15.8404
G01 X11.9431 Y15.8203
G01 X11.9446 Y15.8102
G01 X11.9539 Y15.7312
G01 X11.9707 Y15.7358
G01 X12.0468 Y15.7548
G01 X12.0666 Y15.7593
G01 X12.0865 Y15.7627
G01 X12.1641 Y15.7743
G01 X12.1842 Y15.7767
G01 X12.2044 Y15.7782
G01 X12.2828 Y15.7821
G01 X12.3030 Y15.7826
G01 X15.1131 Y15.7824
G01 X15.2016 Y15.7782
G01 X15.2218 Y15.7767
G01 X15.2419 Y15.7743
G01 X15.3195 Y15.7627
G01 X15.3493 Y15.7572
G01 X15.4353 Y15.7358
G01 X15.4490 Y15.7321
G01 X15.4500 Y15.7558
G01 X15.4519 Y15.7761
G01 X15.4533 Y15.7863
G01 X15.4549 Y15.7964
G01 X15.4589 Y15.8165
G01 X15.4638 Y15.8363
G01 X15.4667 Y15.8461
G01 X15.4731 Y15.8656
G01 X15.4804 Y15.8846
G01 X15.4888 Y15.9033
G01 X15.5004 Y15.9267
G00 Z2.0000
G00 X19.4217 Y15.8897
G01 F80.00
G01 Z-0.1200
G01 F120.00
G01 X19.4435 Y15.9071
G01 X19.4632 Y15.9217
G01 X19.4798 Y15.9334
G01 X19.4968 Y15.9442
G01 X19.5266 Y15.9619
G01 X19.5535 Y15.9758
G01 X19.5757 Y15.9863
G01 X19.5942 Y15.9945
G01 X19.6131 Y16.0018
G01 X19.6362 Y16.0101
G01 X19.6651 Y16.0192
G01 X19.7104 Y16.0305
G01 X19.7104 Y16.2836
G01 X19.2280 Y16.2836
G01 X19.2454 Y16.2673
G01 X19.2595 Y16.2525
G01 X19.3128 Y16.1912
G01 X19.3258 Y16.1754
G01 X19.3380 Y16.1590
G01 X19.3494 Y16.1420
G01 X19.3599 Y16.1245
G01 X19.3696 Y16.1064
G01 X19.3741 Y16.0972
G01 X19.3823 Y16.0785
G01 X19.3896 Y16.0594
G01 X19.3960 Y16.0400
G01 X19.4014 Y16.0203
G01 X19.4058 Y16.0003
G01 X19.4092 Y15.9801
G01 X19.4193 Y15.9098
G01 X19.4217 Y15.8897
G00 Z2.0000
G00 X19.5217 Y16.1215
G01 F80.00
G01 Z-0.1200
G01 F120.00
G01 X19.5386 Y16.1288
G01 X19.5627 Y16.1382
G01 X19.5149 Y16.1382
G01 X19.5217 Y16.1215
G00 Z2.0000
G00 X19.6316 Y17.8580
G01 F80.00
G01 Z-0.1200
G01 F120.00
G01 X19.7104 Y17.8579
G01 X19.7104 Y17.9310
G01 X19.6942 Y17.9137
G01 X19.6794 Y17.8995
G01 X19.6316 Y17.8580
G00 Z2.0000
G00 X19.7104 Y20.2599
G01 F80.00
G01 Z-0.1200
G01 F120.00
G01 X19.7104 Y20.3391
G01 X19.6369 Y20.3391
G01 X19.6545 Y20.3227
G01 X19.6686 Y20.3079
G01 X19.7104 Y20.2599
G00 Z2.0000
G00 X21.3614 Y20.5264
G01 F80.00
G01 Z-0.1200
G01 F120.00
G01 X21.2846 Y20.5264
G01 X21.2846 Y20.4550
G01 X21.3008 Y20.4724
G01 X21.3156 Y20.4865
G01 X21.3614 Y20.5264
G00 Z2.0000
G00 X22.1172 Y22.7794
G01 F80.00
G01 Z-0.1200
G01 F120.00
G01 X22.1356 Y22.7839
G01 X22.1554 Y22.7878
G01 X22.2118 Y22.7962
G01 X22.2319 Y22.7982
G01 X22.2889 Y22.8010
G01 X23.2653 Y22.8011
G01 X23.3108 Y22.8972
G01 X23.3247 Y22.9241
G01 X23.4055 Y23.0591
G01 X23.4220 Y23.0845
G01 X23.5156 Y23.2110
G01 X23.5281 Y23.2269
G01 X23.5413 Y23.2422
G01 X23.6401 Y23.3513
G01 X23.6541 Y23.3659
G01 X23.6687 Y23.3799
G01 X23.7778 Y23.4787
G01 X23.7931 Y23.4919
G01 X23.8090 Y23.5044
G01 X23.9273 Y23.5921
G01 X23.9438 Y23.6037
G01 X23.9609 Y23.6145
G01 X24.0871 Y23.6902
G01 X24.1047 Y23.7002
G01 X24.1228 Y23.7092
G01 X24.2386 Y23.7640
G01 X24.2198 Y23.7712
G01 X24.2104 Y23.7751
G01 X24.1918 Y23.7838
G01 X24.1827 Y23.7885
G01 X24.1649 Y23.7985
G01 X24.1476 Y23.8094
G01 X24.1391 Y23.8151
G01 X24.1227 Y23.8273
G01 X24.0666 Y23.8708
G01 X24.0507 Y23.8838
G01 X24.0355 Y23.8976
G01 X24.0281 Y23.9047
G01 X24.0140 Y23.9196
G01 X24.0033 Y23.9320
G01 X23.9976 Y23.8918
G01 X23.9942 Y23.8719
G01 X23.9898 Y23.8521
G01 X23.9812 Y23.8186
G01 X23.9754 Y23.7992
G01 X23.9638 Y23.7666
G01 X23.9565 Y23.7477
G01 X23.9483 Y23.7292
G01 X23.9334 Y23.6980
G01 X23.9239 Y23.6801
G01 X23.9062 Y23.6503
G01 X23.8954 Y23.6333
G01 X23.8837 Y23.6167
G01 X23.8630 Y23.5890
G01 X23.8502 Y23.5734
G01 X23.8270 Y23.5476
G01 X23.8130 Y23.5330
G01 X23.7984 Y23.5190
G01 X23.7726 Y23.4958
G01 X23.7570 Y23.4830
G01 X23.7293 Y23.4623
G01 X23.7127 Y23.4506
G01 X23.6957 Y23.4398
G01 X23.6659 Y23.4221
G01 X23.6480 Y23.4126
G01 X23.6168 Y23.3977
G01 X23.5983 Y23.3895
G01 X23.5794 Y23.3822
G01 X23.5468 Y23.3706
G01 X23.5274 Y23.3648
G01 X23.4939 Y23.3562
G01 X23.4741 Y23.3518
G01 X23.4542 Y23.3484
G01 X23.4299 Y23.3448
G01 X23.4099 Y23.3423
G01 X23.3897 Y23.3408
G01 X23.3652 Y23.3396
G01 X23.3450 Y23.3391
G01 X22.0950 Y23.3391
G01 X22.0746 Y23.3396
G01 X22.0826 Y23.3289
G01 X22.0943 Y23.3121
G01 X22.1050 Y23.2947
G01 X22.1101 Y23.2858
G01 X22.1196 Y23.2677
G01 X22.1281 Y23.2491
G01 X22.1357 Y23.2301
G01 X22.1392 Y23.2205
G01 X22.1424 Y23.2108
G01 X22.1481 Y23.1911
G01 X22.1691 Y23.1021
G01 X22.1728 Y23.0820
G01 X22.1743 Y23.0719
G01 X22.1765 Y23.0516
G01 X22.1777 Y23.0311
G01 X22.1779 Y23.0209
G01 X22.1776 Y23.0004
G01 X22.1771 Y22.9902
G01 X22.1752 Y22.9699
G01 X22.1739 Y22.9597
G01 X22.1706 Y22.9395
G01 X22.1685 Y22.9295
G01 X22.1636 Y22.9096
G01 X22.1578 Y22.8900
G01 X22.1545 Y22.8803
G01 X22.1274 Y22.8037
G01 X22.1172 Y22.7794
G00 Z2.0000
G00 X22.3188 Y22.9465
G01 F80.00
G01 Z-0.1200
G01 F120.00
G01 X23.1732 Y22.9465
G01 X23.1853 Y22.9717
G01 X23.1982 Y22.9958
G01 X23.2808 Y23.1339
G01 X23.2954 Y23.1570
G01 X23.3032 Y23.1682
G01 X23.3218 Y23.1937
G01 X22.2970 Y23.1937
G01 X22.3084 Y23.1456
G01 X22.3141 Y23.1185
G01 X22.3184 Y23.0912
G01 X22.3214 Y23.0636
G01 X22.3230 Y23.0360
G01 X22.3233 Y23.0083
G01 X22.3221 Y22.9807
G01 X22.3211 Y22.9669
G01 X22.3188 Y22.9465
G00 Z2.0000
G00 X22.1546 Y25.5879
G01 F80.00
G01 Z-0.1200
G01 F120.00
G01 X23.2791 Y25.5879
G01 X23.2617 Y25.6079
G01 X23.2492 Y25.6241
G01 X23.2375 Y25.6409
G01 X23.2267 Y25.6582
G01 X23.2167 Y25.6761
G01 X23.2076 Y25.6944
G01 X23.1777 Y25.7588
G01 X23.1696 Y25.7776
G01 X23.1624 Y25.7967
G01 X23.1561 Y25.8162
G01 X23.1508 Y25.8359
G01 X23.1466 Y25.8559
G01 X23.1433 Y25.8761
G01 X23.1410 Y25.8965
G01 X23.1397 Y25.9169
G01 X23.1395 Y25.9373
G01 X23.1402 Y25.9578
G01 X23.1420 Y25.9782
G01 X23.1544 Y26.0688
G01 X23.1582 Y26.0889
G01 X23.1630 Y26.1088
G01 X23.1687 Y26.1284
G01 X23.1755 Y26.1477
G01 X23.1832 Y26.1667
G01 X23.1873 Y26.1760
G01 X23.1964 Y26.1943
G01 X23.2064 Y26.2122
G01 X23.2172 Y26.2296
G01 X23.2289 Y26.2463
G01 X23.2414 Y26.2625
G01 X23.2854 Y26.3141
G01 X22.1609 Y26.3141
G01 X22.1783 Y26.2941
G01 X22.1908 Y26.2779
G01 X22.2025 Y26.2611
G01 X22.2133 Y26.2438
G01 X22.2233 Y26.2259
G01 X22.2324 Y26.2076
G01 X22.2623 Y26.1432
G01 X22.2704 Y26.1244
G01 X22.2776 Y26.1053
G01 X22.2839 Y26.0858
G01 X22.2892 Y26.0661
G01 X22.2934 Y26.0461
G01 X22.2967 Y26.0259
G01 X22.2990 Y26.0055
G01 X22.3003 Y25.9851
G01 X22.3005 Y25.9647
G01 X22.2998 Y25.9442
G01 X22.2980 Y25.9238
G01 X22.2856 Y25.8332
G01 X22.2818 Y25.8131
G01 X22.2770 Y25.7932
G01 X22.2713 Y25.7736
G01 X22.2645 Y25.7543
G01 X22.2568 Y25.7353
G01 X22.2482 Y25.7168
G01 X22.2387 Y25.6987
G01 X22.2336 Y25.6898
G01 X22.2228 Y25.6724
G01 X22.2111 Y25.6557
G01 X22.1986 Y25.6395
G01 X22.1546 Y25.5879
G00 Z2.0000
G00 X22.4109 Y25.7333
G01 F80.00
G01 Z-0.1200
G01 F120.00
G01 X23.0308 Y25.7333
G01 X23.0251 Y25.7488
G01 X23.0166 Y25.7752
G01 X23.0095 Y25.8019
G01 X23.0037 Y25.8290
G01 X22.9992 Y25.8563
G01 X22.9975 Y25.8700
G01 X22.9951 Y25.8976
G01 X22.9941 Y25.9253
G01 X22.9944 Y25.9530
G01 X22.9961 Y25.9806
G01 X22.9992 Y26.0081
G01 X23.0089 Y26.0784
G01 X23.0133 Y26.1057
G01 X23.0161 Y26.1193
G01 X23.0225 Y26.1462
G01 X23.0291 Y26.1687
G01 X22.4092 Y26.1687
G01 X22.4149 Y26.1532
G01 X22.4234 Y26.1268
G01 X22.4305 Y26.1001
G01 X22.4363 Y26.0730
G01 X22.4387 Y26.0594
G01 X22.4425 Y26.0320
G01 X22.4449 Y26.0044
G01 X22.4459 Y25.9767
G01 X22.4456 Y25.9490
G01 X22.4439 Y25.9214
G01 X22.4408 Y25.8939
G01 X22.4311 Y25.8236
G01 X22.4291 Y25.8099
G01 X22.4239 Y25.7827
G01 X22.4175 Y25.7558
G01 X22.4109 Y25.7333
G00 Z2.0000
G00 X22.5854 Y25.8787
G01 F80.00
G01 Z-0.1200
G01 F120.00
G01 X22.8508 Y25.8787
G01 X22.8492 Y25.9060
G01 X22.8487 Y25.9235
G01 X22.8491 Y25.9583
G01 X22.8513 Y25.9932
G01 X22.8546 Y26.0233
G01 X22.5892 Y26.0233
G01 X22.5908 Y25.9960
G01 X22.5913 Y25.9785
G01 X22.5909 Y25.9437
G01 X22.5887 Y25.9088
G01 X22.5854 Y25.8787
G00 Z2.0000
G00 X18.8677 Y24.5814
G01 F80.00
G01 Z-0.1200
G01 F120.00
G01 X18.8664 Y24.5510
G01 X18.8664 Y23.9230
G01 X18.8681 Y23.8896
G01 X18.8725 Y23.8595
G01 X18.8748 Y23.8478
G01 X18.8832 Y23.8154
G01 X18.8946 Y23.7840
G01 X18.9075 Y23.7564
G01 X18.9131 Y23.7459
G01 X18.9289 Y23.7198
G01 X18.9469 Y23.6952
G01 X18.9545 Y23.6860
G01 X18.9751 Y23.6636
G01 X19.0020 Y23.6391
G01 X19.0313 Y23.6174
G01 X19.0574 Y23.6016
G01 X19.0679 Y23.5960
G01 X19.0955 Y23.5831
G01 X19.1241 Y23.5727
G01 X19.1355 Y23.5692
G01 X19.1651 Y23.5620
G01 X19.1984 Y23.5569
G01 X19.2071 Y23.5562
G01 X19.2375 Y23.5549
G01 X20.4875 Y23.5549
G01 X20.5239 Y23.5566
G01 X20.5540 Y23.5610
G01 X20.5657 Y23.5633
G01 X20.5952 Y23.5708
G01 X20.6295 Y23.5831
G01 X20.6625 Y23.5987
G01 X20.6937 Y23.6174
G01 X20.7230 Y23.6391
G01 X20.7499 Y23.6636
G01 X20.7744 Y23.6905
G01 X20.7927 Y23.7149
G01 X20.7977 Y23.7223
G01 X20.8119 Y23.7459
G01 X20.8175 Y23.7564
G01 X20.8315 Y23.7867
G01 X20.8418 Y23.8154
G01 X20.8443 Y23.8240
G01 X20.8515 Y23.8536
G01 X20.8569 Y23.8900
G01 X20.8586 Y23.9230
G01 X20.8586 Y23.9672
G01 X21.7254 Y23.9672
G01 X21.7264 Y23.9587
G01 X21.7310 Y23.9286
G01 X21.7382 Y23.8990
G01 X21.7407 Y23.8904
G01 X21.7500 Y23.8645
G01 X21.7545 Y23.8535
G01 X21.7677 Y23.8260
G01 X21.7864 Y23.7948
G01 X21.8081 Y23.7655
G01 X21.8326 Y23.7386
G01 X21.8595 Y23.7141
G01 X21.8839 Y23.6958
G01 X21.8913 Y23.6908
G01 X21.9149 Y23.6766
G01 X21.9254 Y23.6710
G01 X21.9530 Y23.6581
G01 X21.9873 Y23.6458
G01 X22.0226 Y23.6370
G01 X22.0557 Y23.6320
G01 X22.0646 Y23.6312
G01 X22.0950 Y23.6299
G01 X23.3450 Y23.6299
G01 X23.3814 Y23.6316
G01 X23.4174 Y23.6370
G01 X23.4470 Y23.6442
G01 X23.4556 Y23.6467
G01 X23.4815 Y23.6560
G01 X23.4925 Y23.6605
G01 X23.5200 Y23.6737
G01 X23.5512 Y23.6924
G01 X23.5805 Y23.7141
G01 X23.6074 Y23.7386
G01 X23.6319 Y23.7655
G01 X23.6502 Y23.7899
G01 X23.6552 Y23.7973
G01 X23.6694 Y23.8209
G01 X23.6750 Y23.8314
G01 X23.6879 Y23.8590
G01 X23.7002 Y23.8933
G01 X23.7090 Y23.9286
G01 X23.7140 Y23.9617
G01 X23.7148 Y23.9706
G01 X23.7161 Y24.0010
G01 X23.7161 Y24.9260
G01 X23.7144 Y24.9624
G01 X23.7100 Y24.9925
G01 X23.7077 Y25.0042
G01 X23.7002 Y25.0337
G01 X23.6890 Y25.0653
G01 X23.6750 Y25.0956
G01 X23.6694 Y25.1061
G01 X23.6536 Y25.1322
G01 X23.6319 Y25.1615
G01 X23.6074 Y25.1884
G01 X23.5850 Y25.2090
G01 X23.5758 Y25.2166
G01 X23.5487 Y25.2362
G01 X23.5200 Y25.2533
G01 X23.4897 Y25.2678
G01 X23.4584 Y25.2793
G01 X23.4470 Y25.2828
G01 X23.4174 Y25.2900
G01 X23.3843 Y25.2950
G01 X23.3754 Y25.2958
G01 X23.3450 Y25.2971
G01 X22.0950 Y25.2971
G01 X22.0586 Y25.2954
G01 X22.0226 Y25.2900
G01 X21.9873 Y25.2812
G01 X21.9585 Y25.2710
G01 X21.9502 Y25.2677
G01 X21.9254 Y25.2560
G01 X21.9149 Y25.2504
G01 X21.8888 Y25.2346
G01 X21.8595 Y25.2129
G01 X21.8326 Y25.1884
G01 X21.8120 Y25.1660
G01 X21.8044 Y25.1568
G01 X21.7881 Y25.1347
G01 X21.7832 Y25.1272
G01 X21.7677 Y25.1010
G01 X21.7520 Y25.0679
G01 X21.7398 Y25.0337
G01 X21.7323 Y25.0042
G01 X21.7300 Y24.9925
G01 X21.7254 Y24.9598
G01 X20.0845 Y24.9598
G01 X20.0389 Y24.9574
G01 X19.9907 Y24.9503
G01 X19.9434 Y24.9385
G01 X19.8978 Y24.9221
G01 X19.2375 Y24.9221
G01 X19.2011 Y24.9204
G01 X19.1710 Y24.9160
G01 X19.1593 Y24.9137
G01 X19.1326 Y24.9070
G01 X19.1241 Y24.9043
G01 X19.0955 Y24.8939
G01 X19.0679 Y24.8810
G01 X19.0599 Y24.8769
G01 X19.0313 Y24.8596
G01 X19.0020 Y24.8379
G01 X18.9751 Y24.8134
G01 X18.9545 Y24.7910
G01 X18.9469 Y24.7818
G01 X18.9306 Y24.7597
G01 X18.9257 Y24.7522
G01 X18.9102 Y24.7260
G01 X18.8946 Y24.6930
G01 X18.8823 Y24.6587
G01 X18.8748 Y24.6292
G01 X18.8729 Y24.6205
G01 X18.8689 Y24.5933
G01 X18.8677 Y24.5814
G00 Z2.0000
G00 X18.7225 Y24.5886
G01 F80.00
G01 Z-0.1200
G01 F120.00
G01 X18.7210 Y24.5510
G01 X18.7210 Y23.9260
G01 X18.7213 Y23.9129
G01 X18.7235 Y23.8754
G01 X18.7287 Y23.8381
G01 X18.7309 Y23.8252
G01 X18.7338 Y23.8125
G01 X18.7432 Y23.7761
G01 X18.7579 Y23.7344
G01 X18.7629 Y23.7223
G01 X18.7761 Y23.6942
G01 X18.7851 Y23.6768
G01 X18.8080 Y23.6390
G01 X18.8302 Y23.6086
G01 X18.8424 Y23.5933
G01 X18.8723 Y23.5608
G01 X18.9048 Y23.5309
G01 X18.9201 Y23.5187
G01 X18.9505 Y23.4965
G01 X18.9826 Y23.4769
G01 X18.9998 Y23.4674
G01 X19.0398 Y23.4488
G01 X19.0813 Y23.4337
G01 X19.1002 Y23.4282
G01 X19.1367 Y23.4194
G01 X19.1496 Y23.4172
G01 X19.1808 Y23.4126
G01 X19.1999 Y23.4110
G01 X19.2375 Y23.4095
G01 X20.4875 Y23.4095
G01 X20.5006 Y23.4098
G01 X20.5381 Y23.4120
G01 X20.5754 Y23.4172
G01 X20.5947 Y23.4207
G01 X20.6374 Y23.4317
G01 X20.6730 Y23.4441
G01 X20.6912 Y23.4514
G01 X20.7310 Y23.4705
G01 X20.7424 Y23.4769
G01 X20.7745 Y23.4965
G01 X20.8049 Y23.5187
G01 X20.8202 Y23.5309
G01 X20.8527 Y23.5608
G01 X20.8826 Y23.5933
G01 X20.8948 Y23.6086
G01 X20.9170 Y23.6390
G01 X20.9366 Y23.6711
G01 X20.9430 Y23.6825
G01 X20.9621 Y23.7223
G01 X20.9694 Y23.7405
G01 X20.9818 Y23.7761
G01 X20.9853 Y23.7887
G01 X20.9934 Y23.8218
G01 X21.6108 Y23.8218
G01 X21.6154 Y23.8094
G01 X21.6204 Y23.7973
G01 X21.6364 Y23.7633
G01 X21.6459 Y23.7461
G01 X21.6620 Y23.7195
G01 X21.6692 Y23.7086
G01 X21.6957 Y23.6733
G01 X21.7252 Y23.6404
G01 X21.7392 Y23.6267
G01 X21.7623 Y23.6059
G01 X21.7724 Y23.5976
G01 X21.8080 Y23.5715
G01 X21.8401 Y23.5519
G01 X21.8573 Y23.5424
G01 X21.8973 Y23.5238
G01 X21.9388 Y23.5087
G01 X21.9577 Y23.5032
G01 X21.9942 Y23.4944
G01 X22.0314 Y23.4886
G01 X22.0509 Y23.4864
G01 X22.0950 Y23.4845
G01 X23.3450 Y23.4845
G01 X23.3826 Y23.4860
G01 X23.4021 Y23.4877
G01 X23.4458 Y23.4944
G01 X23.4585 Y23.4973
G01 X23.4949 Y23.5067
G01 X23.5305 Y23.5191
G01 X23.5427 Y23.5238
G01 X23.5768 Y23.5396
G01 X23.5885 Y23.5455
G01 X23.5999 Y23.5519
G01 X23.6265 Y23.5680
G01 X23.6374 Y23.5752
G01 X23.6727 Y23.6017
G01 X23.7008 Y23.6267
G01 X23.7102 Y23.6358
G01 X23.7193 Y23.6452
G01 X23.7443 Y23.6733
G01 X23.7708 Y23.7086
G01 X23.7780 Y23.7195
G01 X23.7941 Y23.7461
G01 X23.8005 Y23.7575
G01 X23.8064 Y23.7692
G01 X23.8222 Y23.8033
G01 X23.8269 Y23.8155
G01 X23.8393 Y23.8511
G01 X23.8487 Y23.8875
G01 X23.8516 Y23.9002
G01 X23.8583 Y23.9439
G01 X23.8600 Y23.9634
G01 X23.8615 Y24.0010
G01 X23.8614 Y24.9325
G01 X23.8590 Y24.9766
G01 X23.8538 Y25.0139
G01 X23.8503 Y25.0332
G01 X23.8393 Y25.0759
G01 X23.8246 Y25.1176
G01 X23.8169 Y25.1356
G01 X23.8005 Y25.1695
G01 X23.7941 Y25.1809
G01 X23.7745 Y25.2130
G01 X23.7523 Y25.2434
G01 X23.7443 Y25.2537
G01 X23.7193 Y25.2818
G01 X23.7056 Y25.2958
G01 X23.6727 Y25.3253
G01 X23.6624 Y25.3333
G01 X23.6320 Y25.3555
G01 X23.5999 Y25.3751
G01 X23.5827 Y25.3846
G01 X23.5546 Y25.3979
G01 X23.5424 Y25.4033
G01 X23.5012 Y25.4183
G01 X23.4823 Y25.4238
G01 X23.4458 Y25.4326
G01 X23.4021 Y25.4393
G01 X23.3826 Y25.4410
G01 X23.3450 Y25.4425
G01 X22.0950 Y25.4425
G01 X22.0574 Y25.4410
G01 X22.0444 Y25.4400
G01 X22.0314 Y25.4384
G01 X21.9942 Y25.4326
G01 X21.9513 Y25.4221
G01 X21.9326 Y25.4162
G01 X21.8973 Y25.4032
G01 X21.8632 Y25.3874
G01 X21.8458 Y25.3784
G01 X21.8080 Y25.3555
G01 X21.7776 Y25.3333
G01 X21.7623 Y25.3211
G01 X21.7344 Y25.2958
G01 X21.7207 Y25.2818
G01 X21.6957 Y25.2537
G01 X21.6692 Y25.2184
G01 X21.6620 Y25.2075
G01 X21.6459 Y25.1809
G01 X21.6364 Y25.1637
G01 X21.6203 Y25.1295
G01 X21.6152 Y25.1172
G01 X21.6108 Y25.1052
G01 X20.0810 Y25.1051
G01 X20.0376 Y25.1031
G01 X20.0246 Y25.1021
G01 X20.0116 Y25.1005
G01 X19.9687 Y25.0941
G01 X19.9495 Y25.0900
G01 X19.9075 Y25.0794
G01 X19.8950 Y25.0756
G01 X19.8722 Y25.0675
G01 X19.2375 Y25.0675
G01 X19.2244 Y25.0672
G01 X19.1869 Y25.0650
G01 X19.1432 Y25.0588
G01 X19.1303 Y25.0563
G01 X19.0938 Y25.0471
G01 X19.0813 Y25.0433
G01 X19.0520 Y25.0329
G01 X19.0398 Y25.0282
G01 X19.0279 Y25.0229
G01 X18.9998 Y25.0096
G01 X18.9883 Y25.0034
G01 X18.9505 Y24.9805
G01 X18.9201 Y24.9583
G01 X18.9098 Y24.9503
G01 X18.8999 Y24.9417
G01 X18.8723 Y24.9162
G01 X18.8468 Y24.8886
G01 X18.8382 Y24.8787
G01 X18.8302 Y24.8684
G01 X18.8117 Y24.8434
G01 X18.8045 Y24.8325
G01 X18.7820 Y24.7945
G01 X18.7761 Y24.7828
G01 X18.7603 Y24.7487
G01 X18.7556 Y24.7365
G01 X18.7432 Y24.7009
G01 X18.7322 Y24.6582
G01 X18.7297 Y24.6453
G01 X18.7251 Y24.6146
G01 X18.7234 Y24.6007
G01 X18.7225 Y24.5886
G00 Z2.0000
G00 X13.6336 Y23.9504
G01 F80.00
G01 Z-0.1200
G01 F120.00
G01 X13.6336 Y23.6846
G01 X14.7102 Y23.6846
G01 X14.8656 Y23.6983
G01 X15.0658 Y23.7519
G01 X15.2540 Y23.8396
G01 X15.4244 Y23.9590
G01 X15.5713 Y24.1059
G01 X15.6902 Y24.2757
G01 X15.7780 Y24.4639
G01 X15.7867 Y24.4964
G01 X15.4990 Y24.4964
G01 X15.4709 Y24.4373
G01 X15.4276 Y24.3648
G01 X15.4210 Y24.3549
G01 X15.3742 Y24.2918
G01 X15.3667 Y24.2826
G01 X15.3099 Y24.2201
G01 X15.2451 Y24.1614
G01 X15.2382 Y24.1558
G01 X15.1703 Y24.1056
G01 X15.0927 Y24.0591
G01 X15.0110 Y24.0205
G01 X14.9315 Y23.9919
G01 X14.9202 Y23.9884
G01 X14.8382 Y23.9680
G01 X14.7547 Y23.9555
G01 X14.7429 Y23.9543
G01 X14.6615 Y23.9504
G01 X13.6336 Y23.9504
G00 Z2.0000
G00 X10.7303 Y24.4964
G01 F80.00
G01 Z-0.1200
G01 F120.00
G01 X10.7390 Y24.4639
G01 X10.8266 Y24.2760
G01 X10.9460 Y24.1056
G01 X11.0929 Y23.9587
G01 X11.2627 Y23.8398
G01 X11.4509 Y23.7520
G01 X11.6514 Y23.6983
G01 X11.8066 Y23.6847
G01 X12.8834 Y23.6846
G01 X12.8834 Y23.9504
G01 X11.8555 Y23.9504
G01 X11.7741 Y23.9543
G01 X11.7623 Y23.9555
G01 X11.6788 Y23.9680
G01 X11.5968 Y23.9884
G01 X11.5855 Y23.9919
G01 X11.5060 Y24.0205
G01 X11.4243 Y24.0591
G01 X11.3467 Y24.1056
G01 X11.2788 Y24.1558
G01 X11.2719 Y24.1614
G01 X11.2071 Y24.2201
G01 X11.1503 Y24.2826
G01 X11.1428 Y24.2918
G01 X11.0960 Y24.3549
G01 X11.0894 Y24.3648
G01 X11.0461 Y24.4373
G01 X11.0180 Y24.4964
G01 X10.7303 Y24.4964
G00 Z2.0000
G00 X11.4665 Y26.2256
G01 F80.00
G01 Z-0.1200
G01 F120.00
G01 X11.4772 Y26.2000
G01 X11.4840 Y26.1807
G01 X11.4899 Y26.1611
G01 X11.4947 Y26.1413
G01 X11.4968 Y26.1312
G01 X11.5001 Y26.1111
G01 X11.5094 Y26.0320
G01 X11.5262 Y26.0366
G01 X11.6023 Y26.0557
G01 X11.6221 Y26.0601
G01 X11.6420 Y26.0636
G01 X11.7196 Y26.0751
G01 X11.7397 Y26.0776
G01 X11.7599 Y26.0791
G01 X11.8383 Y26.0829
G01 X11.8585 Y26.0834
G01 X14.6686 Y26.0833
G01 X14.7571 Y26.0791
G01 X14.7773 Y26.0776
G01 X14.7974 Y26.0751
G01 X14.8750 Y26.0636
G01 X14.9048 Y26.0580
G01 X15.0045 Y26.0329
G01 X15.0055 Y26.0566
G01 X15.0074 Y26.0770
G01 X15.0088 Y26.0871
G01 X15.0104 Y26.0972
G01 X15.0144 Y26.1173
G01 X15.0193 Y26.1372
G01 X15.0222 Y26.1470
G01 X15.0286 Y26.1664
G01 X15.0359 Y26.1855
G01 X15.0443 Y26.2042
G01 X15.0559 Y26.2276
G01 X15.0199 Y26.2148
G01 X15.0006 Y26.2090
G01 X14.9147 Y26.1873
G01 X14.8850 Y26.1810
G01 X14.7974 Y26.1679
G01 X14.7773 Y26.1654
G01 X14.7571 Y26.1639
G01 X14.6787 Y26.1601
G01 X14.6585 Y26.1596
G01 X11.8484 Y26.1597
G01 X11.7599 Y26.1639
G01 X11.7397 Y26.1654
G01 X11.7196 Y26.1679
G01 X11.6320 Y26.1810
G01 X11.6023 Y26.1873
G01 X11.5164 Y26.2090
G01 X11.4971 Y26.2148
G01 X11.4665 Y26.2256
G00 Z2.0000
G00 X6.9026 Y25.6145
G01 F80.00
G01 Z-0.1200
G01 F120.00
G01 X6.9026 Y25.3488
G01 X7.1834 Y25.3487
G01 X7.2139 Y25.3470
G01 X7.2470 Y25.3422
G01 X7.2795 Y25.3344
G01 X7.2909 Y25.3310
G01 X7.3195 Y25.3205
G01 X7.3471 Y25.3076
G01 X7.3576 Y25.3020
G01 X7.3837 Y25.2863
G01 X7.4083 Y25.2682
G01 X7.4175 Y25.2607
G01 X7.4399 Y25.2401
G01 X7.4644 Y25.2131
G01 X7.4827 Y25.1887
G01 X7.4893 Y25.1788
G01 X7.5048 Y25.1526
G01 X7.5192 Y25.1224
G01 X7.5308 Y25.0910
G01 X7.5335 Y25.0825
G01 X7.5415 Y25.0501
G01 X7.5450 Y25.0278
G01 X7.8137 Y25.0278
G01 X7.8053 Y25.1082
G01 X7.7580 Y25.2498
G01 X7.6798 Y25.3761
G01 X7.5747 Y25.4810
G01 X7.4483 Y25.5588
G01 X7.3065 Y25.6058
G01 X7.2216 Y25.6145
G01 X6.9026 Y25.6145
G00 Z2.0000
G00 X6.9026 Y23.6908
G01 F80.00
G01 Z-0.1200
G01 F120.00
G01 X7.2215 Y23.6908
G01 X7.3076 Y23.6997
G01 X7.4493 Y23.7469
G01 X7.5756 Y23.8250
G01 X7.6805 Y23.9301
G01 X7.7585 Y24.0565
