(G-CODE GENERATED BY FLATCAM v8.992 - www.flatcam.org - Version Date: 2020/05/03)

(Name: Phoenix612_MultiStage_PA_Testing_v3-deeper_fast_F_Cu.gbr_iso)
(Type: G-code from Geometry)
(Units: MM)

(Created on Friday, 10 February 2023 at 17:38)

(This preprocessor is the default preprocessor used by FlatCAM.)
(It is made to work with MACH3 compatible motion controllers.)

(TOOL DIAMETER: 0.2458 mm)
(Feedrate_XY: 80.0 mm/min)
(Feedrate_Z: 50.0 mm/min)
(Feedrate rapids 1500.0 mm/min)

(Z_Cut: -0.13 mm)
(Z_Move: 2.0 mm)
(Z Start: None mm)
(Z End: 10.0 mm)
(Steps per circle: 64)
(Preprocessor Geometry: default)

(X range:    0.6082 ...  132.7793  mm)
(Y range:    0.4598 ...   82.4660  mm)

(Spindle Speed: None RPM)
G21
G90
G94



G01 F80.00
G00 Z2.0000

M03
G00 X3.2297 Y8.8938
G01 F50.00
G01 Z-0.1300
G01 F80.00
G01 X3.2315 Y8.8570
G01 X3.2326 Y8.8414
G01 X3.2345 Y8.8258
G01 X3.2399 Y8.7894
G01 X3.2426 Y8.7740
G01 X3.2461 Y8.7587
G01 X3.2550 Y8.7229
G01 X3.2592 Y8.7078
G01 X3.2641 Y8.6929
G01 X3.2765 Y8.6583
G01 X3.2822 Y8.6436
G01 X3.2885 Y8.6293
G01 X3.3043 Y8.5960
G01 X3.3113 Y8.5820
G01 X3.3190 Y8.5684
G01 X3.3380 Y8.5368
G01 X3.3464 Y8.5235
G01 X3.3554 Y8.5107
G01 X3.3773 Y8.4811
G01 X3.3870 Y8.4688
G01 X3.3972 Y8.4569
G01 X3.4273 Y8.4239
G01 X7.6238 Y4.2273
G01 X7.6351 Y4.2164
G01 X7.6624 Y4.1917
G01 X7.6743 Y4.1815
G01 X7.6866 Y4.1718
G01 X7.7162 Y4.1499
G01 X7.7290 Y4.1409
G01 X7.7423 Y4.1325
G01 X7.7739 Y4.1135
G01 X7.7875 Y4.1058
G01 X7.8015 Y4.0988
G01 X7.8348 Y4.0830
G01 X7.8491 Y4.0767
G01 X7.8638 Y4.0710
G01 X7.8984 Y4.0586
G01 X7.9133 Y4.0537
G01 X7.9284 Y4.0495
G01 X7.9642 Y4.0406
G01 X7.9795 Y4.0371
G01 X7.9949 Y4.0344
G01 X8.0313 Y4.0290
G01 X8.0480 Y4.0270
G01 X8.0993 Y4.0242
G01 X8.1150 Y4.0238
G01 X49.9615 Y4.0238
G01 X49.9772 Y4.0242
G01 X50.0140 Y4.0260
G01 X50.0296 Y4.0271
G01 X50.0452 Y4.0290
G01 X50.0816 Y4.0344
G01 X50.0970 Y4.0371
G01 X50.1123 Y4.0406
G01 X50.1481 Y4.0495
G01 X50.1706 Y4.0561
G01 X50.2127 Y4.0710
G01 X50.2274 Y4.0767
G01 X50.2417 Y4.0830
G01 X50.2750 Y4.0988
G01 X50.2890 Y4.1058
G01 X50.3026 Y4.1135
G01 X50.3342 Y4.1325
G01 X50.3475 Y4.1409
G01 X50.3603 Y4.1499
G01 X50.3899 Y4.1718
G01 X50.4022 Y4.1815
G01 X50.4141 Y4.1917
G01 X50.4471 Y4.2218
G01 X54.5769 Y8.3514
G01 X55.5118 Y8.3514
G01 X55.5188 Y8.3355
G01 X55.5818 Y8.2024
G01 X55.5888 Y8.1884
G01 X55.5965 Y8.1748
G01 X55.6722 Y8.0485
G01 X55.6806 Y8.0353
G01 X55.6896 Y8.0224
G01 X55.7773 Y7.9042
G01 X55.7870 Y7.8918
G01 X55.7972 Y7.8800
G01 X55.8961 Y7.7709
G01 X55.9069 Y7.7595
G01 X55.9182 Y7.7487
G01 X56.0273 Y7.6499
G01 X56.0392 Y7.6396
G01 X56.0516 Y7.6300
G01 X56.1698 Y7.5423
G01 X56.1827 Y7.5332
G01 X56.1959 Y7.5249
G01 X56.3221 Y7.4492
G01 X56.3358 Y7.4415
G01 X56.3498 Y7.4344
G01 X56.4829 Y7.3715
G01 X56.4972 Y7.3651
G01 X56.5118 Y7.3595
G01 X56.6504 Y7.3099
G01 X56.6653 Y7.3050
G01 X56.6804 Y7.3008
G01 X56.8232 Y7.2650
G01 X56.8378 Y7.2617
G01 X56.8540 Y7.2589
G01 X56.9996 Y7.2373
G01 X57.0152 Y7.2354
G01 X57.0308 Y7.2342
G01 X57.1778 Y7.2270
G01 X57.1935 Y7.2266
G01 X57.2092 Y7.2270
G01 X57.3562 Y7.2342
G01 X57.3796 Y7.2362
G01 X57.5330 Y7.2589
G01 X57.5485 Y7.2616
G01 X57.5638 Y7.2650
G01 X57.7066 Y7.3008
G01 X57.7217 Y7.3050
G01 X57.7366 Y7.3099
G01 X57.8752 Y7.3595
G01 X57.8898 Y7.3651
G01 X57.9041 Y7.3715
G01 X58.0372 Y7.4344
G01 X58.0512 Y7.4415
G01 X58.0649 Y7.4492
G01 X58.1911 Y7.5249
G01 X58.2044 Y7.5333
G01 X58.2172 Y7.5423
G01 X58.3354 Y7.6300
G01 X58.3478 Y7.6396
G01 X58.3597 Y7.6499
G01 X58.4688 Y7.7487
G01 X58.4801 Y7.7595
G01 X58.4909 Y7.7709
G01 X58.5898 Y7.8800
G01 X58.6000 Y7.8918
G01 X58.6097 Y7.9042
G01 X58.6974 Y8.0224
G01 X58.7065 Y8.0354
G01 X58.7148 Y8.0485
G01 X58.7905 Y8.1748
G01 X58.7982 Y8.1884
G01 X58.8052 Y8.2024
G01 X58.8682 Y8.3355
G01 X58.8745 Y8.3498
G01 X58.8802 Y8.3645
G01 X58.9298 Y8.5031
G01 X58.9347 Y8.5180
G01 X58.9389 Y8.5331
G01 X58.9746 Y8.6759
G01 X58.9781 Y8.6912
G01 X58.9808 Y8.7066
G01 X59.0024 Y8.8522
G01 X59.0050 Y8.8756
G01 X59.0127 Y9.0305
G01 X59.0130 Y9.0462
G01 X59.0127 Y9.0618
G01 X59.0054 Y9.2089
G01 X59.0043 Y9.2245
G01 X59.0024 Y9.2401
G01 X58.9808 Y9.3857
G01 X58.9781 Y9.4011
G01 X58.9746 Y9.4164
G01 X58.9389 Y9.5592
G01 X58.9347 Y9.5743
G01 X58.9298 Y9.5892
G01 X58.8802 Y9.7278
G01 X58.8745 Y9.7425
G01 X58.8682 Y9.7568
G01 X58.8052 Y9.8899
G01 X58.7982 Y9.9039
G01 X58.7905 Y9.9175
G01 X58.7148 Y10.0438
G01 X58.7064 Y10.0570
G01 X58.6974 Y10.0699
G01 X58.6097 Y10.1881
G01 X58.6000 Y10.2005
G01 X58.5898 Y10.2123
G01 X58.4909 Y10.3214
G01 X58.4801 Y10.3328
G01 X58.4688 Y10.3436
G01 X58.3597 Y10.4424
G01 X58.3478 Y10.4527
G01 X58.3354 Y10.4623
G01 X58.2172 Y10.5500
G01 X58.2043 Y10.5591
G01 X58.1911 Y10.5674
G01 X58.0649 Y10.6431
G01 X58.0512 Y10.6508
G01 X58.0372 Y10.6579
G01 X57.9041 Y10.7208
G01 X57.8898 Y10.7272
G01 X57.8752 Y10.7328
G01 X57.7366 Y10.7824
G01 X57.7217 Y10.7873
G01 X57.7066 Y10.7915
G01 X57.5638 Y10.8273
G01 X57.5492 Y10.8306
G01 X57.5330 Y10.8334
G01 X57.3874 Y10.8550
G01 X57.3718 Y10.8569
G01 X57.3562 Y10.8581
G01 X57.2092 Y10.8653
G01 X57.1935 Y10.8657
G01 X57.1778 Y10.8653
G01 X57.0308 Y10.8581
G01 X57.0152 Y10.8569
G01 X56.9996 Y10.8550
G01 X56.8540 Y10.8334
G01 X56.8385 Y10.8307
G01 X56.8232 Y10.8273
G01 X56.6804 Y10.7915
G01 X56.6653 Y10.7873
G01 X56.6504 Y10.7824
G01 X56.5118 Y10.7328
G01 X56.4972 Y10.7272
G01 X56.4829 Y10.7208
G01 X56.3498 Y10.6579
G01 X56.3358 Y10.6508
G01 X56.3221 Y10.6431
G01 X56.1959 Y10.5674
G01 X56.1826 Y10.5590
G01 X56.1698 Y10.5500
G01 X56.0516 Y10.4623
G01 X56.0392 Y10.4527
G01 X56.0273 Y10.4424
G01 X55.9182 Y10.3436
G01 X55.9069 Y10.3328
G01 X55.8961 Y10.3214
G01 X55.7972 Y10.2123
G01 X55.7870 Y10.2005
G01 X55.7773 Y10.1881
G01 X55.6896 Y10.0699
G01 X55.6806 Y10.0570
G01 X55.6722 Y10.0438
G01 X55.5965 Y9.9175
G01 X55.5888 Y9.9039
G01 X55.5818 Y9.8899
G01 X55.5188 Y9.7568
G01 X55.5118 Y9.7409
G01 X54.2892 Y9.7409
G01 X54.2735 Y9.7405
G01 X54.2367 Y9.7387
G01 X54.2211 Y9.7375
G01 X54.2055 Y9.7356
G01 X54.1613 Y9.7290
G01 X54.1383 Y9.7241
G01 X54.1026 Y9.7151
G01 X54.0875 Y9.7110
G01 X54.0726 Y9.7060
G01 X54.0379 Y9.6936
G01 X54.0233 Y9.6880
G01 X54.0090 Y9.6816
G01 X53.9686 Y9.6625
G01 X53.9480 Y9.6511
G01 X53.9164 Y9.6322
G01 X53.9032 Y9.6238
G01 X53.8904 Y9.6148
G01 X53.8545 Y9.5881
G01 X53.8365 Y9.5729
G01 X53.8093 Y9.5482
G01 X53.7979 Y9.5374
G01 X49.6737 Y5.4132
G01 X8.4028 Y5.4132
G01 X4.6187 Y9.1973
G01 X4.6187 Y29.6478
G01 X5.7782 Y28.4883
G01 X5.7587 Y28.4846
G01 X5.7273 Y28.4768
G01 X5.7122 Y28.4727
G01 X5.6973 Y28.4677
G01 X5.6668 Y28.4567
G01 X5.6452 Y28.4475
G01 X5.6090 Y28.4299
G01 X5.5954 Y28.4222
G01 X5.5677 Y28.4055
G01 X5.5483 Y28.3922
G01 X5.5162 Y28.3679
G01 X5.4861 Y28.3412
G01 X5.4693 Y28.3248
G01 X5.4475 Y28.3008
G01 X5.4372 Y28.2890
G01 X5.4130 Y28.2569
G01 X5.3997 Y28.2375
G01 X5.3829 Y28.2098
G01 X5.3752 Y28.1961
G01 X5.3577 Y28.1599
G01 X5.3484 Y28.1383
G01 X5.3374 Y28.1079
G01 X5.3325 Y28.0930
G01 X5.3223 Y28.0541
G01 X5.3189 Y28.0388
G01 X5.3162 Y28.0233
G01 X5.3107 Y27.9835
G01 X5.3083 Y27.9433
G01 X5.3080 Y27.9277
G01 X5.3081 Y27.2698
G01 X5.3095 Y27.2375
G01 X5.3107 Y27.2218
G01 X5.3162 Y27.1820
G01 X5.3189 Y27.1665
G01 X5.3223 Y27.1512
G01 X5.3325 Y27.1123
G01 X5.3374 Y27.0974
G01 X5.3484 Y27.0670
G01 X5.3544 Y27.0525
G01 X5.3716 Y27.0161
G01 X5.3790 Y27.0023
G01 X5.3956 Y26.9745
G01 X5.4084 Y26.9548
G01 X5.4276 Y26.9287
G01 X5.4372 Y26.9163
G01 X5.4475 Y26.9045
G01 X5.4693 Y26.8805
G01 X5.4804 Y26.8694
G01 X5.5102 Y26.8424
G01 X5.5223 Y26.8325
G01 X5.5483 Y26.8131
G01 X5.5611 Y26.8041
G01 X5.5954 Y26.7831
G01 X5.6090 Y26.7754
G01 X5.6230 Y26.7683
G01 X5.6595 Y26.7515
G01 X5.6742 Y26.7458
G01 X5.7047 Y26.7350
G01 X5.7197 Y26.7305
G01 X5.7587 Y26.7207
G01 X5.7741 Y26.7176
G01 X5.8061 Y26.7128
G01 X5.8311 Y26.7101
G01 X5.8618 Y26.7085
G01 X5.8775 Y26.7081
G01 X7.1775 Y26.7081
G01 X7.1932 Y26.7085
G01 X7.2333 Y26.7109
G01 X7.2732 Y26.7164
G01 X7.2886 Y26.7191
G01 X7.3039 Y26.7225
G01 X7.3428 Y26.7326
G01 X7.3577 Y26.7376
G01 X7.3955 Y26.7515
G01 X7.4320 Y26.7683
G01 X7.4460 Y26.7754
G01 X7.4596 Y26.7831
G01 X7.4939 Y26.8041
G01 X7.5264 Y26.8277
G01 X7.5388 Y26.8374
G01 X7.5507 Y26.8476
G01 X7.5802 Y26.8749
G01 X7.5910 Y26.8863
G01 X7.6106 Y26.9079
G01 X10.8404 Y26.9079
G01 X10.8641 Y26.8578
G01 X10.8712 Y26.8438
G01 X10.8789 Y26.8301
G01 X10.9192 Y26.7628
G01 X10.9276 Y26.7495
G01 X10.9367 Y26.7367
G01 X10.9882 Y26.6674
G01 X11.0033 Y26.6494
G01 X11.0561 Y26.5912
G01 X11.0669 Y26.5799
G01 X11.0782 Y26.5691
G01 X11.1364 Y26.5163
G01 X11.1544 Y26.5012
G01 X11.2237 Y26.4497
G01 X11.2365 Y26.4406
G01 X11.2498 Y26.4322
G01 X11.3171 Y26.3919
G01 X11.3308 Y26.3842
G01 X11.3448 Y26.3771
G01 X11.4157 Y26.3435
G01 X11.4301 Y26.3372
G01 X11.4447 Y26.3315
G01 X11.5186 Y26.3051
G01 X11.5335 Y26.3002
G01 X11.5486 Y26.2960
G01 X11.6248 Y26.2769
G01 X11.6478 Y26.2720
G01 X11.7332 Y26.2593
G01 X11.7488 Y26.2574
G01 X11.7644 Y26.2562
G01 X11.8428 Y26.2523
G01 X11.8585 Y26.2520
G01 X14.6585 Y26.2520
G01 X14.6742 Y26.2523
G01 X14.7526 Y26.2562
G01 X14.7682 Y26.2574
G01 X14.7838 Y26.2593
G01 X14.8615 Y26.2708
G01 X14.8769 Y26.2735
G01 X14.8922 Y26.2769
G01 X14.9760 Y26.2980
G01 X14.9984 Y26.3051
G01 X15.0723 Y26.3315
G01 X15.0869 Y26.3372
G01 X15.1013 Y26.3435
G01 X15.1722 Y26.3771
G01 X15.1862 Y26.3842
G01 X15.1999 Y26.3919
G01 X15.2672 Y26.4322
G01 X15.2805 Y26.4406
G01 X15.2933 Y26.4497
G01 X15.3564 Y26.4964
G01 X15.3687 Y26.5061
G01 X15.3806 Y26.5163
G01 X15.4388 Y26.5691
G01 X15.4501 Y26.5799
G01 X15.4609 Y26.5912
G01 X15.5137 Y26.6494
G01 X15.5239 Y26.6613
G01 X15.5359 Y26.6768
G01 X21.6107 Y26.6768
G01 X21.6172 Y26.6662
G01 X21.6259 Y26.6531
G01 X21.6498 Y26.6208
G01 X21.6598 Y26.6087
G01 X21.6868 Y26.5789
G01 X21.7036 Y26.5625
G01 X21.7337 Y26.5357
G01 X21.7461 Y26.5261
G01 X21.7786 Y26.5024
G01 X21.8129 Y26.4814
G01 X21.8265 Y26.4737
G01 X21.8627 Y26.4562
G01 X21.8843 Y26.4469
G01 X21.9222 Y26.4334
G01 X21.9372 Y26.4288
G01 X21.9762 Y26.4190
G01 X21.9993 Y26.4147
G01 X22.0392 Y26.4092
G01 X22.0548 Y26.4080
G01 X22.0950 Y26.4065
G01 X23.3450 Y26.4065
G01 X23.3607 Y26.4068
G01 X23.3930 Y26.4085
G01 X23.4086 Y26.4101
G01 X23.4484 Y26.4160
G01 X23.4638 Y26.4190
G01 X23.4952 Y26.4268
G01 X23.5178 Y26.4334
G01 X23.5483 Y26.4442
G01 X23.5630 Y26.4498
G01 X23.5773 Y26.4562
G01 X23.6065 Y26.4701
G01 X23.6203 Y26.4775
G01 X23.6548 Y26.4982
G01 X23.6679 Y26.5069
G01 X23.6939 Y26.5261
G01 X23.7063 Y26.5357
G01 X23.7364 Y26.5625
G01 X23.7477 Y26.5733
G01 X23.7585 Y26.5846
G01 X23.7853 Y26.6147
G01 X23.7949 Y26.6271
G01 X23.8141 Y26.6531
G01 X23.8228 Y26.6662
G01 X23.8435 Y26.7007
G01 X23.8509 Y26.7145
G01 X23.8648 Y26.7437
G01 X23.8712 Y26.7580
G01 X23.8768 Y26.7727
G01 X23.8876 Y26.8032
G01 X23.8942 Y26.8258
G01 X23.9020 Y26.8572
G01 X23.9050 Y26.8726
G01 X23.9109 Y26.9124
G01 X23.9125 Y26.9280
G01 X23.9142 Y26.9603
G01 X23.9145 Y26.9760
G01 X23.9144 Y27.9088
G01 X23.9130 Y27.9412
G01 X23.9118 Y27.9568
G01 X23.9099 Y27.9724
G01 X23.9050 Y28.0044
G01 X23.9002 Y28.0274
G01 X23.8922 Y28.0588
G01 X23.8876 Y28.0738
G01 X23.8768 Y28.1043
G01 X23.8712 Y28.1190
G01 X23.8648 Y28.1333
G01 X23.8509 Y28.1625
G01 X23.8396 Y28.1831
G01 X23.8228 Y28.2108
G01 X23.8141 Y28.2239
G01 X23.7949 Y28.2499
G01 X23.7853 Y28.2623
G01 X23.7750 Y28.2742
G01 X23.7532 Y28.2981
G01 X23.7364 Y28.3145
G01 X23.7123 Y28.3362
G01 X23.7002 Y28.3462
G01 X23.6742 Y28.3655
G01 X23.6614 Y28.3746
G01 X23.6482 Y28.3829
G01 X23.6203 Y28.3995
G01 X23.6065 Y28.4069
G01 X23.5773 Y28.4208
G01 X23.5551 Y28.4303
G01 X23.5252 Y28.4411
G01 X23.5103 Y28.4460
G01 X23.4952 Y28.4502
G01 X23.4638 Y28.4580
G01 X23.4484 Y28.4610
G01 X23.4164 Y28.4659
G01 X23.3930 Y28.4685
G01 X23.3607 Y28.4702
G01 X23.3450 Y28.4705
G01 X22.0950 Y28.4705
G01 X22.0548 Y28.4690
G01 X22.0392 Y28.4678
G01 X21.9993 Y28.4623
G01 X21.9762 Y28.4580
G01 X21.9448 Y28.4502
G01 X21.9297 Y28.4460
G01 X21.8917 Y28.4328
G01 X21.8698 Y28.4241
G01 X21.8405 Y28.4103
G01 X21.8265 Y28.4033
G01 X21.7918 Y28.3829
G01 X21.7721 Y28.3701
G01 X21.7461 Y28.3509
G01 X21.7337 Y28.3413
G01 X21.7036 Y28.3145
G01 X21.6868 Y28.2981
G01 X21.6650 Y28.2742
G01 X21.6547 Y28.2623
G01 X21.6305 Y28.2302
G01 X21.6172 Y28.2108
G01 X21.6004 Y28.1831
G01 X21.5927 Y28.1695
G01 X21.5752 Y28.1333
G01 X21.5657 Y28.1111
G01 X21.5549 Y28.0812
G01 X21.5500 Y28.0663
G01 X15.5345 Y28.0681
G01 X15.5239 Y28.0817
G01 X15.5137 Y28.0936
G01 X15.4609 Y28.1518
G01 X15.4501 Y28.1631
G01 X15.4388 Y28.1739
G01 X15.3806 Y28.2267
G01 X15.3687 Y28.2369
G01 X15.3564 Y28.2466
G01 X15.2933 Y28.2933
G01 X15.2805 Y28.3024
G01 X15.2672 Y28.3108
G01 X15.1999 Y28.3511
G01 X15.1862 Y28.3588
G01 X15.1722 Y28.3659
G01 X15.0941 Y28.4027
G01 X15.0723 Y28.4115
G01 X14.9984 Y28.4379
G01 X14.9843 Y28.4426
G01 X14.9700 Y28.4466
G01 X14.8922 Y28.4661
G01 X14.8769 Y28.4695
G01 X14.8615 Y28.4722
G01 X14.7838 Y28.4837
G01 X14.7682 Y28.4856
G01 X14.7526 Y28.4868
G01 X14.6663 Y28.4909
G01 X11.8585 Y28.4910
G01 X11.8428 Y28.4907
G01 X11.7644 Y28.4868
G01 X11.7488 Y28.4856
G01 X11.7332 Y28.4837
G01 X11.6555 Y28.4722
G01 X11.6401 Y28.4695
G01 X11.6248 Y28.4661
G01 X11.5486 Y28.4470
G01 X11.5335 Y28.4428
G01 X11.5186 Y28.4379
G01 X11.4447 Y28.4115
G01 X11.4301 Y28.4058
G01 X11.4157 Y28.3995
G01 X11.3448 Y28.3659
G01 X11.3308 Y28.3588
G01 X11.3171 Y28.3511
G01 X11.2498 Y28.3108
G01 X11.2293 Y28.2974
G01 X7.6106 Y28.2974
G01 X7.5857 Y28.3248
G01 X7.5746 Y28.3359
G01 X7.5448 Y28.3629
G01 X7.5327 Y28.3728
G01 X7.5004 Y28.3968
G01 X7.4873 Y28.4055
G01 X7.4528 Y28.4262
G01 X7.4390 Y28.4336
G01 X7.4027 Y28.4507
G01 X7.3882 Y28.4567
G01 X7.3503 Y28.4703
G01 X7.3353 Y28.4749
G01 X7.2963 Y28.4846
G01 X7.2809 Y28.4877
G01 X7.2411 Y28.4936
G01 X7.2222 Y28.4953
G01 X7.2222 Y28.7215
G01 X7.2218 Y28.7372
G01 X7.2196 Y28.7818
G01 X7.2180 Y28.7974
G01 X7.2103 Y28.8493
G01 X7.2054 Y28.8723
G01 X7.1965 Y28.9081
G01 X7.1923 Y28.9232
G01 X7.1874 Y28.9381
G01 X7.1750 Y28.9727
G01 X7.1663 Y28.9946
G01 X7.1438 Y29.0420
G01 X7.1325 Y29.0626
G01 X7.1135 Y29.0942
G01 X7.1051 Y29.1075
G01 X7.0961 Y29.1203
G01 X7.0694 Y29.1561
G01 X7.0543 Y29.1741
G01 X7.0296 Y29.2014
G01 X7.0187 Y29.2127
G01 X4.6187 Y31.6128
G01 X4.6187 Y73.7727
G01 X9.1013 Y78.2553
G01 X37.2988 Y78.2553
G01 X33.4953 Y74.4517
G01 X33.4844 Y74.4404
G01 X33.4597 Y74.4131
G01 X33.4495 Y74.4012
G01 X33.4398 Y74.3889
G01 X33.4179 Y74.3593
G01 X33.4088 Y74.3464
G01 X33.4005 Y74.3332
G01 X33.3776 Y74.2949
G01 X33.3702 Y74.2810
G01 X33.3510 Y74.2407
G01 X33.3447 Y74.2264
G01 X33.3390 Y74.2117
G01 X33.3266 Y74.1771
G01 X33.3195 Y74.1546
G01 X33.3086 Y74.1113
G01 X33.3037 Y74.0883
G01 X33.2960 Y74.0364
G01 X33.2940 Y74.0130
G01 X33.2922 Y73.9762
G01 X33.2918 Y73.9605
G01 X33.2918 Y72.9925
G01 X33.2555 Y72.9749
G01 X33.2419 Y72.9672
G01 X33.2142 Y72.9505
G01 X33.1948 Y72.9372
G01 X33.1627 Y72.9129
G01 X33.1326 Y72.8862
G01 X33.1158 Y72.8698
G01 X33.0940 Y72.8458
G01 X33.0837 Y72.8340
G01 X33.0595 Y72.8019
G01 X33.0462 Y72.7825
G01 X33.0294 Y72.7548
G01 X33.0217 Y72.7411
G01 X33.0042 Y72.7049
G01 X32.9947 Y72.6828
G01 X32.9839 Y72.6529
G01 X32.9790 Y72.6380
G01 X32.9688 Y72.5991
G01 X32.9640 Y72.5761
G01 X32.9581 Y72.5363
G01 X32.9560 Y72.5128
G01 X32.9545 Y72.4726
G01 X32.9545 Y71.2227
G01 X32.9548 Y71.2070
G01 X32.9565 Y71.1746
G01 X32.9581 Y71.1590
G01 X32.9640 Y71.1193
G01 X32.9670 Y71.1039
G01 X32.9768 Y71.0649
G01 X32.9814 Y71.0498
G01 X32.9949 Y71.0120
G01 X33.0009 Y70.9975
G01 X33.0147 Y70.9682
G01 X33.0217 Y70.9542
G01 X33.0294 Y70.9405
G01 X33.0504 Y70.9062
G01 X33.0741 Y70.8737
G01 X33.0837 Y70.8613
G01 X33.1105 Y70.8313
G01 X33.1213 Y70.8199
G01 X33.1326 Y70.8091
G01 X33.1627 Y70.7824
G01 X33.1751 Y70.7727
G01 X33.2076 Y70.7491
G01 X33.2419 Y70.7281
G01 X33.2555 Y70.7204
G01 X33.2695 Y70.7133
G01 X33.3060 Y70.6965
G01 X33.3207 Y70.6908
G01 X33.3587 Y70.6776
G01 X33.3976 Y70.6675
G01 X33.4129 Y70.6641
G01 X33.4526 Y70.6578
G01 X33.4682 Y70.6559
G01 X33.4838 Y70.6547
G01 X33.5162 Y70.6532
G01 X34.4490 Y70.6531
G01 X34.4892 Y70.6547
G01 X34.5048 Y70.6559
G01 X34.5447 Y70.6614
G01 X34.5678 Y70.6657
G01 X34.6068 Y70.6755
G01 X34.6218 Y70.6800
G01 X34.6523 Y70.6908
G01 X34.6670 Y70.6965
G01 X34.6813 Y70.7028
G01 X34.7105 Y70.7168
G01 X34.7311 Y70.7281
G01 X34.7588 Y70.7448
G01 X34.7719 Y70.7535
G01 X34.8042 Y70.7775
G01 X34.8163 Y70.7874
G01 X34.8461 Y70.8144
G01 X34.8572 Y70.8255
G01 X34.8842 Y70.8553
G01 X34.8989 Y70.8737
G01 X34.9226 Y70.9062
G01 X34.9309 Y70.9195
G01 X34.9475 Y70.9473
G01 X34.9583 Y70.9682
G01 X34.9721 Y70.9975
G01 X34.9781 Y71.0120
G01 X34.9891 Y71.0424
G01 X34.9940 Y71.0573
G01 X34.9982 Y71.0724
G01 X35.0060 Y71.1039
G01 X35.0090 Y71.1193
G01 X35.0139 Y71.1513
G01 X35.0165 Y71.1746
G01 X35.0182 Y71.2070
G01 X35.0185 Y71.2227
G01 X35.0185 Y72.4726
G01 X35.0182 Y72.4883
G01 X35.0165 Y72.5207
G01 X35.0139 Y72.5440
G01 X35.0090 Y72.5761
G01 X35.0060 Y72.5914
G01 X34.9982 Y72.6229
G01 X34.9940 Y72.6380
G01 X34.9808 Y72.6760
G01 X34.9721 Y72.6978
G01 X34.9583 Y72.7271
G01 X34.9513 Y72.7411
G01 X34.9309 Y72.7758
G01 X34.9181 Y72.7955
G01 X34.8989 Y72.8216
G01 X34.8893 Y72.8340
G01 X34.8625 Y72.8640
G01 X34.8461 Y72.8809
G01 X34.8222 Y72.9027
G01 X34.8103 Y72.9129
G01 X34.7782 Y72.9372
G01 X34.7588 Y72.9505
G01 X34.7311 Y72.9672
G01 X34.7175 Y72.9749
G01 X34.6812 Y72.9925
G01 X34.6812 Y73.6727
G01 X39.2638 Y78.2553
G01 X67.9252 Y78.2553
G01 X68.1195 Y78.0610
G01 X67.4090 Y77.3505
G01 X66.7267 Y77.3504
G01 X66.6943 Y77.3490
G01 X66.6787 Y77.3478
G01 X66.6388 Y77.3423
G01 X66.6157 Y77.3380
G01 X66.5843 Y77.3302
G01 X66.5692 Y77.3260
G01 X66.5312 Y77.3128
G01 X66.5093 Y77.3041
G01 X66.4730 Y77.2869
G01 X66.4524 Y77.2756
G01 X66.4181 Y77.2546
G01 X66.3856 Y77.2309
G01 X66.3672 Y77.2162
G01 X66.3374 Y77.1892
G01 X66.3210 Y77.1724
G01 X66.2942 Y77.1423
G01 X66.2846 Y77.1299
G01 X66.2609 Y77.0974
G01 X66.2399 Y77.0631
G01 X66.2286 Y77.0425
G01 X66.2113 Y77.0060
G01 X66.2027 Y76.9843
G01 X66.1919 Y76.9538
G01 X66.1873 Y76.9388
G01 X66.1775 Y76.8998
G01 X66.1745 Y76.8844
G01 X66.1696 Y76.8524
G01 X66.1677 Y76.8368
G01 X66.1665 Y76.8212
G01 X66.1650 Y76.7810
G01 X66.1651 Y75.5232
G01 X66.1670 Y75.4830
G01 X66.1696 Y75.4596
G01 X66.1759 Y75.4199
G01 X66.1853 Y75.3808
G01 X66.1895 Y75.3657
G01 X66.1944 Y75.3508
G01 X66.2054 Y75.3203
G01 X66.2114 Y75.3058
G01 X66.2252 Y75.2765
G01 X66.2322 Y75.2625
G01 X66.2399 Y75.2489
G01 X66.2609 Y75.2146
G01 X66.2846 Y75.1821
G01 X66.2942 Y75.1697
G01 X66.3210 Y75.1396
G01 X66.3318 Y75.1283
G01 X66.3431 Y75.1175
G01 X66.3672 Y75.0958
G01 X66.3793 Y75.0858
G01 X66.4053 Y75.0665
G01 X66.4181 Y75.0574
G01 X66.4313 Y75.0491
G01 X66.4592 Y75.0325
G01 X66.4730 Y75.0251
G01 X66.5022 Y75.0112
G01 X66.5165 Y75.0048
G01 X66.5312 Y74.9992
G01 X66.5692 Y74.9860
G01 X66.6081 Y74.9758
G01 X66.6234 Y74.9724
G01 X66.6631 Y74.9661
G01 X66.6787 Y74.9642
G01 X66.6943 Y74.9630
G01 X66.7267 Y74.9616
G01 X67.6595 Y74.9615
G01 X67.6997 Y74.9630
G01 X67.7153 Y74.9642
G01 X67.7309 Y74.9661
G01 X67.7706 Y74.9724
G01 X67.8097 Y74.9818
G01 X67.8248 Y74.9860
G01 X67.8397 Y74.9909
G01 X67.8702 Y75.0019
G01 X67.8847 Y75.0079
G01 X67.9140 Y75.0217
G01 X67.9280 Y75.0287
G01 X67.9416 Y75.0364
G01 X67.9693 Y75.0532
G01 X67.9824 Y75.0619
G01 X68.0084 Y75.0811
G01 X68.0208 Y75.0907
G01 X68.0327 Y75.1010
G01 X68.0622 Y75.1283
G01 X68.0730 Y75.1396
G01 X68.0998 Y75.1697
G01 X68.1094 Y75.1821
G01 X68.1331 Y75.2146
G01 X68.1414 Y75.2278
G01 X68.1580 Y75.2557
G01 X68.1654 Y75.2695
G01 X68.1793 Y75.2987
G01 X68.1857 Y75.3130
G01 X68.1913 Y75.3277
G01 X68.2021 Y75.3582
G01 X68.2067 Y75.3732
G01 X68.2165 Y75.4122
G01 X68.2195 Y75.4276
G01 X68.2244 Y75.4596
G01 X68.2263 Y75.4752
G01 X68.2275 Y75.4908
G01 X68.2290 Y75.5310
G01 X68.2290 Y76.2055
G01 X69.3898 Y77.3663
G01 X79.4261 Y77.3663
G01 X71.6010 Y69.5412
G01 X70.9265 Y69.5412
G01 X70.8863 Y69.5396
G01 X70.8707 Y69.5384
G01 X70.8551 Y69.5365
G01 X70.8231 Y69.5317
G01 X70.8077 Y69.5286
G01 X70.7687 Y69.5189
G01 X70.7537 Y69.5143
G01 X70.7232 Y69.5035
G01 X70.7085 Y69.4978
G01 X70.6942 Y69.4915
G01 X70.6650 Y69.4776
G01 X70.6512 Y69.4702
G01 X70.6233 Y69.4536
G01 X70.6101 Y69.4452
G01 X70.5776 Y69.4216
G01 X70.5652 Y69.4119
G01 X70.5351 Y69.3852
G01 X70.5238 Y69.3744
G01 X70.5130 Y69.3630
G01 X70.4913 Y69.3390
G01 X70.4813 Y69.3268
G01 X70.4620 Y69.3009
G01 X70.4529 Y69.2881
G01 X70.4446 Y69.2748
G01 X70.4280 Y69.2470
G01 X70.4206 Y69.2332
G01 X70.4067 Y69.2039
G01 X70.4002 Y69.1893
G01 X70.3864 Y69.1519
G01 X70.3815 Y69.1370
G01 X70.3713 Y69.0981
G01 X70.3665 Y69.0751
G01 X70.3616 Y69.0430
G01 X70.3597 Y69.0275
G01 X70.3585 Y69.0118
G01 X70.3570 Y68.9716
G01 X70.3570 Y68.0467
G01 X70.3585 Y68.0065
G01 X70.3597 Y67.9908
G01 X70.3652 Y67.9510
G01 X70.3695 Y67.9279
G01 X70.3773 Y67.8964
G01 X70.3815 Y67.8813
G01 X70.3947 Y67.8433
G01 X70.4003 Y67.8287
G01 X70.4172 Y67.7922
G01 X70.4242 Y67.7782
G01 X70.4446 Y67.7435
G01 X70.4529 Y67.7302
G01 X70.4620 Y67.7174
G01 X70.4813 Y67.6915
G01 X70.4913 Y67.6793
G01 X70.5130 Y67.6553
G01 X70.5238 Y67.6439
G01 X70.5351 Y67.6331
G01 X70.5652 Y67.6064
G01 X70.5776 Y67.5967
G01 X70.6101 Y67.5731
G01 X70.6233 Y67.5647
G01 X70.6512 Y67.5481
G01 X70.6650 Y67.5408
G01 X70.6942 Y67.5268
G01 X70.7085 Y67.5205
G01 X70.7232 Y67.5148
G01 X70.7612 Y67.5016
G01 X70.8001 Y67.4915
G01 X70.8154 Y67.4881
G01 X70.8551 Y67.4818
G01 X70.8707 Y67.4799
G01 X70.8863 Y67.4787
G01 X70.9187 Y67.4772
G01 X72.1765 Y67.4771
G01 X72.2167 Y67.4787
G01 X72.2323 Y67.4799
G01 X72.2479 Y67.4818
G01 X72.2876 Y67.4881
G01 X72.3029 Y67.4915
G01 X72.3343 Y67.4995
G01 X72.3493 Y67.5040
G01 X72.3798 Y67.5148
G01 X72.3945 Y67.5205
G01 X72.4088 Y67.5268
G01 X72.4450 Y67.5444
G01 X72.4586 Y67.5521
G01 X72.4929 Y67.5731
G01 X72.5254 Y67.5967
G01 X72.5378 Y67.6064
G01 X72.5497 Y67.6166
G01 X72.5736 Y67.6384
G01 X72.5847 Y67.6495
G01 X72.6065 Y67.6735
G01 X72.6168 Y67.6853
G01 X72.6264 Y67.6977
G01 X72.6501 Y67.7302
G01 X72.6711 Y67.7645
G01 X72.6788 Y67.7782
G01 X72.6858 Y67.7922
G01 X72.7027 Y67.8287
G01 X72.7083 Y67.8433
G01 X72.7191 Y67.8738
G01 X72.7237 Y67.8889
G01 X72.7317 Y67.9202
G01 X72.7351 Y67.9355
G01 X72.7378 Y67.9510
G01 X72.7433 Y67.9908
G01 X72.7445 Y68.0065
G01 X72.7460 Y68.0467
G01 X72.7460 Y68.7212
G01 X81.3276 Y77.3028
G01 X88.4798 Y77.3028
G01 X86.1098 Y74.9327
G01 X86.0989 Y74.9214
G01 X86.0742 Y74.8941
G01 X86.0591 Y74.8761
G01 X86.0324 Y74.8403
G01 X86.0233 Y74.8274
G01 X86.0150 Y74.8142
G01 X85.9921 Y74.7759
G01 X85.9847 Y74.7620
G01 X85.9655 Y74.7217
G01 X85.9562 Y74.7001
G01 X85.9411 Y74.6581
G01 X85.9362 Y74.6432
G01 X85.9320 Y74.6281
G01 X85.9231 Y74.5923
G01 X85.9196 Y74.5770
G01 X85.9169 Y74.5616
G01 X85.9115 Y74.5252
G01 X85.9096 Y74.5096
G01 X85.9085 Y74.4940
G01 X85.9064 Y74.4493
G01 X85.9063 Y69.2980
G01 X85.9067 Y69.2823
G01 X85.9085 Y69.2455
G01 X85.9096 Y69.2299
G01 X85.9115 Y69.2143
G01 X85.9169 Y69.1779
G01 X85.9196 Y69.1625
G01 X85.9231 Y69.1472
G01 X85.9340 Y69.1039
G01 X85.9386 Y69.0889
G01 X85.9562 Y69.0394
G01 X85.9655 Y69.0178
G01 X85.9813 Y68.9845
G01 X85.9883 Y68.9705
G01 X85.9960 Y68.9569
G01 X86.0150 Y68.9253
G01 X86.0278 Y68.9056
G01 X86.0591 Y68.8634
G01 X86.0742 Y68.8454
G01 X86.0989 Y68.8181
G01 X86.1098 Y68.8068
G01 X86.2201 Y68.6964
G01 X86.2315 Y68.6856
G01 X86.2587 Y68.6609
G01 X86.2706 Y68.6506
G01 X86.2830 Y68.6410
G01 X86.3126 Y68.6190
G01 X86.3254 Y68.6100
G01 X86.3386 Y68.6016
G01 X86.3770 Y68.5787
G01 X86.3908 Y68.5713
G01 X86.4312 Y68.5522
G01 X86.4455 Y68.5458
G01 X86.4601 Y68.5402
G01 X86.4939 Y68.5281
G01 X86.5046 Y68.4986
G01 X86.5106 Y68.4841
G01 X86.5768 Y68.3439
G01 X86.5838 Y68.3299
G01 X86.5915 Y68.3163
G01 X86.6672 Y68.1900
G01 X86.6756 Y68.1768
G01 X86.6846 Y68.1639
G01 X86.7723 Y68.0457
G01 X86.7820 Y68.0333
G01 X86.7922 Y68.0215
G01 X86.8911 Y67.9124
G01 X86.9019 Y67.9010
G01 X86.9132 Y67.8902
G01 X87.0223 Y67.7914
G01 X87.0403 Y67.7762
G01 X87.1648 Y67.6838
G01 X87.1777 Y67.6747
G01 X87.1909 Y67.6664
G01 X87.3171 Y67.5907
G01 X87.3308 Y67.5830
G01 X87.3448 Y67.5759
G01 X87.4779 Y67.5130
G01 X87.4922 Y67.5066
G01 X87.5068 Y67.5010
G01 X87.6454 Y67.4514
G01 X87.6603 Y67.4465
G01 X87.6754 Y67.4423
G01 X87.8182 Y67.4065
G01 X87.8335 Y67.4031
G01 X87.8490 Y67.4004
G01 X87.9946 Y67.3788
G01 X88.0102 Y67.3769
G01 X88.0258 Y67.3757
G01 X88.1728 Y67.3685
G01 X88.1885 Y67.3681
G01 X88.2042 Y67.3685
G01 X88.3512 Y67.3757
G01 X88.3668 Y67.3769
G01 X88.3824 Y67.3788
G01 X88.5280 Y67.4004
G01 X88.5435 Y67.4031
G01 X88.5588 Y67.4065
G01 X88.7016 Y67.4423
G01 X88.7167 Y67.4465
G01 X88.7316 Y67.4514
G01 X88.8702 Y67.5010
G01 X88.8848 Y67.5066
G01 X88.8991 Y67.5130
G01 X89.0322 Y67.5759
G01 X89.0462 Y67.5830
G01 X89.0599 Y67.5907
G01 X89.1861 Y67.6664
G01 X89.1994 Y67.6748
G01 X89.2122 Y67.6838
G01 X89.3304 Y67.7715
G01 X89.3428 Y67.7811
G01 X89.3547 Y67.7914
G01 X89.4638 Y67.8902
G01 X89.4751 Y67.9010
G01 X89.4859 Y67.9124
G01 X89.5848 Y68.0215
G01 X89.5950 Y68.0333
G01 X89.6047 Y68.0457
G01 X89.6924 Y68.1639
G01 X89.7015 Y68.1769
G01 X89.7098 Y68.1900
G01 X89.7855 Y68.3163
G01 X89.7932 Y68.3299
G01 X89.8002 Y68.3439
G01 X89.8632 Y68.4770
G01 X89.8695 Y68.4913
G01 X89.8752 Y68.5060
G01 X89.9248 Y68.6446
G01 X89.9297 Y68.6595
G01 X89.9339 Y68.6746
G01 X89.9696 Y68.8174
G01 X89.9731 Y68.8327
G01 X89.9758 Y68.8481
G01 X89.9974 Y68.9937
G01 X89.9993 Y69.0093
G01 X90.0004 Y69.0249
G01 X90.0077 Y69.1720
G01 X90.0080 Y69.1877
G01 X90.0077 Y69.2033
G01 X90.0004 Y69.3504
G01 X89.9984 Y69.3738
G01 X89.9758 Y69.5272
G01 X89.9731 Y69.5426
G01 X89.9696 Y69.5579
G01 X89.9339 Y69.7007
G01 X89.9297 Y69.7158
G01 X89.9248 Y69.7307
G01 X89.8752 Y69.8693
G01 X89.8695 Y69.8840
G01 X89.8632 Y69.8983
G01 X89.8002 Y70.0314
G01 X89.7932 Y70.0454
G01 X89.7855 Y70.0590
G01 X89.7098 Y70.1853
G01 X89.7014 Y70.1985
G01 X89.6924 Y70.2114
G01 X89.6047 Y70.3296
G01 X89.5950 Y70.3420
G01 X89.5848 Y70.3538
G01 X89.4859 Y70.4629
G01 X89.4751 Y70.4743
G01 X89.4638 Y70.4851
G01 X89.3547 Y70.5839
G01 X89.3428 Y70.5942
G01 X89.3304 Y70.6038
G01 X89.2122 Y70.6915
G01 X89.1994 Y70.7005
G01 X89.1861 Y70.7089
G01 X89.0599 Y70.7846
G01 X89.0393 Y70.7960
G01 X88.8991 Y70.8623
G01 X88.8848 Y70.8687
G01 X88.8702 Y70.8743
G01 X88.7316 Y70.9239
G01 X88.7167 Y70.9288
G01 X88.7016 Y70.9330
G01 X88.5588 Y70.9688
G01 X88.5442 Y70.9721
G01 X88.5295 Y70.9747
G01 X88.3824 Y70.9965
G01 X88.3668 Y70.9984
G01 X88.3512 Y70.9996
G01 X88.2042 Y71.0068
G01 X88.1807 Y71.0071
G01 X88.0258 Y70.9996
G01 X88.0102 Y70.9984
G01 X87.9946 Y70.9965
G01 X87.8490 Y70.9749
G01 X87.8335 Y70.9722
G01 X87.8182 Y70.9688
G01 X87.6678 Y70.9310
G01 X87.6454 Y70.9239
G01 X87.5068 Y70.8743
G01 X87.4922 Y70.8687
G01 X87.4779 Y70.8623
G01 X87.3377 Y70.7960
G01 X87.3239 Y70.7886
G01 X87.2957 Y70.7718
G01 X87.2957 Y74.1537
G01 X90.4448 Y77.3028
G01 X120.2857 Y77.3028
G01 X121.4956 Y76.0929
G01 X121.3937 Y76.0006
G01 X121.3824 Y75.9898
G01 X121.3716 Y75.9784
G01 X121.2727 Y75.8693
G01 X121.2625 Y75.8575
G01 X121.2528 Y75.8451
G01 X121.1651 Y75.7269
G01 X121.1561 Y75.7140
G01 X121.1477 Y75.7008
G01 X121.0720 Y75.5745
G01 X121.0643 Y75.5609
G01 X121.0573 Y75.5469
G01 X120.9943 Y75.4138
G01 X120.9873 Y75.3979
G01 X118.3754 Y75.3979
G01 X118.3239 Y75.4288
G01 X118.3102 Y75.4365
G01 X118.2962 Y75.4435
G01 X118.2181 Y75.4804
G01 X118.1963 Y75.4891
G01 X118.1224 Y75.5156
G01 X118.1075 Y75.5205
G01 X118.0924 Y75.5247
G01 X118.0162 Y75.5437
G01 X118.0009 Y75.5472
G01 X117.9855 Y75.5499
G01 X117.9078 Y75.5614
G01 X117.8922 Y75.5633
G01 X117.8766 Y75.5645
G01 X117.7903 Y75.5686
G01 X114.9825 Y75.5687
G01 X114.9668 Y75.5683
G01 X114.8884 Y75.5645
G01 X114.8728 Y75.5633
G01 X114.8572 Y75.5614
G01 X114.7795 Y75.5499
G01 X114.7641 Y75.5472
G01 X114.7488 Y75.5437
G01 X114.6726 Y75.5247
G01 X114.6575 Y75.5205
G01 X114.6426 Y75.5156
G01 X114.5687 Y75.4891
G01 X114.5541 Y75.4835
G01 X114.5397 Y75.4771
G01 X114.4688 Y75.4435
G01 X114.4548 Y75.4365
G01 X114.4411 Y75.4288
G01 X114.3738 Y75.3884
G01 X114.3541 Y75.3756
G01 X114.2846 Y75.3242
G01 X114.2723 Y75.3146
G01 X114.2604 Y75.3043
G01 X114.2022 Y75.2516
G01 X114.1909 Y75.2408
G01 X114.1801 Y75.2294
G01 X114.1273 Y75.1713
G01 X114.1171 Y75.1594
G01 X114.1074 Y75.1470
G01 X114.0607 Y75.0840
G01 X114.0516 Y75.0711
G01 X114.0432 Y75.0579
G01 X114.0029 Y74.9905
G01 X113.9952 Y74.9769
G01 X113.9881 Y74.9629
G01 X113.9545 Y74.8919
G01 X113.9482 Y74.8776
G01 X113.9425 Y74.8629
G01 X113.9161 Y74.7890
G01 X113.9114 Y74.7749
G01 X113.9074 Y74.7606
G01 X113.8879 Y74.6829
G01 X113.8845 Y74.6676
G01 X113.8818 Y74.6521
G01 X113.8703 Y74.5745
G01 X113.8684 Y74.5589
G01 X113.8672 Y74.5432
G01 X113.8633 Y74.4648
G01 X113.8630 Y74.4492
G01 X113.8633 Y74.4335
G01 X113.8672 Y74.3551
G01 X113.8684 Y74.3394
G01 X113.8703 Y74.3239
G01 X113.8818 Y74.2462
G01 X113.8845 Y74.2307
G01 X113.8879 Y74.2154
G01 X113.9070 Y74.1393
G01 X113.9112 Y74.1242
G01 X113.9161 Y74.1093
G01 X113.9425 Y74.0354
G01 X113.9482 Y74.0207
G01 X113.9545 Y74.0064
G01 X113.9915 Y73.9284
G01 X114.0029 Y73.9078
G01 X114.0432 Y73.8404
G01 X114.0516 Y73.8272
G01 X114.0607 Y73.8143
G01 X114.1074 Y73.7513
G01 X114.1171 Y73.7389
G01 X114.1273 Y73.7270
G01 X114.1854 Y73.6631
G01 X114.2022 Y73.6467
G01 X114.2604 Y73.5940
G01 X114.2723 Y73.5837
G01 X114.2846 Y73.5741
G01 X114.3477 Y73.5273
G01 X114.3605 Y73.5183
G01 X114.3738 Y73.5099
G01 X114.4411 Y73.4695
G01 X114.4548 Y73.4618
G01 X114.4688 Y73.4548
G01 X114.5397 Y73.4212
G01 X114.5541 Y73.4148
G01 X114.5687 Y73.4092
G01 X114.6426 Y73.3827
G01 X114.6575 Y73.3778
G01 X114.6726 Y73.3736
G01 X114.7488 Y73.3546
G01 X114.7641 Y73.3511
G01 X114.7795 Y73.3484
G01 X114.8572 Y73.3369
G01 X114.8728 Y73.3350
G01 X114.8884 Y73.3338
G01 X114.9668 Y73.3300
G01 X114.9825 Y73.3296
G01 X117.7825 Y73.3296
G01 X117.7982 Y73.3300
G01 X117.8766 Y73.3338
G01 X117.8922 Y73.3350
G01 X117.9078 Y73.3369
G01 X117.9855 Y73.3484
G01 X118.0009 Y73.3511
G01 X118.0162 Y73.3546
G01 X118.0924 Y73.3736
G01 X118.1075 Y73.3778
G01 X118.1224 Y73.3827
G01 X118.1963 Y73.4092
G01 X118.2109 Y73.4148
G01 X118.2253 Y73.4212
G01 X118.2962 Y73.4548
G01 X118.3102 Y73.4618
G01 X118.3239 Y73.4695
G01 X118.3912 Y73.5099
G01 X118.4045 Y73.5183
G01 X118.4173 Y73.5273
G01 X118.4804 Y73.5741
G01 X118.4927 Y73.5837
G01 X118.5046 Y73.5940
G01 X118.5628 Y73.6467
G01 X118.5741 Y73.6575
G01 X118.5849 Y73.6689
G01 X118.6377 Y73.7270
G01 X118.6479 Y73.7389
G01 X118.6576 Y73.7513
G01 X118.7043 Y73.8143
G01 X118.7134 Y73.8272
G01 X118.7218 Y73.8404
G01 X118.7621 Y73.9078
G01 X118.7698 Y73.9214
G01 X118.7769 Y73.9354
G01 X118.8114 Y74.0084
G01 X120.9873 Y74.0084
G01 X120.9943 Y73.9925
G01 X121.0573 Y73.8594
G01 X121.0643 Y73.8454
G01 X121.0720 Y73.8318
G01 X121.1477 Y73.7055
G01 X121.1561 Y73.6923
G01 X121.1651 Y73.6794
G01 X121.2528 Y73.5612
G01 X121.2625 Y73.5488
G01 X121.2727 Y73.5370
G01 X121.3716 Y73.4279
G01 X121.3824 Y73.4165
G01 X121.3937 Y73.4057
G01 X121.5028 Y73.3069
G01 X121.5147 Y73.2966
G01 X121.5271 Y73.2870
G01 X121.6453 Y73.1993
G01 X121.6583 Y73.1902
G01 X121.6714 Y73.1819
G01 X121.7976 Y73.1062
G01 X121.8113 Y73.0985
G01 X121.8253 Y73.0914
G01 X121.9584 Y73.0285
G01 X121.9727 Y73.0221
G01 X121.9873 Y73.0165
G01 X122.1259 Y72.9669
G01 X122.1408 Y72.9620
G01 X122.1559 Y72.9578
G01 X122.2987 Y72.9220
G01 X122.3140 Y72.9186
G01 X122.3295 Y72.9159
G01 X122.4751 Y72.8943
G01 X122.4907 Y72.8924
G01 X122.5063 Y72.8912
G01 X122.6533 Y72.8840
G01 X122.6690 Y72.8836
G01 X122.6847 Y72.8840
G01 X122.8317 Y72.8912
G01 X122.8473 Y72.8924
G01 X122.8629 Y72.8943
G01 X123.0085 Y72.9159
G01 X123.0240 Y72.9186
G01 X123.0393 Y72.9220
G01 X123.1821 Y72.9578
G01 X123.1972 Y72.9620
G01 X123.2121 Y72.9669
G01 X123.3507 Y73.0165
G01 X123.3653 Y73.0221
G01 X123.3796 Y73.0285
G01 X123.5127 Y73.0914
G01 X123.5267 Y73.0985
G01 X123.5404 Y73.1062
G01 X123.6666 Y73.1819
G01 X123.6799 Y73.1903
G01 X123.6927 Y73.1993
G01 X123.8109 Y73.2870
G01 X123.8233 Y73.2966
G01 X123.8352 Y73.3069
G01 X123.9443 Y73.4057
G01 X123.9556 Y73.4165
G01 X123.9664 Y73.4279
G01 X124.0653 Y73.5370
G01 X124.0755 Y73.5488
G01 X124.0852 Y73.5612
G01 X124.1729 Y73.6794
G01 X124.1820 Y73.6924
G01 X124.1903 Y73.7055
G01 X124.2660 Y73.8318
G01 X124.2737 Y73.8454
G01 X124.2807 Y73.8594
G01 X124.3437 Y73.9925
G01 X124.3500 Y74.0068
G01 X124.3557 Y74.0215
G01 X124.4053 Y74.1601
G01 X124.4102 Y74.1750
G01 X124.4144 Y74.1901
G01 X124.4501 Y74.3329
G01 X124.4536 Y74.3482
G01 X124.4563 Y74.3636
G01 X124.4779 Y74.5092
G01 X124.4798 Y74.5248
G01 X124.4809 Y74.5404
G01 X124.4882 Y74.6875
G01 X124.4885 Y74.7032
G01 X124.4882 Y74.7188
G01 X124.4809 Y74.8659
G01 X124.4798 Y74.8815
G01 X124.4779 Y74.8971
G01 X124.4563 Y75.0427
G01 X124.4536 Y75.0581
G01 X124.4501 Y75.0734
G01 X124.4144 Y75.2162
G01 X124.4102 Y75.2313
G01 X124.4053 Y75.2462
G01 X124.3557 Y75.3848
G01 X124.3500 Y75.3995
G01 X124.3437 Y75.4138
G01 X124.2807 Y75.5469
G01 X124.2699 Y75.5677
G01 X124.1903 Y75.7008
G01 X124.1819 Y75.7140
G01 X124.1729 Y75.7269
G01 X124.0852 Y75.8451
G01 X124.0755 Y75.8575
G01 X124.0653 Y75.8693
G01 X123.9664 Y75.9784
G01 X123.9556 Y75.9898
G01 X123.9443 Y76.0006
G01 X123.8352 Y76.0994
G01 X123.8172 Y76.1146
G01 X123.6927 Y76.2070
G01 X123.6799 Y76.2160
G01 X123.6666 Y76.2244
G01 X123.5404 Y76.3001
G01 X123.5267 Y76.3078
G01 X123.5127 Y76.3149
G01 X123.3796 Y76.3778
G01 X123.3653 Y76.3842
G01 X123.3507 Y76.3898
G01 X123.2121 Y76.4394
G01 X123.1972 Y76.4443
G01 X123.1821 Y76.4485
G01 X123.0792 Y76.4743
G01 X121.0647 Y78.4887
G01 X121.0534 Y78.4996
G01 X121.0202 Y78.5295
G01 X121.0019 Y78.5442
G01 X120.9659 Y78.5707
G01 X120.9527 Y78.5795
G01 X120.9146 Y78.6025
G01 X120.9010 Y78.6102
G01 X120.8870 Y78.6172
G01 X120.8466 Y78.6363
G01 X120.8247 Y78.6450
G01 X120.7901 Y78.6574
G01 X120.7752 Y78.6623
G01 X120.7601 Y78.6665
G01 X120.7243 Y78.6754
G01 X120.7090 Y78.6789
G01 X120.6936 Y78.6816
G01 X120.6572 Y78.6870
G01 X120.6416 Y78.6889
G01 X120.6260 Y78.6900
G01 X120.5813 Y78.6921
G01 X81.9366 Y78.6925
G01 X81.9211 Y78.6998
G01 X81.9066 Y78.7058
G01 X81.8571 Y78.7234
G01 X81.8346 Y78.7300
G01 X81.7912 Y78.7408
G01 X81.7681 Y78.7451
G01 X81.7317 Y78.7505
G01 X81.7161 Y78.7524
G01 X81.7005 Y78.7535
G01 X81.6637 Y78.7553
G01 X81.6480 Y78.7557
G01 X69.3898 Y78.7557
G01 X68.7042 Y79.4412
G01 X68.6929 Y79.4521
G01 X68.6597 Y79.4820
G01 X68.6414 Y79.4967
G01 X68.6118 Y79.5186
G01 X68.5989 Y79.5277
G01 X68.5857 Y79.5360
G01 X68.5541 Y79.5550
G01 X68.5405 Y79.5627
G01 X68.5265 Y79.5697
G01 X68.4932 Y79.5855
G01 X68.4789 Y79.5918
G01 X68.4642 Y79.5975
G01 X68.4296 Y79.6099
G01 X68.4071 Y79.6170
G01 X68.3638 Y79.6279
G01 X68.3485 Y79.6314
G01 X68.3331 Y79.6341
G01 X68.2967 Y79.6395
G01 X68.2811 Y79.6414
G01 X68.2655 Y79.6425
G01 X68.2287 Y79.6443
G01 X68.2130 Y79.6447
G01 X8.8135 Y79.6447
G01 X8.7978 Y79.6443
G01 X8.7532 Y79.6421
G01 X8.7298 Y79.6395
G01 X8.6934 Y79.6341
G01 X8.6780 Y79.6314
G01 X8.6627 Y79.6279
G01 X8.6269 Y79.6190
G01 X8.6044 Y79.6124
G01 X8.5623 Y79.5975
G01 X8.5476 Y79.5918
G01 X8.5333 Y79.5855
G01 X8.5000 Y79.5697
G01 X8.4791 Y79.5589
G01 X8.4408 Y79.5360
G01 X8.4275 Y79.5276
G01 X8.4147 Y79.5186
G01 X8.3851 Y79.4967
G01 X8.3668 Y79.4820
G01 X8.3336 Y79.4521
G01 X8.3223 Y79.4412
G01 X3.4273 Y74.5461
G01 X3.3972 Y74.5131
G01 X3.3870 Y74.5012
G01 X3.3773 Y74.4889
G01 X3.3554 Y74.4593
G01 X3.3463 Y74.4464
G01 X3.3380 Y74.4332
G01 X3.3190 Y74.4016
G01 X3.3113 Y74.3880
G01 X3.3043 Y74.3740
G01 X3.2885 Y74.3407
G01 X3.2822 Y74.3264
G01 X3.2765 Y74.3117
G01 X3.2616 Y74.2696
G01 X3.2550 Y74.2471
G01 X3.2442 Y74.2037
G01 X3.2412 Y74.1883
G01 X3.2345 Y74.1442
G01 X3.2319 Y74.1208
G01 X3.2297 Y74.0762
G01 X3.2293 Y74.0605
G01 X3.2293 Y8.9095
G01 X3.2297 Y8.8938
G00 Z2.0000
G00 X3.4261 Y8.9035
G01 F50.00
G01 Z-0.1300
G01 F80.00
G01 X3.4283 Y8.8607
G01 X3.4355 Y8.8123
G01 X3.4474 Y8.7649
G01 X3.4638 Y8.7189
G01 X3.4847 Y8.6747
G01 X3.5099 Y8.6328
G01 X3.5390 Y8.5935
G01 X3.5697 Y8.5595
G01 X7.7628 Y4.3663
G01 X7.7990 Y4.3335
G01 X7.8383 Y4.3044
G01 X7.8802 Y4.2792
G01 X7.9244 Y4.2583
G01 X7.9704 Y4.2419
G01 X8.0178 Y4.2300
G01 X8.0666 Y4.2228
G01 X8.1150 Y4.2204
G01 X49.9615 Y4.2204
G01 X50.0103 Y4.2228
G01 X50.0587 Y4.2300
G01 X50.1003 Y4.2403
G01 X50.1118 Y4.2438
G01 X50.1465 Y4.2562
G01 X50.1576 Y4.2608
G01 X50.1963 Y4.2792
G01 X50.2382 Y4.3044
G01 X50.2775 Y4.3335
G01 X50.3115 Y4.3642
G01 X54.4955 Y8.5481
G01 X55.6500 Y8.5481
G01 X55.6941 Y8.4251
G01 X55.7622 Y8.2811
G01 X55.8441 Y8.1445
G01 X55.9353 Y8.0213
G01 X55.9429 Y8.0120
G01 X56.0418 Y7.9030
G01 X56.0503 Y7.8944
G01 X56.1639 Y7.7916
G01 X56.2919 Y7.6967
G01 X56.4285 Y7.6149
G01 X56.5669 Y7.5492
G01 X56.5781 Y7.5446
G01 X56.7167 Y7.4950
G01 X56.7282 Y7.4915
G01 X56.8766 Y7.4545
G01 X57.0344 Y7.4311
G01 X57.1935 Y7.4233
G01 X57.3496 Y7.4308
G01 X57.3586 Y7.4318
G01 X57.5101 Y7.4544
G01 X57.6588 Y7.4915
G01 X57.6703 Y7.4950
G01 X57.8089 Y7.5446
G01 X57.8201 Y7.5492
G01 X57.9585 Y7.6149
G01 X58.0951 Y7.6968
G01 X58.2231 Y7.7916
G01 X58.3411 Y7.8986
G01 X58.4480 Y8.0166
G01 X58.5429 Y8.1446
G01 X58.6248 Y8.2811
G01 X58.6904 Y8.4196
G01 X58.6950 Y8.4307
G01 X58.7446 Y8.5693
G01 X58.7481 Y8.5809
G01 X58.7852 Y8.7295
G01 X58.8078 Y8.8811
G01 X58.8088 Y8.8901
G01 X58.8163 Y9.0401
G01 X58.8163 Y9.0522
G01 X58.8086 Y9.2052
G01 X58.7862 Y9.3568
G01 X58.7839 Y9.3686
G01 X58.7465 Y9.5173
G01 X58.6950 Y9.6616
G01 X58.6904 Y9.6727
G01 X58.6248 Y9.8112
G01 X58.5461 Y9.9427
G01 X58.5394 Y9.9527
G01 X58.4480 Y10.0757
G01 X58.3452 Y10.1893
G01 X58.3367 Y10.1979
G01 X58.2231 Y10.3007
G01 X58.1001 Y10.3921
G01 X58.0900 Y10.3988
G01 X57.9585 Y10.4774
G01 X57.8201 Y10.5431
G01 X57.8089 Y10.5477
G01 X57.6646 Y10.5992
G01 X57.5160 Y10.6365
G01 X57.5048 Y10.6388
G01 X57.3526 Y10.6612
G01 X57.1935 Y10.6691
G01 X57.0404 Y10.6617
G01 X57.0284 Y10.6605
G01 X56.8769 Y10.6379
G01 X56.7282 Y10.6008
G01 X56.7167 Y10.5973
G01 X56.5724 Y10.5455
G01 X56.4285 Y10.4774
G01 X56.2919 Y10.3955
G01 X56.1639 Y10.3007
G01 X56.0503 Y10.1979
G01 X56.0418 Y10.1893
G01 X55.9390 Y10.0757
G01 X55.8476 Y9.9527
G01 X55.8409 Y9.9427
G01 X55.7652 Y9.8164
G01 X55.7595 Y9.8058
G01 X55.6941 Y9.6672
G01 X55.6500 Y9.5442
G01 X54.2892 Y9.5442
G01 X54.2433 Y9.5421
G01 X54.2343 Y9.5411
G01 X54.1979 Y9.5357
G01 X54.1861 Y9.5333
G01 X54.1446 Y9.5228
G01 X54.0985 Y9.5063
G01 X54.0597 Y9.4881
G01 X54.0491 Y9.4825
G01 X54.0124 Y9.4603
G01 X53.9755 Y9.4331
G01 X53.9686 Y9.4272
G01 X53.9369 Y9.3984
G01 X49.7552 Y5.2166
G01 X8.3213 Y5.2166
G01 X4.4221 Y9.1158
G01 X4.4221 Y30.1225
G01 X6.0294 Y28.5152
G01 X6.0294 Y28.3006
G01 X5.8745 Y28.3005
G01 X5.8409 Y28.2988
G01 X5.8077 Y28.2939
G01 X5.7989 Y28.2921
G01 X5.7693 Y28.2845
G01 X5.7348 Y28.2722
G01 X5.7017 Y28.2565
G01 X5.6729 Y28.2394
G01 X5.6654 Y28.2342
G01 X5.6409 Y28.2159
G01 X5.6138 Y28.1913
G01 X5.5892 Y28.1642
G01 X5.5709 Y28.1398
G01 X5.5642 Y28.1297
G01 X5.5472 Y28.1008
G01 X5.5342 Y28.0731
G01 X5.5308 Y28.0647
G01 X5.5207 Y28.0359
G01 X5.5131 Y28.0063
G01 X5.5112 Y27.9974
G01 X5.5071 Y27.9702
G01 X5.5060 Y27.9582
G01 X5.5046 Y27.9277
G01 X5.5046 Y27.2746
G01 X5.5064 Y27.2411
G01 X5.5107 Y27.2108
G01 X5.5124 Y27.2020
G01 X5.5198 Y27.1723
G01 X5.5308 Y27.1406
G01 X5.5354 Y27.1294
G01 X5.5486 Y27.1019
G01 X5.5674 Y27.0705
G01 X5.5855 Y27.0458
G01 X5.5932 Y27.0365
G01 X5.6138 Y27.0140
G01 X5.6364 Y26.9933
G01 X5.6457 Y26.9857
G01 X5.6703 Y26.9676
G01 X5.6965 Y26.9518
G01 X5.7071 Y26.9461
G01 X5.7348 Y26.9331
G01 X5.7635 Y26.9227
G01 X5.7751 Y26.9192
G01 X5.8077 Y26.9114
G01 X5.8414 Y26.9065
G01 X5.8775 Y26.9048
G01 X7.1775 Y26.9048
G01 X7.2080 Y26.9061
G01 X7.2170 Y26.9069
G01 X7.2473 Y26.9114
G01 X7.2561 Y26.9132
G01 X7.2857 Y26.9208
G01 X7.3146 Y26.9310
G01 X7.3257 Y26.9356
G01 X7.3533 Y26.9488
G01 X7.3847 Y26.9676
G01 X7.4093 Y26.9857
G01 X7.4186 Y26.9933
G01 X7.4412 Y27.0140
G01 X7.4618 Y27.0365
G01 X7.4695 Y27.0458
G01 X7.4876 Y27.0705
G01 X7.5034 Y27.0966
G01 X7.5078 Y27.1046
G01 X10.9751 Y27.1046
G01 X11.0037 Y27.0239
G01 X11.0083 Y27.0128
G01 X11.0446 Y26.9364
G01 X11.0911 Y26.8588
G01 X11.1414 Y26.7908
G01 X11.1490 Y26.7815
G01 X11.2059 Y26.7189
G01 X11.2685 Y26.6620
G01 X11.2778 Y26.6544
G01 X11.3458 Y26.6041
G01 X11.4182 Y26.5605
G01 X11.4288 Y26.5549
G01 X11.5053 Y26.5189
G01 X11.5849 Y26.4902
G01 X11.5964 Y26.4867
G01 X11.6726 Y26.4677
G01 X11.6814 Y26.4658
G01 X11.7680 Y26.4530
G01 X11.8585 Y26.4486
G01 X14.6585 Y26.4486
G01 X14.7429 Y26.4526
G01 X14.7549 Y26.4538
G01 X14.8385 Y26.4663
G01 X14.9206 Y26.4867
G01 X14.9321 Y26.4902
G01 X15.0117 Y26.5189
G01 X15.0936 Y26.5576
G01 X15.1661 Y26.6009
G01 X15.1762 Y26.6076
G01 X15.2440 Y26.6581
G01 X15.3067 Y26.7148
G01 X15.3152 Y26.7233
G01 X15.3719 Y26.7860
G01 X15.4242 Y26.8563
G01 X15.4348 Y26.8734
G01 X21.7366 Y26.8734
G01 X21.7400 Y26.8620
G01 X21.7517 Y26.8305
G01 X21.7661 Y26.8002
G01 X21.7817 Y26.7739
G01 X21.7884 Y26.7639
G01 X21.8067 Y26.7394
G01 X21.8272 Y26.7167
G01 X21.8357 Y26.7082
G01 X21.8584 Y26.6877
G01 X21.8829 Y26.6694
G01 X21.8929 Y26.6627
G01 X21.9192 Y26.6471
G01 X21.9523 Y26.6315
G01 X21.9810 Y26.6210
G01 X21.9926 Y26.6175
G01 X22.0252 Y26.6097
G01 X22.0585 Y26.6049
G01 X22.0950 Y26.6031
G01 X23.3450 Y26.6031
G01 X23.3815 Y26.6049
G01 X23.4177 Y26.6103
G01 X23.4532 Y26.6192
G01 X23.4877 Y26.6315
G01 X23.5208 Y26.6471
G01 X23.5522 Y26.6659
G01 X23.5816 Y26.6877
G01 X23.6043 Y26.7082
G01 X23.6108 Y26.7145
G01 X23.6313 Y26.7371
G01 X23.6516 Y26.7639
G01 X23.6567 Y26.7714
G01 X23.6709 Y26.7950
G01 X23.6766 Y26.8056
G01 X23.6895 Y26.8333
G01 X23.7018 Y26.8678
G01 X23.7107 Y26.9033
G01 X23.7154 Y26.9335
G01 X23.7164 Y26.9425
G01 X23.7179 Y26.9760
G01 X23.7179 Y27.9010
G01 X23.7165 Y27.9315
G01 X23.7154 Y27.9435
G01 X23.7107 Y27.9737
G01 X23.7035 Y28.0034
G01 X23.7009 Y28.0121
G01 X23.6917 Y28.0381
G01 X23.6871 Y28.0492
G01 X23.6739 Y28.0768
G01 X23.6551 Y28.1082
G01 X23.6333 Y28.1376
G01 X23.6128 Y28.1603
G01 X23.6043 Y28.1688
G01 X23.5816 Y28.1893
G01 X23.5522 Y28.2111
G01 X23.5260 Y28.2269
G01 X23.5154 Y28.2326
G01 X23.4876 Y28.2456
G01 X23.4532 Y28.2578
G01 X23.4236 Y28.2654
G01 X23.4118 Y28.2678
G01 X23.3785 Y28.2724
G01 X23.3450 Y28.2739
G01 X22.0950 Y28.2739
G01 X22.0585 Y28.2721
G01 X22.0282 Y28.2678
G01 X22.0164 Y28.2654
G01 X21.9868 Y28.2578
G01 X21.9523 Y28.2455
G01 X21.9192 Y28.2299
G01 X21.8904 Y28.2127
G01 X21.8829 Y28.2076
G01 X21.8584 Y28.1893
G01 X21.8357 Y28.1688
G01 X21.8272 Y28.1603
G01 X21.8087 Y28.1399
G01 X21.8030 Y28.1328
G01 X21.7849 Y28.1082
G01 X21.7661 Y28.0768
G01 X21.7504 Y28.0436
G01 X21.7382 Y28.0092
G01 X21.7293 Y27.9737
G01 X21.7242 Y27.9405
G01 X21.7235 Y27.9315
G01 X21.7221 Y27.9040
G01 X21.7221 Y27.8696
G01 X15.4348 Y27.8696
G01 X15.4242 Y27.8867
G01 X15.3719 Y27.9570
G01 X15.3152 Y28.0197
G01 X15.3067 Y28.0282
G01 X15.2440 Y28.0849
G01 X15.1762 Y28.1354
G01 X15.1661 Y28.1421
G01 X15.0936 Y28.1854
G01 X15.0117 Y28.2241
G01 X14.9321 Y28.2528
G01 X14.9206 Y28.2563
G01 X14.8385 Y28.2767
G01 X14.7549 Y28.2892
G01 X14.7429 Y28.2904
G01 X14.6615 Y28.2944
G01 X11.8585 Y28.2944
G01 X11.7741 Y28.2904
G01 X11.7621 Y28.2892
G01 X11.6844 Y28.2777
G01 X11.6726 Y28.2753
G01 X11.5906 Y28.2547
G01 X11.5081 Y28.2253
G01 X11.4998 Y28.2217
G01 X11.4288 Y28.1881
G01 X11.4208 Y28.1840
G01 X11.3458 Y28.1389
G01 X11.2941 Y28.1007
G01 X7.5078 Y28.1007
G01 X7.5034 Y28.1087
G01 X7.4876 Y28.1348
G01 X7.4695 Y28.1595
G01 X7.4618 Y28.1688
G01 X7.4433 Y28.1892
G01 X7.4368 Y28.1955
G01 X7.4141 Y28.2159
G01 X7.3847 Y28.2377
G01 X7.3533 Y28.2565
G01 X7.3202 Y28.2722
G01 X7.2857 Y28.2845
G01 X7.2561 Y28.2921
G01 X7.2443 Y28.2944
G01 X7.2141 Y28.2988
G01 X7.1775 Y28.3006
G01 X7.0256 Y28.3006
G01 X7.0256 Y28.7245
G01 X7.0232 Y28.7703
G01 X7.0170 Y28.8127
G01 X7.0147 Y28.8246
G01 X7.0041 Y28.8661
G01 X6.9898 Y28.9065
G01 X6.9852 Y28.9176
G01 X6.9668 Y28.9563
G01 X6.9449 Y28.9931
G01 X6.9382 Y29.0032
G01 X6.9125 Y29.0375
G01 X6.8797 Y29.0737
G01 X4.4221 Y31.5313
G01 X4.4221 Y73.8542
G01 X9.0198 Y78.4519
G01 X37.7735 Y78.4519
G01 X33.6343 Y74.3127
G01 X33.6054 Y74.2811
G01 X33.5978 Y74.2717
G01 X33.5723 Y74.2372
G01 X33.5487 Y74.1979
G01 X33.5445 Y74.1899
G01 X33.5263 Y74.1511
G01 X33.5118 Y74.1108
G01 X33.5083 Y74.0993
G01 X33.4993 Y74.0636
G01 X33.4970 Y74.0517
G01 X33.4908 Y74.0093
G01 X33.4886 Y73.9665
G01 X33.4884 Y72.8438
G01 X33.4513 Y72.8384
G01 X33.4158 Y72.8295
G01 X33.3813 Y72.8172
G01 X33.3536 Y72.8042
G01 X33.3430 Y72.7985
G01 X33.3194 Y72.7844
G01 X33.3119 Y72.7792
G01 X33.2851 Y72.7590
G01 X33.2625 Y72.7384
G01 X33.2562 Y72.7320
G01 X33.2357 Y72.7092
G01 X33.2139 Y72.6798
G01 X33.1951 Y72.6484
G01 X33.1794 Y72.6152
G01 X33.1672 Y72.5809
G01 X33.1583 Y72.5454
G01 X33.1529 Y72.5092
G01 X33.1511 Y72.4726
G01 X33.1511 Y71.2227
G01 X33.1529 Y71.1861
G01 X33.1572 Y71.1558
G01 X33.1589 Y71.1470
G01 X33.1672 Y71.1144
G01 X33.1795 Y71.0799
G01 X33.1951 Y71.0469
G01 X33.2107 Y71.0206
G01 X33.2157 Y71.0130
G01 X33.2320 Y70.9908
G01 X33.2397 Y70.9815
G01 X33.2603 Y70.9590
G01 X33.2874 Y70.9344
G01 X33.3168 Y70.9126
G01 X33.3430 Y70.8968
G01 X33.3536 Y70.8911
G01 X33.3785 Y70.8793
G01 X33.3869 Y70.8760
G01 X33.4158 Y70.8658
G01 X33.4513 Y70.8569
G01 X33.4875 Y70.8515
G01 X33.5210 Y70.8498
G01 X34.4490 Y70.8498
G01 X34.4855 Y70.8515
G01 X34.5217 Y70.8569
G01 X34.5514 Y70.8642
G01 X34.5630 Y70.8677
G01 X34.5917 Y70.8781
G01 X34.6194 Y70.8911
G01 X34.6300 Y70.8968
G01 X34.6562 Y70.9126
G01 X34.6808 Y70.9307
G01 X34.6901 Y70.9383
G01 X34.7127 Y70.9590
G01 X34.7333 Y70.9815
G01 X34.7410 Y70.9908
G01 X34.7591 Y71.0155
G01 X34.7749 Y71.0416
G01 X34.7806 Y71.0523
G01 X34.7935 Y71.0799
G01 X34.8049 Y71.1115
G01 X34.8134 Y71.1440
G01 X34.8158 Y71.1558
G01 X34.8201 Y71.1861
G01 X34.8219 Y71.2227
G01 X34.8219 Y72.4726
G01 X34.8205 Y72.5032
G01 X34.8198 Y72.5122
G01 X34.8147 Y72.5454
G01 X34.8058 Y72.5809
G01 X34.7935 Y72.6154
G01 X34.7806 Y72.6430
G01 X34.7749 Y72.6537
G01 X34.7607 Y72.6773
G01 X34.7556 Y72.6848
G01 X34.7373 Y72.7092
G01 X34.7127 Y72.7363
G01 X34.6856 Y72.7609
G01 X34.6562 Y72.7827
G01 X34.6248 Y72.8015
G01 X34.5972 Y72.8147
G01 X34.5861 Y72.8193
G01 X34.5601 Y72.8286
G01 X34.5514 Y72.8311
G01 X34.5217 Y72.8384
G01 X34.4846 Y72.8438
G01 X34.4846 Y73.7542
G01 X39.1823 Y78.4519
G01 X68.0067 Y78.4519
G01 X68.3976 Y78.0610
G01 X67.4905 Y77.1539
G01 X66.7345 Y77.1539
G01 X66.6980 Y77.1521
G01 X66.6618 Y77.1467
G01 X66.6321 Y77.1395
G01 X66.6205 Y77.1360
G01 X66.5918 Y77.1255
G01 X66.5641 Y77.1126
G01 X66.5535 Y77.1069
G01 X66.5273 Y77.0911
G01 X66.4979 Y77.0693
G01 X66.4752 Y77.0488
G01 X66.4667 Y77.0403
G01 X66.4462 Y77.0176
G01 X66.4279 Y76.9931
G01 X66.4212 Y76.9831
G01 X66.4056 Y76.9568
G01 X66.3924 Y76.9292
G01 X66.3888 Y76.9207
G01 X66.3777 Y76.8892
G01 X66.3688 Y76.8537
G01 X66.3634 Y76.8175
G01 X66.3616 Y76.7840
G01 X66.3616 Y75.5310
G01 X66.3634 Y75.4945
G01 X66.3688 Y75.4583
G01 X66.3777 Y75.4228
G01 X66.3878 Y75.3939
G01 X66.3912 Y75.3855
G01 X66.4029 Y75.3606
G01 X66.4086 Y75.3500
G01 X66.4244 Y75.3238
G01 X66.4462 Y75.2944
G01 X66.4708 Y75.2673
G01 X66.4979 Y75.2427
G01 X66.5273 Y75.2209
G01 X66.5535 Y75.2051
G01 X66.5641 Y75.1994
G01 X66.5890 Y75.1877
G01 X66.5974 Y75.1843
G01 X66.6263 Y75.1742
G01 X66.6618 Y75.1653
G01 X66.6980 Y75.1599
G01 X66.7315 Y75.1581
G01 X67.6595 Y75.1581
G01 X67.6960 Y75.1599
G01 X67.7322 Y75.1653
G01 X67.7619 Y75.1725
G01 X67.7706 Y75.1751
G01 X67.7966 Y75.1843
G01 X67.8077 Y75.1889
G01 X67.8353 Y75.2021
G01 X67.8667 Y75.2209
G01 X67.8961 Y75.2427
G01 X67.9210 Y75.2652
G01 X67.9273 Y75.2717
G01 X67.9478 Y75.2944
G01 X67.9661 Y75.3189
G01 X67.9712 Y75.3264
G01 X67.9854 Y75.3500
G01 X67.9911 Y75.3606
G01 X68.0040 Y75.3883
G01 X68.0163 Y75.4228
G01 X68.0252 Y75.4583
G01 X68.0306 Y75.4945
G01 X68.0324 Y75.5310
G01 X68.0324 Y76.2870
G01 X69.3083 Y77.5629
G01 X79.9009 Y77.5629
G01 X71.6825 Y69.3446
G01 X70.9265 Y69.3446
G01 X70.8960 Y69.3432
G01 X70.8870 Y69.3424
G01 X70.8538 Y69.3374
G01 X70.8183 Y69.3285
G01 X70.7838 Y69.3162
G01 X70.7534 Y69.3019
G01 X70.7455 Y69.2975
G01 X70.7193 Y69.2817
G01 X70.6947 Y69.2636
G01 X70.6876 Y69.2580
G01 X70.6672 Y69.2395
G01 X70.6587 Y69.2310
G01 X70.6382 Y69.2082
G01 X70.6164 Y69.1788
G01 X70.5976 Y69.1474
G01 X70.5844 Y69.1199
G01 X70.5798 Y69.1087
G01 X70.5706 Y69.0828
G01 X70.5680 Y69.0741
G01 X70.5608 Y69.0444
G01 X70.5561 Y69.0142
G01 X70.5551 Y69.0052
G01 X70.5536 Y68.9716
G01 X70.5536 Y68.0467
G01 X70.5554 Y68.0101
G01 X70.5602 Y67.9769
G01 X70.5621 Y67.9680
G01 X70.5697 Y67.9384
G01 X70.5798 Y67.9096
G01 X70.5832 Y67.9012
G01 X70.5949 Y67.8763
G01 X70.6006 Y67.8656
G01 X70.6164 Y67.8395
G01 X70.6382 Y67.8101
G01 X70.6628 Y67.7830
G01 X70.6899 Y67.7584
G01 X70.7193 Y67.7366
G01 X70.7455 Y67.7208
G01 X70.7561 Y67.7151
G01 X70.7810 Y67.7033
G01 X70.7894 Y67.7000
G01 X70.8183 Y67.6898
G01 X70.8538 Y67.6809
G01 X70.8900 Y67.6755
G01 X70.9235 Y67.6738
G01 X72.1765 Y67.6738
G01 X72.2100 Y67.6753
G01 X72.2190 Y67.6763
G01 X72.2492 Y67.6809
G01 X72.2789 Y67.6882
G01 X72.2876 Y67.6907
G01 X72.3136 Y67.7000
G01 X72.3247 Y67.7046
G01 X72.3523 Y67.7178
G01 X72.3837 Y67.7366
G01 X72.4131 Y67.7584
G01 X72.4380 Y67.7809
G01 X72.4443 Y67.7873
G01 X72.4648 Y67.8101
G01 X72.4831 Y67.8345
G01 X72.4882 Y67.8420
G01 X72.5024 Y67.8656
G01 X72.5081 Y67.8763
G01 X72.5210 Y67.9039
G01 X72.5333 Y67.9384
G01 X72.5422 Y67.9739
G01 X72.5476 Y68.0101
G01 X72.5494 Y68.0467
G01 X72.5494 Y68.8026
G01 X81.2462 Y77.4994
G01 X88.9545 Y77.4994
G01 X86.2467 Y74.7915
G01 X86.2160 Y74.7575
G01 X86.1868 Y74.7182
G01 X86.1617 Y74.6763
G01 X86.1433 Y74.6376
G01 X86.1387 Y74.6265
G01 X86.1263 Y74.5918
G01 X86.1228 Y74.5803
G01 X86.1125 Y74.5387
G01 X86.1060 Y74.4963
G01 X86.1051 Y74.4873
G01 X86.1029 Y74.4415
G01 X86.1029 Y69.2980
G01 X86.1053 Y69.2492
G01 X86.1115 Y69.2068
G01 X86.1138 Y69.1949
G01 X86.1244 Y69.1534
G01 X86.1408 Y69.1074
G01 X86.1617 Y69.0632
G01 X86.1869 Y69.0213
G01 X86.2141 Y68.9844
G01 X86.2199 Y68.9774
G01 X86.2488 Y68.9458
G01 X86.3591 Y68.8354
G01 X86.3931 Y68.8046
G01 X86.4001 Y68.7989
G01 X86.4297 Y68.7770
G01 X86.4397 Y68.7703
G01 X86.4766 Y68.7484
G01 X86.5180 Y68.7287
G01 X86.5264 Y68.7253
G01 X86.5610 Y68.7129
G01 X86.5697 Y68.7102
G01 X86.6142 Y68.6991
G01 X86.6431 Y68.6947
G01 X86.6891 Y68.5666
G01 X86.7545 Y68.4280
G01 X86.7602 Y68.4174
G01 X86.8391 Y68.2860
G01 X86.9340 Y68.1581
G01 X87.0368 Y68.0445
G01 X87.0453 Y68.0359
G01 X87.1544 Y67.9371
G01 X87.1613 Y67.9312
G01 X87.2869 Y67.8382
G01 X87.4182 Y67.7594
G01 X87.4289 Y67.7537
G01 X87.5619 Y67.6907
G01 X87.5731 Y67.6861
G01 X87.7174 Y67.6346
G01 X87.8719 Y67.5959
G01 X88.0294 Y67.5726
G01 X88.1825 Y67.5649
G01 X88.1945 Y67.5649
G01 X88.3476 Y67.5726
G01 X88.5051 Y67.5959
G01 X88.6596 Y67.6346
G01 X88.8039 Y67.6861
G01 X88.8151 Y67.6907
G01 X88.9481 Y67.7537
G01 X88.9588 Y67.7594
G01 X89.0901 Y67.8383
G01 X89.2133 Y67.9294
G01 X89.2226 Y67.9371
G01 X89.3361 Y68.0401
G01 X89.4430 Y68.1581
G01 X89.5379 Y68.2861
G01 X89.6198 Y68.4226
G01 X89.6879 Y68.5666
G01 X89.7396 Y68.7108
G01 X89.7431 Y68.7224
G01 X89.7789 Y68.8652
G01 X89.7812 Y68.8770
G01 X89.8036 Y69.0286
G01 X89.8113 Y69.1816
G01 X89.8113 Y69.1937
G01 X89.8036 Y69.3467
G01 X89.7808 Y69.5013
G01 X89.7789 Y69.5101
G01 X89.7431 Y69.6529
G01 X89.7396 Y69.6645
G01 X89.6879 Y69.8087
G01 X89.6225 Y69.9473
G01 X89.6168 Y69.9579
G01 X89.5379 Y70.0893
G01 X89.4467 Y70.2125
G01 X89.4391 Y70.2218
G01 X89.3361 Y70.3352
G01 X89.2226 Y70.4382
G01 X89.2133 Y70.4459
G01 X89.0901 Y70.5370
G01 X88.9588 Y70.6159
G01 X88.9481 Y70.6216
G01 X88.8096 Y70.6870
G01 X88.6625 Y70.7398
G01 X88.6538 Y70.7423
G01 X88.5054 Y70.7793
G01 X88.3536 Y70.8020
G01 X88.3416 Y70.8032
G01 X88.1885 Y70.8106
G01 X88.0354 Y70.8032
G01 X88.0234 Y70.8020
G01 X87.8778 Y70.7804
G01 X87.8689 Y70.7787
G01 X87.7174 Y70.7407
G01 X87.5731 Y70.6892
G01 X87.5619 Y70.6846
G01 X87.4261 Y70.6203
G01 X87.4182 Y70.6159
G01 X87.2920 Y70.5403
G01 X87.2844 Y70.5353
G01 X87.1613 Y70.4441
G01 X87.1544 Y70.4382
G01 X87.0991 Y70.3881
G01 X87.0991 Y74.2352
G01 X90.3633 Y77.4994
G01 X120.3672 Y77.4994
G01 X121.7964 Y76.0701
G01 X121.7725 Y76.0558
G01 X121.7649 Y76.0508
G01 X121.6442 Y75.9614
G01 X121.6349 Y75.9537
G01 X121.5214 Y75.8507
G01 X121.4184 Y75.7373
G01 X121.4126 Y75.7304
G01 X121.3196 Y75.6048
G01 X121.2377 Y75.4682
G01 X121.1696 Y75.3242
G01 X121.1255 Y75.2012
G01 X118.3161 Y75.2012
G01 X118.2927 Y75.2182
G01 X118.2228 Y75.2601
G01 X118.2149 Y75.2645
G01 X118.1357 Y75.3018
G01 X118.0533 Y75.3314
G01 X118.0446 Y75.3339
G01 X117.9684 Y75.3530
G01 X117.9566 Y75.3553
G01 X117.8730 Y75.3676
G01 X117.7855 Y75.3720
G01 X114.9795 Y75.3720
G01 X114.8920 Y75.3676
G01 X114.8025 Y75.3543
G01 X114.7146 Y75.3323
G01 X114.6349 Y75.3040
G01 X114.6238 Y75.2994
G01 X114.5474 Y75.2631
G01 X114.4749 Y75.2197
G01 X114.4648 Y75.2130
G01 X114.4018 Y75.1663
G01 X114.3925 Y75.1586
G01 X114.3299 Y75.1017
G01 X114.2691 Y75.0346
G01 X114.2151 Y74.9619
G01 X114.1715 Y74.8895
G01 X114.1659 Y74.8788
G01 X114.1323 Y74.8078
G01 X114.1277 Y74.7967
G01 X114.0994 Y74.7174
G01 X114.0773 Y74.6292
G01 X114.0640 Y74.5396
G01 X114.0597 Y74.4552
G01 X114.0597 Y74.4431
G01 X114.0636 Y74.3647
G01 X114.0648 Y74.3527
G01 X114.0773 Y74.2691
G01 X114.0993 Y74.1812
G01 X114.1299 Y74.0960
G01 X114.1659 Y74.0195
G01 X114.1715 Y74.0089
G01 X114.2119 Y73.9415
G01 X114.2186 Y73.9315
G01 X114.2691 Y73.8637
G01 X114.3299 Y73.7966
G01 X114.3970 Y73.7357
G01 X114.4698 Y73.6818
G01 X114.5474 Y73.6352
G01 X114.6238 Y73.5989
G01 X114.6349 Y73.5943
G01 X114.7089 Y73.5679
G01 X114.7204 Y73.5644
G01 X114.8025 Y73.5440
G01 X114.8861 Y73.5314
G01 X114.8981 Y73.5303
G01 X114.9825 Y73.5263
G01 X117.7825 Y73.5263
G01 X117.8730 Y73.5307
G01 X117.9625 Y73.5440
G01 X118.0446 Y73.5644
G01 X118.0561 Y73.5679
G01 X118.1357 Y73.5965
G01 X118.2176 Y73.6352
G01 X118.2901 Y73.6786
G01 X118.3002 Y73.6853
G01 X118.3632 Y73.7320
G01 X118.3703 Y73.7377
G01 X118.4351 Y73.7966
G01 X118.4920 Y73.8591
G01 X118.4996 Y73.8684
G01 X118.5464 Y73.9315
G01 X118.5515 Y73.9389
G01 X118.5964 Y74.0141
G01 X118.6340 Y74.0932
G01 X118.6373 Y74.1016
G01 X118.6647 Y74.1784
G01 X118.6718 Y74.2051
G01 X121.1255 Y74.2051
G01 X121.1696 Y74.0821
G01 X121.2377 Y73.9381
G01 X121.3196 Y73.8015
G01 X121.4145 Y73.6736
G01 X121.5214 Y73.5556
G01 X121.6394 Y73.4486
G01 X121.7674 Y73.3537
G01 X121.8987 Y73.2749
G01 X121.9094 Y73.2692
G01 X122.0424 Y73.2062
G01 X122.0536 Y73.2016
G01 X122.1979 Y73.1501
G01 X122.3465 Y73.1128
G01 X122.3583 Y73.1104
G01 X122.5099 Y73.0881
G01 X122.6690 Y73.0803
G01 X122.8281 Y73.0881
G01 X122.9856 Y73.1114
G01 X123.1343 Y73.1485
G01 X123.1458 Y73.1520
G01 X123.2901 Y73.2038
G01 X123.4286 Y73.2692
G01 X123.4393 Y73.2749
G01 X123.5706 Y73.3538
G01 X123.6986 Y73.4486
G01 X123.8166 Y73.5556
G01 X123.9196 Y73.6690
G01 X123.9272 Y73.6783
G01 X124.0184 Y73.8016
G01 X124.0973 Y73.9329
G01 X124.1030 Y73.9435
G01 X124.1659 Y74.0766
G01 X124.1705 Y74.0877
G01 X124.2220 Y74.2320
G01 X124.2607 Y74.3865
G01 X124.2841 Y74.5441
G01 X124.2918 Y74.6971
G01 X124.2918 Y74.7092
G01 X124.2841 Y74.8622
G01 X124.2617 Y75.0138
G01 X124.2594 Y75.0256
G01 X124.2236 Y75.1684
G01 X124.2201 Y75.1800
G01 X124.1684 Y75.3242
G01 X124.1030 Y75.4628
G01 X124.0988 Y75.4708
G01 X124.0184 Y75.6048
G01 X123.9272 Y75.7280
G01 X123.9196 Y75.7373
G01 X123.8207 Y75.8463
G01 X123.8122 Y75.8549
G01 X123.6986 Y75.9577
G01 X123.5756 Y76.0491
G01 X123.5655 Y76.0558
G01 X123.4340 Y76.1344
G01 X123.2901 Y76.2025
G01 X123.1401 Y76.2562
G01 X122.9915 Y76.2935
G01 X122.9795 Y76.2959
G01 X120.9257 Y78.3497
G01 X120.8918 Y78.3806
G01 X120.8847 Y78.3862
G01 X120.8502 Y78.4117
G01 X120.8135 Y78.4338
G01 X120.8029 Y78.4395
G01 X120.7696 Y78.4552
G01 X120.7585 Y78.4598
G01 X120.7181 Y78.4741
G01 X120.6707 Y78.4860
G01 X120.6223 Y78.4932
G01 X120.5765 Y78.4956
G01 X81.8905 Y78.4959
G01 X81.8801 Y78.5017
G01 X81.8386 Y78.5212
G01 X81.7983 Y78.5357
G01 X81.7868 Y78.5392
G01 X81.7452 Y78.5495
G01 X81.7028 Y78.5560
G01 X81.6908 Y78.5571
G01 X81.6480 Y78.5591
G01 X69.3083 Y78.5591
G01 X68.5652 Y79.3022
G01 X68.5290 Y79.3350
G01 X68.4897 Y79.3642
G01 X68.4530 Y79.3863
G01 X68.4424 Y79.3920
G01 X68.4091 Y79.4077
G01 X68.3980 Y79.4123
G01 X68.3576 Y79.4266
G01 X68.3102 Y79.4385
G01 X68.2618 Y79.4457
G01 X68.2130 Y79.4481
G01 X8.8135 Y79.4481
G01 X8.7707 Y79.4461
G01 X8.7587 Y79.4450
G01 X8.7163 Y79.4385
G01 X8.6747 Y79.4282
G01 X8.6632 Y79.4247
G01 X8.6229 Y79.4102
G01 X8.5841 Y79.3920
G01 X8.5761 Y79.3878
G01 X8.5368 Y79.3641
G01 X8.5023 Y79.3387
G01 X8.4929 Y79.3311
G01 X8.4613 Y79.3022
G01 X3.5697 Y74.4105
G01 X3.5390 Y74.3765
G01 X3.5098 Y74.3372
G01 X3.4847 Y74.2953
G01 X3.4663 Y74.2566
G01 X3.4617 Y74.2455
G01 X3.4493 Y74.2108
G01 X3.4458 Y74.1993
G01 X3.4355 Y74.1577
G01 X3.4290 Y74.1153
G01 X3.4281 Y74.1063
G01 X3.4259 Y74.0605
G01 X3.4261 Y8.9035
G00 Z2.0000
G00 X11.1771 Y14.1938
G01 F50.00
G01 Z-0.1300
G01 F80.00
G01 X11.1852 Y14.1637
G01 X11.2727 Y13.9759
G01 X11.3918 Y13.8059
G01 X11.5384 Y13.6593
G01 X11.7081 Y13.5405
G01 X11.8960 Y13.4528
G01 X12.0963 Y13.3991
G01 X12.2512 Y13.3856
G01 X13.3261 Y13.3856
G01 X13.3261 Y13.6478
G01 X12.3000 Y13.6478
G01 X12.2186 Y13.6518
G01 X12.2066 Y13.6529
G01 X12.1230 Y13.6655
G01 X12.0409 Y13.6859
G01 X12.0294 Y13.6894
G01 X11.9498 Y13.7180
G01 X11.8679 Y13.7567
G01 X11.7903 Y13.8033
G01 X11.7223 Y13.8535
G01 X11.7152 Y13.8592
G01 X11.6504 Y13.9181
G01 X11.5935 Y13.9806
G01 X11.5859 Y13.9899
G01 X11.5391 Y14.0530
G01 X11.5324 Y14.0630
G01 X11.4891 Y14.1356
G01 X11.4614 Y14.1938
G01 X11.1771 Y14.1938
G00 Z2.0000
G00 X11.2275 Y16.7608
G01 F50.00
G01 Z-0.1300
G01 F80.00
G01 X11.2317 Y16.7457
G01 X11.2366 Y16.7308
G01 X11.2658 Y16.6495
G01 X11.2750 Y16.6279
G01 X11.3086 Y16.5569
G01 X11.3157 Y16.5429
G01 X11.3234 Y16.5293
G01 X11.3637 Y16.4619
G01 X11.3721 Y16.4487
G01 X11.3812 Y16.4358
G01 X11.4279 Y16.3728
G01 X11.4376 Y16.3604
G01 X11.4478 Y16.3485
G01 X11.5006 Y16.2904
G01 X11.5114 Y16.2790
G01 X11.5227 Y16.2682
G01 X11.5809 Y16.2155
G01 X11.5989 Y16.2003
G01 X11.6682 Y16.1488
G01 X11.6810 Y16.1398
G01 X11.6943 Y16.1314
G01 X11.7616 Y16.0910
G01 X11.7753 Y16.0833
G01 X11.7893 Y16.0763
G01 X11.8674 Y16.0394
G01 X11.8892 Y16.0307
G01 X11.9631 Y16.0042
G01 X11.9780 Y15.9993
G01 X11.9931 Y15.9951
G01 X12.0693 Y15.9761
G01 X12.0846 Y15.9726
G01 X12.1000 Y15.9699
G01 X12.1777 Y15.9584
G01 X12.1933 Y15.9565
G01 X12.2089 Y15.9553
G01 X12.2873 Y15.9515
G01 X12.3030 Y15.9511
G01 X15.1030 Y15.9511
G01 X15.1187 Y15.9515
G01 X15.1971 Y15.9553
G01 X15.2205 Y15.9574
G01 X15.3060 Y15.9699
G01 X15.3214 Y15.9726
G01 X15.3367 Y15.9761
G01 X15.4129 Y15.9951
G01 X15.4280 Y15.9993
G01 X15.4429 Y16.0042
G01 X15.5168 Y16.0307
G01 X15.5314 Y16.0363
G01 X15.5458 Y16.0427
G01 X15.6167 Y16.0763
G01 X15.6376 Y16.0871
G01 X15.7117 Y16.1314
G01 X15.7250 Y16.1398
G01 X15.7378 Y16.1488
G01 X15.8009 Y16.1956
G01 X15.8192 Y16.2103
G01 X15.8833 Y16.2682
G01 X15.9001 Y16.2846
G01 X15.9634 Y16.3544
G01 X15.9733 Y16.3665
G01 X15.9804 Y16.3759
G01 X19.8028 Y16.3759
G01 X19.8028 Y15.9507
G01 X19.7839 Y15.9489
G01 X19.7518 Y15.9443
G01 X19.7364 Y15.9416
G01 X19.7211 Y15.9382
G01 X19.6822 Y15.9280
G01 X19.6673 Y15.9231
G01 X19.6295 Y15.9092
G01 X19.5930 Y15.8923
G01 X19.5790 Y15.8853
G01 X19.5443 Y15.8649
G01 X19.5311 Y15.8566
G01 X19.5183 Y15.8475
G01 X19.4923 Y15.8282
G01 X19.4802 Y15.8182
G01 X19.4561 Y15.7965
G01 X19.4448 Y15.7857
G01 X19.4175 Y15.7562
G01 X19.4072 Y15.7443
G01 X19.3976 Y15.7319
G01 X19.3739 Y15.6994
G01 X19.3529 Y15.6651
G01 X19.3452 Y15.6515
G01 X19.3382 Y15.6375
G01 X19.3244 Y15.6082
G01 X19.3184 Y15.5937
G01 X19.3074 Y15.5632
G01 X19.3025 Y15.5483
G01 X19.2983 Y15.5332
G01 X19.2905 Y15.5018
G01 X19.2875 Y15.4864
G01 X19.2816 Y15.4466
G01 X19.2800 Y15.4310
G01 X19.2781 Y15.3908
G01 X19.2780 Y14.7330
G01 X19.2783 Y14.7173
G01 X19.2800 Y14.6850
G01 X19.2826 Y14.6616
G01 X19.2889 Y14.6219
G01 X19.2923 Y14.6066
G01 X19.3003 Y14.5752
G01 X19.3074 Y14.5528
G01 X19.3213 Y14.5150
G01 X19.3277 Y14.5007
G01 X19.3416 Y14.4715
G01 X19.3529 Y14.4509
G01 X19.3739 Y14.4166
G01 X19.3976 Y14.3841
G01 X19.4072 Y14.3717
G01 X19.4340 Y14.3416
G01 X19.4504 Y14.3248
G01 X19.4802 Y14.2978
G01 X19.4923 Y14.2878
G01 X19.5246 Y14.2639
G01 X19.5443 Y14.2511
G01 X19.5722 Y14.2345
G01 X19.5930 Y14.2237
G01 X19.6295 Y14.2068
G01 X19.6673 Y14.1929
G01 X19.6897 Y14.1858
G01 X19.7287 Y14.1760
G01 X19.7441 Y14.1730
G01 X19.7839 Y14.1671
G01 X19.8073 Y14.1650
G01 X19.8475 Y14.1635
G01 X21.1475 Y14.1635
G01 X21.1632 Y14.1638
G01 X21.2033 Y14.1662
G01 X21.2432 Y14.1717
G01 X21.2586 Y14.1744
G01 X21.2977 Y14.1838
G01 X21.3203 Y14.1904
G01 X21.3508 Y14.2012
G01 X21.3655 Y14.2068
G01 X21.4020 Y14.2237
G01 X21.4228 Y14.2345
G01 X21.4573 Y14.2552
G01 X21.4767 Y14.2685
G01 X21.5088 Y14.2927
G01 X21.5389 Y14.3195
G01 X21.5557 Y14.3359
G01 X21.5775 Y14.3598
G01 X21.5878 Y14.3717
G01 X21.6120 Y14.4038
G01 X21.6253 Y14.4232
G01 X21.6421 Y14.4509
G01 X21.6498 Y14.4645
G01 X21.6673 Y14.5007
G01 X21.6766 Y14.5223
G01 X21.6876 Y14.5528
G01 X21.6925 Y14.5677
G01 X21.7027 Y14.6066
G01 X21.7061 Y14.6219
G01 X21.7088 Y14.6373
G01 X21.7135 Y14.6699
G01 X21.7151 Y14.6866
G01 X21.7167 Y14.7173
G01 X21.7170 Y14.7330
G01 X21.7170 Y15.3830
G01 X21.7167 Y15.3987
G01 X21.7143 Y15.4388
G01 X21.7088 Y15.4787
G01 X21.7061 Y15.4941
G01 X21.7027 Y15.5094
G01 X21.6925 Y15.5483
G01 X21.6876 Y15.5632
G01 X21.6766 Y15.5937
G01 X21.6706 Y15.6082
G01 X21.6534 Y15.6445
G01 X21.6460 Y15.6583
G01 X21.6253 Y15.6928
G01 X21.6166 Y15.7059
G01 X21.5927 Y15.7382
G01 X21.5827 Y15.7503
G01 X21.5610 Y15.7744
G01 X21.5446 Y15.7912
G01 X21.5207 Y15.8130
G01 X21.5088 Y15.8233
G01 X21.4964 Y15.8329
G01 X21.4704 Y15.8521
G01 X21.4573 Y15.8608
G01 X21.4228 Y15.8815
G01 X21.4020 Y15.8923
G01 X21.3727 Y15.9061
G01 X21.3582 Y15.9121
G01 X21.3203 Y15.9256
G01 X21.3053 Y15.9302
G01 X21.2663 Y15.9400
G01 X21.2509 Y15.9430
G01 X21.2111 Y15.9489
G01 X21.1922 Y15.9507
G01 X21.1922 Y20.6188
G01 X21.5985 Y20.6188
G01 X21.6142 Y20.6192
G01 X21.6510 Y20.6210
G01 X21.6666 Y20.6221
G01 X21.6822 Y20.6240
G01 X21.7186 Y20.6294
G01 X21.7340 Y20.6321
G01 X21.7493 Y20.6356
G01 X21.7851 Y20.6445
G01 X21.8002 Y20.6487
G01 X21.8151 Y20.6536
G01 X21.8497 Y20.6660
G01 X21.8644 Y20.6717
G01 X21.8787 Y20.6780
G01 X21.9190 Y20.6972
G01 X21.9329 Y20.7046
G01 X21.9712 Y20.7275
G01 X21.9845 Y20.7359
G01 X21.9973 Y20.7449
G01 X22.0269 Y20.7668
G01 X22.0392 Y20.7765
G01 X22.0511 Y20.7867
G01 X22.0841 Y20.8168
G01 X22.5868 Y21.3193
G01 X23.3243 Y21.3193
G01 X23.3313 Y21.3034
G01 X23.3943 Y21.1703
G01 X23.4013 Y21.1563
G01 X23.4090 Y21.1426
G01 X23.4847 Y21.0164
G01 X23.4931 Y21.0031
G01 X23.5021 Y20.9903
G01 X23.5898 Y20.8721
G01 X23.5995 Y20.8597
G01 X23.6097 Y20.8478
G01 X23.7086 Y20.7387
G01 X23.7194 Y20.7274
G01 X23.7307 Y20.7166
G01 X23.8398 Y20.6177
G01 X23.8517 Y20.6075
G01 X23.8641 Y20.5978
G01 X23.9823 Y20.5101
G01 X23.9952 Y20.5010
G01 X24.0084 Y20.4927
G01 X24.1346 Y20.4170
G01 X24.1483 Y20.4093
G01 X24.1623 Y20.4023
G01 X24.2954 Y20.3393
G01 X24.3097 Y20.3330
G01 X24.3243 Y20.3273
G01 X24.4629 Y20.2777
G01 X24.4778 Y20.2728
G01 X24.4929 Y20.2686
G01 X24.6357 Y20.2329
G01 X24.6510 Y20.2294
G01 X24.6665 Y20.2267
G01 X24.8121 Y20.2051
G01 X24.8277 Y20.2032
G01 X24.8433 Y20.2021
G01 X24.9903 Y20.1948
G01 X25.0060 Y20.1945
G01 X25.0217 Y20.1948
G01 X25.1687 Y20.2021
G01 X25.1843 Y20.2032
G01 X25.1999 Y20.2051
G01 X25.3455 Y20.2267
G01 X25.3610 Y20.2294
G01 X25.3763 Y20.2329
G01 X25.5191 Y20.2686
G01 X25.5342 Y20.2728
G01 X25.5491 Y20.2777
G01 X25.6877 Y20.3273
G01 X25.7023 Y20.3330
G01 X25.7166 Y20.3393
G01 X25.8497 Y20.4023
G01 X25.8637 Y20.4093
G01 X25.8774 Y20.4170
G01 X26.0036 Y20.4927
G01 X26.0169 Y20.5011
G01 X26.0297 Y20.5101
G01 X26.1479 Y20.5978
G01 X26.1603 Y20.6075
G01 X26.1722 Y20.6177
G01 X26.2813 Y20.7166
G01 X26.2926 Y20.7274
G01 X26.3034 Y20.7387
G01 X26.4023 Y20.8478
G01 X26.4125 Y20.8597
G01 X26.4222 Y20.8721
G01 X26.5099 Y20.9903
G01 X26.5190 Y21.0032
G01 X26.5273 Y21.0164
G01 X26.6030 Y21.1426
G01 X26.6107 Y21.1563
G01 X26.6177 Y21.1703
G01 X26.6807 Y21.3034
G01 X26.6877 Y21.3193
G01 X27.6771 Y21.3193
G01 X27.6549 Y21.2317
G01 X27.6515 Y21.2164
G01 X27.6488 Y21.2010
G01 X27.6373 Y21.1233
G01 X27.6354 Y21.1077
G01 X27.6342 Y21.0921
G01 X27.6303 Y21.0137
G01 X27.6300 Y20.9980
G01 X27.6303 Y20.9823
G01 X27.6342 Y20.9039
G01 X27.6354 Y20.8883
G01 X27.6373 Y20.8727
G01 X27.6488 Y20.7950
G01 X27.6515 Y20.7796
G01 X27.6549 Y20.7643
G01 X27.6740 Y20.6881
G01 X27.6782 Y20.6730
G01 X27.6831 Y20.6581
G01 X27.7095 Y20.5842
G01 X27.7152 Y20.5696
G01 X27.7215 Y20.5552
G01 X27.7551 Y20.4843
G01 X27.7622 Y20.4703
G01 X27.7699 Y20.4566
G01 X27.8144 Y20.3826
G01 X27.8277 Y20.3632
G01 X27.8744 Y20.3001
G01 X27.8891 Y20.2818
G01 X27.9471 Y20.2177
G01 X27.9579 Y20.2064
G01 X27.9692 Y20.1956
G01 X28.0274 Y20.1428
G01 X28.0393 Y20.1326
G01 X28.0516 Y20.1229
G01 X28.1147 Y20.0762
G01 X28.1341 Y20.0629
G01 X28.2081 Y20.0184
G01 X28.2218 Y20.0107
G01 X28.2358 Y20.0036
G01 X28.3067 Y19.9700
G01 X28.3211 Y19.9637
G01 X28.3357 Y19.9580
G01 X28.4096 Y19.9316
G01 X28.4245 Y19.9267
G01 X28.4396 Y19.9225
G01 X28.5158 Y19.9034
G01 X28.5311 Y19.9000
G01 X28.5465 Y19.8973
G01 X28.6242 Y19.8858
G01 X28.6398 Y19.8839
G01 X28.6554 Y19.8827
G01 X28.7417 Y19.8786
G01 X31.5495 Y19.8785
G01 X31.5652 Y19.8788
G01 X31.6436 Y19.8827
G01 X31.6592 Y19.8839
G01 X31.6748 Y19.8858
G01 X31.7525 Y19.8973
G01 X31.7679 Y19.9000
G01 X31.7832 Y19.9034
G01 X31.8594 Y19.9225
G01 X31.8745 Y19.9267
G01 X31.8894 Y19.9316
G01 X31.9633 Y19.9580
G01 X31.9779 Y19.9637
G01 X31.9923 Y19.9700
G01 X32.0632 Y20.0036
G01 X32.0772 Y20.0107
G01 X32.0909 Y20.0184
G01 X32.1582 Y20.0587
G01 X32.1715 Y20.0671
G01 X32.1843 Y20.0762
G01 X32.2474 Y20.1229
G01 X32.2597 Y20.1326
G01 X32.2716 Y20.1428
G01 X32.3298 Y20.1956
G01 X32.3411 Y20.2064
G01 X32.3519 Y20.2177
G01 X32.4047 Y20.2759
G01 X32.4149 Y20.2878
G01 X32.4246 Y20.3001
G01 X32.4759 Y20.3696
G01 X32.4888 Y20.3893
G01 X32.5291 Y20.4566
G01 X32.5368 Y20.4703
G01 X32.5439 Y20.4843
G01 X32.5775 Y20.5552
G01 X32.5838 Y20.5696
G01 X32.5895 Y20.5842
G01 X32.6185 Y20.6655
G01 X32.6250 Y20.6881
G01 X32.6441 Y20.7643
G01 X32.6475 Y20.7796
G01 X32.6502 Y20.7950
G01 X32.6617 Y20.8727
G01 X32.6636 Y20.8883
G01 X32.6648 Y20.9039
G01 X32.6687 Y20.9823
G01 X32.6690 Y20.9980
G01 X32.6687 Y21.0137
G01 X32.6648 Y21.0921
G01 X32.6636 Y21.1077
G01 X32.6617 Y21.1233
G01 X32.6502 Y21.2010
G01 X32.6475 Y21.2164
G01 X32.6441 Y21.2317
G01 X32.6250 Y21.3079
G01 X32.6208 Y21.3230
G01 X32.6159 Y21.3379
G01 X32.5895 Y21.4118
G01 X32.5838 Y21.4264
G01 X32.5775 Y21.4408
G01 X32.5439 Y21.5117
G01 X32.5368 Y21.5257
G01 X32.5291 Y21.5394
G01 X32.4888 Y21.6067
G01 X32.4804 Y21.6200
G01 X32.4713 Y21.6328
G01 X32.4246 Y21.6959
G01 X32.4149 Y21.7082
G01 X32.4047 Y21.7201
G01 X32.3519 Y21.7783
G01 X32.3411 Y21.7896
G01 X32.3298 Y21.8004
G01 X32.2716 Y21.8532
G01 X32.2597 Y21.8634
G01 X32.2474 Y21.8731
G01 X32.1843 Y21.9198
G01 X32.1715 Y21.9289
G01 X32.1582 Y21.9373
G01 X32.0909 Y21.9776
G01 X32.0772 Y21.9853
G01 X32.0632 Y21.9924
G01 X31.9923 Y22.0260
G01 X31.9779 Y22.0323
G01 X31.9633 Y22.0380
G01 X31.8824 Y22.0668
G01 X31.8610 Y22.0731
G01 X31.7832 Y22.0926
G01 X31.7679 Y22.0960
G01 X31.7525 Y22.0987
G01 X31.6748 Y22.1102
G01 X31.6592 Y22.1121
G01 X31.6436 Y22.1133
G01 X31.5573 Y22.1174
G01 X30.0125 Y22.1175
G01 X29.6191 Y22.5107
G01 X29.5861 Y22.5408
G01 X29.5742 Y22.5510
G01 X29.5619 Y22.5607
G01 X29.5323 Y22.5826
G01 X29.5127 Y22.5960
G01 X29.4746 Y22.6190
G01 X29.4610 Y22.6267
G01 X29.4470 Y22.6337
G01 X29.4137 Y22.6495
G01 X29.3921 Y22.6588
G01 X29.3501 Y22.6739
G01 X29.3352 Y22.6788
G01 X29.3201 Y22.6830
G01 X29.2843 Y22.6919
G01 X29.2613 Y22.6968
G01 X29.2094 Y22.7045
G01 X29.1860 Y22.7065
G01 X29.1492 Y22.7083
G01 X29.1335 Y22.7087
G01 X26.6877 Y22.7087
G01 X26.6807 Y22.7246
G01 X26.6177 Y22.8577
G01 X26.6107 Y22.8717
G01 X26.6030 Y22.8854
G01 X26.5273 Y23.0116
G01 X26.5189 Y23.0249
G01 X26.5099 Y23.0377
G01 X26.4222 Y23.1559
G01 X26.4125 Y23.1683
G01 X26.4023 Y23.1802
G01 X26.3034 Y23.2893
G01 X26.2926 Y23.3006
G01 X26.2813 Y23.3114
G01 X26.1722 Y23.4103
G01 X26.1603 Y23.4205
G01 X26.1479 Y23.4302
G01 X26.0297 Y23.5179
G01 X26.0169 Y23.5269
G01 X26.0036 Y23.5353
G01 X25.8774 Y23.6110
G01 X25.8637 Y23.6187
G01 X25.8497 Y23.6257
G01 X25.7166 Y23.6887
G01 X25.7023 Y23.6950
G01 X25.6877 Y23.7007
G01 X25.5491 Y23.7503
G01 X25.5342 Y23.7552
G01 X25.5191 Y23.7594
G01 X25.3763 Y23.7951
G01 X25.3617 Y23.7984
G01 X25.3470 Y23.8010
G01 X25.1999 Y23.8229
G01 X25.1843 Y23.8248
G01 X25.1687 Y23.8259
G01 X25.0217 Y23.8332
G01 X25.0060 Y23.8335
G01 X24.9903 Y23.8332
G01 X24.8433 Y23.8259
G01 X24.8277 Y23.8248
G01 X24.8121 Y23.8229
G01 X24.6665 Y23.8013
G01 X24.6510 Y23.7986
G01 X24.6357 Y23.7951
G01 X24.4929 Y23.7594
G01 X24.4778 Y23.7552
G01 X24.4629 Y23.7503
G01 X24.3243 Y23.7007
G01 X24.3097 Y23.6950
G01 X24.2954 Y23.6887
G01 X24.1623 Y23.6257
G01 X24.1483 Y23.6187
G01 X24.1346 Y23.6110
G01 X24.0084 Y23.5353
G01 X23.9951 Y23.5269
G01 X23.9823 Y23.5179
G01 X23.8641 Y23.4302
G01 X23.8517 Y23.4205
G01 X23.8398 Y23.4103
G01 X23.7307 Y23.3114
G01 X23.7194 Y23.3006
G01 X23.7086 Y23.2893
G01 X23.6097 Y23.1802
G01 X23.5995 Y23.1683
G01 X23.5898 Y23.1559
G01 X23.5021 Y23.0377
G01 X23.4931 Y23.0249
G01 X23.4847 Y23.0116
G01 X23.4090 Y22.8854
G01 X23.4013 Y22.8717
G01 X23.3943 Y22.8577
G01 X23.3313 Y22.7246
G01 X23.3243 Y22.7087
G01 X22.2912 Y22.7086
G01 X22.2465 Y22.7065
G01 X22.2309 Y22.7054
G01 X22.2153 Y22.7035
G01 X22.1712 Y22.6968
G01 X22.1558 Y22.6938
G01 X22.1124 Y22.6830
G01 X22.0973 Y22.6788
G01 X22.0824 Y22.6739
G01 X22.0404 Y22.6588
G01 X22.0259 Y22.6528
G01 X21.9855 Y22.6337
G01 X21.9646 Y22.6229
G01 X21.9263 Y22.6000
G01 X21.9130 Y22.5916
G01 X21.9002 Y22.5826
G01 X21.8706 Y22.5607
G01 X21.8523 Y22.5460
G01 X21.8191 Y22.5161
G01 X21.8078 Y22.5052
G01 X21.3107 Y22.0082
G01 X20.9093 Y22.0082
G01 X20.8957 Y22.0231
G01 X20.8846 Y22.0342
G01 X20.8548 Y22.0612
G01 X20.8427 Y22.0712
G01 X20.8104 Y22.0951
G01 X20.7973 Y22.1038
G01 X20.7628 Y22.1245
G01 X20.7490 Y22.1319
G01 X20.7198 Y22.1458
G01 X20.7055 Y22.1522
G01 X20.6677 Y22.1661
G01 X20.6528 Y22.1710
G01 X20.6139 Y22.1812
G01 X20.5986 Y22.1846
G01 X20.5832 Y22.1873
G01 X20.5433 Y22.1928
G01 X20.5032 Y22.1952
G01 X20.4875 Y22.1955
G01 X19.2375 Y22.1955
G01 X19.2218 Y22.1952
G01 X19.1817 Y22.1928
G01 X19.1418 Y22.1873
G01 X19.1187 Y22.1830
G01 X19.0797 Y22.1732
G01 X19.0573 Y22.1661
G01 X19.0195 Y22.1522
G01 X18.9830 Y22.1353
G01 X18.9622 Y22.1245
G01 X18.9277 Y22.1038
G01 X18.9146 Y22.0951
G01 X18.8823 Y22.0712
G01 X18.8643 Y22.0560
G01 X18.8348 Y22.0287
G01 X18.8075 Y21.9992
G01 X18.7972 Y21.9873
G01 X18.7876 Y21.9749
G01 X18.7639 Y21.9424
G01 X18.7556 Y21.9292
G01 X18.7390 Y21.9013
G01 X18.7316 Y21.8875
G01 X18.7177 Y21.8583
G01 X18.7113 Y21.8440
G01 X18.7057 Y21.8293
G01 X18.6925 Y21.7913
G01 X18.6823 Y21.7524
G01 X18.6789 Y21.7371
G01 X18.6762 Y21.7217
G01 X18.6707 Y21.6818
G01 X18.6695 Y21.6662
G01 X18.6681 Y21.6338
G01 X18.6680 Y21.0010
G01 X18.6683 Y20.9853
G01 X18.6707 Y20.9452
G01 X18.6762 Y20.9053
G01 X18.6805 Y20.8822
G01 X18.6903 Y20.8432
G01 X18.6974 Y20.8208
G01 X18.7113 Y20.7830
G01 X18.7282 Y20.7465
G01 X18.7390 Y20.7257
G01 X18.7597 Y20.6912
G01 X18.7684 Y20.6781
G01 X18.7923 Y20.6458
G01 X18.8023 Y20.6337
G01 X18.8240 Y20.6096
G01 X18.8404 Y20.5928
G01 X18.8643 Y20.5710
G01 X18.8762 Y20.5607
G01 X18.8886 Y20.5511
G01 X18.9146 Y20.5319
G01 X18.9277 Y20.5232
G01 X18.9622 Y20.5025
G01 X18.9760 Y20.4951
G01 X19.0123 Y20.4779
G01 X19.0268 Y20.4719
G01 X19.0647 Y20.4584
G01 X19.0797 Y20.4538
G01 X19.1187 Y20.4440
G01 X19.1418 Y20.4397
G01 X19.1661 Y20.4361
G01 X19.1828 Y20.4341
G01 X19.1973 Y20.4330
G01 X19.2297 Y20.4316
G01 X19.7620 Y20.4315
G01 X19.8028 Y20.3907
G01 X19.8028 Y17.7655
G01 X15.9790 Y17.7672
G01 X15.9684 Y17.7809
G01 X15.9582 Y17.7928
G01 X15.9054 Y17.8509
G01 X15.8946 Y17.8623
G01 X15.8833 Y17.8731
G01 X15.8251 Y17.9258
G01 X15.8132 Y17.9361
G01 X15.8009 Y17.9457
G01 X15.7378 Y17.9925
G01 X15.7250 Y18.0015
G01 X15.7117 Y18.0099
G01 X15.6444 Y18.0503
G01 X15.6307 Y18.0580
G01 X15.6167 Y18.0650
G01 X15.5458 Y18.0986
G01 X15.5314 Y18.1050
G01 X15.5168 Y18.1106
G01 X15.4429 Y18.1371
G01 X15.4280 Y18.1420
G01 X15.4129 Y18.1462
G01 X15.3367 Y18.1652
G01 X15.3214 Y18.1687
G01 X15.3060 Y18.1714
G01 X15.2283 Y18.1829
G01 X15.2127 Y18.1848
G01 X15.1971 Y18.1860
G01 X15.1187 Y18.1898
G01 X15.1030 Y18.1902
G01 X12.3030 Y18.1902
G01 X12.2873 Y18.1898
G01 X12.2089 Y18.1860
G01 X12.1855 Y18.1839
G01 X12.1000 Y18.1714
G01 X12.0846 Y18.1687
G01 X12.0693 Y18.1652
G01 X11.9931 Y18.1462
G01 X11.9780 Y18.1420
G01 X11.9631 Y18.1371
G01 X11.8819 Y18.1079
G01 X11.8602 Y18.0986
G01 X11.7893 Y18.0650
G01 X11.7753 Y18.0580
G01 X11.7616 Y18.0503
G01 X11.6943 Y18.0099
G01 X11.6810 Y18.0015
G01 X11.6682 Y17.9925
G01 X11.6051 Y17.9457
G01 X11.5928 Y17.9361
G01 X11.5809 Y17.9258
G01 X11.5227 Y17.8731
G01 X11.5114 Y17.8623
G01 X11.5006 Y17.8509
G01 X11.4478 Y17.7928
G01 X11.4376 Y17.7809
G01 X11.4279 Y17.7685
G01 X11.3812 Y17.7055
G01 X11.3721 Y17.6926
G01 X11.3637 Y17.6794
G01 X11.3234 Y17.6120
G01 X11.3157 Y17.5984
G01 X11.3086 Y17.5844
G01 X11.2750 Y17.5134
G01 X11.2687 Y17.4991
G01 X11.2630 Y17.4844
G01 X11.2366 Y17.4105
G01 X11.2315 Y17.3950
G01 X11.2275 Y17.3805
G01 X11.2084 Y17.3044
G01 X11.2050 Y17.2891
G01 X11.2023 Y17.2736
G01 X11.1908 Y17.1960
G01 X11.1882 Y17.1726
G01 X11.1838 Y17.0863
G01 X11.1835 Y17.0707
G01 X11.1838 Y17.0550
G01 X11.1882 Y16.9687
G01 X11.1908 Y16.9454
G01 X11.2023 Y16.8677
G01 X11.2050 Y16.8522
G01 X11.2084 Y16.8369
G01 X11.2275 Y16.7608
G00 Z2.0000
G00 X11.4182 Y16.8086
G01 F50.00
G01 Z-0.1300
G01 F80.00
G01 X11.4217 Y16.7970
G01 X11.4482 Y16.7231
G01 X11.4528 Y16.7120
G01 X11.4891 Y16.6356
G01 X11.5356 Y16.5579
G01 X11.5896 Y16.4852
G01 X11.6463 Y16.4224
G01 X11.6548 Y16.4139
G01 X11.7130 Y16.3612
G01 X11.7223 Y16.3535
G01 X11.7903 Y16.3033
G01 X11.8679 Y16.2567
G01 X11.9498 Y16.2180
G01 X12.0294 Y16.1894
G01 X12.0409 Y16.1859
G01 X12.1171 Y16.1668
G01 X12.1289 Y16.1645
G01 X12.2125 Y16.1522
G01 X12.3000 Y16.1478
G01 X15.1030 Y16.1478
G01 X15.1874 Y16.1518
G01 X15.1965 Y16.1525
G01 X15.2830 Y16.1655
G01 X15.3651 Y16.1859
G01 X15.3766 Y16.1894
G01 X15.4562 Y16.2180
G01 X15.5327 Y16.2540
G01 X15.5433 Y16.2597
G01 X15.6106 Y16.3001
G01 X15.6207 Y16.3068
G01 X15.6885 Y16.3572
G01 X15.7556 Y16.4181
G01 X15.8164 Y16.4852
G01 X15.8687 Y16.5554
G01 X15.8793 Y16.5726
G01 X19.9994 Y16.5726
G01 X19.9994 Y15.7559
G01 X19.8445 Y15.7559
G01 X19.8140 Y15.7544
G01 X19.8050 Y15.7534
G01 X19.7748 Y15.7487
G01 X19.7393 Y15.7398
G01 X19.7048 Y15.7275
G01 X19.6771 Y15.7146
G01 X19.6691 Y15.7104
G01 X19.6403 Y15.6931
G01 X19.6157 Y15.6750
G01 X19.6086 Y15.6693
G01 X19.5882 Y15.6508
G01 X19.5817 Y15.6445
G01 X19.5612 Y15.6219
G01 X19.5555 Y15.6148
G01 X19.5374 Y15.5902
G01 X19.5216 Y15.5640
G01 X19.5172 Y15.5561
G01 X19.5054 Y15.5312
G01 X19.5019 Y15.5229
G01 X19.4916 Y15.4941
G01 X19.4831 Y15.4616
G01 X19.4807 Y15.4498
G01 X19.4764 Y15.4196
G01 X19.4746 Y15.3830
G01 X19.4747 Y14.7270
G01 X19.4764 Y14.6964
G01 X19.4807 Y14.6662
G01 X19.4824 Y14.6573
G01 X19.4890 Y14.6306
G01 X19.4925 Y14.6190
G01 X19.5030 Y14.5903
G01 X19.5159 Y14.5626
G01 X19.5201 Y14.5546
G01 X19.5358 Y14.5284
G01 X19.5409 Y14.5209
G01 X19.5592 Y14.4964
G01 X19.5797 Y14.4737
G01 X19.5882 Y14.4652
G01 X19.6109 Y14.4447
G01 X19.6403 Y14.4229
G01 X19.6717 Y14.4041
G01 X19.6993 Y14.3909
G01 X19.7104 Y14.3863
G01 X19.7393 Y14.3762
G01 X19.7689 Y14.3686
G01 X19.7807 Y14.3662
G01 X19.8109 Y14.3619
G01 X19.8475 Y14.3601
G01 X21.1475 Y14.3601
G01 X21.1841 Y14.3619
G01 X21.2202 Y14.3673
G01 X21.2499 Y14.3745
G01 X21.2615 Y14.3780
G01 X21.2902 Y14.3885
G01 X21.3179 Y14.4014
G01 X21.3285 Y14.4071
G01 X21.3547 Y14.4229
G01 X21.3793 Y14.4410
G01 X21.3886 Y14.4487
G01 X21.4112 Y14.4693
G01 X21.4318 Y14.4919
G01 X21.4395 Y14.5012
G01 X21.4576 Y14.5258
G01 X21.4734 Y14.5520
G01 X21.4791 Y14.5626
G01 X21.4920 Y14.5903
G01 X21.5043 Y14.6248
G01 X21.5119 Y14.6544
G01 X21.5143 Y14.6662
G01 X21.5186 Y14.6969
G01 X21.5204 Y14.7300
G01 X21.5203 Y15.3890
G01 X21.5186 Y15.4196
G01 X21.5143 Y15.4498
G01 X21.5126 Y15.4587
G01 X21.5060 Y15.4854
G01 X21.5025 Y15.4970
G01 X21.4920 Y15.5257
G01 X21.4764 Y15.5588
G01 X21.4576 Y15.5902
G01 X21.4395 Y15.6148
G01 X21.4318 Y15.6241
G01 X21.4112 Y15.6467
G01 X21.3886 Y15.6673
G01 X21.3817 Y15.6731
G01 X21.3572 Y15.6913
G01 X21.3496 Y15.6963
G01 X21.3233 Y15.7119
G01 X21.2902 Y15.7275
G01 X21.2557 Y15.7398
G01 X21.2261 Y15.7474
G01 X21.2173 Y15.7493
G01 X21.1841 Y15.7541
G01 X21.1505 Y15.7559
G01 X20.9956 Y15.7559
G01 X20.9956 Y20.6785
G01 X20.9936 Y20.7213
G01 X20.9925 Y20.7333
G01 X20.9860 Y20.7757
G01 X20.9762 Y20.8154
G01 X21.5985 Y20.8154
G01 X21.6413 Y20.8174
G01 X21.6533 Y20.8185
G01 X21.6897 Y20.8240
G01 X21.7016 Y20.8263
G01 X21.7431 Y20.8369
G01 X21.7835 Y20.8512
G01 X21.7946 Y20.8558
G01 X21.8333 Y20.8742
G01 X21.8752 Y20.8994
G01 X21.9145 Y20.9285
G01 X21.9463 Y20.9571
G01 X22.5053 Y21.5159
G01 X23.4625 Y21.5159
G01 X23.5066 Y21.3929
G01 X23.5747 Y21.2490
G01 X23.6566 Y21.1124
G01 X23.7478 Y20.9892
G01 X23.7554 Y20.9799
G01 X23.8543 Y20.8708
G01 X23.8628 Y20.8623
G01 X23.9764 Y20.7595
G01 X24.1044 Y20.6646
G01 X24.2410 Y20.5827
G01 X24.3849 Y20.5146
G01 X24.5349 Y20.4610
G01 X24.6835 Y20.4236
G01 X24.6953 Y20.4213
G01 X24.8409 Y20.3997
G01 X24.8529 Y20.3985
G01 X25.0060 Y20.3911
G01 X25.1651 Y20.3989
G01 X25.3167 Y20.4213
G01 X25.3285 Y20.4236
G01 X25.4771 Y20.4610
G01 X25.6271 Y20.5146
G01 X25.7656 Y20.5800
G01 X25.7763 Y20.5857
G01 X25.9076 Y20.6646
G01 X26.0356 Y20.7595
G01 X26.1536 Y20.8664
G01 X26.2566 Y20.9799
G01 X26.2642 Y20.9892
G01 X26.3554 Y21.1124
G01 X26.4343 Y21.2437
G01 X26.4400 Y21.2544
G01 X26.5054 Y21.3929
G01 X26.5495 Y21.5159
G01 X27.9858 Y21.5159
G01 X27.9789 Y21.5056
G01 X27.9356 Y21.4331
G01 X27.8969 Y21.3512
G01 X27.8663 Y21.2659
G01 X27.8457 Y21.1839
G01 X27.8433 Y21.1721
G01 X27.8310 Y21.0885
G01 X27.8267 Y21.0040
G01 X27.8267 Y20.9920
G01 X27.8306 Y20.9136
G01 X27.8318 Y20.9016
G01 X27.8443 Y20.8180
G01 X27.8663 Y20.7301
G01 X27.8969 Y20.6448
G01 X27.9356 Y20.5629
G01 X27.9821 Y20.4853
G01 X28.0324 Y20.4173
G01 X28.0400 Y20.4080
G01 X28.0928 Y20.3498
G01 X28.1013 Y20.3413
G01 X28.1640 Y20.2846
G01 X28.2318 Y20.2341
G01 X28.2419 Y20.2274
G01 X28.3144 Y20.1841
G01 X28.3963 Y20.1454
G01 X28.4816 Y20.1148
G01 X28.5695 Y20.0928
G01 X28.6590 Y20.0795
G01 X28.7465 Y20.0751
G01 X31.5525 Y20.0751
G01 X31.6400 Y20.0795
G01 X31.7236 Y20.0918
G01 X31.7354 Y20.0942
G01 X31.8116 Y20.1132
G01 X31.8231 Y20.1167
G01 X31.9027 Y20.1454
G01 X31.9792 Y20.1814
G01 X31.9898 Y20.1870
G01 X32.0622 Y20.2306
G01 X32.1350 Y20.2846
G01 X32.2021 Y20.3454
G01 X32.2629 Y20.4125
G01 X32.3169 Y20.4853
G01 X32.3634 Y20.5629
G01 X32.4021 Y20.6448
G01 X32.4308 Y20.7244
G01 X32.4343 Y20.7359
G01 X32.4547 Y20.8180
G01 X32.4672 Y20.9016
G01 X32.4684 Y20.9136
G01 X32.4723 Y20.9920
G01 X32.4723 Y21.0040
G01 X32.4680 Y21.0885
G01 X32.4547 Y21.1780
G01 X32.4327 Y21.2659
G01 X32.4043 Y21.3456
G01 X32.3997 Y21.3567
G01 X32.3634 Y21.4331
G01 X32.3201 Y21.5056
G01 X32.3134 Y21.5157
G01 X32.2629 Y21.5835
G01 X32.2062 Y21.6462
G01 X32.1977 Y21.6547
G01 X32.1350 Y21.7114
G01 X32.0672 Y21.7619
G01 X32.0571 Y21.7686
G01 X31.9846 Y21.8119
G01 X31.9027 Y21.8506
G01 X31.8177 Y21.8811
G01 X31.7295 Y21.9032
G01 X31.6400 Y21.9165
G01 X31.5525 Y21.9209
G01 X29.9310 Y21.9209
G01 X29.4857 Y22.3662
G01 X29.4495 Y22.3990
G01 X29.4102 Y22.4282
G01 X29.3735 Y22.4503
G01 X29.3629 Y22.4560
G01 X29.3241 Y22.4742
G01 X29.2838 Y22.4887
G01 X29.2723 Y22.4922
G01 X29.2336 Y22.5019
G01 X29.2247 Y22.5035
G01 X29.1823 Y22.5097
G01 X29.1335 Y22.5121
G01 X26.5495 Y22.5121
G01 X26.5054 Y22.6351
G01 X26.4373 Y22.7790
G01 X26.3554 Y22.9156
G01 X26.2605 Y23.0436
G01 X26.1536 Y23.1616
G01 X26.0356 Y23.2685
G01 X25.9076 Y23.3634
G01 X25.7763 Y23.4423
G01 X25.7656 Y23.4480
G01 X25.6326 Y23.5109
G01 X25.6214 Y23.5155
G01 X25.4771 Y23.5670
G01 X25.3285 Y23.6044
G01 X25.3167 Y23.6067
G01 X25.1651 Y23.6291
G01 X25.0060 Y23.6369
G01 X24.8469 Y23.6291
G01 X24.6894 Y23.6057
G01 X24.5407 Y23.5686
G01 X24.5292 Y23.5651
G01 X24.3849 Y23.5134
G01 X24.2464 Y23.4480
G01 X24.2357 Y23.4423
G01 X24.1044 Y23.3634
G01 X23.9812 Y23.2722
G01 X23.9719 Y23.2646
G01 X23.8584 Y23.1616
G01 X23.7554 Y23.0481
G01 X23.7478 Y23.0388
G01 X23.6566 Y22.9156
G01 X23.5777 Y22.7843
G01 X23.5720 Y22.7736
G01 X23.5066 Y22.6351
G01 X23.4625 Y22.5121
G01 X22.2960 Y22.5121
G01 X22.2502 Y22.5097
G01 X22.2078 Y22.5035
G01 X22.1959 Y22.5012
G01 X22.1602 Y22.4922
G01 X22.1515 Y22.4897
G01 X22.1084 Y22.4742
G01 X22.0642 Y22.4533
G01 X22.0223 Y22.4281
G01 X21.9878 Y22.4027
G01 X21.9784 Y22.3951
G01 X21.9468 Y22.3662
G01 X21.3922 Y21.8116
G01 X20.8107 Y21.8116
G01 X20.7976 Y21.8332
G01 X20.7776 Y21.8602
G01 X20.7718 Y21.8671
G01 X20.7512 Y21.8897
G01 X20.7286 Y21.9103
G01 X20.7193 Y21.9180
G01 X20.6947 Y21.9361
G01 X20.6685 Y21.9519
G01 X20.6579 Y21.9576
G01 X20.6302 Y21.9705
G01 X20.6015 Y21.9810
G01 X20.5929 Y21.9837
G01 X20.5632 Y21.9911
G01 X20.5543 Y21.9928
G01 X20.5241 Y21.9971
G01 X20.4905 Y21.9989
G01 X19.2375 Y21.9989
G01 X19.2009 Y21.9971
G01 X19.1648 Y21.9917
G01 X19.1293 Y21.9828
G01 X19.0948 Y21.9705
G01 X19.0617 Y21.9549
G01 X19.0303 Y21.9361
G01 X19.0009 Y21.9143
G01 X18.9738 Y21.8897
G01 X18.9532 Y21.8671
G01 X18.9474 Y21.8602
G01 X18.9274 Y21.8332
G01 X18.9086 Y21.8018
G01 X18.8930 Y21.7687
G01 X18.8825 Y21.7400
G01 X18.8798 Y21.7314
G01 X18.8731 Y21.7046
G01 X18.8707 Y21.6928
G01 X18.8664 Y21.6626
G01 X18.8646 Y21.6260
G01 X18.8646 Y21.0010
G01 X18.8664 Y20.9644
G01 X18.8707 Y20.9342
G01 X18.8731 Y20.9224
G01 X18.8807 Y20.8928
G01 X18.8930 Y20.8583
G01 X18.9059 Y20.8306
G01 X18.9116 Y20.8200
G01 X18.9274 Y20.7938
G01 X18.9455 Y20.7692
G01 X18.9512 Y20.7621
G01 X18.9717 Y20.7395
G01 X18.9782 Y20.7332
G01 X18.9986 Y20.7147
G01 X19.0057 Y20.7090
G01 X19.0303 Y20.6909
G01 X19.0565 Y20.6751
G01 X19.0671 Y20.6694
G01 X19.0920 Y20.6577
G01 X19.1004 Y20.6543
G01 X19.1321 Y20.6433
G01 X19.1618 Y20.6359
G01 X19.1707 Y20.6342
G01 X19.2014 Y20.6299
G01 X19.2375 Y20.6281
G01 X19.8435 Y20.6281
G01 X19.9994 Y20.4722
G01 X19.9994 Y17.5687
G01 X15.8793 Y17.5687
G01 X15.8687 Y17.5859
G01 X15.8164 Y17.6561
G01 X15.7556 Y17.7232
G01 X15.6885 Y17.7841
G01 X15.6207 Y17.8345
G01 X15.6106 Y17.8412
G01 X15.5381 Y17.8846
G01 X15.4617 Y17.9209
G01 X15.4506 Y17.9255
G01 X15.3766 Y17.9519
G01 X15.3651 Y17.9554
G01 X15.2830 Y17.9758
G01 X15.1965 Y17.9888
G01 X15.1874 Y17.9896
G01 X15.1030 Y17.9936
G01 X12.3030 Y17.9936
G01 X12.2125 Y17.9891
G01 X12.1230 Y17.9758
G01 X12.0351 Y17.9538
G01 X11.9498 Y17.9233
G01 X11.8733 Y17.8873
G01 X11.8627 Y17.8816
G01 X11.7954 Y17.8412
G01 X11.7853 Y17.8345
G01 X11.7175 Y17.7841
G01 X11.6548 Y17.7274
G01 X11.6463 Y17.7189
G01 X11.5896 Y17.6561
G01 X11.5356 Y17.5834
G01 X11.4891 Y17.5057
G01 X11.4504 Y17.4238
G01 X11.4198 Y17.3383
G01 X11.3992 Y17.2566
G01 X11.3968 Y17.2448
G01 X11.3845 Y17.1611
G01 X11.3802 Y17.0767
G01 X11.3802 Y17.0646
G01 X11.3841 Y16.9862
G01 X11.3853 Y16.9742
G01 X11.3978 Y16.8906
G01 X11.4182 Y16.8086
G00 Z2.0000
G00 X14.0799 Y13.6478
G01 F50.00
G01 Z-0.1300
G01 F80.00
G01 X14.0799 Y13.3856
G01 X15.1547 Y13.3856
G01 X15.3097 Y13.3991
G01 X15.5098 Y13.4527
G01 X15.6977 Y13.5404
G01 X15.8678 Y13.6594
G01 X16.0144 Y13.8061
G01 X16.1332 Y13.9757
G01 X16.2208 Y14.1637
G01 X16.2289 Y14.1938
G01 X15.9446 Y14.1938
G01 X15.9169 Y14.1356
G01 X15.8736 Y14.0630
G01 X15.8669 Y14.0530
G01 X15.8201 Y13.9899
G01 X15.8125 Y13.9806
G01 X15.7556 Y13.9181
G01 X15.6908 Y13.8592
G01 X15.6837 Y13.8535
G01 X15.6157 Y13.8033
G01 X15.5381 Y13.7567
G01 X15.4562 Y13.7180
G01 X15.3766 Y13.6894
G01 X15.3651 Y13.6859
G01 X15.2830 Y13.6655
G01 X15.1994 Y13.6529
G01 X15.1874 Y13.6518
G01 X15.1060 Y13.6478
G01 X14.0799 Y13.6478
G00 Z2.0000
G00 X19.2132 Y12.4849
G01 F50.00
G01 Z-0.1300
G01 F80.00
G01 X19.4785 Y12.4849
G01 X19.4818 Y12.5057
G01 X19.4898 Y12.5384
G01 X19.5008 Y12.5701
G01 X19.5042 Y12.5785
G01 X19.5186 Y12.6088
G01 X19.5342 Y12.6351
G01 X19.5409 Y12.6451
G01 X19.5612 Y12.6719
G01 X19.5838 Y12.6967
G01 X19.6064 Y12.7173
G01 X19.6157 Y12.7250
G01 X19.6403 Y12.7431
G01 X19.6665 Y12.7589
G01 X19.6771 Y12.7646
G01 X19.7048 Y12.7775
G01 X19.7335 Y12.7880
G01 X19.7451 Y12.7915
G01 X19.7777 Y12.7993
G01 X19.8109 Y12.8041
G01 X19.8415 Y12.8058
G01 X20.1206 Y12.8059
G01 X20.1206 Y13.0681
G01 X19.8036 Y13.0681
G01 X19.7177 Y13.0592
G01 X19.5764 Y13.0121
G01 X19.4504 Y12.9342
G01 X19.3458 Y12.8294
G01 X19.2681 Y12.7033
G01 X19.2211 Y12.5620
G01 X19.2132 Y12.4849
G00 Z2.0000
G00 X19.2132 Y11.7311
G01 F50.00
G01 Z-0.1300
G01 F80.00
G01 X19.2214 Y11.6529
G01 X19.2685 Y11.5116
G01 X19.3465 Y11.3857
G01 X19.4513 Y11.2811
G01 X19.5774 Y11.2034
G01 X19.7188 Y11.1566
G01 X19.8035 Y11.1479
G01 X20.1206 Y11.1479
G01 X20.1206 Y11.4101
G01 X19.8415 Y11.4102
G01 X19.8109 Y11.4119
G01 X19.7777 Y11.4167
G01 X19.7451 Y11.4245
G01 X19.7335 Y11.4280
G01 X19.7048 Y11.4385
G01 X19.6771 Y11.4514
G01 X19.6665 Y11.4571
G01 X19.6403 Y11.4729
G01 X19.6157 Y11.4910
G01 X19.6064 Y11.4987
G01 X19.5838 Y11.5193
G01 X19.5612 Y11.5441
G01 X19.5409 Y11.5709
G01 X19.5342 Y11.5809
G01 X19.5186 Y11.6072
G01 X19.5042 Y11.6375
G01 X19.5008 Y11.6459
G01 X19.4898 Y11.6776
G01 X19.4818 Y11.7103
G01 X19.4785 Y11.7311
G01 X19.2132 Y11.7311
G00 Z2.0000
G00 X20.8744 Y11.4101
G01 F50.00
G01 Z-0.1300
G01 F80.00
G01 X20.8744 Y11.1479
G01 X21.1916 Y11.1479
G01 X21.2776 Y11.1569
G01 X21.4186 Y11.2039
G01 X21.5448 Y11.2820
G01 X21.6494 Y11.3868
G01 X21.7271 Y11.5129
G01 X21.7739 Y11.6540
G01 X21.7818 Y11.7311
G01 X21.5165 Y11.7311
G01 X21.5132 Y11.7103
G01 X21.5052 Y11.6776
G01 X21.5025 Y11.6690
G01 X21.4908 Y11.6375
G01 X21.4764 Y11.6072
G01 X21.4608 Y11.5809
G01 X21.4541 Y11.5709
G01 X21.4338 Y11.5441
G01 X21.4112 Y11.5193
G01 X21.3886 Y11.4987
G01 X21.3793 Y11.4910
G01 X21.3547 Y11.4729
G01 X21.3285 Y11.4571
G01 X21.3179 Y11.4514
G01 X21.2902 Y11.4385
G01 X21.2615 Y11.4280
G01 X21.2499 Y11.4245
G01 X21.2173 Y11.4167
G01 X21.1841 Y11.4119
G01 X21.1535 Y11.4102
G01 X20.8744 Y11.4101
G00 Z2.0000
G00 X20.8744 Y13.0681
G01 F50.00
G01 Z-0.1300
G01 F80.00
G01 X20.8744 Y12.8059
G01 X21.1535 Y12.8058
G01 X21.1841 Y12.8041
G01 X21.2173 Y12.7993
G01 X21.2499 Y12.7915
G01 X21.2615 Y12.7880
G01 X21.2902 Y12.7775
G01 X21.3179 Y12.7646
G01 X21.3285 Y12.7589
G01 X21.3547 Y12.7431
G01 X21.3793 Y12.7250
G01 X21.3886 Y12.7173
G01 X21.4112 Y12.6967
G01 X21.4338 Y12.6719
G01 X21.4541 Y12.6451
G01 X21.4608 Y12.6351
G01 X21.4764 Y12.6088
G01 X21.4908 Y12.5785
G01 X21.5025 Y12.5470
G01 X21.5052 Y12.5384
G01 X21.5132 Y12.5057
G01 X21.5165 Y12.4849
G01 X21.7818 Y12.4849
G01 X21.7736 Y12.5631
G01 X21.7265 Y12.7044
G01 X21.6485 Y12.8303
G01 X21.5437 Y12.9349
G01 X21.4176 Y13.0126
G01 X21.2762 Y13.0594
G01 X21.1915 Y13.0681
G01 X20.8744 Y13.0681
G00 Z2.0000
G00 X23.1166 Y11.8737
G01 F50.00
G01 Z-0.1300
G01 F80.00
G01 X23.1314 Y11.6171
G01 X23.1809 Y11.3649
G01 X23.2642 Y11.1217
G01 X23.3796 Y10.8922
G01 X23.4332 Y10.8142
G01 X23.6245 Y11.0056
G01 X23.5747 Y11.0890
G01 X23.5078 Y11.2302
G01 X23.5045 Y11.2386
G01 X23.4549 Y11.3772
G01 X23.4521 Y11.3858
G01 X23.4143 Y11.5374
G01 X23.3917 Y11.6889
G01 X23.3905 Y11.7009
G01 X23.3831 Y11.8540
G01 X23.3905 Y12.0071
G01 X23.3917 Y12.0191
G01 X23.4143 Y12.1709
G01 X23.4521 Y12.3222
G01 X23.4549 Y12.3308
G01 X23.5045 Y12.4694
G01 X23.5078 Y12.4778
G01 X23.5747 Y12.6190
G01 X23.6245 Y12.7024
G01 X23.4324 Y12.8946
G01 X23.4001 Y12.8496
G01 X23.2799 Y12.6226
G01 X23.1916 Y12.3812
G01 X23.1368 Y12.1299
G01 X23.1166 Y11.8737
G00 Z2.0000
G00 X23.9651 Y13.4280
G01 F50.00
G01 Z-0.1300
G01 F80.00
G01 X24.1576 Y13.2355
G01 X24.2410 Y13.2853
G01 X24.3822 Y13.3522
G01 X24.3906 Y13.3555
G01 X24.5292 Y13.4051
G01 X24.5378 Y13.4079
G01 X24.6894 Y13.4457
G01 X24.8409 Y13.4683
G01 X24.8529 Y13.4695
G01 X25.0060 Y13.4769
G01 X25.1591 Y13.4695
G01 X25.1711 Y13.4683
G01 X25.3229 Y13.4457
G01 X25.4742 Y13.4079
G01 X25.4828 Y13.4051
G01 X25.6214 Y13.3555
G01 X25.6298 Y13.3522
G01 X25.7710 Y13.2853
G01 X25.8544 Y13.2355
G01 X26.0464 Y13.4274
G01 X25.8813 Y13.5285
G01 X25.6461 Y13.6318
G01 X25.3989 Y13.7022
G01 X25.1445 Y13.7384
G01 X24.8874 Y13.7398
G01 X24.6326 Y13.7062
G01 X24.3847 Y13.6384
G01 X24.1483 Y13.5376
G01 X23.9651 Y13.4280
G00 Z2.0000
G00 X23.9660 Y10.2810
G01 F50.00
G01 Z-0.1300
G01 F80.00
G01 X24.1132 Y10.1887
G01 X24.3473 Y10.0830
G01 X24.5937 Y10.0100
G01 X24.8478 Y9.9711
G01 X25.1048 Y9.9671
G01 X25.3601 Y9.9980
G01 X25.6086 Y10.0632
G01 X25.8461 Y10.1615
G01 X26.0477 Y10.2793
G01 X25.8544 Y10.4725
G01 X25.7710 Y10.4227
G01 X25.6298 Y10.3558
G01 X25.6214 Y10.3525
G01 X25.4828 Y10.3029
G01 X25.4742 Y10.3001
G01 X25.3226 Y10.2623
G01 X25.1711 Y10.2397
G01 X25.1591 Y10.2385
G01 X25.0060 Y10.2311
G01 X24.8529 Y10.2385
G01 X24.8409 Y10.2397
G01 X24.6894 Y10.2623
G01 X24.5378 Y10.3001
G01 X24.5292 Y10.3029
G01 X24.3906 Y10.3525
G01 X24.3822 Y10.3558
G01 X24.2410 Y10.4227
G01 X24.1576 Y10.4725
G01 X23.9660 Y10.2810
G00 Z2.0000
G00 X26.3875 Y11.0056
G01 F50.00
G01 Z-0.1300
G01 F80.00
G01 X26.5802 Y10.8128
G01 X26.6014 Y10.8416
G01 X26.7240 Y11.0675
G01 X26.8148 Y11.3078
G01 X26.8723 Y11.5585
G01 X26.8954 Y11.8179
G01 X26.8957 Y11.8505
G01 X26.8780 Y12.1103
G01 X26.8259 Y12.3620
G01 X26.7401 Y12.6045
G01 X26.6223 Y12.8327
G01 X26.5791 Y12.8941
G01 X26.3875 Y12.7024
G01 X26.4373 Y12.6190
G01 X26.5042 Y12.4778
G01 X26.5075 Y12.4694
G01 X26.5571 Y12.3308
G01 X26.5599 Y12.3222
G01 X26.5977 Y12.1706
G01 X26.6203 Y12.0191
G01 X26.6215 Y12.0071
G01 X26.6289 Y11.8540
G01 X26.6215 Y11.7009
G01 X26.6203 Y11.6889
G01 X26.5977 Y11.5374
G01 X26.5599 Y11.3858
G01 X26.5571 Y11.3772
G01 X26.5075 Y11.2386
G01 X26.5042 Y11.2302
G01 X26.4373 Y11.0890
G01 X26.3875 Y11.0056
G00 Z2.0000
G00 X27.6236 Y15.5411
G01 F50.00
G01 Z-0.1300
G01 F80.00
G01 X27.6317 Y15.5110
G01 X27.7192 Y15.3233
G01 X27.8383 Y15.1532
G01 X27.9849 Y15.0066
G01 X28.1546 Y14.8878
G01 X28.3425 Y14.8002
G01 X28.5428 Y14.7465
G01 X28.6977 Y14.7329
G01 X29.7726 Y14.7329
G01 X29.7726 Y14.9951
G01 X28.7465 Y14.9951
G01 X28.6651 Y14.9991
G01 X28.6531 Y15.0003
G01 X28.5695 Y15.0128
G01 X28.4874 Y15.0332
G01 X28.4759 Y15.0367
G01 X28.3963 Y15.0654
G01 X28.3144 Y15.1041
G01 X28.2368 Y15.1506
G01 X28.1688 Y15.2009
G01 X28.1617 Y15.2065
G01 X28.0969 Y15.2654
G01 X28.0400 Y15.3280
G01 X28.0324 Y15.3373
G01 X27.9856 Y15.4003
G01 X27.9789 Y15.4104
G01 X27.9356 Y15.4829
G01 X27.9079 Y15.5411
G01 X27.6236 Y15.5411
G00 Z2.0000
G00 X27.8647 Y18.7201
G01 F50.00
G01 Z-0.1300
G01 F80.00
G01 X27.8443 Y18.6380
G01 X27.8310 Y18.5485
G01 X27.8266 Y18.4580
G01 X27.8310 Y18.3675
G01 X27.8443 Y18.2780
G01 X27.8663 Y18.1901
G01 X27.8969 Y18.1048
G01 X27.9356 Y18.0229
G01 X27.9821 Y17.9453
G01 X28.0361 Y17.8725
G01 X28.0969 Y17.8054
G01 X28.1640 Y17.7446
G01 X28.2368 Y17.6906
G01 X28.3144 Y17.6441
G01 X28.3963 Y17.6054
G01 X28.4787 Y17.5758
G01 X28.4874 Y17.5732
G01 X28.5636 Y17.5542
G01 X28.5754 Y17.5518
G01 X28.6590 Y17.5395
G01 X28.7465 Y17.5351
G01 X31.5555 Y17.5352
G01 X31.6400 Y17.5395
G01 X31.7295 Y17.5528
G01 X31.8174 Y17.5748
G01 X31.8971 Y17.6032
G01 X31.9082 Y17.6078
G01 X31.9792 Y17.6414
G01 X31.9898 Y17.6470
G01 X32.0622 Y17.6906
G01 X32.1350 Y17.7446
G01 X32.2021 Y17.8054
G01 X32.2590 Y17.8680
G01 X32.2666 Y17.8773
G01 X32.3134 Y17.9403
G01 X32.3185 Y17.9478
G01 X32.3634 Y18.0229
G01 X32.4021 Y18.1048
G01 X32.4327 Y18.1901
G01 X32.4480 Y18.2506
G01 X32.6418 Y18.4444
G01 X33.4751 Y18.4444
G01 X33.4886 Y18.4162
G01 X33.5042 Y18.3899
G01 X33.5109 Y18.3799
G01 X33.5292 Y18.3554
G01 X33.5538 Y18.3283
G01 X33.5764 Y18.3077
G01 X33.5857 Y18.3000
G01 X33.6103 Y18.2819
G01 X33.6417 Y18.2631
G01 X33.6693 Y18.2499
G01 X33.6804 Y18.2453
G01 X33.7093 Y18.2352
G01 X33.7389 Y18.2276
G01 X33.7507 Y18.2252
G01 X33.7814 Y18.2209
G01 X33.8175 Y18.2191
G01 X35.1175 Y18.2191
G01 X35.1541 Y18.2209
G01 X35.1843 Y18.2252
G01 X35.1961 Y18.2276
G01 X35.2257 Y18.2352
G01 X35.2546 Y18.2453
G01 X35.2657 Y18.2499
G01 X35.2933 Y18.2631
G01 X35.3247 Y18.2819
G01 X35.3493 Y18.3000
G01 X35.3586 Y18.3077
G01 X35.3812 Y18.3283
G01 X35.4018 Y18.3509
G01 X35.4095 Y18.3602
G01 X35.4276 Y18.3848
G01 X35.4434 Y18.4110
G01 X35.4478 Y18.4189
G01 X35.9877 Y18.4189
G01 X35.9918 Y18.3923
G01 X36.0007 Y18.3568
G01 X36.0130 Y18.3223
G01 X36.0259 Y18.2946
G01 X36.0316 Y18.2840
G01 X36.0492 Y18.2553
G01 X36.0692 Y18.2284
G01 X36.0917 Y18.2035
G01 X36.1164 Y18.1807
G01 X36.1257 Y18.1730
G01 X36.1503 Y18.1549
G01 X36.1817 Y18.1361
G01 X36.2148 Y18.1205
G01 X36.2435 Y18.1100
G01 X36.2551 Y18.1065
G01 X36.2877 Y18.0987
G01 X36.3214 Y18.0939
G01 X36.3575 Y18.0921
G01 X37.6575 Y18.0921
G01 X37.6941 Y18.0939
G01 X37.7243 Y18.0982
G01 X37.7361 Y18.1006
G01 X37.7657 Y18.1082
G01 X37.7946 Y18.1183
G01 X37.8057 Y18.1229
G01 X37.8333 Y18.1361
G01 X37.8596 Y18.1517
G01 X37.8696 Y18.1584
G01 X37.8941 Y18.1767
G01 X37.9168 Y18.1972
G01 X37.9253 Y18.2057
G01 X37.9458 Y18.2284
G01 X37.9641 Y18.2529
G01 X37.9708 Y18.2629
G01 X37.9864 Y18.2892
G01 X37.9996 Y18.3168
G01 X38.0042 Y18.3279
G01 X38.0152 Y18.3596
G01 X38.0226 Y18.3893
G01 X38.0243 Y18.3982
G01 X38.0286 Y18.4289
G01 X38.0304 Y18.4620
G01 X38.0303 Y19.1210
G01 X38.0286 Y19.1516
G01 X38.0232 Y19.1877
G01 X38.0143 Y19.2232
G01 X38.0042 Y19.2521
G01 X38.0008 Y19.2605
G01 X37.9891 Y19.2854
G01 X37.9834 Y19.2960
G01 X37.9676 Y19.3222
G01 X37.9495 Y19.3468
G01 X37.9438 Y19.3539
G01 X37.9212 Y19.3787
G01 X37.8941 Y19.4033
G01 X37.8647 Y19.4251
G01 X37.8359 Y19.4424
G01 X37.8279 Y19.4466
G01 X37.8002 Y19.4595
G01 X37.7715 Y19.4700
G01 X37.7629 Y19.4727
G01 X37.7361 Y19.4794
G01 X37.7243 Y19.4818
G01 X37.6941 Y19.4861
G01 X37.6575 Y19.4879
G01 X36.3545 Y19.4879
G01 X36.3209 Y19.4861
G01 X36.2907 Y19.4818
G01 X36.2789 Y19.4794
G01 X36.2464 Y19.4709
G01 X36.2148 Y19.4595
G01 X36.1844 Y19.4453
G01 X36.1765 Y19.4409
G01 X36.1529 Y19.4267
G01 X36.1366 Y19.4151
G01 X35.4478 Y19.4151
G01 X35.4434 Y19.4230
G01 X35.4276 Y19.4492
G01 X35.4058 Y19.4786
G01 X35.3812 Y19.5057
G01 X35.3541 Y19.5303
G01 X35.3247 Y19.5521
G01 X35.2933 Y19.5709
G01 X35.2602 Y19.5865
G01 X35.2315 Y19.5970
G01 X35.2229 Y19.5997
G01 X35.1932 Y19.6071
G01 X35.1843 Y19.6088
G01 X35.1541 Y19.6131
G01 X35.1205 Y19.6149
G01 X34.7096 Y19.6149
G01 X34.7096 Y20.4308
G01 X34.7312 Y20.4439
G01 X34.7558 Y20.4620
G01 X34.7629 Y20.4677
G01 X34.7855 Y20.4882
G01 X34.7918 Y20.4947
G01 X34.8123 Y20.5174
G01 X34.8306 Y20.5419
G01 X34.8357 Y20.5494
G01 X34.8514 Y20.5756
G01 X34.8556 Y20.5836
G01 X34.8685 Y20.6113
G01 X34.8790 Y20.6400
G01 X34.8825 Y20.6516
G01 X34.8897 Y20.6813
G01 X34.8944 Y20.7115
G01 X34.8954 Y20.7211
G01 X34.8969 Y20.7540
G01 X34.8969 Y22.0040
G01 X34.8951 Y22.0406
G01 X34.8908 Y22.0708
G01 X34.8884 Y22.0826
G01 X34.8808 Y22.1122
G01 X34.8685 Y22.1467
G01 X34.8556 Y22.1744
G01 X34.8499 Y22.1850
G01 X34.8341 Y22.2112
G01 X34.8160 Y22.2358
G01 X34.8083 Y22.2451
G01 X34.7877 Y22.2677
G01 X34.7651 Y22.2883
G01 X34.7558 Y22.2960
G01 X34.7312 Y22.3141
G01 X34.7050 Y22.3299
G01 X34.6944 Y22.3356
G01 X34.6667 Y22.3485
G01 X34.6380 Y22.3590
G01 X34.6294 Y22.3617
G01 X34.5997 Y22.3691
G01 X34.5908 Y22.3708
G01 X34.5606 Y22.3751
G01 X34.5270 Y22.3769
G01 X33.8930 Y22.3768
G01 X33.8624 Y22.3751
G01 X33.8263 Y22.3697
G01 X33.7908 Y22.3608
G01 X33.7563 Y22.3485
G01 X33.7232 Y22.3329
G01 X33.6918 Y22.3141
G01 X33.6624 Y22.2923
G01 X33.6397 Y22.2718
G01 X33.6332 Y22.2655
G01 X33.6147 Y22.2451
G01 X33.6070 Y22.2358
G01 X33.5889 Y22.2112
G01 X33.5731 Y22.1850
G01 X33.5687 Y22.1771
G01 X33.5545 Y22.1467
G01 X33.5422 Y22.1122
G01 X33.5333 Y22.0767
G01 X33.5282 Y22.0435
G01 X33.5275 Y22.0345
G01 X33.5261 Y22.0040
G01 X33.5261 Y20.7540
G01 X33.5276 Y20.7205
G01 X33.5286 Y20.7115
G01 X33.5333 Y20.6813
G01 X33.5405 Y20.6516
G01 X33.5440 Y20.6400
G01 X33.5545 Y20.6113
G01 X33.5674 Y20.5836
G01 X33.5716 Y20.5756
G01 X33.5873 Y20.5494
G01 X33.5924 Y20.5419
G01 X33.6107 Y20.5174
G01 X33.6312 Y20.4947
G01 X33.6375 Y20.4882
G01 X33.6601 Y20.4677
G01 X33.6672 Y20.4620
G01 X33.6918 Y20.4439
G01 X33.7134 Y20.4308
G01 X33.7134 Y19.6000
G01 X33.7035 Y19.5970
G01 X33.6748 Y19.5865
G01 X33.6444 Y19.5723
G01 X33.6365 Y19.5679
G01 X33.6103 Y19.5521
G01 X33.5857 Y19.5340
G01 X33.5786 Y19.5283
G01 X33.5560 Y19.5078
G01 X33.5332 Y19.4831
G01 X33.5274 Y19.4762
G01 X33.5109 Y19.4541
G01 X33.5021 Y19.4406
G01 X32.4355 Y19.4406
G01 X32.3927 Y19.4386
G01 X32.3837 Y19.4379
G01 X32.3383 Y19.4310
G01 X32.2909 Y19.4191
G01 X32.2449 Y19.4027
G01 X32.2061 Y19.3845
G01 X32.1981 Y19.3803
G01 X32.1588 Y19.3566
G01 X32.1195 Y19.3275
G01 X32.0855 Y19.2968
G01 X32.0322 Y19.2436
G01 X31.9846 Y19.2719
G01 X31.9055 Y19.3095
G01 X31.8971 Y19.3128
G01 X31.8231 Y19.3393
G01 X31.8150 Y19.3419
G01 X31.7354 Y19.3618
G01 X31.7236 Y19.3642
G01 X31.6400 Y19.3765
G01 X31.5555 Y19.3808
G01 X28.7495 Y19.3809
G01 X28.6651 Y19.3769
G01 X28.6560 Y19.3761
G01 X28.5695 Y19.3632
G01 X28.4874 Y19.3428
G01 X28.4759 Y19.3393
G01 X28.3963 Y19.3106
G01 X28.3144 Y19.2719
G01 X28.2419 Y19.2286
G01 X28.2318 Y19.2219
G01 X28.1640 Y19.1714
G01 X28.1013 Y19.1147
G01 X28.0928 Y19.1062
G01 X28.0361 Y19.0435
G01 X27.9821 Y18.9707
G01 X27.9356 Y18.8931
G01 X27.8993 Y18.8167
G01 X27.8947 Y18.8056
G01 X27.8682 Y18.7316
G01 X27.8647 Y18.7201
G00 Z2.0000
G00 X27.6740 Y18.7679
G01 F50.00
G01 Z-0.1300
G01 F80.00
G01 X27.6549 Y18.6917
G01 X27.6515 Y18.6764
G01 X27.6488 Y18.6610
G01 X27.6373 Y18.5833
G01 X27.6354 Y18.5677
G01 X27.6342 Y18.5521
G01 X27.6303 Y18.4737
G01 X27.6300 Y18.4580
G01 X27.6303 Y18.4423
G01 X27.6342 Y18.3639
G01 X27.6354 Y18.3483
G01 X27.6373 Y18.3327
G01 X27.6488 Y18.2550
G01 X27.6515 Y18.2396
G01 X27.6549 Y18.2243
G01 X27.6740 Y18.1481
G01 X27.6782 Y18.1330
G01 X27.6831 Y18.1181
G01 X27.7095 Y18.0442
G01 X27.7152 Y18.0296
G01 X27.7215 Y18.0152
G01 X27.7585 Y17.9372
G01 X27.7699 Y17.9166
G01 X27.8102 Y17.8493
G01 X27.8186 Y17.8360
G01 X27.8277 Y17.8232
G01 X27.8744 Y17.7601
G01 X27.8841 Y17.7478
G01 X27.8943 Y17.7359
G01 X27.9471 Y17.6777
G01 X27.9579 Y17.6664
G01 X27.9692 Y17.6556
G01 X28.0274 Y17.6028
G01 X28.0393 Y17.5926
G01 X28.0516 Y17.5829
G01 X28.1211 Y17.5316
G01 X28.1408 Y17.5187
G01 X28.2081 Y17.4784
G01 X28.2218 Y17.4707
G01 X28.2358 Y17.4636
G01 X28.3139 Y17.4268
G01 X28.3357 Y17.4180
G01 X28.4096 Y17.3916
G01 X28.4245 Y17.3867
G01 X28.4396 Y17.3825
G01 X28.5158 Y17.3634
G01 X28.5311 Y17.3600
G01 X28.5465 Y17.3573
G01 X28.6242 Y17.3458
G01 X28.6398 Y17.3439
G01 X28.6554 Y17.3427
G01 X28.7417 Y17.3386
G01 X31.5573 Y17.3386
G01 X31.6436 Y17.3427
G01 X31.6592 Y17.3439
G01 X31.6748 Y17.3458
G01 X31.7525 Y17.3573
G01 X31.7756 Y17.3616
G01 X31.8594 Y17.3825
G01 X31.8745 Y17.3867
G01 X31.8894 Y17.3916
G01 X31.9633 Y17.4180
G01 X31.9779 Y17.4237
G01 X31.9923 Y17.4300
G01 X32.0632 Y17.4636
G01 X32.0772 Y17.4707
G01 X32.0909 Y17.4784
G01 X32.1582 Y17.5187
G01 X32.1715 Y17.5271
G01 X32.1843 Y17.5362
G01 X32.2536 Y17.5877
G01 X32.2716 Y17.6028
G01 X32.3298 Y17.6556
G01 X32.3411 Y17.6664
G01 X32.3519 Y17.6777
G01 X32.4047 Y17.7359
G01 X32.4149 Y17.7478
G01 X32.4246 Y17.7601
G01 X32.4759 Y17.8296
G01 X32.4888 Y17.8493
G01 X32.5291 Y17.9166
G01 X32.5368 Y17.9303
G01 X32.5439 Y17.9443
G01 X32.5775 Y18.0152
G01 X32.5867 Y18.0369
G01 X32.6159 Y18.1181
G01 X32.6208 Y18.1330
G01 X32.6255 Y18.1500
G01 X32.7233 Y18.2478
G01 X33.3641 Y18.2478
G01 X33.3723 Y18.2368
G01 X33.3823 Y18.2247
G01 X33.4093 Y18.1949
G01 X33.4204 Y18.1838
G01 X33.4502 Y18.1568
G01 X33.4686 Y18.1421
G01 X33.5011 Y18.1184
G01 X33.5354 Y18.0974
G01 X33.5560 Y18.0861
G01 X33.5923 Y18.0689
G01 X33.6142 Y18.0602
G01 X33.6522 Y18.0470
G01 X33.6911 Y18.0368
G01 X33.7141 Y18.0320
G01 X33.7544 Y18.0260
G01 X33.7773 Y18.0240
G01 X33.8175 Y18.0225
G01 X35.1175 Y18.0225
G01 X35.1332 Y18.0228
G01 X35.1733 Y18.0252
G01 X35.2132 Y18.0307
G01 X35.2286 Y18.0334
G01 X35.2439 Y18.0368
G01 X35.2828 Y18.0470
G01 X35.3208 Y18.0602
G01 X35.3355 Y18.0658
G01 X35.3720 Y18.0827
G01 X35.3860 Y18.0897
G01 X35.3996 Y18.0974
G01 X35.4339 Y18.1184
G01 X35.4664 Y18.1421
G01 X35.4788 Y18.1517
G01 X35.4907 Y18.1620
G01 X35.5202 Y18.1893
G01 X35.5310 Y18.2006
G01 X35.5506 Y18.2223
G01 X35.8426 Y18.2223
G01 X35.8516 Y18.2035
G01 X35.8590 Y18.1897
G01 X35.8797 Y18.1552
G01 X35.8930 Y18.1358
G01 X35.9172 Y18.1037
G01 X35.9440 Y18.0736
G01 X35.9604 Y18.0568
G01 X35.9902 Y18.0298
G01 X36.0086 Y18.0151
G01 X36.0411 Y17.9914
G01 X36.0754 Y17.9704
G01 X36.0960 Y17.9591
G01 X36.1323 Y17.9419
G01 X36.1542 Y17.9332
G01 X36.1922 Y17.9200
G01 X36.2073 Y17.9158
G01 X36.2387 Y17.9080
G01 X36.2618 Y17.9037
G01 X36.2861 Y17.9001
G01 X36.3028 Y17.8981
G01 X36.3418 Y17.8958
G01 X36.3575 Y17.8955
G01 X37.6575 Y17.8955
G01 X37.6732 Y17.8958
G01 X37.7055 Y17.8975
G01 X37.7289 Y17.9001
G01 X37.7686 Y17.9064
G01 X37.7839 Y17.9098
G01 X37.8153 Y17.9178
G01 X37.8377 Y17.9249
G01 X37.8755 Y17.9388
G01 X37.9120 Y17.9557
G01 X37.9328 Y17.9665
G01 X37.9607 Y17.9831
G01 X37.9739 Y17.9914
G01 X38.0064 Y18.0151
G01 X38.0248 Y18.0298
G01 X38.0546 Y18.0568
G01 X38.0710 Y18.0736
G01 X38.0978 Y18.1037
G01 X38.1220 Y18.1358
G01 X38.1353 Y18.1552
G01 X38.1560 Y18.1897
G01 X38.1668 Y18.2105
