(G-CODE GENERATED BY FLATCAM v8.992 - www.flatcam.org - Version Date: 2020/05/03)

(Name: Phoenix612_Stage_3_PA_Testing_v1-F_Cu)
(Type: G-code from Geometry)
(Units: MM)

(Created on Thursday, 12 January 2023 at 17:18)

(This preprocessor is the default preprocessor used by FlatCAM.)
(It is made to work with MACH3 compatible motion controllers.)

(TOOL DIAMETER: 0.1595 mm)
(Feedrate_XY: 50.0 mm/min)
(Feedrate_Z: 30.0 mm/min)
(Feedrate rapids 1500.0 mm/min)

(Z_Cut: -0.111 mm)
(Z_Move: 2.0 mm)
(Z Start: None mm)
(Z End: 10.0 mm)
(Steps per circle: 64)
(Preprocessor Geometry: default)

(X range:    0.1925 ...   65.1500  mm)
(Y range:    0.2110 ...   93.1085  mm)

(Spindle Speed: None RPM)
G21
G90
G94



G01 F50.00
G00 Z2.0000

M03
G00 X0.2031 Y0.7012
G01 F30.00
G01 Z-0.1110
G01 F50.00
G01 X0.2170 Y0.6376
G01 X0.2231 Y0.6153
G01 X0.2302 Y0.5933
G01 X0.2385 Y0.5717
G01 X0.2478 Y0.5506
G01 X0.2581 Y0.5299
G01 X0.2695 Y0.5098
G01 X0.2818 Y0.4902
G01 X0.2884 Y0.4807
G01 X0.3022 Y0.4621
G01 X0.3169 Y0.4443
G01 X0.3710 Y0.3821
G01 X0.3869 Y0.3655
G01 X0.4036 Y0.3497
G01 X0.4122 Y0.3421
G01 X0.4300 Y0.3276
G01 X0.4392 Y0.3207
G01 X0.4580 Y0.3076
G01 X0.4775 Y0.2954
G01 X0.4976 Y0.2842
G01 X0.5182 Y0.2740
G01 X0.5392 Y0.2648
G01 X0.5607 Y0.2568
G01 X0.5826 Y0.2497
G01 X0.6507 Y0.2297
G01 X0.6613 Y0.2268
G01 X0.6827 Y0.2216
G01 X0.7043 Y0.2174
G01 X0.7261 Y0.2143
G01 X0.7480 Y0.2122
G01 X0.7700 Y0.2111
G01 X0.7810 Y0.2110
G01 X64.5614 Y0.2110
G01 X64.5834 Y0.2115
G01 X64.5944 Y0.2122
G01 X64.6054 Y0.2131
G01 X64.6273 Y0.2157
G01 X64.6381 Y0.2174
G01 X64.6598 Y0.2216
G01 X64.7234 Y0.2356
G01 X64.7457 Y0.2416
G01 X64.7567 Y0.2450
G01 X64.7785 Y0.2527
G01 X64.7893 Y0.2570
G01 X64.8104 Y0.2663
G01 X64.8311 Y0.2766
G01 X64.8512 Y0.2880
G01 X64.8611 Y0.2940
G01 X64.8803 Y0.3069
G01 X64.8897 Y0.3137
G01 X64.9079 Y0.3279
G01 X64.9167 Y0.3354
G01 X64.9703 Y0.3819
G01 X64.9873 Y0.3973
G01 X65.0035 Y0.4136
G01 X65.0113 Y0.4221
G01 X65.0262 Y0.4395
G01 X65.0403 Y0.4577
G01 X65.0470 Y0.4670
G01 X65.0534 Y0.4765
G01 X65.0656 Y0.4960
G01 X65.0713 Y0.5060
G01 X65.0820 Y0.5263
G01 X65.0917 Y0.5471
G01 X65.0961 Y0.5577
G01 X65.1042 Y0.5792
G01 X65.1079 Y0.5901
G01 X65.1342 Y0.6798
G01 X65.1394 Y0.7012
G01 X65.1416 Y0.7120
G01 X65.1453 Y0.7337
G01 X65.1479 Y0.7556
G01 X65.1495 Y0.7775
G01 X65.1500 Y0.7995
G01 X65.1500 Y92.5199
G01 X65.1499 Y92.5310
G01 X65.1488 Y92.5529
G01 X65.1479 Y92.5639
G01 X65.1453 Y92.5858
G01 X65.1436 Y92.5966
G01 X65.1394 Y92.6183
G01 X65.1254 Y92.6819
G01 X65.1194 Y92.7042
G01 X65.1123 Y92.7262
G01 X65.1083 Y92.7370
G01 X65.1040 Y92.7478
G01 X65.0947 Y92.7689
G01 X65.0844 Y92.7896
G01 X65.0788 Y92.7997
G01 X65.0670 Y92.8196
G01 X65.0607 Y92.8293
G01 X65.0473 Y92.8482
G01 X65.0331 Y92.8664
G01 X65.0256 Y92.8752
G01 X64.9791 Y92.9288
G01 X64.9637 Y92.9458
G01 X64.9556 Y92.9540
G01 X64.9389 Y92.9698
G01 X64.9215 Y92.9847
G01 X64.9033 Y92.9988
G01 X64.8940 Y93.0055
G01 X64.8748 Y93.0181
G01 X64.8650 Y93.0241
G01 X64.8550 Y93.0298
G01 X64.8347 Y93.0405
G01 X64.8243 Y93.0455
G01 X64.8032 Y93.0546
G01 X64.7926 Y93.0588
G01 X64.7709 Y93.0664
G01 X64.6812 Y93.0927
G01 X64.6705 Y93.0955
G01 X64.6490 Y93.1001
G01 X64.6273 Y93.1038
G01 X64.6054 Y93.1064
G01 X64.5834 Y93.1080
G01 X64.5614 Y93.1085
G01 X0.7810 Y93.1085
G01 X0.7590 Y93.1080
G01 X0.7480 Y93.1073
G01 X0.7261 Y93.1052
G01 X0.7152 Y93.1038
G01 X0.7043 Y93.1021
G01 X0.6827 Y93.0979
G01 X0.6191 Y93.0839
G01 X0.5968 Y93.0779
G01 X0.5748 Y93.0708
G01 X0.5640 Y93.0668
G01 X0.5426 Y93.0580
G01 X0.5321 Y93.0532
G01 X0.5114 Y93.0429
G01 X0.4913 Y93.0315
G01 X0.4814 Y93.0255
G01 X0.4622 Y93.0126
G01 X0.4528 Y93.0058
G01 X0.4346 Y92.9916
G01 X0.4258 Y92.9841
G01 X0.3721 Y92.9376
G01 X0.3552 Y92.9222
G01 X0.3470 Y92.9141
G01 X0.3312 Y92.8974
G01 X0.3236 Y92.8888
G01 X0.3091 Y92.8710
G01 X0.2955 Y92.8525
G01 X0.2891 Y92.8430
G01 X0.2769 Y92.8235
G01 X0.2712 Y92.8135
G01 X0.2605 Y92.7932
G01 X0.2508 Y92.7723
G01 X0.2463 Y92.7618
G01 X0.2422 Y92.7511
G01 X0.2346 Y92.7294
G01 X0.2083 Y92.6397
G01 X0.2031 Y92.6183
G01 X0.2008 Y92.6075
G01 X0.1972 Y92.5858
G01 X0.1946 Y92.5639
G01 X0.1930 Y92.5420
G01 X0.1925 Y92.5199
G01 X0.1925 Y0.7995
G01 X0.1930 Y0.7775
G01 X0.1946 Y0.7556
G01 X0.1972 Y0.7337
G01 X0.1989 Y0.7228
G01 X0.2031 Y0.7012
G00 Z2.0000
G00 X0.2966 Y0.7216
G01 F30.00
G01 Z-0.1110
G01 F50.00
G01 X0.3100 Y0.6603
G01 X0.3175 Y0.6338
G01 X0.3236 Y0.6166
G01 X0.3306 Y0.5996
G01 X0.3384 Y0.5830
G01 X0.3470 Y0.5668
G01 X0.3614 Y0.5434
G01 X0.3720 Y0.5284
G01 X0.3833 Y0.5140
G01 X0.4417 Y0.4465
G01 X0.4543 Y0.4333
G01 X0.4744 Y0.4148
G01 X0.4885 Y0.4033
G01 X0.5032 Y0.3925
G01 X0.5262 Y0.3778
G01 X0.5421 Y0.3689
G01 X0.5585 Y0.3608
G01 X0.5752 Y0.3535
G01 X0.5922 Y0.3471
G01 X0.6096 Y0.3416
G01 X0.6777 Y0.3216
G01 X0.7031 Y0.3151
G01 X0.7202 Y0.3118
G01 X0.7462 Y0.3084
G01 X0.7636 Y0.3071
G01 X0.7810 Y0.3067
G01 X64.5614 Y0.3067
G01 X64.5789 Y0.3071
G01 X64.5963 Y0.3084
G01 X64.6223 Y0.3118
G01 X64.6394 Y0.3151
G01 X64.7007 Y0.3285
G01 X64.7184 Y0.3333
G01 X64.7444 Y0.3421
G01 X64.7614 Y0.3491
G01 X64.7861 Y0.3611
G01 X64.8021 Y0.3701
G01 X64.8176 Y0.3799
G01 X64.8399 Y0.3960
G01 X64.8540 Y0.4077
G01 X64.9077 Y0.4542
G01 X64.9276 Y0.4728
G01 X64.9402 Y0.4861
G01 X64.9577 Y0.5070
G01 X64.9685 Y0.5217
G01 X64.9832 Y0.5447
G01 X64.9962 Y0.5687
G01 X65.0074 Y0.5937
G01 X65.0168 Y0.6194
G01 X65.0394 Y0.6962
G01 X65.0459 Y0.7216
G01 X65.0492 Y0.7387
G01 X65.0517 Y0.7560
G01 X65.0539 Y0.7821
G01 X65.0543 Y0.7995
G01 X65.0543 Y92.5199
G01 X65.0539 Y92.5374
G01 X65.0526 Y92.5548
G01 X65.0492 Y92.5808
G01 X65.0459 Y92.5979
G01 X65.0325 Y92.6592
G01 X65.0277 Y92.6769
G01 X65.0189 Y92.7029
G01 X65.0081 Y92.7282
G01 X64.9999 Y92.7446
G01 X64.9861 Y92.7684
G01 X64.9759 Y92.7837
G01 X64.9650 Y92.7984
G01 X64.9533 Y92.8125
G01 X64.9068 Y92.8662
G01 X64.8882 Y92.8862
G01 X64.8749 Y92.8987
G01 X64.8539 Y92.9162
G01 X64.8393 Y92.9270
G01 X64.8163 Y92.9417
G01 X64.7922 Y92.9548
G01 X64.7673 Y92.9659
G01 X64.7416 Y92.9753
G01 X64.6648 Y92.9979
G01 X64.6394 Y93.0044
G01 X64.6223 Y93.0077
G01 X64.6050 Y93.0102
G01 X64.5789 Y93.0124
G01 X64.5614 Y93.0128
G01 X0.7810 Y93.0128
G01 X0.7636 Y93.0124
G01 X0.7462 Y93.0111
G01 X0.7202 Y93.0077
G01 X0.7031 Y93.0044
G01 X0.6418 Y92.9910
G01 X0.6153 Y92.9835
G01 X0.5980 Y92.9774
G01 X0.5811 Y92.9704
G01 X0.5563 Y92.9584
G01 X0.5326 Y92.9446
G01 X0.5173 Y92.9344
G01 X0.5026 Y92.9235
G01 X0.4885 Y92.9118
G01 X0.4348 Y92.8653
G01 X0.4213 Y92.8530
G01 X0.4023 Y92.8334
G01 X0.3848 Y92.8124
G01 X0.3740 Y92.7978
G01 X0.3593 Y92.7748
G01 X0.3462 Y92.7507
G01 X0.3350 Y92.7258
G01 X0.3257 Y92.7001
G01 X0.3031 Y92.6233
G01 X0.2966 Y92.5979
G01 X0.2933 Y92.5808
G01 X0.2908 Y92.5635
G01 X0.2891 Y92.5461
G01 X0.2882 Y92.5199
G01 X0.2882 Y0.7995
G01 X0.2891 Y0.7734
G01 X0.2908 Y0.7560
G01 X0.2933 Y0.7387
G01 X0.2966 Y0.7216
G00 Z2.0000
G00 X0.3901 Y0.7419
G01 F30.00
G01 Z-0.1110
G01 F50.00
G01 X0.4030 Y0.6830
G01 X0.4085 Y0.6634
G01 X0.4131 Y0.6506
G01 X0.4182 Y0.6381
G01 X0.4240 Y0.6258
G01 X0.4303 Y0.6139
G01 X0.4410 Y0.5966
G01 X0.4488 Y0.5855
G01 X0.4571 Y0.5748
G01 X0.5125 Y0.5109
G01 X0.5266 Y0.4965
G01 X0.5366 Y0.4875
G01 X0.5471 Y0.4790
G01 X0.5579 Y0.4711
G01 X0.5692 Y0.4636
G01 X0.5808 Y0.4568
G01 X0.5927 Y0.4505
G01 X0.6049 Y0.4448
G01 X0.6237 Y0.4375
G01 X0.6365 Y0.4334
G01 X0.7046 Y0.4134
G01 X0.7234 Y0.4086
G01 X0.7361 Y0.4062
G01 X0.7553 Y0.4036
G01 X0.7681 Y0.4027
G01 X0.7810 Y0.4024
G01 X64.5614 Y0.4024
G01 X64.5743 Y0.4027
G01 X64.5872 Y0.4036
G01 X64.6064 Y0.4062
G01 X64.6191 Y0.4086
G01 X64.6780 Y0.4215
G01 X64.6911 Y0.4250
G01 X64.7104 Y0.4316
G01 X64.7229 Y0.4367
G01 X64.7412 Y0.4456
G01 X64.7530 Y0.4522
G01 X64.7644 Y0.4595
G01 X64.7809 Y0.4714
G01 X64.7913 Y0.4800
G01 X64.8450 Y0.5265
G01 X64.8550 Y0.5356
G01 X64.8690 Y0.5501
G01 X64.8820 Y0.5656
G01 X64.8899 Y0.5764
G01 X64.9008 Y0.5934
G01 X64.9105 Y0.6112
G01 X64.9187 Y0.6296
G01 X64.9256 Y0.6486
G01 X64.9476 Y0.7232
G01 X64.9524 Y0.7419
G01 X64.9558 Y0.7610
G01 X64.9574 Y0.7738
G01 X64.9583 Y0.7866
G01 X64.9586 Y0.7995
G01 X64.9586 Y92.5199
G01 X64.9579 Y92.5393
G01 X64.9567 Y92.5521
G01 X64.9548 Y92.5649
G01 X64.9524 Y92.5776
G01 X64.9395 Y92.6365
G01 X64.9359 Y92.6496
G01 X64.9294 Y92.6689
G01 X64.9243 Y92.6814
G01 X64.9154 Y92.6997
G01 X64.9052 Y92.7173
G01 X64.8977 Y92.7285
G01 X64.8896 Y92.7394
G01 X64.8810 Y92.7499
G01 X64.8345 Y92.8035
G01 X64.8254 Y92.8135
G01 X64.8109 Y92.8275
G01 X64.7954 Y92.8405
G01 X64.7846 Y92.8484
G01 X64.7676 Y92.8594
G01 X64.7498 Y92.8690
G01 X64.7314 Y92.8773
G01 X64.7124 Y92.8841
G01 X64.6378 Y92.9061
G01 X64.6191 Y92.9109
G01 X64.6000 Y92.9143
G01 X64.5872 Y92.9159
G01 X64.5743 Y92.9168
G01 X64.5614 Y92.9171
G01 X0.7810 Y92.9171
G01 X0.7681 Y92.9168
G01 X0.7553 Y92.9159
G01 X0.7361 Y92.9133
G01 X0.7234 Y92.9109
G01 X0.6645 Y92.8980
G01 X0.6514 Y92.8945
G01 X0.6321 Y92.8879
G01 X0.6134 Y92.8800
G01 X0.6013 Y92.8739
G01 X0.5837 Y92.8637
G01 X0.5725 Y92.8562
G01 X0.5616 Y92.8481
G01 X0.5511 Y92.8395
G01 X0.4975 Y92.7930
G01 X0.4875 Y92.7839
G01 X0.4735 Y92.7694
G01 X0.4605 Y92.7539
G01 X0.4526 Y92.7431
G01 X0.4416 Y92.7261
G01 X0.4320 Y92.7083
G01 X0.4237 Y92.6899
G01 X0.4169 Y92.6709
G01 X0.3949 Y92.5963
G01 X0.3901 Y92.5776
G01 X0.3876 Y92.5649
G01 X0.3858 Y92.5521
G01 X0.3842 Y92.5328
G01 X0.3839 Y92.5199
G01 X0.3839 Y0.7995
G01 X0.3842 Y0.7866
G01 X0.3851 Y0.7738
G01 X0.3867 Y0.7610
G01 X0.3901 Y0.7419
G00 Z2.0000
G00 X0.4836 Y0.7623
G01 F30.00
G01 Z-0.1110
G01 F50.00
G01 X0.4950 Y0.7099
G01 X0.4983 Y0.6972
G01 X0.5010 Y0.6888
G01 X0.5058 Y0.6766
G01 X0.5137 Y0.6609
G01 X0.5230 Y0.6461
G01 X0.5310 Y0.6357
G01 X0.5832 Y0.5754
G01 X0.5956 Y0.5631
G01 X0.6091 Y0.5521
G01 X0.6236 Y0.5425
G01 X0.6390 Y0.5344
G01 X0.6552 Y0.5279
G01 X0.7397 Y0.5030
G01 X0.7478 Y0.5013
G01 X0.7602 Y0.4993
G01 X0.7727 Y0.4983
G01 X0.7810 Y0.4981
G01 X64.5614 Y0.4981
G01 X64.5740 Y0.4985
G01 X64.5905 Y0.5005
G01 X64.6553 Y0.5145
G01 X64.6638 Y0.5168
G01 X64.6763 Y0.5210
G01 X64.6844 Y0.5243
G01 X64.6962 Y0.5301
G01 X64.7113 Y0.5391
G01 X64.7219 Y0.5468
G01 X64.7823 Y0.5988
G01 X64.7888 Y0.6047
G01 X64.7979 Y0.6141
G01 X64.8062 Y0.6241
G01 X64.8114 Y0.6311
G01 X64.8206 Y0.6459
G01 X64.8266 Y0.6576
G01 X64.8316 Y0.6696
G01 X64.8358 Y0.6820
G01 X64.8579 Y0.7582
G01 X64.8597 Y0.7663
G01 X64.8616 Y0.7787
G01 X64.8627 Y0.7912
G01 X64.8629 Y0.7995
G01 X64.8629 Y92.5199
G01 X64.8621 Y92.5366
G01 X64.8605 Y92.5490
G01 X64.8465 Y92.6139
G01 X64.8429 Y92.6265
G01 X64.8400 Y92.6348
G01 X64.8349 Y92.6469
G01 X64.8309 Y92.6547
G01 X64.8243 Y92.6661
G01 X64.8142 Y92.6804
G01 X64.7622 Y92.7408
G01 X64.7532 Y92.7504
G01 X64.7469 Y92.7564
G01 X64.7369 Y92.7648
G01 X64.7298 Y92.7699
G01 X64.7189 Y92.7770
G01 X64.7074 Y92.7832
G01 X64.6954 Y92.7886
G01 X64.6790 Y92.7943
G01 X64.6028 Y92.8165
G01 X64.5905 Y92.8190
G01 X64.5823 Y92.8202
G01 X64.5740 Y92.8209
G01 X64.5614 Y92.8214
G01 X0.7810 Y92.8214
G01 X0.7685 Y92.8209
G01 X0.7519 Y92.8190
G01 X0.6871 Y92.8050
G01 X0.6787 Y92.8027
G01 X0.6662 Y92.7985
G01 X0.6541 Y92.7934
G01 X0.6463 Y92.7894
G01 X0.6312 Y92.7804
G01 X0.6206 Y92.7727
G01 X0.5601 Y92.7207
G01 X0.5537 Y92.7148
G01 X0.5446 Y92.7054
G01 X0.5362 Y92.6954
G01 X0.5311 Y92.6884
G01 X0.5218 Y92.6736
G01 X0.5159 Y92.6619
G01 X0.5108 Y92.6499
G01 X0.5067 Y92.6375
G01 X0.4845 Y92.5613
G01 X0.4828 Y92.5532
G01 X0.4808 Y92.5408
G01 X0.4800 Y92.5325
G01 X0.4796 Y92.5199
G01 X0.4796 Y0.7995
G01 X0.4800 Y0.7870
G01 X0.4808 Y0.7787
G01 X0.4836 Y0.7623
G00 Z2.0000
G00 X0.5771 Y0.7826
G01 F30.00
G01 Z-0.1110
G01 F50.00
G01 X0.5894 Y0.7264
G01 X0.5926 Y0.7169
G01 X0.5970 Y0.7080
G01 X0.6012 Y0.7013
G01 X0.6049 Y0.6965
G01 X0.6526 Y0.6413
G01 X0.6581 Y0.6356
G01 X0.6657 Y0.6293
G01 X0.6723 Y0.6249
G01 X0.6793 Y0.6212
G01 X0.6867 Y0.6182
G01 X0.7604 Y0.5965
G01 X0.7716 Y0.5944
G01 X0.7810 Y0.5938
G01 X64.5614 Y0.5938
G01 X64.5690 Y0.5942
G01 X64.5765 Y0.5952
G01 X64.6327 Y0.6075
G01 X64.6422 Y0.6104
G01 X64.6513 Y0.6145
G01 X64.6581 Y0.6186
G01 X64.6645 Y0.6234
G01 X64.7197 Y0.6712
G01 X64.7267 Y0.6781
G01 X64.7329 Y0.6858
G01 X64.7389 Y0.6961
G01 X64.7421 Y0.7033
G01 X64.7440 Y0.7090
G01 X64.7645 Y0.7789
G01 X64.7666 Y0.7901
G01 X64.7672 Y0.7995
G01 X64.7672 Y92.5199
G01 X64.7668 Y92.5275
G01 X64.7657 Y92.5350
G01 X64.7535 Y92.5912
G01 X64.7506 Y92.6007
G01 X64.7465 Y92.6098
G01 X64.7424 Y92.6166
G01 X64.7376 Y92.6230
G01 X64.6898 Y92.6782
G01 X64.6829 Y92.6852
G01 X64.6751 Y92.6914
G01 X64.6701 Y92.6946
G01 X64.6631 Y92.6983
G01 X64.6520 Y92.7025
G01 X64.5821 Y92.7230
G01 X64.5709 Y92.7251
G01 X64.5614 Y92.7257
G01 X0.7810 Y92.7257
G01 X0.7735 Y92.7253
G01 X0.7659 Y92.7243
G01 X0.7098 Y92.7120
G01 X0.7003 Y92.7091
G01 X0.6912 Y92.7050
G01 X0.6844 Y92.7009
G01 X0.6780 Y92.6961
G01 X0.6228 Y92.6483
G01 X0.6158 Y92.6414
G01 X0.6096 Y92.6337
G01 X0.6036 Y92.6234
G01 X0.6011 Y92.6180
G01 X0.5985 Y92.6105
G01 X0.5780 Y92.5406
G01 X0.5759 Y92.5294
G01 X0.5753 Y92.5199
G01 X0.5753 Y0.7995
G01 X0.5757 Y0.7920
G01 X0.5771 Y0.7826
G00 Z2.0000
G00 X10.3999 Y6.1559
G01 F30.00
G01 Z-0.1110
G01 F50.00
G01 X10.3999 Y5.5971
G01 X10.4048 Y5.5509
G01 X10.4061 Y5.5454
G01 X10.4475 Y5.4349
G01 X10.4506 Y5.4293
G01 X10.5203 Y5.3363
G01 X10.5248 Y5.3318
G01 X10.6178 Y5.2621
G01 X10.6234 Y5.2590
G01 X10.7338 Y5.2176
G01 X10.7394 Y5.2163
G01 X10.7856 Y5.2114
G01 X11.3444 Y5.2114
G01 X11.3444 Y5.5599
G01 X10.8262 Y5.5599
G01 X10.8145 Y5.5611
G01 X10.8050 Y5.5633
G01 X10.7940 Y5.5676
G01 X10.7855 Y5.5723
G01 X10.7775 Y5.5780
G01 X10.7704 Y5.5847
G01 X10.7641 Y5.5921
G01 X10.7597 Y5.5986
G01 X10.7552 Y5.6073
G01 X10.7524 Y5.6146
G01 X10.7499 Y5.6241
G01 X10.7486 Y5.6338
G01 X10.7484 Y6.1559
G01 X10.3999 Y6.1559
G00 Z2.0000
G00 X10.4956 Y6.0602
G01 F30.00
G01 Z-0.1110
G01 F50.00
G01 X10.4956 Y5.6011
G01 X10.4989 Y5.5703
G01 X10.5334 Y5.4783
G01 X10.5906 Y5.4021
G01 X10.6668 Y5.3449
G01 X10.7588 Y5.3104
G01 X10.7896 Y5.3071
G01 X11.2487 Y5.3071
G01 X11.2487 Y5.4642
G01 X10.8281 Y5.4642
G01 X10.8109 Y5.4650
G01 X10.7981 Y5.4668
G01 X10.7813 Y5.4706
G01 X10.7650 Y5.4760
G01 X10.7531 Y5.4810
G01 X10.7417 Y5.4870
G01 X10.7271 Y5.4962
G01 X10.7135 Y5.5068
G01 X10.7041 Y5.5156
G01 X10.6925 Y5.5283
G01 X10.6847 Y5.5386
G01 X10.6777 Y5.5494
G01 X10.6695 Y5.5646
G01 X10.6629 Y5.5805
G01 X10.6590 Y5.5929
G01 X10.6561 Y5.6054
G01 X10.6535 Y5.6224
G01 X10.6527 Y5.6396
G01 X10.6527 Y6.0602
G01 X10.4956 Y6.0602
G00 Z2.0000
G00 X10.3999 Y6.8234
G01 F30.00
G01 Z-0.1110
G01 F50.00
G01 X10.7484 Y6.8234
G01 X10.7484 Y7.3416
G01 X10.7493 Y7.3513
G01 X10.7518 Y7.3628
G01 X10.7560 Y7.3737
G01 X10.7608 Y7.3823
G01 X10.7665 Y7.3902
G01 X10.7717 Y7.3960
G01 X10.7791 Y7.4025
G01 X10.7871 Y7.4081
G01 X10.7958 Y7.4126
G01 X10.8031 Y7.4154
G01 X10.8126 Y7.4179
G01 X10.8223 Y7.4192
G01 X11.3444 Y7.4194
G01 X11.3444 Y7.7679
G01 X10.7856 Y7.7679
G01 X10.7394 Y7.7630
G01 X10.7338 Y7.7617
G01 X10.6234 Y7.7203
G01 X10.6178 Y7.7172
G01 X10.5248 Y7.6475
G01 X10.5203 Y7.6430
G01 X10.4506 Y7.5500
G01 X10.4475 Y7.5444
G01 X10.4061 Y7.4339
G01 X10.4048 Y7.4284
G01 X10.3999 Y7.3822
G01 X10.3999 Y6.8234
G00 Z2.0000
G00 X10.4956 Y6.9191
G01 F30.00
G01 Z-0.1110
G01 F50.00
G01 X10.6527 Y6.9191
G01 X10.6527 Y7.3396
G01 X10.6535 Y7.3568
G01 X10.6553 Y7.3696
G01 X10.6590 Y7.3864
G01 X10.6629 Y7.3988
G01 X10.6695 Y7.4147
G01 X10.6755 Y7.4261
G01 X10.6847 Y7.4407
G01 X10.6953 Y7.4542
G01 X10.7041 Y7.4637
G01 X10.7168 Y7.4753
G01 X10.7271 Y7.4831
G01 X10.7379 Y7.4901
G01 X10.7531 Y7.4983
G01 X10.7650 Y7.5033
G01 X10.7813 Y7.5087
G01 X10.7981 Y7.5125
G01 X10.8109 Y7.5143
G01 X10.8281 Y7.5151
G01 X11.2487 Y7.5151
G01 X11.2487 Y7.6722
G01 X10.7896 Y7.6722
G01 X10.7588 Y7.6689
G01 X10.6668 Y7.6344
G01 X10.5906 Y7.5772
G01 X10.5334 Y7.5010
G01 X10.4989 Y7.4089
G01 X10.4956 Y7.3782
G01 X10.4956 Y6.9191
G00 Z2.0000
G00 X13.1242 Y5.9589
G01 F30.00
G01 Z-0.1110
G01 F50.00
G01 X13.1012 Y6.0075
G01 X13.0939 Y6.0240
G01 X13.0874 Y6.0408
G01 X13.0564 Y6.1278
G01 X13.0489 Y6.1538
G01 X13.0265 Y6.2434
G01 X13.0216 Y6.2700
G01 X13.0094 Y6.3525
G01 X13.0072 Y6.3704
G01 X13.0058 Y6.3883
G01 X13.0017 Y6.4716
G01 X13.0013 Y6.4896
G01 X13.0017 Y6.5076
G01 X13.0058 Y6.5910
G01 X13.0072 Y6.6089
G01 X13.0094 Y6.6268
G01 X13.0216 Y6.7093
G01 X13.0265 Y6.7359
G01 X13.0512 Y6.8342
G01 X13.0593 Y6.8600
G01 X13.0874 Y6.9385
G01 X13.0939 Y6.9553
G01 X13.1012 Y6.9718
G01 X13.1257 Y7.0236
G01 X13.0726 Y7.0264
G01 X13.0545 Y7.0281
G01 X13.0275 Y7.0325
G01 X13.0010 Y7.0389
G01 X12.9749 Y7.0472
G01 X12.9496 Y7.0574
G01 X12.9251 Y7.0695
G01 X12.9093 Y7.0786
G01 X12.8950 Y7.0877
G01 X12.8950 Y5.8925
G01 X12.9121 Y5.9009
G01 X12.9289 Y5.9081
G01 X13.0039 Y5.9361
G01 X13.0299 Y5.9446
G01 X13.0564 Y5.9512
G01 X13.0743 Y5.9545
G01 X13.1015 Y5.9578
G01 X13.1242 Y5.9589
G00 Z2.0000
G00 X13.3197 Y5.8207
G01 F30.00
G01 Z-0.1110
G01 F50.00
G01 X13.2936 Y5.8559
G01 X13.2823 Y5.8723
G01 X13.2359 Y5.9496
G01 X13.2263 Y5.9670
G01 X13.1877 Y6.0484
G01 X13.1823 Y6.0606
G01 X13.1775 Y6.0730
G01 X13.1473 Y6.1579
G01 X13.1417 Y6.1770
G01 X13.1214 Y6.2579
G01 X13.1185 Y6.2709
G01 X13.1163 Y6.2840
G01 X13.1040 Y6.3665
G01 X13.1024 Y6.3798
G01 X13.1014 Y6.3930
G01 X13.0973 Y6.4763
G01 X13.0970 Y6.4896
G01 X13.0973 Y6.5030
G01 X13.1014 Y6.5863
G01 X13.1024 Y6.5995
G01 X13.1040 Y6.6127
G01 X13.1163 Y6.6953
G01 X13.1185 Y6.7084
G01 X13.1214 Y6.7214
G01 X13.1417 Y6.8023
G01 X13.1473 Y6.8214
G01 X13.1775 Y6.9063
G01 X13.1823 Y6.9187
G01 X13.1877 Y6.9309
G01 X13.2263 Y7.0122
G01 X13.2359 Y7.0297
G01 X13.2823 Y7.1069
G01 X13.2936 Y7.1234
G01 X13.3238 Y7.1641
G01 X13.2940 Y7.1473
G01 X13.2819 Y7.1415
G01 X13.2631 Y7.1339
G01 X13.2439 Y7.1277
G01 X13.2309 Y7.1244
G01 X13.2110 Y7.1206
G01 X13.1977 Y7.1190
G01 X13.1842 Y7.1179
G01 X13.1640 Y7.1177
G01 X13.0797 Y7.1218
G01 X13.0663 Y7.1231
G01 X13.0530 Y7.1251
G01 X13.0398 Y7.1277
G01 X13.0267 Y7.1310
G01 X13.0138 Y7.1350
G01 X12.9949 Y7.1421
G01 X12.9826 Y7.1476
G01 X12.9647 Y7.1570
G01 X12.9532 Y7.1640
G01 X12.9421 Y7.1715
G01 X12.8843 Y7.2128
G01 X12.8737 Y7.2207
G01 X12.8635 Y7.2291
G01 X12.8538 Y7.2381
G01 X12.8445 Y7.2475
G01 X12.8314 Y7.2624
G01 X12.8233 Y7.2729
G01 X12.8158 Y7.2837
G01 X12.8087 Y7.2949
G01 X12.7993 Y7.3116
G01 X12.7993 Y5.6648
G01 X12.8482 Y5.7303
G01 X12.8609 Y5.7460
G01 X12.8701 Y5.7559
G01 X12.8846 Y5.7699
G01 X12.8949 Y5.7786
G01 X12.9056 Y5.7868
G01 X12.9167 Y5.7944
G01 X12.9340 Y5.8048
G01 X12.9459 Y5.8111
G01 X12.9582 Y5.8167
G01 X12.9707 Y5.8217
G01 X13.0372 Y5.8464
G01 X13.0564 Y5.8527
G01 X13.0694 Y5.8561
G01 X13.0826 Y5.8589
G01 X13.0959 Y5.8610
G01 X13.1093 Y5.8624
G01 X13.1228 Y5.8632
G01 X13.1362 Y5.8633
G01 X13.1497 Y5.8627
G01 X13.1631 Y5.8615
G01 X13.1764 Y5.8596
G01 X13.1897 Y5.8570
G01 X13.2590 Y5.8418
G01 X13.2718 Y5.8387
G01 X13.2845 Y5.8349
G01 X13.2970 Y5.8305
G01 X13.3092 Y5.8255
G01 X13.3197 Y5.8207
G00 Z2.0000
G00 X13.6660 Y7.4646
G01 F30.00
G01 Z-0.1110
G01 F50.00
G01 X13.6838 Y7.4752
G01 X13.6969 Y7.4821
G01 X13.6969 Y7.5282
G01 X13.6911 Y7.5125
G01 X13.6830 Y7.4944
G01 X13.6737 Y7.4769
G01 X13.6660 Y7.4646
G00 Z2.0000
G00 X14.7394 Y7.5238
G01 F30.00
G01 Z-0.1110
G01 F50.00
G01 X14.7394 Y7.4821
G01 X14.7525 Y7.4752
G01 X14.7815 Y7.4579
G01 X14.7547 Y7.4963
G01 X14.7477 Y7.5080
G01 X14.7394 Y7.5238
G00 Z2.0000
G00 X15.2388 Y6.9515
G01 F30.00
G01 Z-0.1110
G01 F50.00
G01 X15.2513 Y6.9248
G01 X15.2564 Y6.9125
G01 X15.2890 Y6.8214
G01 X15.2946 Y6.8023
G01 X15.3164 Y6.7149
G01 X15.3200 Y6.6953
G01 X15.3323 Y6.6127
G01 X15.3339 Y6.5995
G01 X15.3349 Y6.5863
G01 X15.3390 Y6.5030
G01 X15.3393 Y6.4896
G01 X15.3390 Y6.4763
G01 X15.3349 Y6.3930
G01 X15.3339 Y6.3798
G01 X15.3323 Y6.3665
G01 X15.3200 Y6.2840
G01 X15.3164 Y6.2644
G01 X15.2946 Y6.1770
G01 X15.2890 Y6.1579
G01 X15.2564 Y6.0668
G01 X15.2486 Y6.0484
G01 X15.2314 Y6.0122
G01 X15.2610 Y6.0382
G01 X15.2716 Y6.0466
G01 X15.2826 Y6.0545
G01 X15.2998 Y6.0653
G01 X15.3117 Y6.0717
G01 X15.3239 Y6.0776
G01 X15.3364 Y6.0828
G01 X15.3556 Y6.0895
G01 X15.3686 Y6.0932
G01 X15.3818 Y6.0961
G01 X15.4650 Y6.1107
G01 X15.4851 Y6.1129
G01 X15.4985 Y6.1136
G01 X15.5120 Y6.1136
G01 X15.5255 Y6.1129
G01 X15.5389 Y6.1115
G01 X15.5522 Y6.1095
G01 X15.5719 Y6.1053
G01 X15.5849 Y6.1016
G01 X15.5977 Y6.0973
G01 X15.6102 Y6.0924
G01 X15.6756 Y6.0649
G01 X15.6875 Y6.0596
G01 X15.6990 Y6.0537
G01 X15.7103 Y6.0473
G01 X15.7212 Y6.0404
G01 X15.7369 Y6.0290
G01 X15.7250 Y6.0545
G01 X15.7199 Y6.0668
G01 X15.6873 Y6.1579
G01 X15.6817 Y6.1770
G01 X15.6599 Y6.2644
G01 X15.6563 Y6.2840
G01 X15.6440 Y6.3665
G01 X15.6424 Y6.3798
G01 X15.6414 Y6.3930
G01 X15.6373 Y6.4763
G01 X15.6370 Y6.4896
G01 X15.6373 Y6.5030
G01 X15.6414 Y6.5863
G01 X15.6424 Y6.5995
G01 X15.6440 Y6.6127
G01 X15.6563 Y6.6953
G01 X15.6599 Y6.7149
G01 X15.6817 Y6.8023
G01 X15.6873 Y6.8214
G01 X15.7199 Y6.9125
G01 X15.7250 Y6.9248
G01 X15.7429 Y6.9630
G01 X15.7033 Y6.9306
G01 X15.6925 Y6.9226
G01 X15.6813 Y6.9152
G01 X15.6697 Y6.9083
G01 X15.6578 Y6.9020
G01 X15.6456 Y6.8963
G01 X15.6269 Y6.8888
G01 X15.6141 Y6.8847
G01 X15.6011 Y6.8812
G01 X15.5879 Y6.8783
G01 X15.5746 Y6.8761
G01 X15.4974 Y6.8671
G01 X15.4840 Y6.8658
G01 X15.4705 Y6.8653
G01 X15.4571 Y6.8654
G01 X15.4436 Y6.8662
G01 X15.4302 Y6.8676
G01 X15.4169 Y6.8698
G01 X15.3972 Y6.8742
G01 X15.3843 Y6.8779
G01 X15.3716 Y6.8823
G01 X15.3591 Y6.8873
G01 X15.3468 Y6.8929
G01 X15.2772 Y6.9272
G01 X15.2600 Y6.9369
G01 X15.2490 Y6.9441
G01 X15.2388 Y6.9515
G00 Z2.0000
G00 X15.3999 Y6.7756
G01 F30.00
G01 Z-0.1110
G01 F50.00
G01 X15.4097 Y6.7359
G01 X15.4133 Y6.7182
G01 X15.4281 Y6.6179
G01 X15.4305 Y6.5910
G01 X15.4345 Y6.5076
G01 X15.4350 Y6.4896
G01 X15.4345 Y6.4716
G01 X15.4305 Y6.3883
G01 X15.4281 Y6.3614
G01 X15.4133 Y6.2611
G01 X15.4097 Y6.2434
G01 X15.3980 Y6.1962
G01 X15.4419 Y6.2039
G01 X15.4599 Y6.2066
G01 X15.4781 Y6.2084
G01 X15.4963 Y6.2092
G01 X15.5145 Y6.2092
G01 X15.5327 Y6.2083
G01 X15.5508 Y6.2065
G01 X15.5767 Y6.2023
G01 X15.5665 Y6.2434
G01 X15.5630 Y6.2611
G01 X15.5481 Y6.3614
G01 X15.5458 Y6.3883
G01 X15.5417 Y6.4716
G01 X15.5413 Y6.4896
G01 X15.5417 Y6.5076
G01 X15.5458 Y6.5910
G01 X15.5481 Y6.6179
G01 X15.5630 Y6.7182
G01 X15.5665 Y6.7359
G01 X15.5775 Y6.7800
G01 X15.4994 Y6.7711
G01 X15.4721 Y6.7696
G01 X15.4539 Y6.7698
G01 X15.4357 Y6.7708
G01 X15.4176 Y6.7728
G01 X15.3999 Y6.7756
G00 Z2.0000
G00 X17.0919 Y7.7276
G01 F30.00
G01 Z-0.1110
G01 F50.00
G01 X17.0919 Y7.3566
G01 X17.1157 Y7.3479
G01 X17.1947 Y7.3105
G01 X17.2730 Y7.2638
G01 X17.3480 Y7.2084
G01 X17.4156 Y7.1471
G01 X17.4768 Y7.0795
G01 X17.5323 Y7.0045
G01 X17.5790 Y6.9262
G01 X17.6163 Y6.8472
G01 X17.6251 Y6.8234
G01 X17.9923 Y6.8234
G01 X17.9728 Y6.9012
G01 X17.9716 Y6.9047
G01 X17.8893 Y7.0940
G01 X17.8875 Y7.0973
G01 X17.7754 Y7.2707
G01 X17.7731 Y7.2736
G01 X17.6342 Y7.4263
G01 X17.6314 Y7.4289
G01 X17.4694 Y7.5568
G01 X17.4663 Y7.5589
G01 X17.2856 Y7.6586
G01 X17.2821 Y7.6602
G01 X17.0919 Y7.7276
G00 Z2.0000
G00 X17.1876 Y7.5922
G01 F30.00
G01 Z-0.1110
G01 F50.00
G01 X17.1876 Y7.4198
G01 X17.2338 Y7.3979
G01 X17.2453 Y7.3919
G01 X17.3206 Y7.3469
G01 X17.3314 Y7.3398
G01 X17.4087 Y7.2823
G01 X17.4832 Y7.2147
G01 X17.5508 Y7.1402
G01 X17.6083 Y7.0629
G01 X17.6154 Y7.0521
G01 X17.6604 Y6.9768
G01 X17.6664 Y6.9653
G01 X17.6883 Y6.9191
G01 X17.8610 Y6.9191
G01 X17.8039 Y7.0504
G01 X17.6983 Y7.2137
G01 X17.5674 Y7.3575
G01 X17.4148 Y7.4780
G01 X17.2446 Y7.5720
G01 X17.1876 Y7.5922
G00 Z2.0000
G00 X17.1876 Y5.3838
G01 F30.00
G01 Z-0.1110
G01 F50.00
G01 X17.1911 Y5.3848
G01 X17.3657 Y5.4704
G01 X17.5240 Y5.5833
G01 X17.6618 Y5.7206
G01 X17.7753 Y5.8785
G01 X17.8614 Y6.0528
G01 X17.8637 Y6.0602
G01 X17.6883 Y6.0602
G01 X17.6664 Y6.0139
G01 X17.6604 Y6.0025
G01 X17.6154 Y5.9272
G01 X17.6083 Y5.9164
G01 X17.5508 Y5.8391
G01 X17.4832 Y5.7645
G01 X17.4087 Y5.6970
G01 X17.3314 Y5.6395
G01 X17.3206 Y5.6324
G01 X17.2453 Y5.5874
G01 X17.2338 Y5.5814
G01 X17.1876 Y5.5595
G01 X17.1876 Y5.3838
G00 Z2.0000
G00 X17.0919 Y5.2552
G01 F30.00
G01 Z-0.1110
G01 F50.00
G01 X17.2243 Y5.2949
G01 X17.2278 Y5.2963
G01 X17.4132 Y5.3871
G01 X17.4164 Y5.3890
G01 X17.5845 Y5.5089
G01 X17.5874 Y5.5113
G01 X17.7336 Y5.6570
G01 X17.7360 Y5.6599
G01 X17.8565 Y5.8275
G01 X17.8584 Y5.8307
G01 X17.9499 Y6.0158
G01 X17.9513 Y6.0193
G01 X17.9928 Y6.1559
G01 X17.6251 Y6.1559
G01 X17.6163 Y6.1320
G01 X17.5790 Y6.0531
G01 X17.5323 Y5.9747
G01 X17.4768 Y5.8998
G01 X17.4156 Y5.8322
G01 X17.3480 Y5.7709
G01 X17.2730 Y5.7155
G01 X17.1947 Y5.6688
G01 X17.1157 Y5.6314
G01 X17.0919 Y5.6227
G01 X17.0919 Y5.2552
G00 Z2.0000
G00 X15.9586 Y13.2877
G01 F30.00
G01 Z-0.1110
G01 F50.00
G01 X15.9586 Y13.2842
G01 X15.9620 Y13.2808
G01 X15.9603 Y13.2841
G01 X15.9586 Y13.2877
G00 Z2.0000
G00 X16.0351 Y13.6923
G01 F30.00
G01 Z-0.1110
G01 F50.00
G01 X16.0003 Y13.6763
G01 X15.9586 Y13.6610
G01 X15.9586 Y13.5757
G01 X15.9676 Y13.5954
G01 X15.9740 Y13.6073
G01 X15.9809 Y13.6188
G01 X15.9924 Y13.6354
G01 X16.0351 Y13.6923
G00 Z2.0000
G00 X14.9161 Y13.5859
G01 F30.00
G01 Z-0.1110
G01 F50.00
G01 X14.9161 Y13.6610
G01 X14.8744 Y13.6763
G01 X14.8466 Y13.6890
G01 X14.8606 Y13.6750
G01 X14.8695 Y13.6650
G01 X14.8779 Y13.6546
G01 X14.8858 Y13.6437
G01 X14.8931 Y13.6325
G01 X14.9030 Y13.6151
G01 X14.9089 Y13.6030
G01 X14.9161 Y13.5859
G00 Z2.0000
G00 X14.1642 Y14.9061
G01 F30.00
G01 Z-0.1110
G01 F50.00
G01 X14.1822 Y14.7858
G01 X14.2117 Y14.6677
G01 X14.2139 Y14.6602
G01 X14.2550 Y14.5457
G01 X14.3087 Y14.4322
G01 X14.3712 Y14.3278
G01 X14.3755 Y14.3213
G01 X14.4493 Y14.2221
G01 X14.5324 Y14.1305
G01 X14.6225 Y14.0487
G01 X14.6286 Y14.0438
G01 X14.7280 Y13.9703
G01 X14.8341 Y13.9068
G01 X14.9458 Y13.8539
G01 X15.0640 Y13.8114
G01 X15.1075 Y13.8003
G01 X15.1075 Y13.0682
G01 X15.1089 Y13.0379
G01 X15.1131 Y13.0077
G01 X15.1147 Y13.0001
G01 X15.1217 Y12.9725
G01 X15.1326 Y12.9420
G01 X15.1464 Y12.9127
G01 X15.1610 Y12.8883
G01 X15.1653 Y12.8818
G01 X15.1799 Y12.8621
G01 X15.1849 Y12.8560
G01 X15.2041 Y12.8350
G01 X22.9099 Y5.1291
G01 X22.9339 Y5.1074
G01 X22.9599 Y5.0881
G01 X22.9877 Y5.0715
G01 X23.0170 Y5.0576
G01 X23.0474 Y5.0467
G01 X23.0788 Y5.0389
G01 X23.1109 Y5.0341
G01 X23.1432 Y5.0325
G01 X25.8606 Y5.0325
G01 X25.8606 Y4.5624
G01 X25.8610 Y4.5546
G01 X25.8630 Y4.5430
G01 X25.8667 Y4.5319
G01 X25.8719 Y4.5214
G01 X25.8787 Y4.5118
G01 X25.8868 Y4.5033
G01 X25.8960 Y4.4961
G01 X25.9045 Y4.4912
G01 X25.9153 Y4.4867
G01 X25.9267 Y4.4838
G01 X25.9345 Y4.4829
G01 X25.9403 Y4.4826
G01 X27.5403 Y4.4826
G01 X27.5462 Y4.4829
G01 X27.5540 Y4.4838
G01 X27.5597 Y4.4850
G01 X27.5672 Y4.4873
G01 X27.5779 Y4.4921
G01 X27.5878 Y4.4983
G01 X27.5924 Y4.5020
G01 X27.5981 Y4.5074
G01 X27.6055 Y4.5165
G01 X27.6097 Y4.5231
G01 X27.6124 Y4.5283
G01 X27.6147 Y4.5337
G01 X27.6172 Y4.5411
G01 X27.6195 Y4.5526
G01 X27.6201 Y4.5624
G01 X27.6201 Y5.0325
G01 X30.4645 Y5.0325
G01 X30.4968 Y5.0341
G01 X30.5288 Y5.0389
G01 X30.5602 Y5.0467
G01 X30.5907 Y5.0576
G01 X30.6200 Y5.0715
G01 X30.6478 Y5.0881
G01 X30.6738 Y5.1074
G01 X30.6977 Y5.1291
G01 X32.3854 Y6.8168
G01 X32.4106 Y6.8050
G01 X32.4373 Y6.7953
G01 X32.4448 Y6.7931
G01 X32.4686 Y6.7871
G01 X32.4763 Y6.7856
G01 X32.5044 Y6.7815
G01 X32.5348 Y6.7799
G01 X33.1867 Y6.7799
G01 X33.2191 Y6.7815
G01 X33.2472 Y6.7856
G01 X33.2549 Y6.7871
G01 X33.2825 Y6.7941
G01 X33.3093 Y6.8036
G01 X33.3165 Y6.8066
G01 X33.3422 Y6.8188
G01 X33.3666 Y6.8334
G01 X33.3731 Y6.8377
G01 X33.3959 Y6.8547
G01 X33.4171 Y6.8738
G01 X33.4226 Y6.8793
G01 X33.4416 Y6.9005
G01 X33.4587 Y6.9232
G01 X33.4630 Y6.9298
G01 X33.4776 Y6.9542
G01 X33.4914 Y6.9835
G01 X33.5023 Y7.0139
G01 X33.5102 Y7.0453
G01 X33.5149 Y7.0773
G01 X33.5165 Y7.1077
G01 X33.5165 Y8.4096
G01 X33.5149 Y8.4420
G01 X33.5105 Y8.4721
G01 X33.5023 Y8.5054
G01 X33.4928 Y8.5322
G01 X33.4898 Y8.5394
G01 X33.4793 Y8.5616
G01 X33.4756 Y8.5685
G01 X33.4609 Y8.5928
G01 X33.4416 Y8.6188
G01 X33.4199 Y8.6428
G01 X33.3959 Y8.6645
G01 X33.3699 Y8.6838
G01 X33.3456 Y8.6985
G01 X33.3387 Y8.7022
G01 X33.3165 Y8.7127
G01 X33.3093 Y8.7157
G01 X33.2825 Y8.7252
G01 X33.2511 Y8.7331
G01 X33.2191 Y8.7378
G01 X33.1916 Y8.7393
G01 X33.1916 Y9.4324
G01 X33.2063 Y9.4363
G01 X33.2367 Y9.4474
G01 X33.2642 Y9.4604
G01 X33.2903 Y9.4760
G01 X33.3148 Y9.4939
G01 X33.3209 Y9.4989
G01 X33.3419 Y9.5181
G01 X33.3624 Y9.5406
G01 X33.3807 Y9.5648
G01 X33.3850 Y9.5714
G01 X33.3996 Y9.5958
G01 X33.4134 Y9.6251
G01 X33.4231 Y9.6518
G01 X33.4253 Y9.6593
G01 X33.4322 Y9.6869
G01 X33.4369 Y9.7189
G01 X33.4385 Y9.7512
G01 X33.4385 Y11.0512
G01 X33.4371 Y11.0816
G01 X33.4322 Y11.1156
G01 X33.4243 Y11.1470
G01 X33.4134 Y11.1774
G01 X33.4013 Y11.2032
G01 X33.3976 Y11.2101
G01 X33.3850 Y11.2311
G01 X33.3807 Y11.2376
G01 X33.3636 Y11.2604
G01 X33.3446 Y11.2816
G01 X33.3391 Y11.2871
G01 X33.3179 Y11.3061
G01 X33.2919 Y11.3254
G01 X33.2642 Y11.3421
G01 X33.2349 Y11.3559
G01 X33.2045 Y11.3668
G01 X33.1731 Y11.3747
G01 X33.1411 Y11.3794
G01 X33.1136 Y11.3809
G01 X33.1136 Y12.3041
G01 X33.1661 Y12.3231
G01 X33.3061 Y12.3896
G01 X33.4374 Y12.4683
G01 X33.5604 Y12.5595
G01 X33.6740 Y12.6621
G01 X33.6795 Y12.6676
G01 X33.7809 Y12.7797
G01 X33.8721 Y12.9026
G01 X33.9510 Y13.0338
G01 X33.9547 Y13.0407
G01 X34.0192 Y13.1773
G01 X34.0715 Y13.3233
G01 X34.1091 Y13.4737
G01 X34.1314 Y13.6231
G01 X34.1322 Y13.6309
G01 X34.1394 Y13.7779
G01 X34.1394 Y13.7858
G01 X34.1319 Y13.9367
G01 X34.1098 Y14.0862
G01 X34.1083 Y14.0939
G01 X34.0715 Y14.2404
G01 X34.0206 Y14.3827
G01 X34.0177 Y14.3900
G01 X33.9530 Y14.5265
G01 X33.8733 Y14.6595
G01 X33.7809 Y14.7840
G01 X33.6795 Y14.8961
G01 X33.6740 Y14.9016
G01 X33.5619 Y15.0030
G01 X33.4374 Y15.0954
G01 X33.3078 Y15.1731
G01 X33.3009 Y15.1768
G01 X33.1643 Y15.2413
G01 X33.0183 Y15.2936
G01 X32.8679 Y15.3312
G01 X32.7146 Y15.3540
G01 X32.5637 Y15.3615
G01 X32.5558 Y15.3615
G01 X32.4049 Y15.3540
G01 X32.2554 Y15.3319
G01 X32.2477 Y15.3304
G01 X32.1012 Y15.2936
G01 X31.9588 Y15.2428
G01 X31.9516 Y15.2398
G01 X31.8185 Y15.1768
G01 X31.8116 Y15.1731
G01 X31.6821 Y15.0954
G01 X31.5576 Y15.0030
G01 X31.4427 Y14.8989
G01 X31.3386 Y14.7840
G01 X31.2462 Y14.6595
G01 X31.1665 Y14.5265
G01 X31.1002 Y14.3864
G01 X31.0480 Y14.2404
G01 X31.0103 Y14.0900
G01 X30.9881 Y13.9406
G01 X30.9873 Y13.9328
G01 X30.9801 Y13.7858
G01 X30.9801 Y13.7779
G01 X30.9876 Y13.6270
G01 X31.0097 Y13.4775
G01 X31.0112 Y13.4698
G01 X31.0480 Y13.3233
G01 X31.1002 Y13.1773
G01 X31.1665 Y13.0372
G01 X31.2473 Y12.9026
G01 X31.3386 Y12.7797
G01 X31.4400 Y12.6676
G01 X31.4455 Y12.6621
G01 X31.5576 Y12.5607
G01 X31.6789 Y12.4706
G01 X31.6854 Y12.4662
G01 X31.8133 Y12.3896
G01 X31.9552 Y12.3223
G01 X32.1030 Y12.2696
G01 X32.2535 Y12.2321
G01 X32.4030 Y12.2099
G01 X32.4539 Y12.2072
G01 X32.4539 Y11.3809
G01 X32.4264 Y11.3794
G01 X32.3944 Y11.3747
G01 X32.3630 Y11.3668
G01 X32.3326 Y11.3559
G01 X32.3033 Y11.3421
G01 X32.2755 Y11.3254
G01 X32.2495 Y11.3061
G01 X32.2284 Y11.2871
G01 X32.2229 Y11.2816
G01 X32.2064 Y11.2634
G01 X32.2014 Y11.2574
G01 X32.1846 Y11.2344
G01 X32.1699 Y11.2101
G01 X32.1662 Y11.2032
G01 X32.1541 Y11.1774
G01 X32.1432 Y11.1470
G01 X32.1353 Y11.1156
G01 X32.1308 Y11.0855
G01 X32.1290 Y11.0512
G01 X32.1290 Y9.7493
G01 X32.1306 Y9.7189
G01 X32.1347 Y9.6908
G01 X32.1362 Y9.6831
G01 X32.1432 Y9.6555
G01 X32.1527 Y9.6287
G01 X32.1557 Y9.6215
G01 X32.1662 Y9.5993
G01 X32.1699 Y9.5924
G01 X32.1846 Y9.5680
G01 X32.2038 Y9.5421
G01 X32.2256 Y9.5181
G01 X32.2495 Y9.4963
G01 X32.2755 Y9.4771
G01 X32.3033 Y9.4604
G01 X32.3326 Y9.4466
G01 X32.3649 Y9.4352
G01 X32.3944 Y9.4278
G01 X32.4284 Y9.4229
G01 X32.4568 Y9.4215
G01 X32.5319 Y9.4215
G01 X32.5319 Y8.7393
G01 X32.5044 Y8.7378
G01 X32.4724 Y8.7331
G01 X32.4410 Y8.7252
G01 X32.4142 Y8.7157
G01 X32.4070 Y8.7127
G01 X32.3848 Y8.7022
G01 X32.3779 Y8.6985
G01 X32.3535 Y8.6838
G01 X32.3306 Y8.6670
G01 X32.3246 Y8.6620
G01 X32.3064 Y8.6455
G01 X32.3009 Y8.6400
G01 X32.2818 Y8.6188
G01 X32.2626 Y8.5928
G01 X32.2459 Y8.5651
G01 X32.2337 Y8.5394
G01 X32.2307 Y8.5322
G01 X32.2206 Y8.5035
G01 X32.2133 Y8.4740
G01 X32.2091 Y8.4459
G01 X32.2083 Y8.4381
G01 X32.2070 Y8.4116
G01 X32.2070 Y7.5714
G01 X30.3279 Y5.6923
G01 X27.6201 Y5.6923
G01 X27.6201 Y6.1624
G01 X27.6192 Y6.1741
G01 X27.6177 Y6.1818
G01 X27.6161 Y6.1874
G01 X27.6132 Y6.1947
G01 X27.6097 Y6.2017
G01 X27.6055 Y6.2083
G01 X27.6020 Y6.2130
G01 X27.5967 Y6.2188
G01 X27.5924 Y6.2228
G01 X27.5863 Y6.2276
G01 X27.5796 Y6.2318
G01 X27.5744 Y6.2345
G01 X27.5672 Y6.2375
G01 X27.5616 Y6.2393
G01 X27.5540 Y6.2410
G01 X27.5462 Y6.2419
G01 X27.5403 Y6.2421
G01 X25.9403 Y6.2421
G01 X25.9286 Y6.2413
G01 X25.9210 Y6.2398
G01 X25.9153 Y6.2381
G01 X25.9045 Y6.2336
G01 X25.8944 Y6.2276
G01 X25.8853 Y6.2202
G01 X25.8775 Y6.2115
G01 X25.8710 Y6.2017
G01 X25.8667 Y6.1929
G01 X25.8630 Y6.1818
G01 X25.8610 Y6.1702
G01 X25.8606 Y6.1624
G01 X25.8606 Y5.6923
G01 X23.2798 Y5.6923
G01 X15.7672 Y13.2049
G01 X15.7672 Y13.8003
G01 X15.8107 Y13.8114
G01 X15.9253 Y13.8524
G01 X16.0423 Y13.9078
G01 X16.1483 Y13.9714
G01 X16.2461 Y14.0438
G01 X16.2522 Y14.0487
G01 X16.3436 Y14.1319
G01 X16.4266 Y14.2236
G01 X16.4992 Y14.3213
G01 X16.5035 Y14.3278
G01 X16.5660 Y14.4322
G01 X16.6197 Y14.5457
G01 X16.6608 Y14.6602
G01 X16.6630 Y14.6677
G01 X16.6925 Y14.7858
G01 X16.7109 Y14.9100
G01 X16.7170 Y15.0315
G01 X16.7170 Y15.0394
G01 X16.7109 Y15.1609
G01 X16.6932 Y15.2813
G01 X16.6916 Y15.2889
G01 X16.6620 Y15.4069
G01 X16.6211 Y15.5215
G01 X16.6181 Y15.5288
G01 X16.5660 Y15.6387
G01 X16.5035 Y15.7431
G01 X16.4992 Y15.7496
G01 X16.4266 Y15.8473
G01 X16.3423 Y15.9404
G01 X16.2492 Y16.0247
G01 X16.1515 Y16.0973
G01 X16.1450 Y16.1016
G01 X16.0406 Y16.1641
G01 X15.9271 Y16.2178
G01 X15.8125 Y16.2589
G01 X15.8051 Y16.2611
G01 X15.6908 Y16.2897
G01 X15.6832 Y16.2913
G01 X15.5628 Y16.3090
G01 X15.4413 Y16.3151
G01 X15.4334 Y16.3151
G01 X15.3158 Y16.3093
G01 X15.3080 Y16.3086
G01 X15.1877 Y16.2906
G01 X15.0658 Y16.2601
G01 X14.9476 Y16.2178
G01 X14.8376 Y16.1658
G01 X14.8307 Y16.1622
G01 X14.7297 Y16.1016
G01 X14.7231 Y16.0973
G01 X14.6255 Y16.0247
G01 X14.5324 Y15.9404
G01 X14.4481 Y15.8473
G01 X14.3755 Y15.7496
G01 X14.3712 Y15.7431
G01 X14.3087 Y15.6387
G01 X14.2550 Y15.5252
G01 X14.2139 Y15.4107
G01 X14.2117 Y15.4032
G01 X14.1822 Y15.2851
G01 X14.1638 Y15.1609
G01 X14.1577 Y15.0394
G01 X14.1577 Y15.0315
G01 X14.1635 Y14.9139
G01 X14.1642 Y14.9061
G00 Z2.0000
G00 X14.0696 Y14.8921
G01 F30.00
G01 Z-0.1110
G01 F50.00
G01 X14.0883 Y14.7671
G01 X14.1188 Y14.6445
G01 X14.1238 Y14.6280
G01 X14.1666 Y14.5091
G01 X14.2243 Y14.3871
G01 X14.2891 Y14.2786
G01 X14.2987 Y14.2642
G01 X14.3741 Y14.1629
G01 X14.4648 Y14.0629
G01 X14.5582 Y13.9778
G01 X14.5716 Y13.9669
G01 X14.6732 Y13.8918
G01 X14.7815 Y13.8267
G01 X14.7967 Y13.8185
G01 X14.9110 Y13.7647
G01 X15.0118 Y13.7284
G01 X15.0118 Y13.0682
G01 X15.0138 Y13.0265
G01 X15.0192 Y12.9895
G01 X15.0218 Y12.9768
G01 X15.0301 Y12.9447
G01 X15.0442 Y12.9054
G01 X15.0620 Y12.8676
G01 X15.0789 Y12.8391
G01 X15.0884 Y12.8248
G01 X15.1057 Y12.8016
G01 X15.1140 Y12.7917
G01 X15.1364 Y12.7673
G01 X22.8423 Y5.0615
G01 X22.8732 Y5.0334
G01 X22.9068 Y5.0085
G01 X22.9426 Y4.9871
G01 X22.9803 Y4.9692
G01 X23.0197 Y4.9551
G01 X23.0602 Y4.9450
G01 X23.1015 Y4.9389
G01 X23.1432 Y4.9368
G01 X25.7649 Y4.9368
G01 X25.7649 Y4.5581
G01 X25.7657 Y4.5452
G01 X25.7675 Y4.5324
G01 X25.7701 Y4.5198
G01 X25.7737 Y4.5074
G01 X25.7782 Y4.4953
G01 X25.7856 Y4.4797
G01 X25.7921 Y4.4685
G01 X25.7994 Y4.4579
G01 X25.8075 Y4.4478
G01 X25.8163 Y4.4383
G01 X25.8290 Y4.4268
G01 X25.8393 Y4.4190
G01 X25.8501 Y4.4119
G01 X25.8653 Y4.4038
G01 X25.8772 Y4.3987
G01 X25.8894 Y4.3945
G01 X25.9019 Y4.3912
G01 X25.9146 Y4.3888
G01 X25.9274 Y4.3874
G01 X25.9403 Y4.3869
G01 X27.5403 Y4.3869
G01 X27.5532 Y4.3874
G01 X27.5661 Y4.3888
G01 X27.5788 Y4.3912
G01 X27.5913 Y4.3945
G01 X27.5994 Y4.3972
G01 X27.6114 Y4.4020
G01 X27.6192 Y4.4057
G01 X27.6305 Y4.4119
G01 X27.6414 Y4.4190
G01 X27.6516 Y4.4268
G01 X27.6613 Y4.4353
G01 X27.6674 Y4.4414
G01 X27.6732 Y4.4478
G01 X27.6813 Y4.4579
G01 X27.6886 Y4.4685
G01 X27.6951 Y4.4797
G01 X27.7007 Y4.4913
G01 X27.7040 Y4.4993
G01 X27.7082 Y4.5115
G01 X27.7115 Y4.5240
G01 X27.7139 Y4.5367
G01 X27.7149 Y4.5452
G01 X27.7158 Y4.5624
G01 X27.7158 Y4.9368
G01 X30.4645 Y4.9368
G01 X30.5062 Y4.9389
G01 X30.5475 Y4.9450
G01 X30.5880 Y4.9551
G01 X30.6193 Y4.9661
G01 X30.6313 Y4.9709
G01 X30.6651 Y4.9871
G01 X30.6973 Y5.0062
G01 X30.7080 Y5.0135
G01 X30.7345 Y5.0334
G01 X30.7623 Y5.0585
G01 X32.4081 Y6.7042
G01 X32.4174 Y6.7013
G01 X32.4453 Y6.6943
G01 X32.4622 Y6.6909
G01 X32.4950 Y6.6862
G01 X32.5324 Y6.6842
G01 X33.1867 Y6.6842
G01 X33.2284 Y6.6862
G01 X33.2697 Y6.6924
G01 X33.3061 Y6.7013
G01 X33.3184 Y6.7052
G01 X33.3496 Y6.7166
G01 X33.3796 Y6.7306
G01 X33.3911 Y6.7365
G01 X33.4231 Y6.7559
G01 X33.4566 Y6.7808
G01 X33.4845 Y6.8058
G01 X33.4935 Y6.8150
G01 X33.5156 Y6.8397
G01 X33.5355 Y6.8662
G01 X33.5428 Y6.8769
G01 X33.5620 Y6.9091
G01 X33.5798 Y6.9468
G01 X33.5939 Y6.9861
G01 X33.6040 Y7.0266
G01 X33.6101 Y7.0679
G01 X33.6121 Y7.1053
G01 X33.6122 Y8.4096
G01 X33.6101 Y8.4513
G01 X33.6055 Y8.4842
G01 X33.6021 Y8.5011
G01 X33.5951 Y8.5290
G01 X33.5926 Y8.5373
G01 X33.5798 Y8.5725
G01 X33.5639 Y8.6064
G01 X33.5599 Y8.6140
G01 X33.5451 Y8.6387
G01 X33.5355 Y8.6531
G01 X33.5156 Y8.6795
G01 X33.4906 Y8.7074
G01 X33.4845 Y8.7135
G01 X33.4632 Y8.7329
G01 X33.4499 Y8.7438
G01 X33.4231 Y8.7634
G01 X33.3911 Y8.7828
G01 X33.3796 Y8.7887
G01 X33.3535 Y8.8010
G01 X33.3456 Y8.8043
G01 X33.3102 Y8.8168
G01 X33.2873 Y8.8227
G01 X33.2873 Y9.3654
G01 X33.3093 Y9.3760
G01 X33.3415 Y9.3951
G01 X33.3521 Y9.4025
G01 X33.3753 Y9.4197
G01 X33.3819 Y9.4251
G01 X33.4096 Y9.4504
G01 X33.4320 Y9.4748
G01 X33.4403 Y9.4847
G01 X33.4601 Y9.5113
G01 X33.4671 Y9.5222
G01 X33.4840 Y9.5507
G01 X33.5001 Y9.5845
G01 X33.5049 Y9.5965
G01 X33.5159 Y9.6277
G01 X33.5241 Y9.6598
G01 X33.5268 Y9.6725
G01 X33.5321 Y9.7095
G01 X33.5342 Y9.7512
G01 X33.5342 Y11.0512
G01 X33.5325 Y11.0887
G01 X33.5317 Y11.0972
G01 X33.5275 Y11.1258
G01 X33.5241 Y11.1427
G01 X33.5159 Y11.1747
G01 X33.5018 Y11.2141
G01 X33.4840 Y11.2518
G01 X33.4671 Y11.2803
G01 X33.4575 Y11.2947
G01 X33.4403 Y11.3178
G01 X33.4348 Y11.3244
G01 X33.4096 Y11.3521
G01 X33.3852 Y11.3745
G01 X33.3719 Y11.3854
G01 X33.3487 Y11.4026
G01 X33.3415 Y11.4073
G01 X33.3093 Y11.4265
G01 X33.2755 Y11.4426
G01 X33.2635 Y11.4474
G01 X33.2363 Y11.4571
G01 X33.2281 Y11.4596
G01 X33.2093 Y11.4643
G01 X33.2093 Y12.2377
G01 X33.3495 Y12.3042
G01 X33.4833 Y12.3842
G01 X33.4976 Y12.3937
G01 X33.6226 Y12.4867
G01 X33.7382 Y12.5912
G01 X33.7504 Y12.6034
G01 X33.8549 Y12.7190
G01 X33.9528 Y12.8510
G01 X34.0374 Y12.9920
G01 X34.1042 Y13.1328
G01 X34.1108 Y13.1487
G01 X34.1630 Y13.2955
G01 X34.2030 Y13.4550
G01 X34.2261 Y13.6091
G01 X34.2278 Y13.6262
G01 X34.2350 Y13.7732
G01 X34.2350 Y13.7905
G01 X34.2271 Y13.9461
G01 X34.2045 Y14.1002
G01 X34.2011 Y14.1171
G01 X34.1630 Y14.2682
G01 X34.1108 Y14.4150
G01 X34.1042 Y14.4309
G01 X34.0374 Y14.5716
G01 X33.9528 Y14.7127
G01 X33.8549 Y14.8447
G01 X33.7504 Y14.9603
G01 X33.7382 Y14.9725
G01 X33.6226 Y15.0770
G01 X33.4906 Y15.1749
G01 X33.3570 Y15.2552
G01 X33.3419 Y15.2633
G01 X33.2009 Y15.3298
G01 X33.0461 Y15.3852
G01 X32.8866 Y15.4251
G01 X32.7240 Y15.4492
G01 X32.5683 Y15.4571
G01 X32.5511 Y15.4571
G01 X32.3955 Y15.4492
G01 X32.2414 Y15.4266
G01 X32.2245 Y15.4232
G01 X32.0734 Y15.3852
G01 X31.9266 Y15.3329
G01 X31.9107 Y15.3263
G01 X31.7776 Y15.2633
G01 X31.7624 Y15.2552
G01 X31.6289 Y15.1749
G01 X31.4968 Y15.0770
G01 X31.3750 Y14.9666
G01 X31.2646 Y14.8447
G01 X31.1667 Y14.7127
G01 X31.0821 Y14.5716
G01 X31.0118 Y14.4230
G01 X30.9564 Y14.2682
G01 X30.9165 Y14.1087
G01 X30.8934 Y13.9546
G01 X30.8917 Y13.9375
G01 X30.8845 Y13.7905
G01 X30.8845 Y13.7732
G01 X30.8924 Y13.6176
G01 X30.9150 Y13.4635
G01 X30.9184 Y13.4466
G01 X30.9564 Y13.2955
G01 X31.0118 Y13.1407
G01 X31.0821 Y12.9920
G01 X31.1667 Y12.8510
G01 X31.2646 Y12.7190
G01 X31.3750 Y12.5971
G01 X31.4968 Y12.4867
G01 X31.6219 Y12.3937
G01 X31.6362 Y12.3842
G01 X31.7699 Y12.3042
G01 X31.9107 Y12.2374
G01 X31.9266 Y12.2308
G01 X32.0652 Y12.1812
G01 X32.0817 Y12.1762
G01 X32.2329 Y12.1386
G01 X32.3582 Y12.1198
G01 X32.3582 Y11.4643
G01 X32.3394 Y11.4596
G01 X32.3311 Y11.4571
G01 X32.2959 Y11.4443
G01 X32.2582 Y11.4265
G01 X32.2296 Y11.4096
G01 X32.2153 Y11.4000
G01 X32.1922 Y11.3828
G01 X32.1855 Y11.3774
G01 X32.1579 Y11.3521
G01 X32.1355 Y11.3277
G01 X32.1246 Y11.3144
G01 X32.1074 Y11.2912
G01 X32.1026 Y11.2840
G01 X32.0835 Y11.2518
G01 X32.0674 Y11.2180
G01 X32.0641 Y11.2101
G01 X32.0543 Y11.1829
G01 X32.0504 Y11.1706
G01 X32.0415 Y11.1342
G01 X32.0364 Y11.1015
G01 X32.0350 Y11.0887
G01 X32.0333 Y11.0512
G01 X32.0333 Y9.7469
G01 X32.0353 Y9.7095
G01 X32.0415 Y9.6682
G01 X32.0516 Y9.6277
G01 X32.0657 Y9.5884
G01 X32.0835 Y9.5507
G01 X32.1050 Y9.5149
G01 X32.1299 Y9.4813
G01 X32.1549 Y9.4535
G01 X32.1641 Y9.4445
G01 X32.1888 Y9.4224
G01 X32.2224 Y9.3975
G01 X32.2582 Y9.3760
G01 X32.2920 Y9.3599
G01 X32.3040 Y9.3551
G01 X32.3352 Y9.3441
G01 X32.3715 Y9.3349
G01 X32.3842 Y9.3325
G01 X32.4128 Y9.3283
G01 X32.4362 Y9.3267
G01 X32.4362 Y8.8227
G01 X32.4132 Y8.8168
G01 X32.3779 Y8.8043
G01 X32.3700 Y8.8010
G01 X32.3439 Y8.7887
G01 X32.3324 Y8.7828
G01 X32.3004 Y8.7634
G01 X32.2736 Y8.7438
G01 X32.2635 Y8.7358
G01 X32.2390 Y8.7135
G01 X32.2329 Y8.7074
G01 X32.2135 Y8.6861
G01 X32.2052 Y8.6762
G01 X32.1830 Y8.6460
G01 X32.1658 Y8.6177
G01 X32.1595 Y8.6064
G01 X32.1437 Y8.5725
G01 X32.1323 Y8.5413
G01 X32.1284 Y8.5290
G01 X32.1195 Y8.4926
G01 X32.1144 Y8.4599
G01 X32.1130 Y8.4471
G01 X32.1113 Y8.4140
G01 X32.1113 Y7.6111
G01 X30.2882 Y5.7880
G01 X27.7158 Y5.7880
G01 X27.7157 Y6.1667
G01 X27.7149 Y6.1796
G01 X27.7132 Y6.1924
G01 X27.7105 Y6.2050
G01 X27.7069 Y6.2174
G01 X27.7024 Y6.2295
G01 X27.6971 Y6.2413
G01 X27.6908 Y6.2526
G01 X27.6838 Y6.2634
G01 X27.6760 Y6.2737
G01 X27.6674 Y6.2834
G01 X27.6582 Y6.2924
G01 X27.6449 Y6.3033
G01 X27.6305 Y6.3129
G01 X27.6192 Y6.3191
G01 X27.6075 Y6.3245
G01 X27.5954 Y6.3290
G01 X27.5830 Y6.3326
G01 X27.5661 Y6.3359
G01 X27.5532 Y6.3374
G01 X27.5403 Y6.3378
G01 X25.9403 Y6.3378
G01 X25.9274 Y6.3374
G01 X25.9146 Y6.3359
G01 X25.9019 Y6.3336
G01 X25.8894 Y6.3303
G01 X25.8772 Y6.3261
G01 X25.8692 Y6.3228
G01 X25.8576 Y6.3171
G01 X25.8465 Y6.3106
G01 X25.8358 Y6.3033
G01 X25.8290 Y6.2980
G01 X25.8225 Y6.2924
G01 X25.8133 Y6.2834
G01 X25.8075 Y6.2770
G01 X25.7994 Y6.2669
G01 X25.7921 Y6.2563
G01 X25.7856 Y6.2451
G01 X25.7817 Y6.2374
G01 X25.7766 Y6.2255
G01 X25.7724 Y6.2133
G01 X25.7692 Y6.2008
G01 X25.7668 Y6.1881
G01 X25.7657 Y6.1796
G01 X25.7649 Y6.1624
G01 X25.7649 Y5.7880
G01 X23.3195 Y5.7880
G01 X15.8629 Y13.2445
G01 X15.8629 Y13.7284
G01 X15.9637 Y13.7647
G01 X16.0780 Y13.8185
G01 X16.0932 Y13.8267
G01 X16.2015 Y13.8918
G01 X16.3031 Y13.9669
G01 X16.3164 Y13.9778
G01 X16.4099 Y14.0629
G01 X16.4950 Y14.1563
G01 X16.5059 Y14.1697
G01 X16.5810 Y14.2713
G01 X16.6461 Y14.3796
G01 X16.6543 Y14.3948
G01 X16.7081 Y14.5091
G01 X16.7509 Y14.6280
G01 X16.7559 Y14.6445
G01 X16.7864 Y14.7671
G01 X16.8062 Y14.9006
G01 X16.8126 Y15.0268
G01 X16.8126 Y15.0441
G01 X16.8062 Y15.1703
G01 X16.7878 Y15.2953
G01 X16.7845 Y15.3122
G01 X16.7536 Y15.4347
G01 X16.7112 Y15.5538
G01 X16.7046 Y15.5697
G01 X16.6504 Y15.6838
G01 X16.5856 Y15.7923
G01 X16.5760 Y15.8066
G01 X16.5006 Y15.9080
G01 X16.4099 Y16.0080
G01 X16.3099 Y16.0987
G01 X16.2085 Y16.1741
G01 X16.1942 Y16.1837
G01 X16.0857 Y16.2485
G01 X15.9637 Y16.3062
G01 X15.8448 Y16.3490
G01 X15.8283 Y16.3540
G01 X15.7141 Y16.3826
G01 X15.6972 Y16.3859
G01 X15.5722 Y16.4043
G01 X15.4459 Y16.4107
G01 X15.4287 Y16.4107
G01 X15.3111 Y16.4049
G01 X15.2940 Y16.4032
G01 X15.1690 Y16.3845
G01 X15.0381 Y16.3517
G01 X14.9110 Y16.3062
G01 X14.7967 Y16.2524
G01 X14.7815 Y16.2442
G01 X14.6805 Y16.1837
G01 X14.6661 Y16.1741
G01 X14.5648 Y16.0987
G01 X14.4648 Y16.0080
G01 X14.3741 Y15.9080
G01 X14.2987 Y15.8066
G01 X14.2891 Y15.7923
G01 X14.2243 Y15.6838
G01 X14.1666 Y15.5618
G01 X14.1238 Y15.4429
G01 X14.1188 Y15.4264
G01 X14.0883 Y15.3038
G01 X14.0685 Y15.1703
G01 X14.0621 Y15.0441
G01 X14.0621 Y15.0268
G01 X14.0679 Y14.9092
G01 X14.0696 Y14.8921
G00 Z2.0000
G00 X13.9005 Y15.0757
G01 F30.00
G01 Z-0.1110
G01 F50.00
G01 X13.9114 Y14.8481
G01 X13.9559 Y14.6246
G01 X14.0329 Y14.4101
G01 X14.1407 Y14.2094
G01 X14.2771 Y14.0269
G01 X14.4389 Y13.8664
G01 X14.6227 Y13.7317
G01 X14.6969 Y13.6926
G01 X14.7076 Y13.6861
G01 X14.7211 Y13.6763
G01 X14.7336 Y13.6653
G01 X14.7846 Y13.6159
G01 X14.7936 Y13.6065
G01 X14.8019 Y13.5965
G01 X14.8094 Y13.5858
G01 X14.8161 Y13.5747
G01 X14.8219 Y13.5631
G01 X14.8269 Y13.5511
G01 X14.8310 Y13.5388
G01 X14.8485 Y13.4725
G01 X14.8514 Y13.4593
G01 X14.8538 Y13.4414
G01 X14.8543 Y13.4278
G01 X14.8543 Y13.1353
G01 X14.8541 Y13.1265
G01 X14.8524 Y13.1031
G01 X14.8507 Y13.0887
G01 X14.8536 Y13.0529
G01 X14.8543 Y13.0344
G01 X14.8572 Y13.0086
G01 X14.8620 Y12.9499
G01 X14.8649 Y12.9363
G01 X14.8850 Y12.8809
G01 X14.9046 Y12.8207
G01 X14.9075 Y12.8144
G01 X14.9106 Y12.8082
G01 X14.9452 Y12.7552
G01 X14.9767 Y12.7034
G01 X14.9846 Y12.6940
G01 X15.0342 Y12.6468
G01 X22.6835 Y4.9975
G01 X22.6896 Y4.9912
G01 X22.7049 Y4.9734
G01 X22.7139 Y4.9620
G01 X22.7412 Y4.9387
G01 X22.7549 Y4.9261
G01 X22.7751 Y4.9100
G01 X22.8200 Y4.8719
G01 X22.8317 Y4.8644
G01 X22.8890 Y4.8375
G01 X22.9415 Y4.8107
G01 X22.9546 Y4.8061
G01 X23.0166 Y4.7931
G01 X23.0754 Y4.7787
G01 X23.0877 Y4.7776
G01 X23.1561 Y4.7793
G01 X25.3090 Y4.7793
G01 X25.3257 Y4.7786
G01 X25.3423 Y4.7762
G01 X25.3585 Y4.7722
G01 X25.4349 Y4.7496
G01 X25.4510 Y4.7430
G01 X25.4627 Y4.7371
G01 X25.4702 Y4.7327
G01 X25.4775 Y4.7279
G01 X25.4879 Y4.7200
G01 X25.4945 Y4.7143
G01 X25.5039 Y4.7052
G01 X25.5618 Y4.6384
G01 X25.5694 Y4.6279
G01 X25.5784 Y4.6130
G01 X25.5841 Y4.6013
G01 X25.5889 Y4.5892
G01 X25.5928 Y4.5767
G01 X25.6054 Y4.5302
G01 X25.6083 Y4.5144
G01 X25.6106 Y4.4930
G01 X25.6452 Y4.4008
G01 X25.7024 Y4.3245
G01 X25.7788 Y4.2672
G01 X25.8709 Y4.2327
G01 X25.9017 Y4.2293
G01 X27.5790 Y4.2293
G01 X27.6098 Y4.2327
G01 X27.7019 Y4.2672
G01 X27.7783 Y4.3245
G01 X27.8355 Y4.4008
G01 X27.8700 Y4.4930
G01 X27.8724 Y4.5146
G01 X27.8745 Y4.5269
G01 X27.8787 Y4.5431
G01 X27.8843 Y4.5588
G01 X27.9116 Y4.6244
G01 X27.9191 Y4.6401
G01 X27.9257 Y4.6514
G01 X27.9331 Y4.6621
G01 X27.9413 Y4.6723
G01 X27.9503 Y4.6818
G01 X27.9633 Y4.6935
G01 X27.9737 Y4.7013
G01 X28.0357 Y4.7442
G01 X28.0468 Y4.7509
G01 X28.0545 Y4.7549
G01 X28.0705 Y4.7618
G01 X28.0828 Y4.7659
G01 X28.0912 Y4.7681
G01 X28.1040 Y4.7707
G01 X28.1516 Y4.7782
G01 X28.1636 Y4.7792
G01 X28.1716 Y4.7793
G01 X30.3974 Y4.7793
G01 X30.4062 Y4.7791
G01 X30.4296 Y4.7774
G01 X30.4440 Y4.7757
G01 X30.4798 Y4.7786
G01 X30.4984 Y4.7793
G01 X30.5241 Y4.7822
G01 X30.5828 Y4.7870
G01 X30.5964 Y4.7900
G01 X30.6519 Y4.8101
G01 X30.7120 Y4.8297
G01 X30.7183 Y4.8326
G01 X30.7245 Y4.8357
G01 X30.7775 Y4.8703
G01 X30.8293 Y4.9018
G01 X30.8387 Y4.9096
G01 X30.8859 Y4.9593
G01 X32.3650 Y6.4383
G01 X32.3773 Y6.4495
G01 X32.3907 Y6.4595
G01 X32.4049 Y6.4682
G01 X32.4672 Y6.5023
G01 X32.4788 Y6.5080
G01 X32.4867 Y6.5114
G01 X32.5030 Y6.5169
G01 X32.5198 Y6.5209
G01 X32.5326 Y6.5227
G01 X32.5640 Y6.5260
G01 X32.5781 Y6.5266
G01 X33.2281 Y6.5266
G01 X33.3056 Y6.5346
G01 X33.4358 Y6.5781
G01 X33.5514 Y6.6496
G01 X33.6474 Y6.7458
G01 X33.7188 Y6.8616
G01 X33.7620 Y6.9918
G01 X33.7698 Y7.0682
G01 X33.7698 Y8.4510
G01 X33.7617 Y8.5286
G01 X33.7183 Y8.6587
G01 X33.6468 Y8.7743
G01 X33.5361 Y8.8848
G01 X33.5273 Y8.8942
G01 X33.5192 Y8.9043
G01 X33.5142 Y8.9114
G01 X33.5075 Y8.9223
G01 X33.5025 Y8.9318
G01 X33.4815 Y8.9615
G01 X33.4745 Y8.9728
G01 X33.4684 Y8.9845
G01 X33.4633 Y8.9966
G01 X33.4603 Y9.0049
G01 X33.4567 Y9.0176
G01 X33.4540 Y9.0305
G01 X33.4466 Y9.0755
G01 X33.4452 Y9.0879
G01 X33.4448 Y9.1004
G01 X33.4450 Y9.1462
G01 X33.4460 Y9.1587
G01 X33.4480 Y9.1711
G01 X33.4519 Y9.1873
G01 X33.4719 Y9.2554
G01 X33.4760 Y9.2676
G01 X33.4810 Y9.2795
G01 X33.4889 Y9.2948
G01 X33.4959 Y9.3057
G01 X33.5036 Y9.3160
G01 X33.5204 Y9.3369
G01 X33.5296 Y9.3475
G01 X33.5694 Y9.3874
G01 X33.6408 Y9.5032
G01 X33.6840 Y9.6334
G01 X33.6918 Y9.7098
G01 X33.6918 Y11.0926
G01 X33.6837 Y11.1702
G01 X33.6403 Y11.3003
G01 X33.5688 Y11.4159
G01 X33.4581 Y11.5264
G01 X33.4465 Y11.5391
G01 X33.4362 Y11.5530
G01 X33.4295 Y11.5639
G01 X33.4245 Y11.5734
G01 X33.4060 Y11.5995
G01 X33.3987 Y11.6106
G01 X33.3904 Y11.6261
G01 X33.3837 Y11.6423
G01 X33.3798 Y11.6549
G01 X33.3768 Y11.6677
G01 X33.3686 Y11.7171
G01 X33.3670 Y11.7337
G01 X33.3668 Y11.9573
G01 X33.3676 Y11.9740
G01 X33.3692 Y11.9864
G01 X33.3728 Y12.0028
G01 X33.3939 Y12.0749
G01 X33.3980 Y12.0873
G01 X33.4050 Y12.1032
G01 X33.4112 Y12.1147
G01 X33.4208 Y12.1292
G01 X33.4318 Y12.1428
G01 X33.4408 Y12.1521
G01 X33.4833 Y12.1928
G01 X33.4925 Y12.2011
G01 X33.4990 Y12.2062
G01 X33.5091 Y12.2133
G01 X33.5162 Y12.2176
G01 X33.5925 Y12.2622
G01 X33.7892 Y12.4164
G01 X33.9631 Y12.5959
G01 X34.1111 Y12.7974
G01 X34.2303 Y13.0170
G01 X34.3187 Y13.2508
G01 X34.3745 Y13.4944
G01 X34.3971 Y13.7484
G01 X34.3974 Y13.7768
G01 X34.3801 Y14.0312
G01 X34.3294 Y14.2759
G01 X34.2460 Y14.5115
G01 X34.1313 Y14.7336
G01 X33.9876 Y14.9381
G01 X33.8175 Y15.1212
G01 X33.6639 Y15.2469
G01 X33.6241 Y15.2795
G01 X33.4110 Y15.4101
G01 X33.1821 Y15.5106
G01 X32.9417 Y15.5790
G01 X32.6943 Y15.6142
G01 X32.4444 Y15.6156
G01 X32.1966 Y15.5829
G01 X32.1714 Y15.5760
G01 X31.9555 Y15.5170
G01 X31.7256 Y15.4189
G01 X31.5111 Y15.2906
G01 X31.3161 Y15.1343
G01 X31.1440 Y14.9530
G01 X30.9982 Y14.7500
G01 X30.8813 Y14.5292
G01 X30.7954 Y14.2944
G01 X30.7421 Y14.0503
G01 X30.7225 Y13.8011
G01 X30.7369 Y13.5516
G01 X30.7850 Y13.3063
G01 X30.8660 Y13.0698
G01 X30.9783 Y12.8466
G01 X31.1198 Y12.6406
G01 X31.2880 Y12.4557
G01 X31.4798 Y12.2954
G01 X31.6915 Y12.1626
G01 X31.9193 Y12.0597
G01 X31.9888 Y12.0391
G01 X31.9967 Y12.0363
G01 X32.0083 Y12.0315
G01 X32.0195 Y12.0259
G01 X32.0267 Y12.0217
G01 X32.0971 Y11.9760
G01 X32.1107 Y11.9652
G01 X32.1232 Y11.9530
G01 X32.1344 Y11.9397
G01 X32.1442 Y11.9253
G01 X32.1526 Y11.9100
G01 X32.1838 Y11.8414
G01 X32.1888 Y11.8290
G01 X32.1929 Y11.8163
G01 X32.1960 Y11.8033
G01 X32.1976 Y11.7945
G01 X32.1986 Y11.7857
G01 X32.2003 Y11.7636
G01 X32.2006 Y11.7554
G01 X32.2006 Y11.7378
G01 X32.2002 Y11.7294
G01 X32.1989 Y11.7170
G01 X32.1967 Y11.7046
G01 X32.1947 Y11.6965
G01 X32.1736 Y11.6244
G01 X32.1694 Y11.6119
G01 X32.1643 Y11.5998
G01 X32.1561 Y11.5842
G01 X32.1464 Y11.5696
G01 X32.1382 Y11.5593
G01 X32.1244 Y11.5441
G01 X32.1145 Y11.5320
G01 X31.9981 Y11.4151
G01 X31.9267 Y11.2993
G01 X31.8835 Y11.1691
G01 X31.8757 Y11.0927
G01 X31.8757 Y9.7099
G01 X31.8837 Y9.6323
G01 X31.9271 Y9.5022
G01 X31.9987 Y9.3866
G01 X32.0973 Y9.2882
G01 X32.1095 Y9.2785
G01 X32.1160 Y9.2729
G01 X32.1281 Y9.2606
G01 X32.1389 Y9.2473
G01 X32.1471 Y9.2350
G01 X32.1671 Y9.2127
G01 X32.1753 Y9.2025
G01 X32.1826 Y9.1917
G01 X32.1911 Y9.1764
G01 X32.1965 Y9.1645
G01 X32.2009 Y9.1522
G01 X32.2034 Y9.1439
G01 X32.2063 Y9.1311
G01 X32.2197 Y9.0481
G01 X32.2207 Y9.0308
G01 X32.2201 Y9.0133
G01 X32.2185 Y9.0004
G01 X32.2159 Y8.9876
G01 X32.2124 Y8.9750
G01 X32.2095 Y8.9667
G01 X32.1780 Y8.8935
G01 X32.1742 Y8.8855
G01 X32.1678 Y8.8737
G01 X32.1606 Y8.8625
G01 X32.1553 Y8.8553
G01 X32.1496 Y8.8485
G01 X32.1390 Y8.8368
G01 X32.0761 Y8.7735
G01 X32.0047 Y8.6577
G01 X31.9615 Y8.5275
G01 X31.9537 Y8.4511
G01 X31.9537 Y7.8010
G01 X31.9532 Y7.7885
G01 X31.9513 Y7.7719
G01 X31.9477 Y7.7556
G01 X31.9253 Y7.6794
G01 X31.9209 Y7.6672
G01 X31.9157 Y7.6554
G01 X31.9095 Y7.6440
G01 X31.9026 Y7.6332
G01 X31.8948 Y7.6228
G01 X31.8779 Y7.6018
G01 X31.8719 Y7.5947
G01 X31.8654 Y7.5879
G01 X30.3083 Y6.0308
G01 X30.2957 Y6.0199
G01 X30.2890 Y6.0149
G01 X30.2785 Y6.0080
G01 X30.2090 Y5.9698
G01 X30.1935 Y5.9623
G01 X30.1814 Y5.9577
G01 X30.1732 Y5.9551
G01 X30.1564 Y5.9512
G01 X30.1437 Y5.9493
G01 X30.1169 Y5.9465
G01 X30.1028 Y5.9455
G01 X28.1675 Y5.9455
G01 X28.1508 Y5.9467
G01 X28.1384 Y5.9486
G01 X28.1303 Y5.9504
G01 X28.0499 Y5.9738
G01 X28.0336 Y5.9800
G01 X28.0257 Y5.9836
G01 X28.0142 Y5.9899
G01 X27.9997 Y5.9995
G01 X27.9862 Y6.0105
G01 X27.9738 Y6.0227
G01 X27.9244 Y6.0797
G01 X27.9163 Y6.0898
G01 X27.9089 Y6.1006
G01 X27.9023 Y6.1118
G01 X27.8984 Y6.1196
G01 X27.8949 Y6.1275
G01 X27.8904 Y6.1397
G01 X27.8752 Y6.1946
G01 X27.8724 Y6.2104
G01 X27.8700 Y6.2318
G01 X27.8355 Y6.3240
G01 X27.7783 Y6.4003
G01 X27.7019 Y6.4575
G01 X27.6098 Y6.4921
G01 X27.5597 Y6.4973
G01 X27.5430 Y6.5006
G01 X27.5307 Y6.5041
G01 X27.4516 Y6.5322
G01 X27.4397 Y6.5376
G01 X27.4320 Y6.5417
G01 X27.4209 Y6.5486
G01 X27.4138 Y6.5536
G01 X27.4003 Y6.5646
G01 X27.3880 Y6.5770
G01 X27.3796 Y6.5870
G01 X27.3604 Y6.6117
G01 X27.3498 Y6.6226
G01 X27.3415 Y6.6326
G01 X27.3341 Y6.6431
G01 X27.3295 Y6.6504
G01 X27.3117 Y6.6837
G01 X27.0553 Y6.9401
G01 X27.0276 Y6.9302
G01 X27.0194 Y6.9277
G01 X26.9390 Y6.9076
G01 X26.9264 Y6.9049
G01 X26.8360 Y6.8916
G01 X26.7403 Y6.8869
G01 X26.6447 Y6.8916
G01 X26.5543 Y6.9049
G01 X26.5416 Y6.9076
G01 X26.4613 Y6.9277
G01 X26.4531 Y6.9302
G01 X26.4254 Y6.9401
G01 X26.1672 Y6.6819
G01 X26.1610 Y6.6660
G01 X26.1532 Y6.6504
G01 X26.1439 Y6.6356
G01 X26.1360 Y6.6252
G01 X26.1243 Y6.6123
G01 X26.0741 Y6.5621
G01 X26.0648 Y6.5534
G01 X26.0549 Y6.5454
G01 X26.0408 Y6.5360
G01 X26.0296 Y6.5298
G01 X26.0181 Y6.5244
G01 X26.0021 Y6.5186
G01 X25.9445 Y6.5022
G01 X25.9318 Y6.4991
G01 X25.9147 Y6.4964
G01 X25.9035 Y6.4956
G01 X25.8709 Y6.4921
G01 X25.7788 Y6.4575
G01 X25.7024 Y6.4003
G01 X25.6452 Y6.3240
G01 X25.6106 Y6.2318
G01 X25.6082 Y6.2102
G01 X25.6061 Y6.1978
G01 X25.6032 Y6.1857
G01 X25.5994 Y6.1738
G01 X25.5674 Y6.0964
G01 X25.5595 Y6.0809
G01 X25.5501 Y6.0662
G01 X25.5422 Y6.0558
G01 X25.5304 Y6.0429
G01 X25.5208 Y6.0341
G01 X25.5070 Y6.0235
G01 X25.4486 Y5.9831
G01 X25.4376 Y5.9761
G01 X25.4262 Y5.9699
G01 X25.4143 Y5.9646
G01 X25.4061 Y5.9615
G01 X25.3937 Y5.9577
G01 X25.3810 Y5.9548
G01 X25.3331 Y5.9471
G01 X25.3211 Y5.9459
G01 X25.3090 Y5.9454
G01 X23.5054 Y5.9455
G01 X23.4929 Y5.9462
G01 X23.4805 Y5.9479
G01 X23.4723 Y5.9495
G01 X23.4601 Y5.9526
G01 X23.3838 Y5.9752
G01 X23.3678 Y5.9816
G01 X23.3563 Y5.9875
G01 X23.3453 Y5.9942
G01 X23.3347 Y6.0016
G01 X23.3068 Y6.0242
G01 X23.2964 Y6.0337
G01 X16.1144 Y13.2157
G01 X16.1032 Y13.2281
G01 X16.0932 Y13.2415
G01 X16.0845 Y13.2557
G01 X16.0505 Y13.3180
G01 X16.0446 Y13.3297
G01 X16.0397 Y13.3418
G01 X16.0356 Y13.3543
G01 X16.0317 Y13.3712
G01 X16.0299 Y13.3842
G01 X16.0291 Y13.3972
G01 X16.0292 Y13.4103
G01 X16.0345 Y13.4854
G01 X16.0359 Y13.4984
G01 X16.0393 Y13.5155
G01 X16.0444 Y13.5322
G01 X16.0492 Y13.5443
G01 X16.0571 Y13.5599
G01 X16.0665 Y13.5746
G01 X16.1143 Y13.6384
G01 X16.1260 Y13.6518
G01 X16.1390 Y13.6640
G01 X16.1496 Y13.6722
G01 X16.1689 Y13.6852
G01 X16.3410 Y13.7917
G01 X16.5149 Y13.9389
G01 X16.6651 Y14.1102
G01 X16.7884 Y14.3019
G01 X16.8820 Y14.5096
G01 X16.9438 Y14.7289
G01 X16.9731 Y14.9592
G01 X16.9750 Y15.0312
G01 X16.9578 Y15.2627
G01 X16.9075 Y15.4849
G01 X16.8249 Y15.6973
G01 X16.7119 Y15.8951
G01 X16.5708 Y16.0741
G01 X16.4048 Y16.2302
G01 X16.2176 Y16.3601
G01 X16.0132 Y16.4609
G01 X15.7962 Y16.5303
G01 X15.5713 Y16.5670
G01 X15.3435 Y16.5699
G01 X15.1177 Y16.5392
G01 X14.8989 Y16.4754
G01 X14.6920 Y16.3801
G01 X14.5015 Y16.2551
G01 X14.3315 Y16.1034
G01 X14.1858 Y15.9282
G01 X14.0675 Y15.7334
G01 X13.9794 Y15.5233
G01 X13.9233 Y15.3024
G01 X13.9005 Y15.0757
G00 Z2.0000
G00 X13.8046 Y15.0782
G01 F30.00
G01 Z-0.1110
G01 F50.00
G01 X13.8162 Y14.8364
G01 X13.8634 Y14.5990
G01 X13.9452 Y14.3711
G01 X14.0598 Y14.1579
G01 X14.2047 Y13.9639
G01 X14.3766 Y13.7935
G01 X14.5718 Y13.6503
G01 X14.6486 Y13.6099
G01 X14.6536 Y13.6071
G01 X14.6598 Y13.6028
G01 X14.6670 Y13.5966
G01 X14.7208 Y13.5443
G01 X14.7282 Y13.5351
G01 X14.7313 Y13.5302
G01 X14.7350 Y13.5232
G01 X14.7391 Y13.5121
G01 X14.7560 Y13.4481
G01 X14.7576 Y13.4401
G01 X14.7585 Y13.4319
G01 X14.7586 Y13.1353
G01 X14.7568 Y13.1084
G01 X14.7544 Y13.0921
G01 X14.7580 Y13.0471
G01 X14.7586 Y13.0286
G01 X14.7619 Y12.9992
G01 X14.7672 Y12.9342
G01 X14.7723 Y12.9112
G01 X14.7945 Y12.8498
G01 X14.8160 Y12.7836
G01 X14.8262 Y12.7624
G01 X14.8643 Y12.7041
G01 X14.8992 Y12.6466
G01 X14.9087 Y12.6357
G01 X14.9130 Y12.6300
G01 X14.9666 Y12.5791
G01 X22.6158 Y4.9299
G01 X22.6336 Y4.9095
G01 X22.6434 Y4.8963
G01 X22.6778 Y4.8671
G01 X22.6913 Y4.8544
G01 X22.7144 Y4.8360
G01 X22.7641 Y4.7938
G01 X22.7840 Y4.7810
G01 X22.8470 Y4.7515
G01 X22.9051 Y4.7218
G01 X22.9274 Y4.7140
G01 X22.9955 Y4.6997
G01 X23.0608 Y4.6837
G01 X23.0752 Y4.6827
G01 X23.0823 Y4.6817
G01 X23.1561 Y4.6836
G01 X25.3090 Y4.6836
G01 X25.3166 Y4.6833
G01 X25.3241 Y4.6822
G01 X25.3315 Y4.6804
G01 X25.4015 Y4.6598
G01 X25.4107 Y4.6562
G01 X25.4195 Y4.6515
G01 X25.4275 Y4.6458
G01 X25.4361 Y4.6376
G01 X25.4876 Y4.5778
G01 X25.4940 Y4.5679
G01 X25.4988 Y4.5570
G01 X25.5112 Y4.5126
G01 X25.5134 Y4.5019
G01 X25.5168 Y4.4707
G01 X25.5604 Y4.3544
G01 X25.6340 Y4.2561
G01 X25.7323 Y4.1824
G01 X25.8486 Y4.1389
G01 X25.8965 Y4.1336
G01 X27.5842 Y4.1336
G01 X27.6321 Y4.1389
G01 X27.7484 Y4.1824
G01 X27.8466 Y4.2561
G01 X27.9203 Y4.3544
G01 X27.9639 Y4.4707
G01 X27.9676 Y4.5039
G01 X27.9691 Y4.5113
G01 X27.9714 Y4.5186
G01 X28.0007 Y4.5895
G01 X28.0053 Y4.5983
G01 X28.0097 Y4.6048
G01 X28.0175 Y4.6138
G01 X28.0266 Y4.6215
G01 X28.0866 Y4.6631
G01 X28.0950 Y4.6682
G01 X28.1040 Y4.6722
G01 X28.1154 Y4.6755
G01 X28.1625 Y4.6831
G01 X28.1716 Y4.6836
G01 X30.3974 Y4.6836
G01 X30.4244 Y4.6818
G01 X30.4406 Y4.6794
G01 X30.4857 Y4.6831
G01 X30.5041 Y4.6836
G01 X30.5335 Y4.6870
G01 X30.5985 Y4.6923
G01 X30.6216 Y4.6973
G01 X30.6829 Y4.7196
G01 X30.7491 Y4.7411
G01 X30.7704 Y4.7513
G01 X30.8286 Y4.7894
G01 X30.8861 Y4.8243
G01 X30.8971 Y4.8337
G01 X30.9027 Y4.8380
G01 X30.9536 Y4.8916
G01 X32.4326 Y6.3706
G01 X32.4382 Y6.3757
G01 X32.4443 Y6.3803
G01 X32.4508 Y6.3842
G01 X32.5131 Y6.4183
G01 X32.5220 Y6.4224
G01 X32.5313 Y6.4255
G01 X32.5389 Y6.4270
G01 X32.5717 Y6.4306
G01 X32.5781 Y6.4309
G01 X33.2330 Y6.4309
G01 X33.3260 Y6.4405
G01 X33.4766 Y6.4908
G01 X33.6112 Y6.5741
G01 X33.7230 Y6.6861
G01 X33.8061 Y6.8208
G01 X33.8561 Y6.9716
G01 X33.8655 Y7.0633
G01 X33.8655 Y8.4559
G01 X33.8558 Y8.5489
G01 X33.8056 Y8.6995
G01 X33.7223 Y8.8341
G01 X33.6037 Y8.9525
G01 X33.5984 Y8.9583
G01 X33.5938 Y8.9646
G01 X33.5897 Y8.9713
G01 X33.5859 Y8.9796
G01 X33.5598 Y9.0166
G01 X33.5559 Y9.0235
G01 X33.5526 Y9.0308
G01 X33.5501 Y9.0384
G01 X33.5484 Y9.0462
G01 X33.5413 Y9.0891
G01 X33.5405 Y9.1004
G01 X33.5405 Y9.1398
G01 X33.5411 Y9.1473
G01 X33.5419 Y9.1530
G01 X33.5437 Y9.1603
G01 X33.5637 Y9.2284
G01 X33.5678 Y9.2394
G01 X33.5715 Y9.2463
G01 X33.5757 Y9.2529
G01 X33.5977 Y9.2801
G01 X33.6450 Y9.3277
G01 X33.7281 Y9.4624
G01 X33.7781 Y9.6132
G01 X33.7875 Y9.7049
G01 X33.7875 Y11.0975
G01 X33.7778 Y11.1905
G01 X33.7276 Y11.3411
G01 X33.6443 Y11.4757
G01 X33.5217 Y11.5984
G01 X33.5180 Y11.6030
G01 X33.5137 Y11.6095
G01 X33.5108 Y11.6146
G01 X33.5079 Y11.6212
G01 X33.4818 Y11.6582
G01 X33.4779 Y11.6651
G01 X33.4746 Y11.6724
G01 X33.4727 Y11.6781
G01 X33.4708 Y11.6859
G01 X33.4636 Y11.7288
G01 X33.4626 Y11.7382
G01 X33.4625 Y11.9573
G01 X33.4629 Y11.9649
G01 X33.4636 Y11.9706
G01 X33.4652 Y11.9780
G01 X33.4869 Y12.0517
G01 X33.4899 Y12.0590
G01 X33.4936 Y12.0660
G01 X33.4979 Y12.0726
G01 X33.5043 Y12.0802
G01 X33.5495 Y12.1237
G01 X33.5566 Y12.1298
G01 X33.5644 Y12.1350
G01 X33.6464 Y12.1829
G01 X33.8533 Y12.3452
G01 X34.0364 Y12.5340
G01 X34.1920 Y12.7460
G01 X34.3175 Y12.9771
G01 X34.4105 Y13.2231
G01 X34.4692 Y13.4794
G01 X34.4928 Y13.7437
G01 X34.4932 Y13.7795
G01 X34.4751 Y14.0442
G01 X34.4218 Y14.3017
G01 X34.3340 Y14.5496
G01 X34.2134 Y14.7833
G01 X34.0622 Y14.9985
G01 X33.8831 Y15.1911
G01 X33.7245 Y15.3210
G01 X33.6796 Y15.3577
G01 X33.4554 Y15.4951
G01 X33.2146 Y15.6008
G01 X32.9617 Y15.6729
G01 X32.7013 Y15.7099
G01 X32.4384 Y15.7113
G01 X32.1776 Y15.6770
G01 X32.1462 Y15.6684
G01 X31.9240 Y15.6076
G01 X31.6821 Y15.5044
G01 X31.4564 Y15.3693
G01 X31.2512 Y15.2049
G01 X31.0701 Y15.0142
G01 X30.9167 Y14.8006
G01 X30.7936 Y14.5682
G01 X30.7032 Y14.3212
G01 X30.6472 Y14.0643
G01 X30.6266 Y13.8021
G01 X30.6417 Y13.5395
G01 X30.6924 Y13.2815
G01 X30.7775 Y13.0327
G01 X30.8957 Y12.7977
G01 X31.0447 Y12.5810
G01 X31.2216 Y12.3865
G01 X31.4234 Y12.2178
G01 X31.6462 Y12.0781
G01 X31.8859 Y11.9698
G01 X31.9595 Y11.9480
G01 X31.9700 Y11.9438
G01 X31.9783 Y11.9391
G01 X32.0396 Y11.8995
G01 X32.0474 Y11.8934
G01 X32.0557 Y11.8849
G01 X32.0616 Y11.8769
G01 X32.0664 Y11.8683
G01 X32.0966 Y11.8019
G01 X32.1008 Y11.7905
G01 X32.1032 Y11.7786
G01 X32.1049 Y11.7550
G01 X32.1049 Y11.7381
G01 X32.1039 Y11.7287
G01 X32.1018 Y11.7195
G01 X32.0818 Y11.6513
G01 X32.0791 Y11.6438
G01 X32.0758 Y11.6366
G01 X32.0717 Y11.6297
G01 X32.0670 Y11.6233
G01 X32.0501 Y11.6045
G01 X32.0422 Y11.5948
G01 X31.9224 Y11.4748
G01 X31.8394 Y11.3401
G01 X31.7894 Y11.1893
G01 X31.7800 Y11.0976
G01 X31.7800 Y9.7050
G01 X31.7896 Y9.6120
G01 X31.8399 Y9.4614
G01 X31.9232 Y9.3268
G01 X32.0353 Y9.2149
G01 X32.0484 Y9.2049
G01 X32.0555 Y9.1982
G01 X32.0629 Y9.1891
G01 X32.0689 Y9.1789
G01 X32.0945 Y9.1505
G01 X32.1004 Y9.1426
G01 X32.1044 Y9.1357
G01 X32.1070 Y9.1304
G01 X32.1098 Y9.1230
G01 X32.1118 Y9.1153
G01 X32.1243 Y9.0394
G01 X32.1250 Y9.0315
G01 X32.1249 Y9.0236
G01 X32.1240 Y9.0157
G01 X32.1228 Y9.0099
G01 X32.1192 Y8.9986
G01 X32.0902 Y8.9316
G01 X32.0845 Y8.9209
G01 X32.0786 Y8.9127
G01 X32.0671 Y8.9000
G01 X32.0004 Y8.8332
G01 X31.9174 Y8.6985
G01 X31.8674 Y8.5477
G01 X31.8580 Y8.4560
G01 X31.8579 Y7.7972
G01 X31.8569 Y7.7878
G01 X31.8553 Y7.7804
G01 X31.8342 Y7.7086
G01 X31.8298 Y7.6977
G01 X31.8238 Y7.6876
G01 X31.8034 Y7.6619
G01 X31.7977 Y7.6555
G01 X30.2422 Y6.1001
G01 X30.2350 Y6.0940
G01 X30.2271 Y6.0887
G01 X30.1631 Y6.0538
G01 X30.1561 Y6.0504
G01 X30.1469 Y6.0471
G01 X30.1373 Y6.0450
G01 X30.1003 Y6.0412
G01 X28.1716 Y6.0411
G01 X28.1603 Y6.0420
G01 X28.1510 Y6.0439
G01 X28.0791 Y6.0650
G01 X28.0717 Y6.0678
G01 X28.0629 Y6.0722
G01 X28.0547 Y6.0778
G01 X28.0473 Y6.0843
G01 X27.9955 Y6.1438
G01 X27.9919 Y6.1485
G01 X27.9876 Y6.1552
G01 X27.9841 Y6.1623
G01 X27.9813 Y6.1696
G01 X27.9690 Y6.2139
G01 X27.9673 Y6.2229
G01 X27.9639 Y6.2541
G01 X27.9203 Y6.3704
G01 X27.8466 Y6.4687
G01 X27.7484 Y6.5423
G01 X27.6321 Y6.5859
G01 X27.5840 Y6.5912
G01 X27.5755 Y6.5917
G01 X27.5679 Y6.5930
G01 X27.5604 Y6.5951
G01 X27.4898 Y6.6200
G01 X27.4808 Y6.6241
G01 X27.4707 Y6.6305
G01 X27.4646 Y6.6355
G01 X27.4577 Y6.6426
G01 X27.4305 Y6.6775
G01 X27.4225 Y6.6849
G01 X27.4162 Y6.6925
G01 X27.4109 Y6.7007
G01 X27.3897 Y6.7410
G01 X27.0799 Y7.0509
G01 X27.0734 Y7.0482
G01 X26.9957 Y7.0205
G01 X26.9120 Y6.9996
G01 X26.8266 Y6.9869
G01 X26.7403 Y6.9826
G01 X26.6541 Y6.9869
G01 X26.5687 Y6.9996
G01 X26.4850 Y7.0205
G01 X26.4073 Y7.0482
G01 X26.4008 Y7.0509
G01 X26.0898 Y6.7398
G01 X26.0779 Y6.7182
G01 X26.0755 Y6.7099
G01 X26.0717 Y6.7008
G01 X26.0678 Y6.6939
G01 X26.0632 Y6.6874
G01 X26.0567 Y6.6800
G01 X26.0065 Y6.6298
G01 X25.9977 Y6.6222
G01 X25.9880 Y6.6160
G01 X25.9810 Y6.6127
G01 X25.9756 Y6.6106
G01 X25.9145 Y6.5932
G01 X25.9048 Y6.5916
G01 X25.8967 Y6.5912
G01 X25.8486 Y6.5859
G01 X25.7323 Y6.5423
G01 X25.6340 Y6.4687
G01 X25.5604 Y6.3704
G01 X25.5168 Y6.2541
G01 X25.5131 Y6.2209
G01 X25.5116 Y6.2135
G01 X25.5093 Y6.2062
G01 X25.4799 Y6.1353
G01 X25.4743 Y6.1248
G01 X25.4697 Y6.1184
G01 X25.4645 Y6.1124
G01 X25.4588 Y6.1070
G01 X25.4525 Y6.1022
G01 X25.3908 Y6.0596
G01 X25.3803 Y6.0541
G01 X25.3691 Y6.0502
G01 X25.3614 Y6.0486
G01 X25.3218 Y6.0422
G01 X25.3145 Y6.0413
G01 X25.3090 Y6.0411
G01 X23.5096 Y6.0411
G01 X23.4982 Y6.0420
G01 X23.4871 Y6.0444
G01 X23.4171 Y6.0650
G01 X23.4098 Y6.0677
G01 X23.4028 Y6.0712
G01 X23.3929 Y6.0776
G01 X23.3704 Y6.0957
G01 X23.3641 Y6.1014
G01 X16.1821 Y13.2834
G01 X16.1770 Y13.2890
G01 X16.1724 Y13.2951
G01 X16.1685 Y13.3016
G01 X16.1326 Y13.3674
G01 X16.1295 Y13.3747
G01 X16.1277 Y13.3804
G01 X16.1253 Y13.3920
G01 X16.1248 Y13.3979
G01 X16.1248 Y13.4058
G01 X16.1306 Y13.4845
G01 X16.1326 Y13.4942
G01 X16.1359 Y13.5036
G01 X16.1393 Y13.5107
G01 X16.1445 Y13.5191
G01 X16.1894 Y13.5792
G01 X16.1962 Y13.5867
G01 X16.2022 Y13.5921
G01 X16.2193 Y13.6039
G01 X16.3974 Y13.7141
G01 X16.5822 Y13.8705
G01 X16.7418 Y14.0525
G01 X16.8727 Y14.2561
G01 X16.9722 Y14.4768
G01 X17.0379 Y14.7098
G01 X17.0687 Y14.9519
G01 X17.0708 Y15.0335
G01 X17.0527 Y15.2769
G01 X16.9993 Y15.5130
G01 X16.9116 Y15.7386
G01 X16.7914 Y15.9488
G01 X16.6416 Y16.1389
G01 X16.4652 Y16.3048
G01 X16.2663 Y16.4428
G01 X16.0492 Y16.5498
G01 X15.8186 Y16.6236
G01 X15.5797 Y16.6626
G01 X15.3376 Y16.6657
G01 X15.0978 Y16.6331
G01 X14.8653 Y16.5653
G01 X14.6455 Y16.4640
G01 X14.4430 Y16.3312
G01 X14.2624 Y16.1700
G01 X14.1076 Y15.9839
G01 X13.9820 Y15.7770
G01 X13.8884 Y15.5537
G01 X13.8288 Y15.3191
G01 X13.8046 Y15.0782
G00 Z2.0000
G00 X6.5152 Y15.4329
G01 F30.00
G01 Z-0.1110
G01 F50.00
G01 X6.4746 Y15.4137
G01 X6.4590 Y15.4069
G01 X6.4590 Y15.3366
G01 X6.4647 Y15.3522
G01 X6.4699 Y15.3643
G01 X6.4757 Y15.3761
G01 X6.4821 Y15.3877
G01 X6.4890 Y15.3989
G01 X6.4965 Y15.4098
G01 X6.5045 Y15.4203
G01 X6.5152 Y15.4329
G00 Z2.0000
G00 X5.4165 Y15.3431
G01 F30.00
G01 Z-0.1110
G01 F50.00
G01 X5.4165 Y15.4069
G01 X5.4009 Y15.4137
G01 X5.3523 Y15.4366
G01 X5.3764 Y15.4095
G01 X5.3845 Y15.3991
G01 X5.3921 Y15.3883
G01 X5.3991 Y15.3772
G01 X5.4057 Y15.3657
G01 X5.4116 Y15.3540
G01 X5.4165 Y15.3431
G00 Z2.0000
G00 X4.7642 Y16.5555
G01 F30.00
G01 Z-0.1110
G01 F50.00
G01 X4.7807 Y16.4449
G01 X4.8077 Y16.3364
G01 X4.8100 Y16.3289
G01 X4.8478 Y16.2236
G01 X4.8955 Y16.1224
G01 X4.8992 Y16.1155
G01 X4.9568 Y16.0196
G01 X5.0258 Y15.9266
G01 X5.1035 Y15.8408
G01 X5.1864 Y15.7656
G01 X5.1924 Y15.7607
G01 X5.2823 Y15.6941
G01 X5.3816 Y15.6346
G01 X5.4827 Y15.5867
G01 X5.4899 Y15.5837
G01 X5.5916 Y15.5473
G01 X5.6079 Y15.5428
G01 X5.6079 Y12.1265
G01 X5.6095 Y12.0961
G01 X5.6142 Y12.0641
G01 X5.6221 Y12.0327
G01 X5.6330 Y12.0022
G01 X5.6468 Y11.9729
G01 X5.6635 Y11.9452
G01 X5.6827 Y11.9192
G01 X5.7031 Y11.8966
G01 X7.5347 Y10.0650
G01 X7.5543 Y10.0472
G01 X7.5604 Y10.0422
G01 X7.5833 Y10.0254
G01 X7.6076 Y10.0107
G01 X7.6145 Y10.0070
G01 X7.6403 Y9.9949
G01 X7.6671 Y9.9852
G01 X7.6746 Y9.9829
G01 X7.7022 Y9.9761
G01 X7.7303 Y9.9718
G01 X7.7381 Y9.9711
G01 X7.7665 Y9.9698
G01 X13.0655 Y9.9698
G01 X13.8883 Y9.1470
G01 X13.8883 Y7.3580
G01 X13.8605 Y7.3479
G01 X13.7816 Y7.3105
G01 X13.7032 Y7.2638
G01 X13.6283 Y7.2084
G01 X13.5621 Y7.1484
G01 X13.4994 Y7.0795
G01 X13.4451 Y7.0062
G01 X13.3982 Y6.9279
G01 X13.3599 Y6.8472
G01 X13.3284 Y6.7595
G01 X13.3063 Y6.6710
G01 X13.2929 Y6.5808
G01 X13.2884 Y6.4896
G01 X13.2929 Y6.3985
G01 X13.3063 Y6.3083
G01 X13.3284 Y6.2198
G01 X13.3599 Y6.1320
G01 X13.3964 Y6.0549
G01 X13.4001 Y6.0480
G01 X13.4451 Y5.9731
G01 X13.4970 Y5.9029
G01 X13.5020 Y5.8969
G01 X13.5607 Y5.8322
G01 X13.6283 Y5.7709
G01 X13.6984 Y5.7188
G01 X13.7049 Y5.7145
G01 X13.7799 Y5.6697
G01 X13.8588 Y5.6323
G01 X13.8660 Y5.6293
G01 X13.9482 Y5.5999
G01 X14.0368 Y5.5778
G01 X14.1231 Y5.5649
G01 X14.1309 Y5.5641
G01 X14.2181 Y5.5599
G01 X14.3054 Y5.5641
G01 X14.3132 Y5.5649
G01 X14.3995 Y5.5778
G01 X14.4880 Y5.5999
G01 X14.5739 Y5.6307
G01 X14.6529 Y5.6679
G01 X14.6598 Y5.6716
G01 X14.7347 Y5.7166
G01 X14.8049 Y5.7685
G01 X14.8109 Y5.7735
G01 X14.8742 Y5.8308
G01 X14.9368 Y5.8998
G01 X14.9912 Y5.9731
G01 X15.0381 Y6.0514
G01 X15.0755 Y6.1303
G01 X15.0785 Y6.1375
G01 X15.1066 Y6.2160
G01 X15.1089 Y6.2235
G01 X15.1300 Y6.3083
G01 X15.1429 Y6.3946
G01 X15.1437 Y6.4024
G01 X15.1479 Y6.4896
G01 X15.1432 Y6.5827
G01 X15.1300 Y6.6710
G01 X15.1089 Y6.7558
G01 X15.1066 Y6.7633
G01 X15.0771 Y6.8454
G01 X15.0399 Y6.9244
G01 X15.0362 Y6.9313
G01 X14.9912 Y7.0062
G01 X14.9381 Y7.0779
G01 X14.8783 Y7.1442
G01 X14.8727 Y7.1498
G01 X14.8080 Y7.2084
G01 X14.7363 Y7.2616
G01 X14.6547 Y7.3105
G01 X14.5757 Y7.3479
G01 X14.5480 Y7.3580
G01 X14.5479 Y9.2876
G01 X14.5464 Y9.3160
G01 X14.5417 Y9.3480
G01 X14.5338 Y9.3794
G01 X14.5229 Y9.4099
G01 X14.5091 Y9.4391
G01 X14.4924 Y9.4669
G01 X14.4731 Y9.4929
G01 X14.4528 Y9.5155
G01 X13.4340 Y10.5343
G01 X13.4114 Y10.5546
G01 X13.3886 Y10.5717
G01 X13.3821 Y10.5760
G01 X13.3576 Y10.5906
G01 X13.3284 Y10.6044
G01 X13.3016 Y10.6141
G01 X13.2941 Y10.6164
G01 X13.2646 Y10.6235
G01 X13.2345 Y10.6279
G01 X13.2021 Y10.6295
G01 X7.9032 Y10.6295
G01 X6.2676 Y12.2651
G01 X6.2676 Y15.5428
G01 X6.2839 Y15.5473
G01 X6.3892 Y15.5851
G01 X6.4939 Y15.6346
G01 X6.5932 Y15.6941
G01 X6.6831 Y15.7607
G01 X6.6891 Y15.7656
G01 X6.7719 Y15.8408
G01 X6.8471 Y15.9237
G01 X6.8521 Y15.9297
G01 X6.9164 Y16.0164
G01 X6.9208 Y16.0229
G01 X6.9782 Y16.1189
G01 X7.0277 Y16.2236
G01 X7.0667 Y16.3326
G01 X7.0948 Y16.4449
G01 X7.1118 Y16.5594
G01 X7.1174 Y16.6711
G01 X7.1174 Y16.6790
G01 X7.1118 Y16.7907
G01 X7.0955 Y16.9013
G01 X7.0940 Y16.9090
G01 X7.0677 Y17.0137
G01 X7.0655 Y17.0212
G01 X7.0277 Y17.1265
G01 X6.9782 Y17.2312
G01 X6.9187 Y17.3305
G01 X6.8497 Y17.4235
G01 X6.7719 Y17.5093
G01 X6.6891 Y17.5844
G01 X6.6831 Y17.5894
G01 X6.5964 Y17.6537
G01 X6.5899 Y17.6581
G01 X6.4939 Y17.7155
G01 X6.3892 Y17.7650
G01 X6.2802 Y17.8040
G01 X6.1679 Y17.8321
G01 X6.0534 Y17.8491
G01 X5.9417 Y17.8547
G01 X5.9338 Y17.8547
G01 X5.8260 Y17.8494
G01 X5.8182 Y17.8486
G01 X5.7076 Y17.8321
G01 X5.5953 Y17.8040
G01 X5.4863 Y17.7650
G01 X5.3816 Y17.7155
G01 X5.2823 Y17.6560
G01 X5.1924 Y17.5894
G01 X5.1864 Y17.5844
G01 X5.1064 Y17.5120
G01 X5.1008 Y17.5064
G01 X5.0258 Y17.4235
G01 X4.9568 Y17.3305
G01 X4.8973 Y17.2312
G01 X4.8478 Y17.1265
G01 X4.8088 Y17.0175
G01 X4.7815 Y16.9090
G01 X4.7800 Y16.9013
G01 X4.7637 Y16.7907
G01 X4.7581 Y16.6790
G01 X4.7581 Y16.6711
G01 X4.7634 Y16.5633
G01 X4.7642 Y16.5555
G00 Z2.0000
G00 X4.6695 Y16.5415
G01 F30.00
G01 Z-0.1110
G01 F50.00
G01 X4.6868 Y16.4262
G01 X4.7149 Y16.3131
G01 X4.7199 Y16.2966
G01 X4.7594 Y16.1870
G01 X4.8090 Y16.0815
G01 X4.8171 Y16.0663
G01 X4.8772 Y15.9664
G01 X4.9491 Y15.8693
G01 X4.9574 Y15.8594
G01 X5.0299 Y15.7794
G01 X5.0421 Y15.7672
G01 X5.1286 Y15.6891
G01 X5.2256 Y15.6170
G01 X5.2364 Y15.6099
G01 X5.3290 Y15.5544
G01 X5.3403 Y15.5482
G01 X5.4457 Y15.4984
G01 X5.4577 Y15.4936
G01 X5.5122 Y15.4741
G01 X5.5122 Y12.1241
G01 X5.5142 Y12.0867
G01 X5.5203 Y12.0454
G01 X5.5305 Y12.0049
G01 X5.5446 Y11.9656
G01 X5.5624 Y11.9278
G01 X5.5839 Y11.8920
G01 X5.6088 Y11.8585
G01 X5.6338 Y11.8306
G01 X7.4687 Y9.9957
G01 X7.4933 Y9.9734
G01 X7.5033 Y9.9654
G01 X7.5301 Y9.9458
G01 X7.5584 Y9.9286
G01 X7.5697 Y9.9223
G01 X7.6037 Y9.9065
G01 X7.6348 Y9.8951
G01 X7.6471 Y9.8912
G01 X7.6835 Y9.8822
G01 X7.7163 Y9.8772
G01 X7.7291 Y9.8758
G01 X7.7665 Y9.8741
G01 X13.0259 Y9.8741
G01 X13.7926 Y9.1074
G01 X13.7926 Y7.4216
G01 X13.7424 Y7.3979
G01 X13.7310 Y7.3919
G01 X13.6557 Y7.3469
G01 X13.6449 Y7.3398
G01 X13.5676 Y7.2823
G01 X13.4993 Y7.2207
G01 X13.4900 Y7.2117
G01 X13.4255 Y7.1402
G01 X13.3655 Y7.0594
G01 X13.3138 Y6.9730
G01 X13.2742 Y6.8899
G01 X13.2691 Y6.8781
G01 X13.2368 Y6.7873
G01 X13.2124 Y6.6897
G01 X13.1976 Y6.5902
G01 X13.1927 Y6.4896
G01 X13.1976 Y6.3891
G01 X13.2124 Y6.2896
G01 X13.2368 Y6.1920
G01 X13.2676 Y6.1053
G01 X13.2742 Y6.0894
G01 X13.3099 Y6.0139
G01 X13.3180 Y5.9988
G01 X13.3655 Y5.9199
G01 X13.4202 Y5.8459
G01 X13.4311 Y5.8326
G01 X13.4930 Y5.7645
G01 X13.5676 Y5.6970
G01 X13.6414 Y5.6420
G01 X13.6557 Y5.6324
G01 X13.7347 Y5.5853
G01 X13.8178 Y5.5457
G01 X13.8338 Y5.5392
G01 X13.9205 Y5.5084
G01 X14.0181 Y5.4839
G01 X14.1091 Y5.4702
G01 X14.1262 Y5.4685
G01 X14.2181 Y5.4642
G01 X14.3101 Y5.4685
G01 X14.3272 Y5.4702
G01 X14.4182 Y5.4839
G01 X14.5158 Y5.5084
G01 X14.6106 Y5.5423
G01 X14.6938 Y5.5814
G01 X14.7090 Y5.5895
G01 X14.7879 Y5.6370
G01 X14.8619 Y5.6917
G01 X14.8752 Y5.7026
G01 X14.9402 Y5.7615
G01 X14.9492 Y5.7708
G01 X15.0108 Y5.8391
G01 X15.0708 Y5.9199
G01 X15.1225 Y6.0063
G01 X15.1620 Y6.0894
G01 X15.1686 Y6.1053
G01 X15.1967 Y6.1838
G01 X15.2017 Y6.2003
G01 X15.2239 Y6.2896
G01 X15.2376 Y6.3806
G01 X15.2393 Y6.3977
G01 X15.2436 Y6.4896
G01 X15.2387 Y6.5902
G01 X15.2254 Y6.6812
G01 X15.2220 Y6.6981
G01 X15.1994 Y6.7873
G01 X15.1686 Y6.8740
G01 X15.1620 Y6.8899
G01 X15.1225 Y6.9730
G01 X15.0754 Y7.0521
G01 X15.0683 Y7.0629
G01 X15.0161 Y7.1334
G01 X15.0052 Y7.1467
G01 X14.9432 Y7.2147
G01 X14.8720 Y7.2796
G01 X14.8619 Y7.2876
G01 X14.7949 Y7.3373
G01 X14.7842 Y7.3446
G01 X14.7015 Y7.3940
G01 X14.6437 Y7.4216
G01 X14.6437 Y9.2836
G01 X14.6423 Y9.3168
G01 X14.6412 Y9.3296
G01 X14.6370 Y9.3582
G01 X14.6337 Y9.3751
G01 X14.6266 Y9.4030
G01 X14.6241 Y9.4113
G01 X14.6144 Y9.4385
G01 X14.6096 Y9.4505
G01 X14.5935 Y9.4843
G01 X14.5720 Y9.5201
G01 X14.5471 Y9.5536
G01 X14.5221 Y9.5815
G01 X13.4968 Y10.6065
G01 X13.4721 Y10.6286
G01 X13.4421 Y10.6511
G01 X13.4313 Y10.6581
G01 X13.4065 Y10.6729
G01 X13.3989 Y10.6770
G01 X13.3650 Y10.6928
G01 X13.3339 Y10.7042
G01 X13.3174 Y10.7092
G01 X13.2894 Y10.7162
G01 X13.2809 Y10.7178
G01 X13.2439 Y10.7232
G01 X13.2021 Y10.7252
G01 X7.9428 Y10.7252
G01 X6.3633 Y12.3047
G01 X6.3633 Y15.4741
G01 X6.4178 Y15.4936
G01 X6.4298 Y15.4984
G01 X6.5352 Y15.5482
G01 X6.5465 Y15.5544
G01 X6.6427 Y15.6122
G01 X6.6534 Y15.6195
G01 X6.7469 Y15.6891
G01 X6.8365 Y15.7702
G01 X6.8456 Y15.7794
G01 X6.9237 Y15.8659
G01 X6.9982 Y15.9664
G01 X7.0626 Y16.0738
G01 X7.1126 Y16.1791
G01 X7.1177 Y16.1910
G01 X7.1583 Y16.3048
G01 X7.1868 Y16.4178
G01 X7.1902 Y16.4347
G01 X7.2070 Y16.5500
G01 X7.2130 Y16.6664
G01 X7.2130 Y16.6837
G01 X7.2077 Y16.7915
G01 X7.2060 Y16.8086
G01 X7.1887 Y16.9239
G01 X7.1583 Y17.0453
G01 X7.1161 Y17.1631
G01 X7.0665 Y17.2686
G01 X7.0605 Y17.2801
G01 X6.9982 Y17.3836
G01 X6.9237 Y17.4842
G01 X6.8396 Y17.5769
G01 X6.7534 Y17.6554
G01 X6.7401 Y17.6663
G01 X6.6534 Y17.7306
G01 X6.6391 Y17.7402
G01 X6.5390 Y17.7999
G01 X6.4258 Y17.8534
G01 X6.3080 Y17.8956
G01 X6.1866 Y17.9260
G01 X6.0628 Y17.9444
G01 X5.9463 Y17.9503
G01 X5.9291 Y17.9503
G01 X5.8213 Y17.9450
G01 X5.8042 Y17.9433
G01 X5.6889 Y17.9260
G01 X5.5675 Y17.8956
G01 X5.4496 Y17.8534
G01 X5.3365 Y17.7999
G01 X5.2291 Y17.7355
G01 X5.1354 Y17.6663
G01 X5.1221 Y17.6554
G01 X5.0421 Y17.5829
G01 X5.0299 Y17.5707
G01 X4.9518 Y17.4842
G01 X4.8772 Y17.3836
G01 X4.8129 Y17.2763
G01 X4.7594 Y17.1631
G01 X4.7172 Y17.0453
G01 X4.6887 Y16.9323
G01 X4.6853 Y16.9154
G01 X4.6684 Y16.8001
G01 X4.6625 Y16.6837
G01 X4.6625 Y16.6664
G01 X4.6678 Y16.5586
G01 X4.6695 Y16.5415
G00 Z2.0000
G00 X4.5003 Y16.6750
G01 F30.00
G01 Z-0.1110
G01 F50.00
G01 X4.5180 Y16.4502
G01 X4.5706 Y16.2308
G01 X4.6569 Y16.0224
G01 X4.7748 Y15.8301
G01 X4.9213 Y15.6586
G01 X5.0928 Y15.5121
G01 X5.2107 Y15.4398
G01 X5.2212 Y15.4329
G01 X5.2311 Y15.4253
G01 X5.2405 Y15.4169
G01 X5.2463 Y15.4110
G01 X5.2996 Y15.3521
G01 X5.3076 Y15.3421
G01 X5.3171 Y15.3279
G01 X5.3252 Y15.3129
G01 X5.3302 Y15.3012
G01 X5.3344 Y15.2891
G01 X5.3367 Y15.2809
G01 X5.3520 Y15.2133
G01 X5.3542 Y15.1959
G01 X5.3547 Y15.1828
G01 X5.3547 Y12.1955
G01 X5.3545 Y12.1867
G01 X5.3528 Y12.1633
G01 X5.3511 Y12.1489
G01 X5.3540 Y12.1131
G01 X5.3547 Y12.0946
G01 X5.3576 Y12.0688
G01 X5.3624 Y12.0101
G01 X5.3653 Y11.9965
G01 X5.3854 Y11.9411
G01 X5.4050 Y11.8809
G01 X5.4110 Y11.8684
G01 X5.4456 Y11.8154
G01 X5.4771 Y11.7636
G01 X5.4850 Y11.7542
G01 X5.5346 Y11.7070
G01 X7.3068 Y9.9348
G01 X7.3129 Y9.9284
G01 X7.3282 Y9.9107
G01 X7.3372 Y9.8993
G01 X7.3646 Y9.8760
G01 X7.3782 Y9.8634
G01 X7.3985 Y9.8472
G01 X7.4434 Y9.8091
G01 X7.4550 Y9.8016
G01 X7.5123 Y9.7747
G01 X7.5649 Y9.7479
G01 X7.5780 Y9.7433
G01 X7.6400 Y9.7303
G01 X7.6988 Y9.7159
G01 X7.7110 Y9.7149
G01 X7.7795 Y9.7166
G01 X12.8358 Y9.7166
G01 X12.8441 Y9.7164
G01 X12.8566 Y9.7154
G01 X12.8731 Y9.7126
G01 X12.8852 Y9.7095
G01 X12.9574 Y9.6882
G01 X12.9736 Y9.6822
G01 X12.9890 Y9.6746
G01 X13.0036 Y9.6655
G01 X13.0140 Y9.6578
G01 X13.0386 Y9.6379
G01 X13.0489 Y9.6283
G01 X13.5468 Y9.1304
G01 X13.5580 Y9.1181
G01 X13.5680 Y9.1047
G01 X13.5767 Y9.0905
G01 X13.6107 Y9.0281
G01 X13.6165 Y9.0166
G01 X13.6214 Y9.0046
G01 X13.6266 Y8.9882
G01 X13.6294 Y8.9756
G01 X13.6312 Y8.9628
G01 X13.6348 Y8.9267
G01 X13.6350 Y7.6778
G01 X13.6346 Y7.6695
G01 X13.6333 Y7.6570
G01 X13.6311 Y7.6447
G01 X13.6291 Y7.6366
G01 X13.6067 Y7.5604
G01 X13.6024 Y7.5483
G01 X13.5990 Y7.5404
G01 X13.5952 Y7.5327
G01 X13.5889 Y7.5216
G01 X13.5842 Y7.5144
G01 X13.5765 Y7.5041
G01 X13.5681 Y7.4944
G01 X13.5316 Y7.4554
G01 X13.5250 Y7.4494
G01 X13.5146 Y7.4409
G01 X13.4300 Y7.3774
G01 X13.3560 Y7.3000
G01 X13.3468 Y7.2915
G01 X13.3403 Y7.2861
G01 X13.3336 Y7.2811
G01 X13.3232 Y7.2743
G01 X13.2504 Y7.2326
G01 X13.2345 Y7.2254
G01 X13.2180 Y7.2199
G01 X13.2010 Y7.2160
G01 X13.1837 Y7.2138
G01 X13.1750 Y7.2134
G01 X13.1620 Y7.2135
G01 X13.0911 Y7.2170
G01 X13.0737 Y7.2187
G01 X13.0566 Y7.2221
G01 X13.0400 Y7.2272
G01 X13.0239 Y7.2339
G01 X13.0086 Y7.2422
G01 X12.9977 Y7.2494
G01 X12.9364 Y7.2932
G01 X12.9233 Y7.3041
G01 X12.9141 Y7.3131
G01 X12.9030 Y7.3261
G01 X12.8932 Y7.3401
G01 X12.8658 Y7.3890
G01 X12.8587 Y7.4054
G01 X12.8228 Y7.5010
G01 X12.7657 Y7.5772
G01 X12.6895 Y7.6344
G01 X12.5974 Y7.6689
G01 X12.5667 Y7.6722
G01 X12.1076 Y7.6722
G01 X12.1076 Y7.5151
G01 X12.5324 Y7.5150
G01 X12.5453 Y7.5143
G01 X12.5581 Y7.5125
G01 X12.5708 Y7.5098
G01 X12.5791 Y7.5075
G01 X12.5953 Y7.5017
G01 X12.6070 Y7.4964
G01 X12.6183 Y7.4901
G01 X12.6292 Y7.4831
G01 X12.6394 Y7.4753
G01 X12.6491 Y7.4667
G01 X12.6610 Y7.4542
G01 X12.6691 Y7.4442
G01 X12.6764 Y7.4335
G01 X12.6829 Y7.4224
G01 X12.6885 Y7.4107
G01 X12.6947 Y7.3947
G01 X12.6993 Y7.3781
G01 X12.7017 Y7.3654
G01 X12.7031 Y7.3526
G01 X12.7036 Y7.3396
G01 X12.7036 Y5.6396
G01 X12.7031 Y5.6267
G01 X12.7017 Y5.6139
G01 X12.6993 Y5.6012
G01 X12.6960 Y5.5887
G01 X12.6918 Y5.5765
G01 X12.6867 Y5.5646
G01 X12.6829 Y5.5569
G01 X12.6764 Y5.5458
G01 X12.6691 Y5.5351
G01 X12.6610 Y5.5250
G01 X12.6552 Y5.5187
G01 X12.6460 Y5.5096
G01 X12.6361 Y5.5013
G01 X12.6292 Y5.4962
G01 X12.6183 Y5.4892
G01 X12.6070 Y5.4829
G01 X12.5953 Y5.4776
G01 X12.5832 Y5.4731
G01 X12.5749 Y5.4706
G01 X12.5624 Y5.4676
G01 X12.5453 Y5.4650
G01 X12.5281 Y5.4642
G01 X12.1076 Y5.4642
G01 X12.1076 Y5.3071
G01 X12.5667 Y5.3071
G01 X12.5974 Y5.3104
G01 X12.6895 Y5.3449
G01 X12.7657 Y5.4021
G01 X12.8228 Y5.4783
G01 X12.8596 Y5.5762
G01 X12.8647 Y5.5876
G01 X12.8685 Y5.5950
G01 X12.8727 Y5.6023
G01 X12.8796 Y5.6127
G01 X12.9247 Y5.6728
G01 X12.9330 Y5.6830
G01 X12.9451 Y5.6955
G01 X12.9549 Y5.7041
G01 X12.9690 Y5.7143
G01 X12.9841 Y5.7231
G01 X12.9999 Y5.7304
G01 X13.0705 Y5.7566
G01 X13.0829 Y5.7607
G01 X13.0956 Y5.7639
G01 X13.1085 Y5.7661
G01 X13.1215 Y5.7673
G01 X13.1302 Y5.7676
G01 X13.1433 Y5.7672
G01 X13.1606 Y5.7652
G01 X13.2427 Y5.7474
G01 X13.2550 Y5.7439
G01 X13.2671 Y5.7395
G01 X13.2749 Y5.7360
G01 X13.2863 Y5.7302
G01 X13.2973 Y5.7235
G01 X13.3078 Y5.7161
G01 X13.3492 Y5.6826
G01 X13.3559 Y5.6767
G01 X13.3652 Y5.6672
G01 X13.3876 Y5.6415
G01 X13.5372 Y5.5172
G01 X13.7052 Y5.4191
G01 X13.8869 Y5.3497
G01 X14.0776 Y5.3109
G01 X14.2720 Y5.3038
G01 X14.4650 Y5.3285
G01 X14.6513 Y5.3844
G01 X14.8260 Y5.4700
G01 X14.9844 Y5.5829
G01 X15.1222 Y5.7203
G01 X15.2441 Y5.8900
G01 X15.2522 Y5.9004
G01 X15.2580 Y5.9070
G01 X15.2674 Y5.9163
G01 X15.3259 Y5.9676
G01 X15.3401 Y5.9778
G01 X15.3553 Y5.9865
G01 X15.3712 Y5.9937
G01 X15.3878 Y5.9992
G01 X15.4049 Y6.0031
G01 X15.4748 Y6.0153
G01 X15.4878 Y6.0171
G01 X15.5008 Y6.0179
G01 X15.5183 Y6.0175
G01 X15.5312 Y6.0160
G01 X15.5483 Y6.0125
G01 X15.5650 Y6.0074
G01 X15.6462 Y5.9733
G01 X15.6609 Y5.9653
G01 X15.6715 Y5.9584
G01 X15.6782 Y5.9534
G01 X15.6909 Y5.9425
G01 X15.6998 Y5.9336
G01 X15.7304 Y5.8986
G01 X15.7384 Y5.8888
G01 X15.7479 Y5.8748
G01 X15.8006 Y5.7888
G01 X15.9279 Y5.6418
G01 X16.0775 Y5.5176
G01 X16.2454 Y5.4195
G01 X16.3287 Y5.3877
G01 X16.3287 Y5.5595
G01 X16.2824 Y5.5814
G01 X16.2710 Y5.5874
G01 X16.1957 Y5.6324
G01 X16.1849 Y5.6395
G01 X16.1076 Y5.6970
G01 X16.0361 Y5.7615
G01 X16.0271 Y5.7708
G01 X15.9711 Y5.8326
G01 X15.9602 Y5.8459
G01 X15.9055 Y5.9199
G01 X15.8538 Y6.0063
G01 X15.8142 Y6.0894
G01 X15.8076 Y6.1053
G01 X15.7768 Y6.1920
G01 X15.7543 Y6.2812
G01 X15.7509 Y6.2981
G01 X15.7376 Y6.3891
G01 X15.7327 Y6.4896
G01 X15.7370 Y6.5816
G01 X15.7387 Y6.5987
G01 X15.7524 Y6.6897
G01 X15.7745 Y6.7790
G01 X15.7795 Y6.7955
G01 X15.8107 Y6.8821
G01 X15.8538 Y6.9730
G01 X15.9055 Y7.0594
G01 X15.9602 Y7.1334
G01 X15.9711 Y7.1467
G01 X16.0271 Y7.2085
G01 X16.0361 Y7.2178
G01 X16.1076 Y7.2823
G01 X16.1849 Y7.3398
G01 X16.1957 Y7.3469
G01 X16.2710 Y7.3919
G01 X16.2824 Y7.3979
G01 X16.3287 Y7.4198
G01 X16.3287 Y7.5935
G01 X16.2983 Y7.5835
G01 X16.1258 Y7.4937
G01 X15.9703 Y7.3770
G01 X15.8360 Y7.2364
G01 X15.7366 Y7.0907
G01 X15.7292 Y7.0806
G01 X15.7238 Y7.0742
G01 X15.7152 Y7.0651
G01 X15.7060 Y7.0566
G01 X15.6411 Y7.0035
G01 X15.6266 Y6.9939
G01 X15.6112 Y6.9857
G01 X15.5950 Y6.9791
G01 X15.5826 Y6.9752
G01 X15.5698 Y6.9723
G01 X15.5612 Y6.9708
G01 X15.4821 Y6.9617
G01 X15.4734 Y6.9611
G01 X15.4603 Y6.9610
G01 X15.4429 Y6.9625
G01 X15.4258 Y6.9657
G01 X15.4174 Y6.9679
G01 X15.4050 Y6.9720
G01 X15.3890 Y6.9789
G01 X15.3214 Y7.0120
G01 X15.3103 Y7.0184
G01 X15.3031 Y7.0230
G01 X15.2896 Y7.0333
G01 X15.2801 Y7.0419
G01 X15.2713 Y7.0512
G01 X15.2478 Y7.0789
G01 X15.2395 Y7.0894
G01 X15.1587 Y7.2140
G01 X15.0277 Y7.3578
G01 X14.9126 Y7.4489
G01 X14.9032 Y7.4572
G01 X14.8917 Y7.4693
G01 X14.8814 Y7.4825
G01 X14.8379 Y7.5440
G01 X14.8288 Y7.5591
G01 X14.8230 Y7.5709
G01 X14.8167 Y7.5873
G01 X14.8121 Y7.6043
G01 X14.8036 Y7.6539
G01 X14.8016 Y7.6704
G01 X14.8012 Y7.6828
G01 X14.8012 Y9.2166
G01 X14.8014 Y9.2254
G01 X14.8031 Y9.2488
G01 X14.8048 Y9.2632
G01 X14.8019 Y9.2990
G01 X14.8012 Y9.3175
G01 X14.7983 Y9.3432
G01 X14.7935 Y9.4020
G01 X14.7906 Y9.4156
G01 X14.7705 Y9.4710
G01 X14.7509 Y9.5312
G01 X14.7449 Y9.5437
G01 X14.7102 Y9.5967
G01 X14.6788 Y9.6485
G01 X14.6709 Y9.6579
G01 X14.6213 Y9.7051
G01 X13.6618 Y10.6645
G01 X13.6558 Y10.6709
G01 X13.6405 Y10.6886
G01 X13.6315 Y10.7000
G01 X13.6041 Y10.7233
G01 X13.5905 Y10.7359
G01 X13.5702 Y10.7520
G01 X13.5253 Y10.7902
G01 X13.5136 Y10.7977
G01 X13.4563 Y10.8246
G01 X13.4038 Y10.8514
G01 X13.3973 Y10.8537
G01 X13.3907 Y10.8560
G01 X13.3287 Y10.8690
G01 X13.2699 Y10.8833
G01 X13.2577 Y10.8844
G01 X13.1892 Y10.8827
G01 X8.1329 Y10.8827
G01 X8.1246 Y10.8829
G01 X8.1121 Y10.8839
G01 X8.0956 Y10.8867
G01 X8.0835 Y10.8898
G01 X8.0112 Y10.9111
G01 X8.0031 Y10.9139
G01 X7.9912 Y10.9189
G01 X7.9759 Y10.9269
G01 X7.9615 Y10.9363
G01 X7.9337 Y10.9584
G01 X7.9231 Y10.9677
G01 X6.6091 Y12.2817
G01 X6.6005 Y12.2908
G01 X6.5927 Y12.3006
G01 X6.5855 Y12.3109
G01 X6.5812 Y12.3180
G01 X6.5451 Y12.3839
G01 X6.5394 Y12.3955
G01 X6.5345 Y12.4075
G01 X6.5293 Y12.4239
G01 X6.5258 Y12.4407
G01 X6.5218 Y12.4761
G01 X6.5209 Y12.4901
G01 X6.5208 Y15.1828
G01 X6.5212 Y15.1953
G01 X6.5232 Y15.2119
G01 X6.5257 Y15.2242
G01 X6.5279 Y15.2322
G01 X6.5479 Y15.3003
G01 X6.5519 Y15.3125
G01 X6.5569 Y15.3243
G01 X6.5647 Y15.3394
G01 X6.5741 Y15.3537
G01 X6.5819 Y15.3638
G01 X6.5935 Y15.3763
G01 X6.6337 Y15.4156
G01 X6.6468 Y15.4272
G01 X6.6538 Y15.4325
G01 X6.6647 Y15.4398
G01 X6.7827 Y15.5121
G01 X6.9542 Y15.6586
G01 X7.1007 Y15.8301
G01 X7.2185 Y16.0224
G01 X7.3049 Y16.2308
G01 X7.3575 Y16.4502
G01 X7.3752 Y16.6750
G01 X7.3575 Y16.8999
G01 X7.3334 Y17.0003
G01 X7.3049 Y17.1193
G01 X7.2185 Y17.3276
G01 X7.1007 Y17.5200
G01 X6.9542 Y17.6915
G01 X6.7827 Y17.8380
G01 X6.5903 Y17.9559
G01 X6.3819 Y18.0422
G01 X6.1626 Y18.0948
G01 X5.9377 Y18.1125
G01 X5.7129 Y18.0948
G01 X5.4935 Y18.0422
G01 X5.2851 Y17.9559
G01 X5.0928 Y17.8380
G01 X4.9213 Y17.6915
G01 X4.7748 Y17.5200
G01 X4.6569 Y17.3276
G01 X4.5706 Y17.1193
G01 X4.5180 Y16.8999
G01 X4.5003 Y16.6750
G00 Z2.0000
G00 X4.4043 Y16.6750
G01 F30.00
G01 Z-0.1110
G01 F50.00
G01 X4.4231 Y16.4352
G01 X4.4793 Y16.2012
G01 X4.5714 Y15.9789
G01 X4.6971 Y15.7737
G01 X4.8534 Y15.5907
G01 X5.0364 Y15.4344
G01 X5.1607 Y15.3582
G01 X5.1670 Y15.3540
G01 X5.1742 Y15.3478
G01 X5.2271 Y15.2896
G01 X5.2319 Y15.2835
G01 X5.2360 Y15.2770
G01 X5.2403 Y15.2683
G01 X5.2435 Y15.2591
G01 X5.2578 Y15.1967
G01 X5.2588 Y15.1888
G01 X5.2590 Y15.1828
G01 X5.2590 Y12.1955
G01 X5.2572 Y12.1686
G01 X5.2548 Y12.1523
G01 X5.2584 Y12.1073
G01 X5.2590 Y12.0888
G01 X5.2623 Y12.0594
G01 X5.2676 Y11.9944
G01 X5.2727 Y11.9714
G01 X5.2949 Y11.9100
G01 X5.3164 Y11.8438
G01 X5.3266 Y11.8226
G01 X5.3647 Y11.7643
G01 X5.3996 Y11.7068
G01 X5.4091 Y11.6959
G01 X5.4134 Y11.6902
G01 X5.4670 Y11.6393
G01 X7.2392 Y9.8671
G01 X7.2569 Y9.8468
G01 X7.2668 Y9.8336
G01 X7.3012 Y9.8043
G01 X7.3146 Y9.7917
G01 X7.3378 Y9.7732
G01 X7.3875 Y9.7310
G01 X7.4073 Y9.7183
G01 X7.4703 Y9.6887
G01 X7.5285 Y9.6591
G01 X7.5507 Y9.6512
G01 X7.6189 Y9.6370
G01 X7.6842 Y9.6210
G01 X7.6986 Y9.6199
G01 X7.7057 Y9.6190
G01 X7.7795 Y9.6209
G01 X12.8358 Y9.6209
G01 X12.8452 Y9.6203
G01 X12.8527 Y9.6191
G01 X12.8582 Y9.6177
G01 X12.9264 Y9.5977
G01 X12.9356 Y9.5943
G01 X12.9443 Y9.5899
G01 X12.9508 Y9.5856
G01 X12.9782 Y9.5636
G01 X13.4791 Y9.0628
G01 X13.4842 Y9.0571
G01 X13.4888 Y9.0511
G01 X13.4927 Y9.0446
G01 X13.5268 Y8.9823
G01 X13.5309 Y8.9734
G01 X13.5334 Y8.9660
G01 X13.5355 Y8.9565
G01 X13.5394 Y8.9194
G01 X13.5394 Y7.6820
G01 X13.5388 Y7.6725
G01 X13.5379 Y7.6669
G01 X13.5362 Y7.6595
G01 X13.5150 Y7.5877
G01 X13.5121 Y7.5805
G01 X13.5094 Y7.5753
G01 X13.5053 Y7.5687
G01 X13.5006 Y7.5625
G01 X13.4677 Y7.5269
G01 X13.4604 Y7.5200
G01 X13.3662 Y7.4492
G01 X13.2897 Y7.3691
G01 X13.2842 Y7.3639
G01 X13.2782 Y7.3592
G01 X13.2735 Y7.3560
G01 X13.2086 Y7.3187
G01 X13.1978 Y7.3138
G01 X13.1902 Y7.3115
G01 X13.1844 Y7.3102
G01 X13.1765 Y7.3092
G01 X13.1686 Y7.3090
G01 X13.0918 Y7.3128
G01 X13.0839 Y7.3140
G01 X13.0744 Y7.3166
G01 X13.0652 Y7.3203
G01 X13.0582 Y7.3240
G01 X12.9924 Y7.3709
G01 X12.9838 Y7.3788
G01 X12.9764 Y7.3878
G01 X12.9723 Y7.3944
G01 X12.9534 Y7.4279
G01 X12.9498 Y7.4352
G01 X12.9088 Y7.5444
G01 X12.9057 Y7.5500
G01 X12.8360 Y7.6430
G01 X12.8315 Y7.6475
G01 X12.7385 Y7.7172
G01 X12.7329 Y7.7203
G01 X12.6224 Y7.7617
G01 X12.6169 Y7.7630
G01 X12.5707 Y7.7679
G01 X12.0119 Y7.7679
G01 X12.0119 Y7.4194
G01 X12.5281 Y7.4194
G01 X12.5379 Y7.4188
G01 X12.5456 Y7.4175
G01 X12.5532 Y7.4154
G01 X12.5587 Y7.4133
G01 X12.5657 Y7.4100
G01 X12.5724 Y7.4060
G01 X12.5787 Y7.4013
G01 X12.5831 Y7.3974
G01 X12.5885 Y7.3917
G01 X12.5933 Y7.3856
G01 X12.5975 Y7.3790
G01 X12.6002 Y7.3737
G01 X12.6032 Y7.3665
G01 X12.6050 Y7.3609
G01 X12.6067 Y7.3533
G01 X12.6075 Y7.3475
G01 X12.6079 Y7.3396
G01 X12.6079 Y5.6396
G01 X12.6070 Y5.6279
G01 X12.6050 Y5.6184
G01 X12.6010 Y5.6073
G01 X12.5955 Y5.5970
G01 X12.5885 Y5.5876
G01 X12.5802 Y5.5793
G01 X12.5708 Y5.5723
G01 X12.5605 Y5.5667
G01 X12.5532 Y5.5639
G01 X12.5475 Y5.5623
G01 X12.5360 Y5.5603
G01 X12.5281 Y5.5599
G01 X12.0119 Y5.5599
G01 X12.0119 Y5.2114
G01 X12.5732 Y5.2115
G01 X12.6169 Y5.2163
G01 X12.6224 Y5.2176
G01 X12.7329 Y5.2590
G01 X12.7385 Y5.2621
G01 X12.8315 Y5.3318
G01 X12.8360 Y5.3363
G01 X12.9057 Y5.4293
G01 X12.9088 Y5.4349
G01 X12.9477 Y5.5387
G01 X12.9515 Y5.5474
G01 X12.9553 Y5.5539
G01 X12.9586 Y5.5586
G01 X13.0012 Y5.6154
G01 X13.0077 Y5.6229
G01 X13.0150 Y5.6296
G01 X13.0214 Y5.6342
G01 X13.0282 Y5.6382
G01 X13.0354 Y5.6415
G01 X13.1076 Y5.6682
G01 X13.1191 Y5.6709
G01 X13.1310 Y5.6719
G01 X13.1389 Y5.6716
G01 X13.1467 Y5.6705
G01 X13.2199 Y5.6544
G01 X13.2310 Y5.6508
G01 X13.2363 Y5.6484
G01 X13.2431 Y5.6446
G01 X13.2510 Y5.6390
G01 X13.2903 Y5.6070
G01 X13.2959 Y5.6012
G01 X13.3204 Y5.5729
G01 X13.4822 Y5.4386
G01 X13.6637 Y5.3325
G01 X13.8602 Y5.2575
G01 X14.0662 Y5.2155
G01 X14.2763 Y5.2078
G01 X14.4849 Y5.2345
G01 X14.6863 Y5.2950
G01 X14.8752 Y5.3875
G01 X15.0464 Y5.5096
G01 X15.1953 Y5.6580
G01 X15.3242 Y5.8372
G01 X15.3294 Y5.8431
G01 X15.3336 Y5.8472
G01 X15.3397 Y5.8521
G01 X15.3446 Y5.8554
G01 X15.3841 Y5.8916
G01 X15.3904 Y5.8963
G01 X15.3989 Y5.9014
G01 X15.4061 Y5.9046
G01 X15.4156 Y5.9076
G01 X15.4913 Y5.9211
G01 X15.4992 Y5.9220
G01 X15.5051 Y5.9223
G01 X15.5130 Y5.9219
G01 X15.5208 Y5.9207
G01 X15.5285 Y5.9187
G01 X15.5360 Y5.9160
G01 X15.6049 Y5.8869
G01 X15.6100 Y5.8843
G01 X15.6164 Y5.8802
G01 X15.6252 Y5.8729
G01 X15.6305 Y5.8675
G01 X15.6583 Y5.8356
G01 X15.6642 Y5.8280
G01 X15.7221 Y5.7337
G01 X15.7243 Y5.7307
G01 X15.8595 Y5.5747
G01 X15.8622 Y5.5720
G01 X16.0210 Y5.4402
G01 X16.0241 Y5.4380
G01 X16.2023 Y5.3339
G01 X16.2057 Y5.3323
G01 X16.3985 Y5.2586
G01 X16.4021 Y5.2576
G01 X16.4244 Y5.2530
G01 X16.4244 Y5.6227
G01 X16.4005 Y5.6314
G01 X16.3181 Y5.6706
G01 X16.2416 Y5.7166
G01 X16.1698 Y5.7697
G01 X16.1035 Y5.8295
G01 X16.0980 Y5.8350
G01 X16.0394 Y5.8998
G01 X15.9862 Y5.9715
G01 X15.9401 Y6.0480
G01 X15.9364 Y6.0549
G01 X15.8992 Y6.1338
G01 X15.8684 Y6.2198
G01 X15.8463 Y6.3083
G01 X15.8333 Y6.3946
G01 X15.8326 Y6.4024
G01 X15.8284 Y6.4896
G01 X15.8326 Y6.5769
G01 X15.8333 Y6.5847
G01 X15.8463 Y6.6710
G01 X15.8684 Y6.7595
G01 X15.8992 Y6.8454
G01 X15.9364 Y6.9244
G01 X15.9401 Y6.9313
G01 X15.9862 Y7.0078
G01 X16.0394 Y7.0795
G01 X16.0980 Y7.1442
G01 X16.1035 Y7.1498
G01 X16.1698 Y7.2096
G01 X16.2416 Y7.2627
G01 X16.3181 Y7.3087
G01 X16.4005 Y7.3479
G01 X16.4244 Y7.3566
G01 X16.4244 Y7.7254
G01 X16.2629 Y7.6726
G01 X16.2594 Y7.6712
G01 X16.0763 Y7.5759
G01 X16.0731 Y7.5739
G01 X15.9081 Y7.4499
G01 X15.9053 Y7.4474
G01 X15.7627 Y7.2982
G01 X15.7603 Y7.2953
G01 X15.6575 Y7.1446
G01 X15.6505 Y7.1357
G01 X15.6422 Y7.1279
G01 X15.5873 Y7.0829
G01 X15.5809 Y7.0782
G01 X15.5741 Y7.0741
G01 X15.5651 Y7.0700
G01 X15.5556 Y7.0671
G01 X15.5479 Y7.0656
G01 X15.4714 Y7.0568
G01 X15.4596 Y7.0569
G01 X15.4498 Y7.0584
G01 X15.4402 Y7.0610
G01 X15.4311 Y7.0648
G01 X15.3656 Y7.0969
G01 X15.3589 Y7.1008
G01 X15.3526 Y7.1054
G01 X15.3482 Y7.1092
G01 X15.3428 Y7.1147
G01 X15.3171 Y7.1455
G01 X15.2348 Y7.2725
G01 X15.0932 Y7.4281
G01 X14.9751 Y7.5214
G01 X14.9708 Y7.5250
G01 X14.9654 Y7.5304
G01 X14.9595 Y7.5378
G01 X14.9184 Y7.5957
G01 X14.9151 Y7.6008
G01 X14.9114 Y7.6078
G01 X14.9077 Y7.6171
G01 X14.9052 Y7.6268
G01 X14.8980 Y7.6697
G01 X14.8971 Y7.6772
G01 X14.8969 Y9.2166
G01 X14.8987 Y9.2435
G01 X14.9011 Y9.2598
G01 X14.8975 Y9.3048
G01 X14.8969 Y9.3233
G01 X14.8936 Y9.3527
G01 X14.8883 Y9.4177
G01 X14.8832 Y9.4407
G01 X14.8610 Y9.5021
G01 X14.8394 Y9.5682
G01 X14.8293 Y9.5895
G01 X14.7912 Y9.6478
G01 X14.7562 Y9.7053
G01 X14.7468 Y9.7162
G01 X14.7425 Y9.7219
G01 X14.6889 Y9.7728
G01 X13.7295 Y10.7322
G01 X13.7118 Y10.7525
G01 X13.7019 Y10.7657
G01 X13.6675 Y10.7950
G01 X13.6540 Y10.8076
G01 X13.6309 Y10.8260
G01 X13.5812 Y10.8683
G01 X13.5614 Y10.8810
G01 X13.4983 Y10.9106
G01 X13.4402 Y10.9402
G01 X13.4180 Y10.9481
G01 X13.3498 Y10.9623
G01 X13.2845 Y10.9783
G01 X13.2701 Y10.9794
G01 X13.2630 Y10.9803
G01 X13.1892 Y10.9784
G01 X8.1329 Y10.9784
G01 X8.1253 Y10.9788
G01 X8.1160 Y10.9802
G01 X8.0423 Y11.0016
G01 X8.0313 Y11.0058
G01 X8.0244 Y11.0094
G01 X8.0179 Y11.0137
G01 X7.9890 Y11.0372
G01 X6.6768 Y12.3493
G01 X6.6693 Y12.3579
G01 X6.6632 Y12.3675
G01 X6.6291 Y12.4298
G01 X6.6250 Y12.4387
G01 X6.6219 Y12.4480
G01 X6.6203 Y12.4556
G01 X6.6165 Y12.4927
G01 X6.6165 Y15.1828
G01 X6.6169 Y15.1904
G01 X6.6179 Y15.1979
G01 X6.6197 Y15.2053
G01 X6.6403 Y15.2752
G01 X6.6430 Y15.2825
G01 X6.6464 Y15.2895
G01 X6.6516 Y15.2976
G01 X6.6578 Y15.3051
G01 X6.7006 Y15.3472
G01 X6.7066 Y15.3525
G01 X6.7147 Y15.3582
G01 X6.8391 Y15.4344
G01 X7.0221 Y15.5907
G01 X7.1784 Y15.7737
G01 X7.3041 Y15.9789
G01 X7.3962 Y16.2012
G01 X7.4523 Y16.4352
G01 X7.4712 Y16.6750
G01 X7.4523 Y16.9149
G01 X7.4265 Y17.0226
G01 X7.3962 Y17.1489
G01 X7.3041 Y17.3712
G01 X7.1784 Y17.5764
G01 X7.0221 Y17.7594
G01 X6.8391 Y17.9157
G01 X6.6339 Y18.0414
G01 X6.4116 Y18.1335
G01 X6.1776 Y18.1896
G01 X5.9377 Y18.2085
G01 X5.6979 Y18.1896
G01 X5.4639 Y18.1335
G01 X5.2416 Y18.0414
G01 X5.0364 Y17.9157
G01 X4.8534 Y17.7594
G01 X4.6971 Y17.5764
G01 X4.5714 Y17.3712
G01 X4.4793 Y17.1489
G01 X4.4231 Y16.9149
G01 X4.4043 Y16.6750
G00 Z2.0000
G00 X2.9918 Y29.4473
G01 F30.00
G01 Z-0.1110
G01 F50.00
G01 X2.9933 Y29.4189
G01 X2.9980 Y29.3869
G01 X3.0059 Y29.3555
G01 X3.0168 Y29.3250
G01 X3.0306 Y29.2957
G01 X3.0473 Y29.2680
G01 X3.0665 Y29.2420
G01 X3.0869 Y29.2194
G01 X4.7580 Y27.5483
G01 X4.7580 Y25.7331
G01 X4.7586 Y25.7253
G01 X4.7599 Y25.7176
G01 X4.7620 Y25.7100
G01 X4.7648 Y25.7027
G01 X4.7684 Y25.6957
G01 X4.7725 Y25.6891
G01 X4.7774 Y25.6830
G01 X4.7842 Y25.6760
G01 X4.7902 Y25.6710
G01 X4.7967 Y25.6666
G01 X4.8019 Y25.6638
G01 X4.8090 Y25.6606
G01 X4.8165 Y25.6582
G01 X4.8222 Y25.6568
G01 X4.8299 Y25.6557
G01 X4.8377 Y25.6553
G01 X7.0377 Y25.6553
G01 X7.0475 Y25.6559
G01 X7.0552 Y25.6572
G01 X7.0628 Y25.6593
G01 X7.0701 Y25.6621
G01 X7.0770 Y25.6657
G01 X7.0837 Y25.6698
G01 X7.0913 Y25.6760
G01 X7.0968 Y25.6815
G01 X7.1006 Y25.6860
G01 X7.1051 Y25.6924
G01 X7.1090 Y25.6992
G01 X7.1121 Y25.7063
G01 X7.1141 Y25.7119
G01 X7.1160 Y25.7195
G01 X7.1171 Y25.7272
G01 X7.1175 Y25.7350
G01 X7.1175 Y27.9350
G01 X7.1171 Y27.9429
G01 X7.1163 Y27.9487
G01 X7.1146 Y27.9563
G01 X7.1121 Y27.9637
G01 X7.1098 Y27.9691
G01 X7.1061 Y27.9760
G01 X7.1018 Y27.9826
G01 X7.0981 Y27.9871
G01 X7.0927 Y27.9928
G01 X7.0868 Y27.9979
G01 X7.0804 Y28.0024
G01 X7.0718 Y28.0071
G01 X7.0646 Y28.0101
G01 X7.0571 Y28.0124
G01 X7.0494 Y28.0139
G01 X7.0397 Y28.0148
G01 X5.2245 Y28.0148
G01 X3.6514 Y29.5879
G01 X3.6514 Y34.6232
G01 X4.0520 Y35.0238
G01 X4.5754 Y35.0238
G01 X4.5754 Y34.5537
G01 X4.5758 Y34.5459
G01 X4.5778 Y34.5343
G01 X4.5794 Y34.5287
G01 X4.5822 Y34.5214
G01 X4.5878 Y34.5110
G01 X4.5948 Y34.5016
G01 X4.5987 Y34.4973
G01 X4.6045 Y34.4921
G01 X4.6141 Y34.4853
G01 X4.6246 Y34.4800
G01 X4.6358 Y34.4763
G01 X4.6454 Y34.4745
G01 X4.6551 Y34.4739
G01 X6.2551 Y34.4739
G01 X6.2610 Y34.4742
G01 X6.2688 Y34.4751
G01 X6.2745 Y34.4763
G01 X6.2820 Y34.4786
G01 X6.2892 Y34.4816
G01 X6.2961 Y34.4853
G01 X6.3011 Y34.4885
G01 X6.3072 Y34.4933
G01 X6.3129 Y34.4987
G01 X6.3168 Y34.5031
G01 X6.3215 Y34.5094
G01 X6.3255 Y34.5161
G01 X6.3288 Y34.5232
G01 X6.3309 Y34.5287
G01 X6.3330 Y34.5362
G01 X6.3340 Y34.5420
G01 X6.3349 Y34.5537
G01 X6.3349 Y35.0238
G01 X11.8875 Y35.0238
G01 X13.0465 Y33.8648
G01 X13.0691 Y33.8445
G01 X13.0951 Y33.8252
G01 X13.1228 Y33.8085
G01 X13.1521 Y33.7947
G01 X13.1826 Y33.7838
G01 X13.2140 Y33.7759
G01 X13.2460 Y33.7712
G01 X13.2764 Y33.7696
G01 X14.8824 Y33.7696
G01 X14.8824 Y33.4475
G01 X14.8840 Y33.4171
G01 X14.8881 Y33.3890
G01 X14.8896 Y33.3813
G01 X14.8955 Y33.3575
G01 X14.8978 Y33.3500
G01 X14.9061 Y33.3269
G01 X14.9091 Y33.3197
G01 X14.9213 Y33.2940
G01 X14.9359 Y33.2696
G01 X14.9402 Y33.2630
G01 X14.9572 Y33.2403
G01 X14.9790 Y33.2163
G01 X15.0029 Y33.1945
G01 X15.0306 Y33.1742
G01 X15.0533 Y33.1606
G01 X15.0602 Y33.1569
G01 X15.0860 Y33.1448
G01 X15.1075 Y33.1370
G01 X15.1075 Y31.2706
G01 X15.0640 Y31.2595
G01 X14.9458 Y31.2170
G01 X14.8341 Y31.1641
G01 X14.7280 Y31.1006
G01 X14.6286 Y31.0271
G01 X14.6225 Y31.0222
G01 X14.5324 Y30.9404
G01 X14.4493 Y30.8488
G01 X14.3755 Y30.7496
G01 X14.3712 Y30.7431
G01 X14.3087 Y30.6387
G01 X14.2550 Y30.5252
G01 X14.2127 Y30.4069
G01 X14.1830 Y30.2889
G01 X14.1815 Y30.2813
G01 X14.1636 Y30.1589
G01 X14.1576 Y30.0354
G01 X14.1638 Y29.9100
G01 X14.1822 Y29.7858
G01 X14.2117 Y29.6677
G01 X14.2139 Y29.6602
G01 X14.2536 Y29.5494
G01 X14.2566 Y29.5421
G01 X14.3087 Y29.4322
G01 X14.3712 Y29.3278
G01 X14.3755 Y29.3213
G01 X14.4481 Y29.2236
G01 X14.5297 Y29.1334
G01 X14.5353 Y29.1278
G01 X14.6255 Y29.0462
G01 X14.7231 Y28.9736
G01 X14.7297 Y28.9693
G01 X14.8341 Y28.9068
G01 X14.9440 Y28.8547
G01 X14.9513 Y28.8517
G01 X15.0621 Y28.8120
G01 X15.0696 Y28.8098
G01 X15.1877 Y28.7803
G01 X15.3080 Y28.7623
G01 X15.3158 Y28.7616
G01 X15.4373 Y28.7557
G01 X15.5589 Y28.7616
G01 X15.5667 Y28.7623
G01 X15.6870 Y28.7803
G01 X15.8088 Y28.8108
G01 X15.9234 Y28.8517
G01 X15.9307 Y28.8547
G01 X16.0406 Y28.9068
G01 X16.1483 Y28.9714
G01 X16.2461 Y29.0438
G01 X16.2522 Y29.0487
G01 X16.3423 Y29.1305
G01 X16.4240 Y29.2206
G01 X16.4290 Y29.2267
G01 X16.5014 Y29.3245
G01 X16.5640 Y29.4288
G01 X16.5677 Y29.4357
G01 X16.6197 Y29.5457
G01 X16.6608 Y29.6602
G01 X16.6630 Y29.6677
G01 X16.6929 Y29.7877
G01 X16.7109 Y29.9100
G01 X16.7171 Y30.0354
G01 X16.7109 Y30.1609
G01 X16.6925 Y30.2851
G01 X16.6620 Y30.4069
G01 X16.6197 Y30.5252
G01 X16.5660 Y30.6387
G01 X16.5025 Y30.7448
G01 X16.4266 Y30.8473
G01 X16.3423 Y30.9404
G01 X16.2492 Y31.0247
G01 X16.1499 Y31.0984
G01 X16.0406 Y31.1641
G01 X15.9289 Y31.2170
G01 X15.8107 Y31.2595
G01 X15.7672 Y31.2706
G01 X15.7672 Y33.1197
G01 X15.8661 Y33.1198
G01 X15.8945 Y33.1213
G01 X15.9226 Y33.1254
G01 X15.9303 Y33.1269
G01 X15.9579 Y33.1339
G01 X15.9847 Y33.1434
G01 X15.9919 Y33.1464
G01 X16.0141 Y33.1569
G01 X16.0210 Y33.1606
G01 X16.0453 Y33.1753
G01 X16.0698 Y33.1933
G01 X16.0953 Y33.2163
G01 X16.1170 Y33.2403
G01 X16.1363 Y33.2662
G01 X16.1510 Y33.2906
G01 X16.1547 Y33.2975
G01 X16.1652 Y33.3197
G01 X16.1682 Y33.3269
G01 X16.1777 Y33.3537
G01 X16.1847 Y33.3813
G01 X16.1862 Y33.3890
G01 X16.1903 Y33.4171
G01 X16.1919 Y33.4475
G01 X16.1919 Y34.7494
G01 X16.1903 Y34.7818
G01 X16.1856 Y34.8138
G01 X16.1777 Y34.8452
G01 X16.1682 Y34.8720
G01 X16.1652 Y34.8792
G01 X16.1547 Y34.9014
G01 X16.1510 Y34.9083
G01 X16.1363 Y34.9326
G01 X16.1170 Y34.9586
G01 X16.0953 Y34.9826
G01 X16.0713 Y35.0043
G01 X16.0453 Y35.0236
G01 X16.0210 Y35.0383
G01 X16.0141 Y35.0420
G01 X15.9919 Y35.0525
G01 X15.9847 Y35.0555
G01 X15.9579 Y35.0650
G01 X15.9265 Y35.0729
G01 X15.8945 Y35.0776
G01 X15.8670 Y35.0791
G01 X15.8670 Y36.9843
G01 X15.9612 Y37.0080
G01 X16.0758 Y37.0489
G01 X16.0831 Y37.0519
G01 X16.1930 Y37.1040
G01 X16.2974 Y37.1665
G01 X16.3039 Y37.1708
G01 X16.4016 Y37.2434
G01 X16.4918 Y37.3250
G01 X16.4974 Y37.3306
G01 X16.5790 Y37.4208
G01 X16.6516 Y37.5185
G01 X16.6559 Y37.5250
G01 X16.7184 Y37.6294
G01 X16.7705 Y37.7393
G01 X16.7735 Y37.7466
G01 X16.8132 Y37.8574
G01 X16.8154 Y37.8649
G01 X16.8449 Y37.9830
G01 X16.8628 Y38.1033
G01 X16.8636 Y38.1111
G01 X16.8695 Y38.2326
G01 X16.8636 Y38.3542
G01 X16.8628 Y38.3620
G01 X16.8449 Y38.4823
G01 X16.8154 Y38.6004
G01 X16.8132 Y38.6079
G01 X16.7721 Y38.7224
G01 X16.7201 Y38.8324
G01 X16.7164 Y38.8393
G01 X16.6538 Y38.9436
G01 X16.5777 Y39.0460
G01 X16.4974 Y39.1347
G01 X16.4918 Y39.1403
G01 X16.4016 Y39.2219
G01 X16.3039 Y39.2945
G01 X16.2974 Y39.2988
G01 X16.1930 Y39.3613
G01 X16.0831 Y39.4134
G01 X16.0758 Y39.4164
G01 X15.9612 Y39.4573
G01 X15.8432 Y39.4869
G01 X15.8356 Y39.4885
G01 X15.7152 Y39.5062
G01 X15.5937 Y39.5123
G01 X15.5858 Y39.5123
G01 X15.4643 Y39.5062
G01 X15.3439 Y39.4885
G01 X15.3363 Y39.4869
G01 X15.2182 Y39.4573
G01 X15.1037 Y39.4164
G01 X15.0964 Y39.4134
G01 X14.9865 Y39.3613
G01 X14.8821 Y39.2988
G01 X14.8755 Y39.2945
G01 X14.7779 Y39.2219
G01 X14.6877 Y39.1403
G01 X14.6821 Y39.1347
G01 X14.6005 Y39.0445
G01 X14.5279 Y38.9468
G01 X14.5236 Y38.9403
G01 X14.4611 Y38.8359
G01 X14.4090 Y38.7260
G01 X14.4060 Y38.7187
G01 X14.3651 Y38.6041
G01 X14.3346 Y38.4823
G01 X14.3162 Y38.3581
G01 X14.3100 Y38.2326
G01 X14.3162 Y38.1072
G01 X14.3346 Y37.9830
G01 X14.3651 Y37.8612
G01 X14.4060 Y37.7466
G01 X14.4090 Y37.7393
G01 X14.4611 Y37.6294
G01 X14.5257 Y37.5217
G01 X14.6005 Y37.4208
G01 X14.6821 Y37.3306
G01 X14.6877 Y37.3250
G01 X14.7779 Y37.2434
G01 X14.8755 Y37.1708
G01 X14.8821 Y37.1665
G01 X14.9831 Y37.1059
G01 X14.9900 Y37.1022
G01 X15.1000 Y37.0503
G01 X15.2073 Y37.0118
G01 X15.2073 Y35.0791
G01 X15.1798 Y35.0776
G01 X15.1517 Y35.0735
G01 X15.1440 Y35.0720
G01 X15.1164 Y35.0650
G01 X15.0896 Y35.0555
G01 X15.0824 Y35.0525
G01 X15.0567 Y35.0403
G01 X15.0322 Y35.0257
G01 X15.0257 Y35.0214
G01 X15.0029 Y35.0043
G01 X14.9818 Y34.9853
G01 X14.9763 Y34.9798
G01 X14.9572 Y34.9586
G01 X14.9402 Y34.9358
G01 X14.9359 Y34.9293
G01 X14.9204 Y34.9032
G01 X14.9075 Y34.8756
G01 X14.8966 Y34.8452
G01 X14.8887 Y34.8138
G01 X14.8838 Y34.7798
G01 X14.8824 Y34.7494
G01 X14.8824 Y34.4293
G01 X13.4150 Y34.4293
G01 X12.1880 Y35.6562
G01 X12.1668 Y35.6752
G01 X12.1408 Y35.6945
G01 X12.1130 Y35.7112
G01 X12.0838 Y35.7250
G01 X12.0533 Y35.7359
G01 X12.0219 Y35.7438
G01 X11.9899 Y35.7485
G01 X11.9612 Y35.7500
G01 X8.8584 Y38.8528
G01 X8.8584 Y43.8332
G01 X8.8978 Y43.8521
G01 X8.9601 Y43.8894
G01 X9.0247 Y43.9374
G01 X9.0799 Y43.9875
G01 X9.1287 Y44.0412
G01 X9.1337 Y44.0473
G01 X9.1779 Y44.1073
G01 X9.2162 Y44.1713
G01 X9.2473 Y44.2369
G01 X9.2503 Y44.2441
G01 X9.2747 Y44.3125
G01 X9.2933 Y44.3867
G01 X9.3041 Y44.4585
G01 X9.3048 Y44.4663
G01 X9.3083 Y44.5388
G01 X9.3048 Y44.6114
G01 X9.3041 Y44.6192
G01 X9.2933 Y44.6910
G01 X9.2747 Y44.7652
G01 X9.2503 Y44.8336
G01 X9.2473 Y44.8408
G01 X9.2162 Y44.9064
G01 X9.1779 Y44.9704
G01 X9.1337 Y45.0304
G01 X9.1287 Y45.0365
G01 X9.0799 Y45.0902
G01 X9.0247 Y45.1403
G01 X8.9601 Y45.1883
G01 X8.8978 Y45.2256
G01 X8.8584 Y45.2445
G01 X8.8584 Y52.0826
G01 X8.8568 Y52.1150
G01 X8.8527 Y52.1431
G01 X8.8512 Y52.1508
G01 X8.8442 Y52.1784
G01 X8.8333 Y52.2089
G01 X8.8195 Y52.2381
G01 X8.8049 Y52.2626
G01 X8.8006 Y52.2691
G01 X8.7835 Y52.2919
G01 X8.7618 Y52.3159
G01 X8.2968 Y52.7808
G01 X8.2756 Y52.7998
G01 X8.2528 Y52.8169
G01 X8.2463 Y52.8212
G01 X8.2218 Y52.8358
G01 X8.1962 Y52.8480
