(G-CODE GENERATED BY FLATCAM v8.992 - www.flatcam.org - Version Date: 2020/05/03)

(Name: Phoenix612_Stage_3_PA_Testing_v1-F_Cu-deeppass)
(Type: G-code from Geometry)
(Units: MM)

(Created on Thursday, 12 January 2023 at 17:21)

(This preprocessor is the default preprocessor used by FlatCAM.)
(It is made to work with MACH3 compatible motion controllers.)

(TOOL DIAMETER: 0.1622 mm)
(Feedrate_XY: 80.0 mm/min)
(Feedrate_Z: 50.0 mm/min)
(Feedrate rapids 1500.0 mm/min)

(Z_Cut: -0.116 mm)
(Z_Move: 2.0 mm)
(Z Start: None mm)
(Z End: 10.0 mm)
(Steps per circle: 64)
(Preprocessor Geometry: default)

(X range:    0.3793 ...   64.9632  mm)
(Y range:    0.3978 ...   92.9217  mm)

(Spindle Speed: None RPM)
G21
G90
G94



G01 F80.00
G00 Z2.0000

M03
G00 X0.3856 Y0.7409
G01 F50.00
G01 Z-0.1160
G01 F80.00
G01 X0.3985 Y0.6819
G01 X0.4042 Y0.6620
G01 X0.4088 Y0.6490
G01 X0.4140 Y0.6363
G01 X0.4199 Y0.6238
G01 X0.4263 Y0.6116
G01 X0.4372 Y0.5940
G01 X0.4451 Y0.5827
G01 X0.4536 Y0.5719
G01 X0.5091 Y0.5079
G01 X0.5235 Y0.4932
G01 X0.5336 Y0.4840
G01 X0.5443 Y0.4754
G01 X0.5553 Y0.4673
G01 X0.5726 Y0.4562
G01 X0.5845 Y0.4495
G01 X0.5968 Y0.4434
G01 X0.6094 Y0.4380
G01 X0.6222 Y0.4332
G01 X0.6352 Y0.4290
G01 X0.7034 Y0.4090
G01 X0.7224 Y0.4041
G01 X0.7353 Y0.4016
G01 X0.7483 Y0.3998
G01 X0.7614 Y0.3985
G01 X0.7810 Y0.3978
G01 X64.5614 Y0.3978
G01 X64.5811 Y0.3985
G01 X64.5942 Y0.3998
G01 X64.6072 Y0.4016
G01 X64.6201 Y0.4041
G01 X64.6791 Y0.4170
G01 X64.6990 Y0.4227
G01 X64.7120 Y0.4273
G01 X64.7247 Y0.4325
G01 X64.7433 Y0.4415
G01 X64.7612 Y0.4519
G01 X64.7727 Y0.4596
G01 X64.7837 Y0.4678
G01 X64.7944 Y0.4765
G01 X64.8480 Y0.5230
G01 X64.8630 Y0.5371
G01 X64.8724 Y0.5470
G01 X64.8813 Y0.5574
G01 X64.8937 Y0.5738
G01 X64.9048 Y0.5911
G01 X64.9146 Y0.6091
G01 X64.9230 Y0.6279
G01 X64.9300 Y0.6472
G01 X64.9520 Y0.7219
G01 X64.9569 Y0.7409
G01 X64.9594 Y0.7538
G01 X64.9612 Y0.7668
G01 X64.9629 Y0.7864
G01 X64.9632 Y0.7995
G01 X64.9632 Y92.5199
G01 X64.9625 Y92.5396
G01 X64.9612 Y92.5527
G01 X64.9594 Y92.5657
G01 X64.9569 Y92.5786
G01 X64.9439 Y92.6376
G01 X64.9383 Y92.6575
G01 X64.9337 Y92.6705
G01 X64.9285 Y92.6832
G01 X64.9195 Y92.7018
G01 X64.9091 Y92.7197
G01 X64.9014 Y92.7312
G01 X64.8932 Y92.7422
G01 X64.8844 Y92.7529
G01 X64.8380 Y92.8065
G01 X64.8239 Y92.8215
G01 X64.8140 Y92.8309
G01 X64.7982 Y92.8441
G01 X64.7872 Y92.8522
G01 X64.7699 Y92.8633
G01 X64.7518 Y92.8731
G01 X64.7331 Y92.8815
G01 X64.7138 Y92.8885
G01 X64.6391 Y92.9105
G01 X64.6201 Y92.9154
G01 X64.6072 Y92.9179
G01 X64.5942 Y92.9197
G01 X64.5746 Y92.9214
G01 X64.5614 Y92.9217
G01 X0.7810 Y92.9217
G01 X0.7614 Y92.9210
G01 X0.7483 Y92.9197
G01 X0.7353 Y92.9179
G01 X0.7224 Y92.9154
G01 X0.6634 Y92.9025
G01 X0.6435 Y92.8968
G01 X0.6305 Y92.8922
G01 X0.6115 Y92.8841
G01 X0.5992 Y92.8780
G01 X0.5813 Y92.8676
G01 X0.5698 Y92.8599
G01 X0.5588 Y92.8517
G01 X0.5481 Y92.8430
G01 X0.4945 Y92.7965
G01 X0.4795 Y92.7824
G01 X0.4701 Y92.7725
G01 X0.4611 Y92.7621
G01 X0.4488 Y92.7457
G01 X0.4377 Y92.7284
G01 X0.4279 Y92.7103
G01 X0.4195 Y92.6916
G01 X0.4125 Y92.6723
G01 X0.3905 Y92.5976
G01 X0.3856 Y92.5786
G01 X0.3831 Y92.5657
G01 X0.3805 Y92.5462
G01 X0.3796 Y92.5331
G01 X0.3793 Y92.5199
G01 X0.3793 Y0.7995
G01 X0.3796 Y0.7864
G01 X0.3813 Y0.7668
G01 X0.3831 Y0.7538
G01 X0.3856 Y0.7409
G00 Z2.0000
G00 X0.4807 Y0.7616
G01 F50.00
G01 Z-0.1160
G01 F80.00
G01 X0.4921 Y0.7093
G01 X0.4954 Y0.6963
G01 X0.4997 Y0.6837
G01 X0.5031 Y0.6754
G01 X0.5111 Y0.6595
G01 X0.5181 Y0.6481
G01 X0.5287 Y0.6338
G01 X0.5810 Y0.5734
G01 X0.5936 Y0.5609
G01 X0.6073 Y0.5497
G01 X0.6221 Y0.5400
G01 X0.6378 Y0.5317
G01 X0.6542 Y0.5251
G01 X0.7390 Y0.5002
G01 X0.7515 Y0.4976
G01 X0.7599 Y0.4964
G01 X0.7683 Y0.4956
G01 X0.7810 Y0.4951
G01 X64.5614 Y0.4951
G01 X64.5784 Y0.4959
G01 X64.5910 Y0.4976
G01 X64.6561 Y0.5116
G01 X64.6647 Y0.5139
G01 X64.6773 Y0.5182
G01 X64.6896 Y0.5234
G01 X64.6976 Y0.5274
G01 X64.7129 Y0.5366
G01 X64.7237 Y0.5444
G01 X64.7843 Y0.5966
G01 X64.7940 Y0.6057
G01 X64.8001 Y0.6121
G01 X64.8086 Y0.6223
G01 X64.8138 Y0.6294
G01 X64.8210 Y0.6406
G01 X64.8274 Y0.6523
G01 X64.8344 Y0.6686
G01 X64.8386 Y0.6812
G01 X64.8586 Y0.7493
G01 X64.8618 Y0.7616
G01 X64.8640 Y0.7742
G01 X64.8651 Y0.7826
G01 X64.8659 Y0.7995
G01 X64.8659 Y92.5199
G01 X64.8651 Y92.5369
G01 X64.8634 Y92.5495
G01 X64.8494 Y92.6146
G01 X64.8471 Y92.6232
G01 X64.8428 Y92.6358
G01 X64.8375 Y92.6481
G01 X64.8336 Y92.6561
G01 X64.8268 Y92.6677
G01 X64.8166 Y92.6822
G01 X64.7644 Y92.7428
G01 X64.7553 Y92.7525
G01 X64.7489 Y92.7586
G01 X64.7422 Y92.7643
G01 X64.7315 Y92.7723
G01 X64.7204 Y92.7795
G01 X64.7087 Y92.7859
G01 X64.6966 Y92.7913
G01 X64.6798 Y92.7971
G01 X64.6117 Y92.8171
G01 X64.5994 Y92.8203
G01 X64.5868 Y92.8226
G01 X64.5784 Y92.8236
G01 X64.5614 Y92.8244
G01 X0.7810 Y92.8244
G01 X0.7683 Y92.8239
G01 X0.7515 Y92.8219
G01 X0.6864 Y92.8079
G01 X0.6778 Y92.8056
G01 X0.6652 Y92.8013
G01 X0.6528 Y92.7961
G01 X0.6449 Y92.7921
G01 X0.6333 Y92.7853
G01 X0.6187 Y92.7751
G01 X0.5582 Y92.7229
G01 X0.5485 Y92.7138
G01 X0.5424 Y92.7074
G01 X0.5366 Y92.7007
G01 X0.5286 Y92.6901
G01 X0.5193 Y92.6750
G01 X0.5132 Y92.6632
G01 X0.5081 Y92.6509
G01 X0.5038 Y92.6383
G01 X0.4838 Y92.5702
G01 X0.4807 Y92.5579
G01 X0.4779 Y92.5411
G01 X0.4768 Y92.5284
G01 X0.4766 Y92.5199
G01 X0.4766 Y0.7995
G01 X0.4771 Y0.7868
G01 X0.4779 Y0.7784
G01 X0.4807 Y0.7616
G00 Z2.0000
G00 X0.5758 Y0.7823
G01 F50.00
G01 Z-0.1160
G01 F80.00
G01 X0.5881 Y0.7260
G01 X0.5914 Y0.7164
G01 X0.5958 Y0.7073
G01 X0.6001 Y0.7005
G01 X0.6038 Y0.6956
G01 X0.6516 Y0.6404
G01 X0.6572 Y0.6346
G01 X0.6633 Y0.6294
G01 X0.6716 Y0.6237
G01 X0.6788 Y0.6200
G01 X0.6862 Y0.6170
G01 X0.7601 Y0.5952
G01 X0.7714 Y0.5930
G01 X0.7810 Y0.5924
G01 X64.5614 Y0.5924
G01 X64.5691 Y0.5928
G01 X64.5768 Y0.5939
G01 X64.6330 Y0.6061
G01 X64.6427 Y0.6092
G01 X64.6519 Y0.6133
G01 X64.6588 Y0.6175
G01 X64.6653 Y0.6223
G01 X64.7205 Y0.6701
G01 X64.7277 Y0.6772
G01 X64.7340 Y0.6851
G01 X64.7401 Y0.6955
G01 X64.7433 Y0.7028
G01 X64.7453 Y0.7086
G01 X64.7658 Y0.7786
G01 X64.7680 Y0.7899
G01 X64.7685 Y0.7995
G01 X64.7685 Y92.5199
G01 X64.7682 Y92.5277
G01 X64.7671 Y92.5353
G01 X64.7548 Y92.5915
G01 X64.7518 Y92.6012
G01 X64.7476 Y92.6104
G01 X64.7435 Y92.6173
G01 X64.7387 Y92.6238
G01 X64.6909 Y92.6791
G01 X64.6838 Y92.6862
G01 X64.6759 Y92.6925
G01 X64.6655 Y92.6986
G01 X64.6600 Y92.7011
G01 X64.6524 Y92.7038
G01 X64.5824 Y92.7243
G01 X64.5711 Y92.7265
G01 X64.5614 Y92.7270
G01 X0.7810 Y92.7270
G01 X0.7733 Y92.7267
G01 X0.7657 Y92.7256
G01 X0.7095 Y92.7134
G01 X0.6998 Y92.7103
G01 X0.6906 Y92.7062
G01 X0.6836 Y92.7020
G01 X0.6771 Y92.6972
G01 X0.6219 Y92.6494
G01 X0.6148 Y92.6423
G01 X0.6085 Y92.6344
G01 X0.6024 Y92.6240
G01 X0.5999 Y92.6185
G01 X0.5972 Y92.6109
G01 X0.5767 Y92.5409
G01 X0.5748 Y92.5315
G01 X0.5739 Y92.5199
G01 X0.5739 Y0.7995
G01 X0.5743 Y0.7918
G01 X0.5758 Y0.7823
G00 Z2.0000
G00 X10.4012 Y6.1545
G01 F50.00
G01 Z-0.1160
G01 F80.00
G01 X10.4012 Y5.5972
G01 X10.4061 Y5.5511
G01 X10.4074 Y5.5457
G01 X10.4487 Y5.4355
G01 X10.4517 Y5.4300
G01 X10.5213 Y5.3372
G01 X10.5257 Y5.3328
G01 X10.6185 Y5.2632
G01 X10.6240 Y5.2602
G01 X10.7342 Y5.2189
G01 X10.7396 Y5.2176
G01 X10.7857 Y5.2127
G01 X11.3430 Y5.2127
G01 X11.3430 Y5.5585
G01 X10.8262 Y5.5586
G01 X10.8143 Y5.5597
G01 X10.8046 Y5.5620
G01 X10.7953 Y5.5655
G01 X10.7848 Y5.5711
G01 X10.7767 Y5.5770
G01 X10.7708 Y5.5823
G01 X10.7642 Y5.5898
G01 X10.7586 Y5.5980
G01 X10.7540 Y5.6068
G01 X10.7505 Y5.6161
G01 X10.7486 Y5.6238
G01 X10.7473 Y5.6337
G01 X10.7470 Y6.1545
G01 X10.4012 Y6.1545
G00 Z2.0000
G00 X10.4986 Y6.0572
G01 F50.00
G01 Z-0.1160
G01 F80.00
G01 X10.4986 Y5.6012
G01 X10.5018 Y5.5710
G01 X10.5361 Y5.4797
G01 X10.5927 Y5.4042
G01 X10.6682 Y5.3476
G01 X10.7595 Y5.3133
G01 X10.7897 Y5.3101
G01 X11.2457 Y5.3101
G01 X11.2457 Y5.4612
G01 X10.8281 Y5.4612
G01 X10.8107 Y5.4621
G01 X10.7976 Y5.4639
G01 X10.7806 Y5.4677
G01 X10.7680 Y5.4717
G01 X10.7519 Y5.4784
G01 X10.7364 Y5.4866
G01 X10.7254 Y5.4938
G01 X10.7116 Y5.5045
G01 X10.7020 Y5.5135
G01 X10.6902 Y5.5265
G01 X10.6823 Y5.5369
G01 X10.6729 Y5.5517
G01 X10.6669 Y5.5634
G01 X10.6602 Y5.5795
G01 X10.6562 Y5.5921
G01 X10.6531 Y5.6048
G01 X10.6506 Y5.6222
G01 X10.6497 Y5.6396
G01 X10.6497 Y6.0572
G01 X10.4986 Y6.0572
G00 Z2.0000
G00 X10.4012 Y6.8247
G01 F50.00
G01 Z-0.1160
G01 F80.00
G01 X10.7470 Y6.8247
G01 X10.7471 Y7.3416
G01 X10.7479 Y7.3515
G01 X10.7505 Y7.3632
G01 X10.7540 Y7.3725
G01 X10.7596 Y7.3830
G01 X10.7654 Y7.3911
G01 X10.7722 Y7.3984
G01 X10.7782 Y7.4036
G01 X10.7864 Y7.4092
G01 X10.7953 Y7.4138
G01 X10.8027 Y7.4167
G01 X10.8123 Y7.4192
G01 X10.8222 Y7.4205
G01 X11.3430 Y7.4207
G01 X11.3430 Y7.7665
G01 X10.7857 Y7.7665
G01 X10.7396 Y7.7617
G01 X10.7342 Y7.7604
G01 X10.6240 Y7.7191
G01 X10.6185 Y7.7161
G01 X10.5257 Y7.6465
G01 X10.5213 Y7.6421
G01 X10.4517 Y7.5493
G01 X10.4487 Y7.5438
G01 X10.4074 Y7.4335
G01 X10.4061 Y7.4282
G01 X10.4012 Y7.3821
G01 X10.4012 Y6.8247
G00 Z2.0000
G00 X10.4986 Y6.9221
G01 F50.00
G01 Z-0.1160
G01 F80.00
G01 X10.6497 Y6.9221
G01 X10.6497 Y7.3396
G01 X10.6506 Y7.3571
G01 X10.6531 Y7.3745
G01 X10.6562 Y7.3872
G01 X10.6602 Y7.3998
G01 X10.6669 Y7.4159
G01 X10.6729 Y7.4276
G01 X10.6823 Y7.4424
G01 X10.6902 Y7.4528
G01 X10.7020 Y7.4658
G01 X10.7150 Y7.4776
G01 X10.7254 Y7.4855
G01 X10.7364 Y7.4927
G01 X10.7519 Y7.5009
G01 X10.7680 Y7.5076
G01 X10.7806 Y7.5116
G01 X10.7976 Y7.5154
G01 X10.8107 Y7.5172
G01 X10.8281 Y7.5181
G01 X11.2457 Y7.5181
G01 X11.2457 Y7.6692
G01 X10.7897 Y7.6692
G01 X10.7595 Y7.6659
G01 X10.6682 Y7.6317
G01 X10.5927 Y7.5751
G01 X10.5361 Y7.4996
G01 X10.5018 Y7.4083
G01 X10.4986 Y7.3781
G01 X10.4986 Y6.9221
G00 Z2.0000
G00 X13.3056 Y5.8321
G01 F50.00
G01 Z-0.1160
G01 F80.00
G01 X13.2860 Y5.8586
G01 X13.2784 Y5.8699
G01 X13.2320 Y5.9472
G01 X13.2222 Y5.9650
G01 X13.1836 Y6.0465
G01 X13.1781 Y6.0588
G01 X13.1732 Y6.0715
G01 X13.1429 Y6.1564
G01 X13.1373 Y6.1759
G01 X13.1170 Y6.2568
G01 X13.1140 Y6.2700
G01 X13.1117 Y6.2834
G01 X13.0995 Y6.3659
G01 X13.0978 Y6.3793
G01 X13.0968 Y6.3928
G01 X13.0927 Y6.4761
G01 X13.0924 Y6.4896
G01 X13.0927 Y6.5032
G01 X13.0968 Y6.5865
G01 X13.0978 Y6.6000
G01 X13.0995 Y6.6134
G01 X13.1117 Y6.6959
G01 X13.1140 Y6.7093
G01 X13.1170 Y6.7225
G01 X13.1373 Y6.8034
G01 X13.1429 Y6.8229
G01 X13.1732 Y6.9078
G01 X13.1781 Y6.9204
G01 X13.1836 Y6.9328
G01 X13.2222 Y7.0143
G01 X13.2320 Y7.0321
G01 X13.2784 Y7.1094
G01 X13.2860 Y7.1207
G01 X13.3070 Y7.1492
G01 X13.2899 Y7.1402
G01 X13.2775 Y7.1346
G01 X13.2647 Y7.1296
G01 X13.2517 Y7.1252
G01 X13.2385 Y7.1215
G01 X13.2252 Y7.1185
G01 X13.2049 Y7.1152
G01 X13.1913 Y7.1138
G01 X13.1776 Y7.1131
G01 X13.1639 Y7.1131
G01 X13.0793 Y7.1172
G01 X13.0657 Y7.1186
G01 X13.0522 Y7.1206
G01 X13.0387 Y7.1233
G01 X13.0255 Y7.1266
G01 X13.0059 Y7.1329
G01 X12.9931 Y7.1379
G01 X12.9745 Y7.1465
G01 X12.9625 Y7.1530
G01 X12.9507 Y7.1601
G01 X12.9394 Y7.1678
G01 X12.8762 Y7.2130
G01 X12.8656 Y7.2213
G01 X12.8555 Y7.2302
G01 X12.8458 Y7.2395
G01 X12.8366 Y7.2493
G01 X12.8279 Y7.2595
G01 X12.8196 Y7.2701
G01 X12.8119 Y7.2812
G01 X12.8039 Y7.2941
G01 X12.8039 Y5.6789
G01 X12.8445 Y5.7331
G01 X12.8575 Y5.7490
G01 X12.8668 Y5.7591
G01 X12.8765 Y5.7687
G01 X12.8920 Y5.7822
G01 X12.9029 Y5.7905
G01 X12.9142 Y5.7983
G01 X12.9258 Y5.8055
G01 X12.9378 Y5.8121
G01 X12.9564 Y5.8209
G01 X12.9691 Y5.8260
G01 X13.0356 Y5.8507
G01 X13.0486 Y5.8551
G01 X13.0617 Y5.8589
G01 X13.0751 Y5.8621
G01 X13.0885 Y5.8645
G01 X13.1021 Y5.8663
G01 X13.1158 Y5.8674
G01 X13.1295 Y5.8679
G01 X13.1432 Y5.8677
G01 X13.1568 Y5.8667
G01 X13.1704 Y5.8651
G01 X13.1839 Y5.8629
G01 X13.2665 Y5.8448
G01 X13.2859 Y5.8393
G01 X13.3056 Y5.8321
G00 Z2.0000
G00 X13.6796 Y7.4781
G01 F50.00
G01 Z-0.1160
G01 F80.00
G01 X13.6923 Y7.4850
G01 X13.6923 Y7.5034
G01 X13.6872 Y7.4924
G01 X13.6796 Y7.4781
G00 Z2.0000
G00 X14.7440 Y7.5052
G01 F50.00
G01 Z-0.1160
G01 F80.00
G01 X14.7440 Y7.4850
G01 X14.7652 Y7.4730
G01 X14.7546 Y7.4881
G01 X14.7440 Y7.5052
G00 Z2.0000
G00 X15.2504 Y6.9376
G01 F50.00
G01 Z-0.1160
G01 F80.00
G01 X15.2582 Y6.9204
G01 X15.2631 Y6.9078
G01 X15.2912 Y6.8293
G01 X15.2954 Y6.8164
G01 X15.2990 Y6.8034
G01 X15.3193 Y6.7225
G01 X15.3222 Y6.7093
G01 X15.3246 Y6.6959
G01 X15.3368 Y6.6134
G01 X15.3385 Y6.6000
G01 X15.3395 Y6.5865
G01 X15.3435 Y6.5032
G01 X15.3439 Y6.4896
G01 X15.3435 Y6.4761
G01 X15.3395 Y6.3928
G01 X15.3385 Y6.3793
G01 X15.3368 Y6.3659
G01 X15.3246 Y6.2834
G01 X15.3208 Y6.2634
G01 X15.2990 Y6.1759
G01 X15.2934 Y6.1564
G01 X15.2607 Y6.0651
G01 X15.2555 Y6.0526
G01 X15.2451 Y6.0304
G01 X15.2581 Y6.0417
G01 X15.2689 Y6.0503
G01 X15.2800 Y6.0583
G01 X15.2916 Y6.0657
G01 X15.3035 Y6.0726
G01 X15.3220 Y6.0818
G01 X15.3347 Y6.0871
G01 X15.3477 Y6.0918
G01 X15.3675 Y6.0976
G01 X15.3877 Y6.1019
G01 X15.4643 Y6.1152
G01 X15.4779 Y6.1169
G01 X15.4984 Y6.1182
G01 X15.5190 Y6.1179
G01 X15.5326 Y6.1169
G01 X15.5462 Y6.1151
G01 X15.5664 Y6.1113
G01 X15.5797 Y6.1079
G01 X15.5928 Y6.1039
G01 X15.6120 Y6.0967
G01 X15.6835 Y6.0665
G01 X15.6953 Y6.0608
G01 X15.7070 Y6.0546
G01 X15.7251 Y6.0433
G01 X15.7181 Y6.0588
G01 X15.7132 Y6.0715
G01 X15.6851 Y6.1500
G01 X15.6809 Y6.1629
G01 X15.6773 Y6.1759
G01 X15.6570 Y6.2568
G01 X15.6540 Y6.2700
G01 X15.6517 Y6.2834
G01 X15.6395 Y6.3659
G01 X15.6378 Y6.3793
G01 X15.6368 Y6.3928
G01 X15.6327 Y6.4761
G01 X15.6324 Y6.4896
G01 X15.6327 Y6.5032
G01 X15.6368 Y6.5865
G01 X15.6378 Y6.6000
G01 X15.6395 Y6.6134
G01 X15.6517 Y6.6959
G01 X15.6554 Y6.7159
G01 X15.6773 Y6.8034
G01 X15.6829 Y6.8229
G01 X15.7156 Y6.9142
G01 X15.7208 Y6.9267
G01 X15.7300 Y6.9465
G01 X15.7007 Y6.9229
G01 X15.6895 Y6.9150
G01 X15.6779 Y6.9077
G01 X15.6660 Y6.9010
G01 X15.6475 Y6.8921
G01 X15.6348 Y6.8869
G01 X15.6219 Y6.8823
G01 X15.6088 Y6.8784
G01 X15.5955 Y6.8752
G01 X15.5753 Y6.8715
G01 X15.4979 Y6.8625
G01 X15.4843 Y6.8613
G01 X15.4706 Y6.8607
G01 X15.4569 Y6.8608
G01 X15.4433 Y6.8616
G01 X15.4229 Y6.8641
G01 X15.4094 Y6.8666
G01 X15.3961 Y6.8697
G01 X15.3764 Y6.8757
G01 X15.3636 Y6.8805
G01 X15.3510 Y6.8859
G01 X15.2811 Y6.9201
G01 X15.2634 Y6.9296
G01 X15.2504 Y6.9376
G00 Z2.0000
G00 X17.0932 Y7.7257
G01 F50.00
G01 Z-0.1160
G01 F80.00
G01 X17.0932 Y7.3576
G01 X17.1163 Y7.3491
G01 X17.1953 Y7.3117
G01 X17.2738 Y7.2649
G01 X17.3488 Y7.2094
G01 X17.4165 Y7.1480
G01 X17.4779 Y7.0803
G01 X17.5334 Y7.0053
G01 X17.5802 Y6.9268
G01 X17.6176 Y6.8478
G01 X17.6261 Y6.8247
G01 X17.9906 Y6.8247
G01 X17.9715 Y6.9008
G01 X17.9703 Y6.9042
G01 X17.8881 Y7.0934
G01 X17.8863 Y7.0966
G01 X17.7743 Y7.2699
G01 X17.7721 Y7.2728
G01 X17.6332 Y7.4254
G01 X17.6305 Y7.4278
G01 X17.4686 Y7.5557
G01 X17.4656 Y7.5577
G01 X17.2850 Y7.6574
G01 X17.2816 Y7.6589
G01 X17.0932 Y7.7257
G00 Z2.0000
G00 X17.1906 Y7.5880
G01 F50.00
G01 Z-0.1160
G01 F80.00
G01 X17.1906 Y7.4216
G01 X17.2351 Y7.4006
G01 X17.2468 Y7.3945
G01 X17.3221 Y7.3494
G01 X17.3331 Y7.3423
G01 X17.4106 Y7.2846
G01 X17.4853 Y7.2168
G01 X17.5531 Y7.1421
G01 X17.6108 Y7.0646
G01 X17.6179 Y7.0536
G01 X17.6630 Y6.9783
G01 X17.6691 Y6.9666
G01 X17.6901 Y6.9221
G01 X17.8565 Y6.9221
G01 X17.8013 Y7.0490
G01 X17.6959 Y7.2118
G01 X17.5654 Y7.3553
G01 X17.4132 Y7.4755
G01 X17.2433 Y7.5693
G01 X17.1906 Y7.5880
G00 Z2.0000
G00 X17.1906 Y5.3879
G01 F50.00
G01 Z-0.1160
G01 F80.00
G01 X17.3642 Y5.4730
G01 X17.5221 Y5.5856
G01 X17.6595 Y5.7225
G01 X17.7727 Y5.8800
G01 X17.8587 Y6.0539
G01 X17.8597 Y6.0572
G01 X17.6901 Y6.0572
G01 X17.6691 Y6.0127
G01 X17.6630 Y6.0010
G01 X17.6179 Y5.9257
G01 X17.6108 Y5.9147
G01 X17.5531 Y5.8372
G01 X17.4853 Y5.7624
G01 X17.4106 Y5.6947
G01 X17.3331 Y5.6370
G01 X17.3221 Y5.6299
G01 X17.2468 Y5.5848
G01 X17.2351 Y5.5787
G01 X17.1906 Y5.5577
G01 X17.1906 Y5.3879
G00 Z2.0000
G00 X17.0932 Y5.2570
G01 F50.00
G01 Z-0.1160
G01 F80.00
G01 X17.2239 Y5.2962
G01 X17.2273 Y5.2975
G01 X17.4126 Y5.3883
G01 X17.4157 Y5.3901
G01 X17.5837 Y5.5099
G01 X17.5865 Y5.5123
G01 X17.7326 Y5.6579
G01 X17.7350 Y5.6607
G01 X17.8553 Y5.8282
G01 X17.8572 Y5.8314
G01 X17.9486 Y6.0163
G01 X17.9500 Y6.0197
G01 X17.9909 Y6.1545
G01 X17.6261 Y6.1545
G01 X17.6176 Y6.1315
G01 X17.5802 Y6.0525
G01 X17.5334 Y5.9740
G01 X17.4779 Y5.8990
G01 X17.4165 Y5.8313
G01 X17.3488 Y5.7699
G01 X17.2738 Y5.7144
G01 X17.1953 Y5.6676
G01 X17.1163 Y5.6302
G01 X17.0932 Y5.6217
G01 X17.0932 Y5.2570
G00 Z2.0000
G00 X25.4861 Y5.8883
G01 F50.00
G01 Z-0.1160
G01 F80.00
G01 X25.6646 Y5.8883
G01 X25.6646 Y6.0689
G01 X25.6590 Y6.0556
G01 X25.6531 Y6.0433
G01 X25.6466 Y6.0312
G01 X25.6396 Y6.0195
G01 X25.6319 Y6.0081
G01 X25.6194 Y5.9918
G01 X25.6104 Y5.9815
G01 X25.6009 Y5.9716
G01 X25.5858 Y5.9577
G01 X25.5697 Y5.9450
G01 X25.5057 Y5.9006
G01 X25.4861 Y5.8883
G00 Z2.0000
G00 X26.0705 Y6.4381
G01 F50.00
G01 Z-0.1160
G01 F80.00
G01 X27.4169 Y6.4381
G01 X27.4010 Y6.4450
G01 X27.3888 Y6.4511
G01 X27.3768 Y6.4578
G01 X27.3653 Y6.4651
G01 X27.3541 Y6.4730
G01 X27.3433 Y6.4814
G01 X27.3329 Y6.4904
G01 X27.3230 Y6.4998
G01 X27.3090 Y6.5149
G01 X27.2854 Y6.5448
G01 X27.2750 Y6.5558
G01 X27.2621 Y6.5714
G01 X27.2541 Y6.5823
G01 X27.2466 Y6.5936
G01 X27.2398 Y6.6053
G01 X27.2300 Y6.6236
G01 X27.0273 Y6.8263
G01 X26.9634 Y6.8103
G01 X26.9502 Y6.8073
G01 X26.9369 Y6.8050
G01 X26.8592 Y6.7935
G01 X26.8458 Y6.7918
G01 X26.8323 Y6.7908
G01 X26.7539 Y6.7870
G01 X26.7403 Y6.7867
G01 X26.7268 Y6.7870
G01 X26.6484 Y6.7908
G01 X26.6349 Y6.7918
G01 X26.6215 Y6.7935
G01 X26.5438 Y6.8050
G01 X26.5305 Y6.8073
G01 X26.5173 Y6.8103
G01 X26.4534 Y6.8263
G01 X26.2529 Y6.6258
G01 X26.2439 Y6.6072
G01 X26.2372 Y6.5953
G01 X26.2299 Y6.5837
G01 X26.2220 Y6.5725
G01 X26.2136 Y6.5617
G01 X26.2047 Y6.5513
G01 X26.1953 Y6.5414
G01 X26.1403 Y6.4865
G01 X26.1253 Y6.4732
G01 X26.1148 Y6.4650
G01 X26.0983 Y6.4536
G01 X26.0869 Y6.4467
G01 X26.0705 Y6.4381
G00 Z2.0000
G00 X27.8161 Y6.0605
G01 F50.00
G01 Z-0.1160
G01 F80.00
G01 X27.8161 Y5.8883
G01 X27.9930 Y5.8883
G01 X27.9812 Y5.8938
G01 X27.9691 Y5.9001
G01 X27.9573 Y5.9071
G01 X27.9459 Y5.9146
G01 X27.9295 Y5.9270
G01 X27.9191 Y5.9359
G01 X27.9091 Y5.9453
G01 X27.8951 Y5.9603
G01 X27.8442 Y6.0192
G01 X27.8358 Y6.0299
G01 X27.8279 Y6.0411
G01 X27.8161 Y6.0605
G00 Z2.0000
G00 X27.9946 Y4.8365
G01 F50.00
G01 Z-0.1160
G01 F80.00
G01 X27.8161 Y4.8365
G01 X27.8161 Y4.6559
G01 X27.8217 Y4.6692
G01 X27.8276 Y4.6815
G01 X27.8340 Y4.6936
G01 X27.8411 Y4.7053
G01 X27.8488 Y4.7167
G01 X27.8570 Y4.7276
G01 X27.8657 Y4.7382
G01 X27.8798 Y4.7532
G01 X27.8949 Y4.7671
G01 X27.9110 Y4.7798
G01 X27.9750 Y4.8242
G01 X27.9946 Y4.8365
G00 Z2.0000
G00 X25.6646 Y4.6643
G01 F50.00
G01 Z-0.1160
G01 F80.00
G01 X25.6646 Y4.8365
G01 X25.4876 Y4.8365
G01 X25.4994 Y4.8310
G01 X25.5116 Y4.8247
G01 X25.5234 Y4.8177
G01 X25.5348 Y4.8101
G01 X25.5512 Y4.7978
G01 X25.5616 Y4.7889
G01 X25.5715 Y4.7795
G01 X25.5856 Y4.7645
G01 X25.6365 Y4.7056
G01 X25.6449 Y4.6948
G01 X25.6528 Y4.6837
G01 X25.6646 Y4.6643
G00 Z2.0000
G00 X25.6959 Y8.2953
G01 F50.00
G01 Z-0.1160
G01 F80.00
G01 X25.6748 Y8.2502
G01 X25.6237 Y8.0593
G01 X25.6064 Y7.8624
G01 X25.6237 Y7.6655
G01 X25.6748 Y7.4746
G01 X25.6959 Y7.4295
G01 X25.8146 Y7.5482
G01 X25.8054 Y7.5742
G01 X25.8028 Y7.5826
G01 X25.7826 Y7.6630
G01 X25.7799 Y7.6758
G01 X25.7666 Y7.7665
G01 X25.7619 Y7.8624
G01 X25.7666 Y7.9583
G01 X25.7799 Y8.0490
G01 X25.7826 Y8.0618
G01 X25.8028 Y8.1422
G01 X25.8054 Y8.1506
G01 X25.8146 Y8.1766
G01 X25.6959 Y8.2953
G00 Z2.0000
G00 X25.6664 Y8.4624
G01 F50.00
G01 Z-0.1160
G01 F80.00
G01 X25.5838 Y8.2854
G01 X25.5825 Y8.2817
G01 X25.5280 Y8.0781
G01 X25.5273 Y8.0743
G01 X25.5089 Y7.8643
G01 X25.5089 Y7.8605
G01 X25.5273 Y7.6505
G01 X25.5280 Y7.6467
G01 X25.5825 Y7.4430
G01 X25.5838 Y7.4394
G01 X25.6664 Y7.2624
G01 X25.9272 Y7.5232
G01 X25.8972 Y7.6066
G01 X25.8762 Y7.6905
G01 X25.8635 Y7.7760
G01 X25.8592 Y7.8624
G01 X25.8635 Y7.9488
G01 X25.8762 Y8.0343
G01 X25.8972 Y8.1182
G01 X25.9272 Y8.2016
G01 X25.6664 Y8.4624
G00 Z2.0000
G00 X26.1403 Y8.9363
G01 F50.00
G01 Z-0.1160
G01 F80.00
G01 X26.4011 Y8.6755
G01 X26.4846 Y8.7056
G01 X26.5684 Y8.7266
G01 X26.6540 Y8.7393
G01 X26.7403 Y8.7435
G01 X26.8267 Y8.7393
G01 X26.9122 Y8.7266
G01 X26.9961 Y8.7056
G01 X27.0796 Y8.6755
G01 X27.3404 Y8.9363
G01 X27.1633 Y9.0189
G01 X27.1597 Y9.0202
G01 X26.9561 Y9.0748
G01 X26.9523 Y9.0754
G01 X26.7423 Y9.0938
G01 X26.7384 Y9.0938
G01 X26.5284 Y9.0754
G01 X26.5246 Y9.0748
G01 X26.3210 Y9.0202
G01 X26.3174 Y9.0189
G01 X26.1403 Y8.9363
G00 Z2.0000
G00 X26.3074 Y8.9069
G01 F50.00
G01 Z-0.1160
G01 F80.00
G01 X26.4262 Y8.7881
G01 X26.4521 Y8.7974
G01 X26.4605 Y8.7999
G01 X26.5409 Y8.8201
G01 X26.5538 Y8.8228
G01 X26.6444 Y8.8361
G01 X26.7403 Y8.8408
G01 X26.8362 Y8.8361
G01 X26.9269 Y8.8228
G01 X26.9398 Y8.8201
G01 X27.0202 Y8.7999
G01 X27.0285 Y8.7974
G01 X27.0545 Y8.7881
G01 X27.1733 Y8.9069
G01 X27.1282 Y8.9279
G01 X26.9372 Y8.9791
G01 X26.7403 Y8.9963
G01 X26.5434 Y8.9791
G01 X26.3525 Y8.9279
G01 X26.3074 Y8.9069
G00 Z2.0000
G00 X27.5535 Y8.2016
G01 F50.00
G01 Z-0.1160
G01 F80.00
G01 X27.5835 Y8.1182
G01 X27.6045 Y8.0343
G01 X27.6172 Y7.9488
G01 X27.6214 Y7.8624
G01 X27.6172 Y7.7760
G01 X27.6045 Y7.6905
G01 X27.5835 Y7.6066
G01 X27.5535 Y7.5232
G01 X27.8143 Y7.2624
G01 X27.8968 Y7.4394
G01 X27.8982 Y7.4430
G01 X27.9527 Y7.6467
G01 X27.9534 Y7.6505
G01 X27.9718 Y7.8605
G01 X27.9718 Y7.8643
G01 X27.9534 Y8.0743
G01 X27.9527 Y8.0781
G01 X27.8982 Y8.2817
G01 X27.8968 Y8.2854
G01 X27.8143 Y8.4624
G01 X27.5535 Y8.2016
G00 Z2.0000
G00 X27.6661 Y8.1766
G01 F50.00
G01 Z-0.1160
G01 F80.00
G01 X27.6753 Y8.1506
G01 X27.6778 Y8.1422
G01 X27.6980 Y8.0618
G01 X27.7008 Y8.0490
G01 X27.7140 Y7.9583
G01 X27.7188 Y7.8624
G01 X27.7140 Y7.7665
G01 X27.7008 Y7.6758
G01 X27.6980 Y7.6630
G01 X27.6778 Y7.5826
G01 X27.6753 Y7.5742
G01 X27.6661 Y7.5482
G01 X27.7848 Y7.4295
G01 X27.8059 Y7.4746
G01 X27.8570 Y7.6655
G01 X27.8742 Y7.8624
G01 X27.8570 Y8.0593
G01 X27.8059 Y8.2502
G01 X27.7848 Y8.2953
G01 X27.6661 Y8.1766
G00 Z2.0000
G00 X25.6083 Y12.2189
G01 F50.00
G01 Z-0.1160
G01 F80.00
G01 X25.6932 Y12.1657
G01 X25.9205 Y12.0630
G01 X26.1597 Y11.9922
G01 X26.4063 Y11.9544
G01 X26.6557 Y11.9505
G01 X26.9034 Y11.9805
G01 X27.1447 Y12.0438
G01 X27.3751 Y12.1392
G01 X27.5113 Y12.2188
G01 X27.3996 Y12.3305
G01 X27.3586 Y12.3059
G01 X27.3471 Y12.2996
G01 X27.2061 Y12.2329
G01 X27.1939 Y12.2280
G01 X27.0553 Y12.1784
G01 X27.0428 Y12.1745
G01 X26.8872 Y12.1357
G01 X26.7329 Y12.1126
G01 X26.7155 Y12.1109
G01 X26.5597 Y12.1034
G01 X26.4040 Y12.1109
G01 X26.3865 Y12.1126
G01 X26.2323 Y12.1357
G01 X26.0767 Y12.1745
G01 X26.0642 Y12.1784
G01 X25.9256 Y12.2280
G01 X25.9134 Y12.2329
G01 X25.7724 Y12.2996
G01 X25.7609 Y12.3059
G01 X25.7199 Y12.3305
G01 X25.6083 Y12.2189
G00 Z2.0000
G00 X25.4531 Y12.2013
G01 F50.00
G01 Z-0.1160
G01 F80.00
G01 X25.6484 Y12.0791
G01 X25.8851 Y11.9722
G01 X26.1370 Y11.8974
G01 X26.3966 Y11.8574
G01 X26.6593 Y11.8531
G01 X26.9231 Y11.8850
G01 X27.1772 Y11.9519
G01 X27.4198 Y12.0526
G01 X27.6440 Y12.1837
G01 X27.6666 Y12.2011
G01 X27.4147 Y12.4530
G01 X27.3051 Y12.3874
G01 X27.1684 Y12.3227
G01 X27.1611 Y12.3197
G01 X27.0187 Y12.2688
G01 X26.8721 Y12.2320
G01 X26.8643 Y12.2304
G01 X26.7147 Y12.2084
G01 X26.5597 Y12.2007
G01 X26.4048 Y12.2084
G01 X26.2552 Y12.2304
G01 X26.2474 Y12.2320
G01 X26.1008 Y12.2688
G01 X25.9584 Y12.3197
G01 X25.9510 Y12.3227
G01 X25.8144 Y12.3874
G01 X25.7048 Y12.4530
G01 X25.4531 Y12.2013
G00 Z2.0000
G00 X24.7260 Y13.8011
G01 F50.00
G01 Z-0.1160
G01 F80.00
G01 X24.7403 Y13.5520
G01 X24.7884 Y13.3072
G01 X24.8692 Y13.0712
G01 X24.9813 Y12.8483
G01 X24.9949 Y12.8285
G01 X25.1084 Y12.9420
G01 X25.0838 Y12.9830
G01 X25.0775 Y12.9945
G01 X25.0126 Y13.1315
G01 X25.0075 Y13.1436
G01 X24.9536 Y13.2946
G01 X24.9145 Y13.4501
G01 X24.9121 Y13.4630
G01 X24.8905 Y13.6086
G01 X24.8888 Y13.6261
G01 X24.8813 Y13.7818
G01 X24.8890 Y13.9420
G01 X24.8905 Y13.9551
G01 X24.9136 Y14.1093
G01 X24.9513 Y14.2606
G01 X24.9549 Y14.2732
G01 X25.0059 Y14.4160
G01 X25.0108 Y14.4282
G01 X25.0775 Y14.5692
G01 X25.0838 Y14.5807
G01 X25.1084 Y14.6217
G01 X24.9945 Y14.7356
G01 X24.8844 Y14.5277
G01 X24.7987 Y14.2935
G01 X24.7456 Y14.0497
G01 X24.7260 Y13.8011
G00 Z2.0000
G00 X24.6285 Y13.8006
G01 F50.00
G01 Z-0.1160
G01 F80.00
G01 X24.6439 Y13.5383
G01 X24.6946 Y13.2805
G01 X24.7799 Y13.0320
G01 X24.8966 Y12.8000
G01 X24.9810 Y12.6770
G01 X25.2309 Y12.9269
G01 X25.1653 Y13.0365
G01 X25.1006 Y13.1731
G01 X25.0976 Y13.1805
G01 X25.0467 Y13.3229
G01 X25.0099 Y13.4695
G01 X25.0083 Y13.4773
G01 X24.9863 Y13.6269
G01 X24.9786 Y13.7818
G01 X24.9863 Y13.9368
G01 X25.0083 Y14.0864
G01 X25.0099 Y14.0942
G01 X25.0467 Y14.2408
G01 X25.0976 Y14.3832
G01 X25.1006 Y14.3905
G01 X25.1653 Y14.5272
G01 X25.2309 Y14.6368
G01 X24.9809 Y14.8868
G01 X24.9175 Y14.7983
G01 X24.7960 Y14.5688
G01 X24.7056 Y14.3221
G01 X24.6489 Y14.0625
G01 X24.6285 Y13.8006
G00 Z2.0000
G00 X25.4520 Y15.3635
G01 F50.00
G01 Z-0.1160
G01 F80.00
G01 X25.7048 Y15.1107
G01 X25.8144 Y15.1763
G01 X25.9510 Y15.2410
G01 X25.9584 Y15.2440
G01 X26.1008 Y15.2949
G01 X26.2474 Y15.3317
G01 X26.2552 Y15.3332
G01 X26.4048 Y15.3553
G01 X26.5597 Y15.3629
G01 X26.7147 Y15.3553
G01 X26.8643 Y15.3332
G01 X26.8721 Y15.3317
G01 X27.0187 Y15.2949
G01 X27.1611 Y15.2440
G01 X27.1684 Y15.2410
G01 X27.3051 Y15.1763
G01 X27.4147 Y15.1107
G01 X27.6672 Y15.3632
G01 X27.4532 Y15.4941
G01 X27.2154 Y15.5985
G01 X26.9628 Y15.6706
G01 X26.7027 Y15.7078
G01 X26.4400 Y15.7094
G01 X26.1765 Y15.6747
G01 X25.9232 Y15.6052
G01 X25.6816 Y15.5020
G01 X25.4588 Y15.3686
G01 X25.4520 Y15.3635
G00 Z2.0000
G00 X25.6084 Y15.3447
G01 F50.00
G01 Z-0.1160
G01 F80.00
G01 X25.7199 Y15.2332
G01 X25.7609 Y15.2578
G01 X25.7724 Y15.2641
G01 X25.9134 Y15.3308
G01 X25.9256 Y15.3357
G01 X26.0642 Y15.3852
G01 X26.0767 Y15.3892
G01 X26.2323 Y15.4280
G01 X26.3865 Y15.4511
G01 X26.4040 Y15.4528
G01 X26.5597 Y15.4603
G01 X26.7155 Y15.4528
G01 X26.7329 Y15.4511
G01 X26.8872 Y15.4280
G01 X27.0428 Y15.3892
G01 X27.0553 Y15.3852
G01 X27.1939 Y15.3357
G01 X27.2061 Y15.3308
G01 X27.3471 Y15.2641
G01 X27.3586 Y15.2578
G01 X27.3996 Y15.2332
G01 X27.5111 Y15.3447
G01 X27.4094 Y15.4070
G01 X27.1809 Y15.5073
G01 X26.9410 Y15.5756
G01 X26.6941 Y15.6108
G01 X26.4446 Y15.6121
G01 X26.1973 Y15.5795
G01 X25.9566 Y15.5137
G01 X25.7272 Y15.4158
G01 X25.6084 Y15.3447
G00 Z2.0000
G00 X27.8886 Y12.9269
G01 F50.00
G01 Z-0.1160
G01 F80.00
G01 X28.1388 Y12.6767
G01 X28.1912 Y12.7483
G01 X28.3164 Y12.9793
G01 X28.4091 Y13.2251
G01 X28.4675 Y13.4812
G01 X28.4909 Y13.7429
G01 X28.4912 Y13.7804
G01 X28.4734 Y14.0425
G01 X28.4203 Y14.2998
G01 X28.3316 Y14.5503
G01 X28.2125 Y14.7810
G01 X28.1385 Y14.8867
G01 X27.8886 Y14.6368
G01 X27.9541 Y14.5272
G01 X28.0189 Y14.3905
G01 X28.0219 Y14.3832
G01 X28.0728 Y14.2408
G01 X28.1096 Y14.0942
G01 X28.1111 Y14.0864
G01 X28.1332 Y13.9368
G01 X28.1408 Y13.7818
G01 X28.1332 Y13.6269
G01 X28.1111 Y13.4773
G01 X28.1096 Y13.4695
G01 X28.0728 Y13.3229
G01 X28.0219 Y13.1805
G01 X28.0189 Y13.1731
G01 X27.9541 Y13.0365
G01 X27.8886 Y12.9269
G00 Z2.0000
G00 X28.0111 Y12.9420
G01 F50.00
G01 Z-0.1160
G01 F80.00
G01 X28.1242 Y12.8289
G01 X28.2271 Y13.0184
G01 X28.3153 Y13.2518
G01 X28.3710 Y13.4950
G01 X28.3937 Y13.7486
G01 X28.3939 Y13.7767
G01 X28.3766 Y14.0307
G01 X28.3260 Y14.2750
G01 X28.2428 Y14.5102
G01 X28.1284 Y14.7318
G01 X28.1254 Y14.7360
G01 X28.0111 Y14.6217
G01 X28.0357 Y14.5807
G01 X28.0420 Y14.5692
G01 X28.1068 Y14.4322
G01 X28.1120 Y14.4201
G01 X28.1659 Y14.2691
G01 X28.2050 Y14.1136
G01 X28.2074 Y14.1007
G01 X28.2290 Y13.9551
G01 X28.2307 Y13.9376
G01 X28.2382 Y13.7818
G01 X28.2305 Y13.6217
G01 X28.2290 Y13.6086
G01 X28.2059 Y13.4544
G01 X28.1682 Y13.3031
G01 X28.1646 Y13.2905
G01 X28.1136 Y13.1477
G01 X28.1087 Y13.1355
G01 X28.0420 Y12.9945
G01 X28.0357 Y12.9830
G01 X28.0111 Y12.9420
G00 Z2.0000
G00 X32.2579 Y11.9208
G01 F50.00
G01 Z-0.1160
G01 F80.00
G01 X32.2579 Y12.0333
G01 X32.2133 Y12.0402
G01 X32.1620 Y12.0527
G01 X32.1770 Y12.0404
G01 X32.1919 Y12.0263
G01 X32.2057 Y12.0110
G01 X32.2183 Y11.9948
G01 X32.2297 Y11.9777
G01 X32.2366 Y11.9659
G01 X32.2428 Y11.9537
G01 X32.2579 Y11.9208
G00 Z2.0000
G00 X32.2398 Y11.5290
G01 F50.00
G01 Z-0.1160
G01 F80.00
G01 X32.2579 Y11.5371
G01 X32.2579 Y11.5633
G01 X32.2491 Y11.5451
G01 X32.2398 Y11.5290
G00 Z2.0000
G00 X33.3096 Y11.5643
G01 F50.00
G01 Z-0.1160
G01 F80.00
G01 X33.3096 Y11.5371
G01 X33.3341 Y11.5259
G01 X33.3183 Y11.5502
G01 X33.3096 Y11.5643
G00 Z2.0000
G00 X33.3398 Y12.1885
G01 F50.00
G01 Z-0.1160
G01 F80.00
G01 X33.3096 Y12.1742
G01 X33.3096 Y12.1359
G01 X33.3182 Y12.1538
G01 X33.3248 Y12.1657
G01 X33.3321 Y12.1773
G01 X33.3398 Y12.1885
G00 Z2.0000
G00 X34.7318 Y10.7363
G01 F50.00
G01 Z-0.1160
G01 F80.00
G01 X35.0776 Y10.7363
G01 X35.0777 Y11.0532
G01 X35.0792 Y11.0837
G01 X35.0833 Y11.1119
G01 X35.0849 Y11.1197
G01 X35.0925 Y11.1493
G01 X35.1028 Y11.1780
G01 X35.1149 Y11.2038
G01 X35.1187 Y11.2108
G01 X35.1334 Y11.2352
G01 X35.1528 Y11.2613
G01 X35.1719 Y11.2825
G01 X35.1775 Y11.2881
G01 X35.1957 Y11.3046
G01 X35.2018 Y11.3096
G01 X35.2248 Y11.3265
G01 X35.2492 Y11.3413
G01 X35.2562 Y11.3450
G01 X35.2784 Y11.3555
G01 X35.2857 Y11.3586
G01 X35.3126 Y11.3681
G01 X35.3441 Y11.3760
G01 X35.3763 Y11.3808
G01 X35.3986 Y11.3819
G01 X35.3986 Y11.7281
G01 X35.3614 Y11.7280
G01 X35.2723 Y11.7188
G01 X35.2676 Y11.7178
G01 X35.1221 Y11.6692
G01 X35.1174 Y11.6670
G01 X34.9876 Y11.5867
G01 X34.9836 Y11.5835
G01 X34.8757 Y11.4755
G01 X34.8726 Y11.4714
G01 X34.7924 Y11.3415
G01 X34.7903 Y11.3368
G01 X34.7420 Y11.1912
G01 X34.7410 Y11.1865
G01 X34.7318 Y11.0963
G01 X34.7318 Y10.7363
G00 Z2.0000
G00 X34.8292 Y10.8337
G01 F50.00
G01 Z-0.1160
G01 F80.00
G01 X34.9803 Y10.8337
G01 X34.9803 Y11.0512
G01 X34.9820 Y11.0889
G01 X34.9829 Y11.0976
G01 X34.9871 Y11.1262
G01 X34.9905 Y11.1434
G01 X34.9988 Y11.1756
G01 X35.0129 Y11.2152
G01 X35.0309 Y11.2532
G01 X35.0501 Y11.2856
G01 X35.0576 Y11.2964
G01 X35.0776 Y11.3230
G01 X35.0998 Y11.3478
G01 X35.1089 Y11.3572
G01 X35.1336 Y11.3796
G01 X35.1439 Y11.3878
G01 X35.1707 Y11.4075
G01 X35.1992 Y11.4248
G01 X35.2107 Y11.4311
G01 X35.2368 Y11.4435
G01 X35.2489 Y11.4487
G01 X35.2802 Y11.4599
G01 X35.3013 Y11.4657
G01 X35.3013 Y11.6239
G01 X35.2906 Y11.6228
G01 X35.1612 Y11.5797
G01 X35.0463 Y11.5086
G01 X34.9508 Y11.4129
G01 X34.8799 Y11.2979
G01 X34.8369 Y11.1684
G01 X34.8292 Y11.0925
G01 X34.8292 Y10.8337
G00 Z2.0000
G00 X34.8372 Y9.6331
G01 F50.00
G01 Z-0.1160
G01 F80.00
G01 X34.8803 Y9.5037
G01 X34.9514 Y9.3888
G01 X35.0493 Y9.2911
G01 X35.0650 Y9.2784
G01 X35.0777 Y9.2662
G01 X35.0890 Y9.2529
G01 X35.0994 Y9.2380
G01 X35.1172 Y9.2181
G01 X35.1258 Y9.2079
G01 X35.1310 Y9.2008
G01 X35.1382 Y9.1896
G01 X35.1445 Y9.1779
G01 X35.1500 Y9.1658
G01 X35.1545 Y9.1533
G01 X35.1570 Y9.1448
G01 X35.1607 Y9.1275
G01 X35.1722 Y9.0574
G01 X35.1742 Y9.0398
G01 X35.1744 Y9.0221
G01 X35.1739 Y9.0132
G01 X35.1722 Y9.0000
G01 X35.1685 Y8.9827
G01 X35.1660 Y8.9742
G01 X35.1615 Y8.9617
G01 X35.1277 Y8.8843
G01 X35.1235 Y8.8763
G01 X35.1164 Y8.8647
G01 X35.1112 Y8.8572
G01 X35.1027 Y8.8466
G01 X35.0865 Y8.8291
G01 X35.0288 Y8.7713
G01 X34.9579 Y8.6563
G01 X34.9149 Y8.5268
G01 X34.9072 Y8.4509
G01 X34.9072 Y8.1921
G01 X35.0583 Y8.1921
G01 X35.0583 Y8.4096
G01 X35.0597 Y8.4429
G01 X35.0609 Y8.4560
G01 X35.0666 Y8.4932
G01 X35.0768 Y8.5340
G01 X35.0909 Y8.5736
G01 X35.1050 Y8.6038
G01 X35.1110 Y8.6154
G01 X35.1305 Y8.6477
G01 X35.1556 Y8.6814
G01 X35.1838 Y8.7126
G01 X35.2150 Y8.7408
G01 X35.2487 Y8.7659
G01 X35.2772 Y8.7832
G01 X35.2887 Y8.7895
G01 X35.3148 Y8.8019
G01 X35.3269 Y8.8071
G01 X35.3582 Y8.8183
G01 X35.3793 Y8.8241
G01 X35.3793 Y8.8658
G01 X35.3693 Y8.8791
G01 X35.3622 Y8.8904
G01 X35.3220 Y8.9643
G01 X35.3167 Y8.9764
G01 X35.3123 Y8.9887
G01 X35.3089 Y9.0014
G01 X35.3064 Y9.0143
G01 X35.3023 Y9.0497
G01 X35.3014 Y9.0640
G01 X35.3013 Y9.3368
G01 X35.2802 Y9.3426
G01 X35.2489 Y9.3538
G01 X35.2368 Y9.3590
G01 X35.2068 Y9.3734
G01 X35.1707 Y9.3950
G01 X35.1404 Y9.4173
G01 X35.1303 Y9.4258
G01 X35.1058 Y9.4483
G01 X35.0833 Y9.4728
G01 X35.0748 Y9.4829
G01 X35.0550 Y9.5096
G01 X35.0478 Y9.5206
G01 X35.0309 Y9.5493
G01 X35.0147 Y9.5833
G01 X35.0098 Y9.5955
G01 X34.9988 Y9.6269
G01 X34.9895 Y9.6634
G01 X34.9878 Y9.6720
G01 X34.9835 Y9.7006
G01 X34.9820 Y9.7136
G01 X34.9803 Y9.7512
G01 X34.9803 Y9.9688
G01 X34.8292 Y9.9688
G01 X34.8292 Y9.7101
G01 X34.8372 Y9.6331
G00 Z2.0000
G00 X34.7412 Y9.6148
G01 F50.00
G01 Z-0.1160
G01 F80.00
G01 X34.7422 Y9.6101
G01 X34.7908 Y9.4646
G01 X34.7929 Y9.4600
G01 X34.8733 Y9.3301
G01 X34.8765 Y9.3261
G01 X34.9845 Y9.2182
G01 X34.9995 Y9.2064
G01 X35.0068 Y9.1995
G01 X35.0143 Y9.1903
G01 X35.0201 Y9.1806
G01 X35.0463 Y9.1515
G01 X35.0500 Y9.1467
G01 X35.0545 Y9.1400
G01 X35.0573 Y9.1347
G01 X35.0605 Y9.1273
G01 X35.0640 Y9.1157
G01 X35.0761 Y9.0417
G01 X35.0771 Y9.0317
G01 X35.0771 Y9.0236
G01 X35.0762 Y9.0156
G01 X35.0745 Y9.0078
G01 X35.0720 Y9.0001
G01 X35.0422 Y8.9312
G01 X35.0365 Y8.9203
G01 X35.0305 Y8.9120
G01 X35.0189 Y8.8992
G01 X34.9537 Y8.8339
G01 X34.9506 Y8.8298
G01 X34.8704 Y8.6999
G01 X34.8683 Y8.6952
G01 X34.8200 Y8.5496
G01 X34.8190 Y8.5449
G01 X34.8098 Y8.4547
G01 X34.8098 Y8.0947
G01 X35.1556 Y8.0947
G01 X35.1556 Y8.4096
G01 X35.1571 Y8.4401
G01 X35.1620 Y8.4742
G01 X35.1699 Y8.5058
G01 X35.1808 Y8.5364
G01 X35.1938 Y8.5640
G01 X35.2114 Y8.5936
G01 X35.2283 Y8.6166
G01 X35.2334 Y8.6227
G01 X35.2526 Y8.6438
G01 X35.2737 Y8.6630
G01 X35.2798 Y8.6680
G01 X35.3045 Y8.6860
G01 X35.3307 Y8.7017
G01 X35.3564 Y8.7139
G01 X35.3637 Y8.7170
G01 X35.3906 Y8.7265
G01 X35.4241 Y8.7347
G01 X35.4543 Y8.7392
G01 X35.4766 Y8.7403
G01 X35.4766 Y8.9092
G01 X35.4676 Y8.9151
G01 X35.4600 Y8.9217
G01 X35.4532 Y8.9291
G01 X35.4475 Y8.9374
G01 X35.4096 Y9.0067
G01 X35.4072 Y9.0122
G01 X35.4047 Y9.0197
G01 X35.4028 Y9.0275
G01 X35.4020 Y9.0334
G01 X35.3991 Y9.0601
G01 X35.3986 Y9.0688
G01 X35.3986 Y9.4205
G01 X35.3763 Y9.4217
G01 X35.3461 Y9.4261
G01 X35.3126 Y9.4344
G01 X35.2857 Y9.4439
G01 X35.2784 Y9.4470
G01 X35.2527 Y9.4592
G01 X35.2265 Y9.4749
G01 X35.1987 Y9.4953
G01 X35.1775 Y9.5144
G01 X35.1719 Y9.5200
G01 X35.1528 Y9.5412
G01 X35.1357 Y9.5640
G01 X35.1313 Y9.5707
G01 X35.1158 Y9.5969
G01 X35.1028 Y9.6245
G01 X35.0919 Y9.6551
G01 X35.0840 Y9.6867
G01 X35.0791 Y9.7208
G01 X35.0776 Y9.7512
G01 X35.0776 Y10.0661
G01 X34.7318 Y10.0661
G01 X34.7318 Y9.7062
G01 X34.7412 Y9.6148
G00 Z2.0000
G00 X35.2026 Y9.2677
G01 F50.00
G01 Z-0.1160
G01 F80.00
G01 X35.2027 Y9.2675
G01 X35.2040 Y9.2658
G01 X35.2040 Y9.2670
G01 X35.2026 Y9.2677
G00 Z2.0000
G00 X35.2431 Y8.9052
G01 F50.00
G01 Z-0.1160
G01 F80.00
G01 X35.2261 Y8.8660
G01 X35.2389 Y8.8733
G01 X35.2560 Y8.8817
G01 X35.2431 Y8.9052
G00 Z2.0000
G00 X36.0688 Y9.2517
G01 F50.00
G01 Z-0.1160
G01 F80.00
G01 X36.0779 Y9.2458
G01 X36.0855 Y9.2392
G01 X36.0922 Y9.2318
G01 X36.0980 Y9.2235
G01 X36.1359 Y9.1542
G01 X36.1403 Y9.1431
G01 X36.1430 Y9.1315
G01 X36.1464 Y9.1008
G01 X36.1468 Y9.0921
G01 X36.1468 Y8.7403
G01 X36.1692 Y8.7392
G01 X36.2013 Y8.7344
G01 X36.2329 Y8.7265
G01 X36.2597 Y8.7170
G01 X36.2671 Y8.7139
G01 X36.2893 Y8.7034
G01 X36.2963 Y8.6997
G01 X36.3207 Y8.6849
G01 X36.3437 Y8.6680
G01 X36.3498 Y8.6630
G01 X36.3680 Y8.6465
G01 X36.3736 Y8.6409
G01 X36.3927 Y8.6197
G01 X36.4120 Y8.5936
G01 X36.4268 Y8.5692
G01 X36.4305 Y8.5622
G01 X36.4426 Y8.5364
G01 X36.4523 Y8.5095
G01 X36.4546 Y8.5019
G01 X36.4606 Y8.4781
G01 X36.4622 Y8.4703
G01 X36.4662 Y8.4421
G01 X36.4677 Y8.4136
G01 X36.4678 Y8.0947
G01 X36.8136 Y8.0947
G01 X36.8135 Y8.4570
G01 X36.8043 Y8.5461
G01 X36.8033 Y8.5508
G01 X36.7547 Y8.6963
G01 X36.7525 Y8.7009
G01 X36.6722 Y8.8308
G01 X36.6690 Y8.8348
G01 X36.5609 Y8.9427
G01 X36.5459 Y8.9545
G01 X36.5387 Y8.9614
G01 X36.5312 Y8.9706
G01 X36.5254 Y8.9803
G01 X36.4992 Y9.0094
G01 X36.4932 Y9.0175
G01 X36.4891 Y9.0244
G01 X36.4857 Y9.0317
G01 X36.4836 Y9.0374
G01 X36.4815 Y9.0452
G01 X36.4693 Y9.1192
G01 X36.4683 Y9.1292
G01 X36.4684 Y9.1372
G01 X36.4693 Y9.1452
G01 X36.4710 Y9.1531
G01 X36.4735 Y9.1608
G01 X36.5032 Y9.2297
G01 X36.5090 Y9.2406
G01 X36.5150 Y9.2489
G01 X36.5266 Y9.2617
G01 X36.5918 Y9.3270
G01 X36.5949 Y9.3311
G01 X36.6750 Y9.4610
G01 X36.6772 Y9.4657
G01 X36.7255 Y9.6113
G01 X36.7265 Y9.6160
G01 X36.7356 Y9.7062
G01 X36.7356 Y10.0661
G01 X36.3898 Y10.0661
G01 X36.3898 Y9.7512
G01 X36.3885 Y9.7228
G01 X36.3878 Y9.7148
G01 X36.3842 Y9.6906
G01 X36.3826 Y9.6828
G01 X36.3756 Y9.6551
G01 X36.3654 Y9.6264
G01 X36.3525 Y9.5987
G01 X36.3488 Y9.5917
G01 X36.3340 Y9.5673
G01 X36.3147 Y9.5412
G01 X36.2956 Y9.5200
G01 X36.2900 Y9.5144
G01 X36.2688 Y9.4953
G01 X36.2443 Y9.4771
G01 X36.2183 Y9.4612
G01 X36.2113 Y9.4575
G01 X36.1854 Y9.4454
G01 X36.1568 Y9.4350
G01 X36.1214 Y9.4261
G01 X36.0912 Y9.4217
G01 X36.0688 Y9.4205
G01 X36.0688 Y9.2517
G00 Z2.0000
G00 X36.1662 Y9.2951
G01 F50.00
G01 Z-0.1160
G01 F80.00
G01 X36.1762 Y9.2818
G01 X36.1833 Y9.2705
G01 X36.2235 Y9.1966
G01 X36.2288 Y9.1845
G01 X36.2331 Y9.1722
G01 X36.2366 Y9.1595
G01 X36.2391 Y9.1466
G01 X36.2431 Y9.1112
G01 X36.2441 Y9.0969
G01 X36.2442 Y8.8241
G01 X36.2653 Y8.8183
G01 X36.2966 Y8.8071
G01 X36.3087 Y8.8019
G01 X36.3348 Y8.7895
G01 X36.3463 Y8.7832
G01 X36.3748 Y8.7659
G01 X36.4051 Y8.7436
G01 X36.4152 Y8.7351
G01 X36.4397 Y8.7126
G01 X36.4679 Y8.6814
G01 X36.4930 Y8.6477
G01 X36.5103 Y8.6192
G01 X36.5166 Y8.6077
G01 X36.5325 Y8.5736
G01 X36.5467 Y8.5340
G01 X36.5569 Y8.4932
G01 X36.5626 Y8.4560
G01 X36.5637 Y8.4429
G01 X36.5652 Y8.4096
G01 X36.5652 Y8.1921
G01 X36.7163 Y8.1921
G01 X36.7163 Y8.4508
G01 X36.7083 Y8.5278
G01 X36.6652 Y8.6572
G01 X36.5941 Y8.7721
G01 X36.4962 Y8.8698
G01 X36.4804 Y8.8825
G01 X36.4678 Y8.8947
G01 X36.4565 Y8.9080
G01 X36.4461 Y8.9229
G01 X36.4225 Y8.9495
G01 X36.4145 Y8.9601
G01 X36.4096 Y8.9675
G01 X36.4030 Y8.9790
G01 X36.3955 Y8.9951
G01 X36.3910 Y9.0076
G01 X36.3874 Y9.0204
G01 X36.3847 Y9.0334
G01 X36.3733 Y9.1035
G01 X36.3716 Y9.1167
G01 X36.3711 Y9.1255
G01 X36.3711 Y9.1388
G01 X36.3726 Y9.1565
G01 X36.3759 Y9.1739
G01 X36.3795 Y9.1867
G01 X36.3857 Y9.2033
G01 X36.4178 Y9.2766
G01 X36.4220 Y9.2846
G01 X36.4291 Y9.2962
G01 X36.4343 Y9.3037
G01 X36.4428 Y9.3143
G01 X36.4590 Y9.3318
G01 X36.5167 Y9.3896
G01 X36.5876 Y9.5046
G01 X36.6305 Y9.6341
G01 X36.6383 Y9.7100
G01 X36.6383 Y9.9688
G01 X36.4872 Y9.9688
G01 X36.4872 Y9.7512
G01 X36.4857 Y9.7180
G01 X36.4846 Y9.7049
G01 X36.4789 Y9.6677
G01 X36.4687 Y9.6269
G01 X36.4545 Y9.5873
G01 X36.4405 Y9.5571
G01 X36.4345 Y9.5455
G01 X36.4150 Y9.5132
G01 X36.3899 Y9.4795
G01 X36.3617 Y9.4483
G01 X36.3305 Y9.4201
G01 X36.2968 Y9.3950
G01 X36.2683 Y9.3777
G01 X36.2568 Y9.3714
G01 X36.2307 Y9.3590
G01 X36.2186 Y9.3538
G01 X36.1873 Y9.3426
G01 X36.1662 Y9.3368
G01 X36.1662 Y9.2951
G00 Z2.0000
G00 X36.3023 Y9.2556
G01 F50.00
G01 Z-0.1160
G01 F80.00
G01 X36.3193 Y9.2949
G01 X36.3066 Y9.2876
G01 X36.2895 Y9.2791
G01 X36.3023 Y9.2556
G00 Z2.0000
G00 X36.3415 Y8.8951
G01 F50.00
G01 Z-0.1160
G01 F80.00
G01 X36.3415 Y8.8938
G01 X36.3429 Y8.8932
G01 X36.3427 Y8.8934
G01 X36.3415 Y8.8951
G00 Z2.0000
G00 X36.1468 Y6.7789
G01 F50.00
G01 Z-0.1160
G01 F80.00
G01 X36.1468 Y6.4327
G01 X36.1841 Y6.4329
G01 X36.2732 Y6.4421
G01 X36.2779 Y6.4431
G01 X36.4234 Y6.4917
G01 X36.4280 Y6.4939
G01 X36.5579 Y6.5742
G01 X36.5619 Y6.5774
G01 X36.6698 Y6.6854
G01 X36.6729 Y6.6895
G01 X36.7530 Y6.8194
G01 X36.7552 Y6.8241
G01 X36.8035 Y6.9697
G01 X36.8045 Y6.9744
G01 X36.8136 Y7.0646
G01 X36.8136 Y7.4245
G01 X36.4678 Y7.4245
G01 X36.4678 Y7.1096
G01 X36.4664 Y7.0792
G01 X36.4615 Y7.0451
G01 X36.4536 Y7.0135
G01 X36.4426 Y6.9829
G01 X36.4297 Y6.9553
G01 X36.4120 Y6.9257
G01 X36.3951 Y6.9027
G01 X36.3901 Y6.8966
G01 X36.3709 Y6.8755
G01 X36.3498 Y6.8563
G01 X36.3437 Y6.8513
G01 X36.3190 Y6.8333
G01 X36.2928 Y6.8176
G01 X36.2671 Y6.8054
G01 X36.2597 Y6.8023
G01 X36.2329 Y6.7928
G01 X36.1994 Y6.7845
G01 X36.1692 Y6.7801
G01 X36.1468 Y6.7789
G00 Z2.0000
G00 X36.2442 Y6.6952
G01 F50.00
G01 Z-0.1160
G01 F80.00
G01 X36.2442 Y6.5369
G01 X36.2549 Y6.5381
G01 X36.3843 Y6.5812
G01 X36.4992 Y6.6523
G01 X36.5947 Y6.7480
G01 X36.6656 Y6.8630
G01 X36.7085 Y6.9925
G01 X36.7163 Y7.0684
G01 X36.7163 Y7.3272
G01 X36.5652 Y7.3272
G01 X36.5652 Y7.1096
G01 X36.5637 Y7.0764
G01 X36.5626 Y7.0633
G01 X36.5569 Y7.0261
G01 X36.5467 Y6.9853
G01 X36.5325 Y6.9457
G01 X36.5166 Y6.9116
G01 X36.5103 Y6.9001
G01 X36.4930 Y6.8716
G01 X36.4679 Y6.8379
G01 X36.4397 Y6.8067
G01 X36.4152 Y6.7842
G01 X36.4051 Y6.7757
G01 X36.3748 Y6.7534
G01 X36.3463 Y6.7361
G01 X36.3348 Y6.7298
G01 X36.3087 Y6.7174
G01 X36.2966 Y6.7122
G01 X36.2653 Y6.7010
G01 X36.2442 Y6.6952
G00 Z2.0000
G00 X34.9152 Y6.9915
G01 F50.00
G01 Z-0.1160
G01 F80.00
G01 X34.9583 Y6.8621
G01 X35.0294 Y6.7472
G01 X35.1251 Y6.6517
G01 X35.2401 Y6.5808
G01 X35.3696 Y6.5378
G01 X35.3793 Y6.5368
G01 X35.3793 Y6.6952
G01 X35.3582 Y6.7010
G01 X35.3269 Y6.7122
G01 X35.3148 Y6.7174
G01 X35.2887 Y6.7298
G01 X35.2772 Y6.7361
G01 X35.2487 Y6.7534
G01 X35.2219 Y6.7731
G01 X35.2116 Y6.7813
G01 X35.1869 Y6.8037
G01 X35.1778 Y6.8131
G01 X35.1556 Y6.8379
G01 X35.1356 Y6.8645
G01 X35.1281 Y6.8753
G01 X35.1089 Y6.9077
G01 X35.0909 Y6.9457
G01 X35.0768 Y6.9853
G01 X35.0685 Y7.0175
G01 X35.0651 Y7.0347
G01 X35.0609 Y7.0633
G01 X35.0600 Y7.0720
G01 X35.0583 Y7.1096
G01 X35.0583 Y7.3272
G01 X34.9072 Y7.3272
G01 X34.9072 Y7.0685
G01 X34.9152 Y6.9915
G00 Z2.0000
G00 X34.8192 Y6.9732
G01 F50.00
G01 Z-0.1160
G01 F80.00
G01 X34.8202 Y6.9685
G01 X34.8688 Y6.8230
G01 X34.8709 Y6.8184
G01 X34.9513 Y6.6885
G01 X34.9545 Y6.6845
G01 X35.0625 Y6.5766
G01 X35.0665 Y6.5735
G01 X35.1965 Y6.4933
G01 X35.2012 Y6.4912
G01 X35.3468 Y6.4429
G01 X35.3515 Y6.4419
G01 X35.4394 Y6.4329
G01 X35.4766 Y6.4327
G01 X35.4766 Y6.7789
G01 X35.4543 Y6.7801
G01 X35.4221 Y6.7849
G01 X35.3906 Y6.7928
G01 X35.3637 Y6.8023
G01 X35.3564 Y6.8054
G01 X35.3342 Y6.8159
G01 X35.3272 Y6.8196
G01 X35.3028 Y6.8343
G01 X35.2798 Y6.8513
G01 X35.2737 Y6.8563
G01 X35.2555 Y6.8728
G01 X35.2499 Y6.8784
G01 X35.2308 Y6.8996
G01 X35.2114 Y6.9257
G01 X35.1967 Y6.9501
G01 X35.1929 Y6.9571
G01 X35.1808 Y6.9829
G01 X35.1705 Y7.0116
G01 X35.1629 Y7.0412
G01 X35.1613 Y7.0490
G01 X35.1572 Y7.0772
G01 X35.1557 Y7.1077
G01 X35.1556 Y7.4245
G01 X34.8098 Y7.4245
G01 X34.8098 Y7.0646
G01 X34.8192 Y6.9732
G00 Z2.0000
G00 X33.3876 Y8.9227
G01 F50.00
G01 Z-0.1160
G01 F80.00
G01 X33.3876 Y8.8955
G01 X33.4121 Y8.8843
G01 X33.3963 Y8.9086
G01 X33.3876 Y8.9227
G00 Z2.0000
G00 X32.2751 Y8.8654
G01 F50.00
G01 Z-0.1160
G01 F80.00
G01 X32.2949 Y8.8764
G01 X32.3232 Y8.8899
G01 X32.3359 Y8.8955
G01 X32.3359 Y9.2404
G01 X32.3126 Y9.2463
G01 X32.2997 Y9.2502
G01 X32.2638 Y9.2630
G01 X32.2512 Y9.2682
G01 X32.2639 Y9.2506
G01 X32.2712 Y9.2390
G01 X32.2779 Y9.2270
G01 X32.2839 Y9.2148
G01 X32.2894 Y9.2022
G01 X32.2964 Y9.1829
G01 X32.3020 Y9.1631
G01 X32.3060 Y9.1430
G01 X32.3185 Y9.0661
G01 X32.3205 Y9.0457
G01 X32.3210 Y9.0252
G01 X32.3200 Y9.0047
G01 X32.3175 Y8.9843
G01 X32.3134 Y8.9641
G01 X32.3079 Y8.9444
G01 X32.3034 Y8.9314
G01 X32.2982 Y8.9187
G01 X32.2751 Y8.8654
G00 Z2.0000
G00 X36.0688 Y11.7281
G01 F50.00
G01 Z-0.1160
G01 F80.00
G01 X36.0688 Y11.3819
G01 X36.0912 Y11.3808
G01 X36.1233 Y11.3760
G01 X36.1549 Y11.3681
G01 X36.1817 Y11.3586
G01 X36.1891 Y11.3555
G01 X36.2113 Y11.3450
G01 X36.2183 Y11.3413
G01 X36.2427 Y11.3265
G01 X36.2657 Y11.3096
G01 X36.2718 Y11.3046
G01 X36.2900 Y11.2881
G01 X36.2956 Y11.2825
G01 X36.3147 Y11.2613
G01 X36.3340 Y11.2352
G01 X36.3488 Y11.2108
G01 X36.3525 Y11.2038
G01 X36.3646 Y11.1780
G01 X36.3750 Y11.1493
G01 X36.3826 Y11.1197
G01 X36.3842 Y11.1119
G01 X36.3882 Y11.0837
G01 X36.3898 Y11.0532
G01 X36.3898 Y10.7363
G01 X36.7356 Y10.7363
G01 X36.7356 Y11.0962
G01 X36.7263 Y11.1877
G01 X36.7253 Y11.1924
G01 X36.6767 Y11.3379
G01 X36.6745 Y11.3425
G01 X36.5942 Y11.4724
G01 X36.5910 Y11.4764
G01 X36.4829 Y11.5843
G01 X36.4789 Y11.5874
G01 X36.3490 Y11.6676
G01 X36.3443 Y11.6697
G01 X36.1987 Y11.7180
G01 X36.1940 Y11.7190
G01 X36.1061 Y11.7280
G01 X36.0688 Y11.7281
G00 Z2.0000
G00 X36.1662 Y11.6240
G01 F50.00
G01 Z-0.1160
G01 F80.00
G01 X36.1662 Y11.4657
G01 X36.1873 Y11.4599
G01 X36.2186 Y11.4487
G01 X36.2307 Y11.4435
G01 X36.2568 Y11.4311
G01 X36.2683 Y11.4248
G01 X36.2968 Y11.4075
G01 X36.3236 Y11.3878
G01 X36.3339 Y11.3796
G01 X36.3585 Y11.3572
G01 X36.3677 Y11.3478
G01 X36.3899 Y11.3230
G01 X36.4099 Y11.2964
G01 X36.4173 Y11.2856
G01 X36.4366 Y11.2532
G01 X36.4545 Y11.2152
G01 X36.4687 Y11.1756
G01 X36.4770 Y11.1434
G01 X36.4804 Y11.1262
G01 X36.4846 Y11.0976
G01 X36.4855 Y11.0889
G01 X36.4872 Y11.0512
G01 X36.4872 Y10.8337
G01 X36.6383 Y10.8337
G01 X36.6383 Y11.0924
G01 X36.6303 Y11.1694
G01 X36.5872 Y11.2988
G01 X36.5160 Y11.4137
G01 X36.4204 Y11.5092
G01 X36.3053 Y11.5801
G01 X36.1759 Y11.6231
G01 X36.1662 Y11.6240
G00 Z2.0000
G00 X40.8810 Y10.2471
G01 F50.00
G01 Z-0.1160
G01 F80.00
G01 X40.8999 Y10.0071
G01 X40.9004 Y10.0036
G01 X40.9566 Y9.7695
G01 X40.9577 Y9.7662
G01 X41.0498 Y9.5437
G01 X41.0514 Y9.5406
G01 X41.1289 Y9.4141
G01 X41.3817 Y9.6669
G01 X41.3721 Y9.6839
G01 X41.3232 Y9.7873
G01 X41.2846 Y9.8950
G01 X41.2823 Y9.9026
G01 X41.2546 Y10.0135
G01 X41.2377 Y10.1267
G01 X41.2370 Y10.1346
G01 X41.2314 Y10.2488
G01 X41.2370 Y10.3631
G01 X41.2377 Y10.3710
G01 X41.2546 Y10.4841
G01 X41.2823 Y10.5951
G01 X41.2846 Y10.6027
G01 X41.3232 Y10.7104
G01 X41.3721 Y10.8138
G01 X41.3817 Y10.8307
G01 X41.1289 Y11.0835
G01 X41.0514 Y10.9571
G01 X41.0498 Y10.9540
G01 X40.9577 Y10.7315
G01 X40.9566 Y10.7282
G01 X40.9004 Y10.4941
G01 X40.8999 Y10.4906
G01 X40.8810 Y10.2506
G01 X40.8810 Y10.2471
G00 Z2.0000
G00 X40.9785 Y10.2488
G01 F50.00
G01 Z-0.1160
G01 F80.00
G01 X40.9964 Y10.0206
G01 X41.0499 Y9.7980
G01 X41.1375 Y9.5864
G01 X41.1474 Y9.5703
G01 X41.2633 Y9.6862
G01 X41.2369 Y9.7420
G01 X41.2317 Y9.7541
G01 X41.1916 Y9.8663
G01 X41.1879 Y9.8789
G01 X41.1601 Y9.9903
G01 X41.1577 Y10.0032
G01 X41.1404 Y10.1211
G01 X41.1341 Y10.2488
G01 X41.1404 Y10.3766
G01 X41.1577 Y10.4945
G01 X41.1601 Y10.5074
G01 X41.1879 Y10.6188
G01 X41.1916 Y10.6314
G01 X41.2317 Y10.7436
G01 X41.2369 Y10.7557
G01 X41.2633 Y10.8115
G01 X41.1474 Y10.9274
G01 X41.1375 Y10.9113
G01 X41.0499 Y10.6997
G01 X40.9964 Y10.4771
G01 X40.9785 Y10.2488
G00 Z2.0000
G00 X41.6028 Y11.5575
G01 F50.00
G01 Z-0.1160
G01 F80.00
G01 X41.8556 Y11.3046
G01 X41.8725 Y11.3143
G01 X41.9760 Y11.3631
G01 X42.0836 Y11.4018
G01 X42.0913 Y11.4041
G01 X42.2022 Y11.4318
G01 X42.3154 Y11.4487
G01 X42.3233 Y11.4494
G01 X42.4375 Y11.4549
G01 X42.5518 Y11.4494
G01 X42.5597 Y11.4487
G01 X42.6728 Y11.4318
G01 X42.7838 Y11.4041
G01 X42.7914 Y11.4018
G01 X42.8991 Y11.3631
G01 X43.0025 Y11.3143
G01 X43.0194 Y11.3046
G01 X43.2722 Y11.5575
G01 X43.1458 Y11.6350
G01 X43.1426 Y11.6365
G01 X42.9202 Y11.7287
G01 X42.9169 Y11.7298
G01 X42.6828 Y11.7860
G01 X42.6793 Y11.7865
G01 X42.4393 Y11.8054
G01 X42.4358 Y11.8054
G01 X42.1958 Y11.7865
G01 X42.1923 Y11.7860
G01 X41.9582 Y11.7298
G01 X41.9549 Y11.7287
G01 X41.7324 Y11.6365
G01 X41.7293 Y11.6350
G01 X41.6028 Y11.5575
G00 Z2.0000
G00 X41.7589 Y11.5390
G01 F50.00
G01 Z-0.1160
G01 F80.00
G01 X41.8749 Y11.4231
G01 X41.9307 Y11.4495
G01 X41.9428 Y11.4547
G01 X42.0550 Y11.4948
G01 X42.0676 Y11.4985
G01 X42.1790 Y11.5263
G01 X42.1919 Y11.5287
G01 X42.3098 Y11.5460
G01 X42.4375 Y11.5523
G01 X42.5653 Y11.5460
G01 X42.6832 Y11.5287
G01 X42.6961 Y11.5263
G01 X42.8075 Y11.4985
G01 X42.8201 Y11.4948
G01 X42.9323 Y11.4547
G01 X42.9443 Y11.4495
G01 X43.0002 Y11.4231
G01 X43.1161 Y11.5390
G01 X43.0999 Y11.5489
G01 X42.8884 Y11.6365
G01 X42.6658 Y11.6900
G01 X42.4375 Y11.7079
G01 X42.2093 Y11.6900
G01 X41.9867 Y11.6365
G01 X41.7751 Y11.5489
G01 X41.7589 Y11.5390
G00 Z2.0000
G00 X43.7245 Y13.0736
G01 F50.00
G01 Z-0.1160
G01 F80.00
G01 X43.7296 Y13.0407
G01 X43.7374 Y13.0083
G01 X43.7411 Y12.9957
G01 X43.7523 Y12.9644
G01 X43.7575 Y12.9523
G01 X43.7719 Y12.9223
G01 X43.7911 Y12.8899
G01 X43.7986 Y12.8791
G01 X43.8186 Y12.8525
G01 X43.8408 Y12.8277
G01 X43.8499 Y12.8183
G01 X43.8780 Y12.7931
G01 X43.9081 Y12.7705
G01 X43.9191 Y12.7633
G01 X43.9478 Y12.7464
G01 X43.9778 Y12.7320
G01 X43.9899 Y12.7268
G01 X44.0171 Y12.7170
G01 X44.0338 Y12.7119
G01 X44.0619 Y12.7050
G01 X44.0705 Y12.7033
G01 X44.0991 Y12.6990
G01 X44.1121 Y12.6975
G01 X44.1497 Y12.6958
G01 X44.5490 Y12.6958
G01 X44.5490 Y8.8323
G01 X44.5211 Y8.8223
G01 X44.5130 Y8.8189
G01 X44.4181 Y8.7741
G01 X44.4064 Y8.7681
G01 X44.3090 Y8.7095
G01 X44.2210 Y8.6445
G01 X44.2107 Y8.6363
G01 X44.1266 Y8.5598
G01 X44.0473 Y8.4723
G01 X43.9769 Y8.3774
G01 X43.9183 Y8.2800
G01 X43.9123 Y8.2683
G01 X43.8657 Y8.1694
G01 X43.8287 Y8.0665
G01 X43.8236 Y8.0497
G01 X43.7992 Y7.9522
G01 X43.7957 Y7.9350
G01 X43.7799 Y7.8268
G01 X43.7741 Y7.7088
G01 X43.7799 Y7.5909
G01 X43.7964 Y7.4784
G01 X43.7992 Y7.4655
G01 X43.8236 Y7.3680
G01 X43.8287 Y7.3512
G01 X43.8657 Y7.2483
G01 X43.9162 Y7.1416
G01 X43.9769 Y7.0403
G01 X44.0419 Y6.9523
G01 X44.0530 Y6.9388
G01 X44.1206 Y6.8642
G01 X44.1329 Y6.8519
G01 X44.2141 Y6.7786
G01 X44.3090 Y6.7082
G01 X44.4103 Y6.6475
G01 X44.5090 Y6.6006
G01 X44.5252 Y6.5939
G01 X44.6199 Y6.5600
G01 X44.6366 Y6.5549
G01 X44.7428 Y6.5286
G01 X44.8552 Y6.5117
G01 X44.8683 Y6.5106
G01 X44.9775 Y6.5054
G01 X45.0955 Y6.5112
G01 X45.2123 Y6.5286
G01 X45.3269 Y6.5572
G01 X45.4381 Y6.5970
G01 X45.5448 Y6.6475
G01 X45.6461 Y6.7082
G01 X45.7341 Y6.7732
G01 X45.7476 Y6.7843
G01 X45.8221 Y6.8519
G01 X45.8345 Y6.8642
G01 X45.9078 Y6.9454
G01 X45.9731 Y7.0331
G01 X45.9828 Y7.0477
G01 X46.0389 Y7.1416
G01 X46.0894 Y7.2483
G01 X46.1291 Y7.3595
G01 X46.1559 Y7.4655
G01 X46.1593 Y7.4827
G01 X46.1752 Y7.5909
G01 X46.1810 Y7.7088
G01 X46.1752 Y7.8268
G01 X46.1593 Y7.9350
G01 X46.1559 Y7.9522
G01 X46.1315 Y8.0497
G01 X46.1264 Y8.0665
G01 X46.0894 Y8.1694
G01 X46.0428 Y8.2683
G01 X46.0368 Y8.2800
G01 X45.9781 Y8.3774
G01 X45.9078 Y8.4723
G01 X45.8285 Y8.5598
G01 X45.7443 Y8.6363
G01 X45.7341 Y8.6445
G01 X45.6461 Y8.7095
G01 X45.5487 Y8.7681
G01 X45.5370 Y8.7741
G01 X45.4421 Y8.8189
G01 X45.4340 Y8.8223
G01 X45.4061 Y8.8323
G01 X45.4061 Y12.6958
G01 X45.4541 Y12.6959
G01 X45.4917 Y12.6979
G01 X45.5333 Y12.7041
G01 X45.5657 Y12.7119
G01 X45.5783 Y12.7156
G01 X45.6055 Y12.7253
G01 X45.6217 Y12.7320
G01 X45.6478 Y12.7444
G01 X45.6555 Y12.7485
G01 X45.6804 Y12.7633
G01 X45.6914 Y12.7705
G01 X45.7215 Y12.7931
G01 X45.7527 Y12.8213
G01 X45.7809 Y12.8525
G01 X45.8035 Y12.8826
G01 X45.8106 Y12.8936
G01 X45.8276 Y12.9223
G01 X45.8438 Y12.9563
G01 X45.8487 Y12.9685
G01 X45.8584 Y12.9957
G01 X45.8609 Y13.0041
G01 X45.8651 Y13.0207
G01 X56.3062 Y13.0207
G01 X56.6478 Y12.6791
G01 X56.6347 Y12.6770
G01 X56.6177 Y12.6728
G01 X56.6013 Y12.6669
G01 X56.5893 Y12.6614
G01 X56.5778 Y12.6551
G01 X56.5633 Y12.6454
G01 X56.5530 Y12.6371
G01 X56.5403 Y12.6251
G01 X56.5289 Y12.6118
G01 X56.5212 Y12.6012
G01 X56.5122 Y12.5862
G01 X56.5064 Y12.5743
G01 X56.5016 Y12.5622
G01 X56.4965 Y12.5454
G01 X56.4937 Y12.5325
G01 X56.4916 Y12.5152
G01 X56.4911 Y12.5020
G01 X56.4913 Y11.4433
G01 X56.4931 Y11.4259
G01 X56.4965 Y11.4087
G01 X56.5001 Y11.3961
G01 X56.5064 Y11.3797
G01 X56.5122 Y11.3679
G01 X56.5212 Y11.3529
G01 X56.5289 Y11.3423
G01 X56.5403 Y11.3290
G01 X56.5530 Y11.3169
G01 X56.5668 Y11.3062
G01 X56.5816 Y11.2968
G01 X56.5972 Y11.2889
G01 X56.6094 Y11.2841
G01 X56.6262 Y11.2790
G01 X56.6434 Y11.2756
G01 X56.6608 Y11.2738
G01 X57.6695 Y11.2736
G01 X57.6827 Y11.2741
G01 X57.6957 Y11.2756
G01 X57.7129 Y11.2790
G01 X57.7255 Y11.2826
G01 X57.7418 Y11.2889
G01 X57.7536 Y11.2947
G01 X57.7687 Y11.3037
G01 X57.7827 Y11.3141
G01 X57.7926 Y11.3228
G01 X57.8017 Y11.3322
G01 X57.8128 Y11.3458
G01 X57.8226 Y11.3603
G01 X57.8289 Y11.3718
G01 X57.8360 Y11.3878
G01 X57.8403 Y11.4003
G01 X57.8445 Y11.4172
G01 X57.8466 Y11.4302
G01 X57.8477 Y11.4433
G01 X57.8480 Y11.4520
G01 X57.8479 Y12.5064
G01 X57.8466 Y12.5239
G01 X57.8445 Y12.5369
G01 X57.8426 Y12.5454
G01 X57.8390 Y12.5580
G01 X57.8360 Y12.5663
G01 X57.8327 Y12.5743
G01 X57.8269 Y12.5862
G01 X57.8203 Y12.5975
G01 X57.8102 Y12.6118
G01 X57.8017 Y12.6219
G01 X57.7894 Y12.6342
G01 X57.7793 Y12.6427
G01 X57.7650 Y12.6528
G01 X57.7498 Y12.6614
G01 X57.7378 Y12.6669
G01 X57.7255 Y12.6715
G01 X57.7129 Y12.6751
G01 X57.7000 Y12.6778
G01 X57.6870 Y12.6796
G01 X57.6695 Y12.6805
G01 X57.5981 Y12.6805
G01 X57.5980 Y12.7678
G01 X57.5964 Y12.8011
G01 X57.5950 Y12.8141
G01 X57.5899 Y12.8471
G01 X57.5809 Y12.8836
G01 X57.5769 Y12.8962
G01 X57.5655 Y12.9274
G01 X57.5475 Y12.9655
G01 X57.5259 Y13.0015
G01 X57.5035 Y13.0319
G01 X57.4951 Y13.0419
G01 X57.4726 Y13.0665
G01 X56.7868 Y13.7523
G01 X56.7590 Y13.7777
G01 X56.7522 Y13.7833
G01 X56.7290 Y13.8005
G01 X56.7144 Y13.8103
G01 X56.6858 Y13.8272
G01 X56.6477 Y13.8452
G01 X56.6123 Y13.8580
G01 X56.5997 Y13.8617
G01 X56.5673 Y13.8696
G01 X56.5301 Y13.8752
G01 X56.5170 Y13.8764
G01 X56.4837 Y13.8778
G01 X45.8651 Y13.8778
G01 X45.8609 Y13.8944
G01 X45.8584 Y13.9028
G01 X45.8472 Y13.9341
G01 X45.8438 Y13.9422
G01 X45.8315 Y13.9684
G01 X45.8255 Y13.9800
G01 X45.8060 Y14.0123
G01 X45.7863 Y14.0391
G01 X45.7752 Y14.0527
G01 X45.7557 Y14.0741
G01 X45.7495 Y14.0802
G01 X45.7215 Y14.1054
G01 X45.6949 Y14.1254
G01 X45.6841 Y14.1329
G01 X45.6517 Y14.1521
G01 X45.6137 Y14.1701
G01 X45.5824 Y14.1815
G01 X45.5657 Y14.1866
G01 X45.5376 Y14.1935
G01 X45.5290 Y14.1952
G01 X45.4917 Y14.2006
G01 X45.4497 Y14.2027
G01 X44.1497 Y14.2027
G01 X44.1121 Y14.2010
G01 X44.1034 Y14.2001
G01 X44.0748 Y14.1959
G01 X44.0576 Y14.1925
G01 X44.0254 Y14.1842
G01 X43.9858 Y14.1701
G01 X43.9517 Y14.1541
G01 X43.9402 Y14.1478
G01 X43.9117 Y14.1305
G01 X43.8780 Y14.1054
G01 X43.8468 Y14.0772
G01 X43.8243 Y14.0527
G01 X43.8158 Y14.0426
G01 X43.7935 Y14.0123
G01 X43.7740 Y13.9800
G01 X43.7680 Y13.9684
G01 X43.7539 Y13.9382
G01 X43.7411 Y13.9028
G01 X43.7385 Y13.8944
G01 X43.7315 Y13.8664
G01 X43.7281 Y13.8492
G01 X43.7234 Y13.8162
G01 X43.7214 Y13.7786
G01 X43.7213 Y13.1242
G01 X43.7230 Y13.0866
G01 X43.7245 Y13.0736
G00 Z2.0000
G00 X43.8207 Y13.0878
G01 F50.00
G01 Z-0.1160
G01 F80.00
G01 X43.8250 Y13.0597
G01 X43.8318 Y13.0320
G01 X43.8341 Y13.0244
G01 X43.8438 Y12.9975
G01 X43.8577 Y12.9682
G01 X43.8723 Y12.9437
G01 X43.8767 Y12.9370
G01 X43.8938 Y12.9142
G01 X43.9156 Y12.8901
G01 X43.9367 Y12.8709
G01 X43.9428 Y12.8659
G01 X43.9658 Y12.8489
G01 X43.9902 Y12.8342
G01 X43.9972 Y12.8305
G01 X44.0230 Y12.8184
G01 X44.0498 Y12.8087
G01 X44.0575 Y12.8063
G01 X44.0813 Y12.8004
G01 X44.0891 Y12.7988
G01 X44.1173 Y12.7947
G01 X44.1478 Y12.7932
G01 X44.6463 Y12.7931
G01 X44.6463 Y8.7638
G01 X44.5543 Y8.7307
G01 X44.4561 Y8.6843
G01 X44.3630 Y8.6285
G01 X44.2758 Y8.5639
G01 X44.1954 Y8.4910
G01 X44.1225 Y8.4105
G01 X44.0579 Y8.3234
G01 X44.0040 Y8.2337
G01 X44.0003 Y8.2267
G01 X43.9573 Y8.1358
G01 X43.9542 Y8.1284
G01 X43.9191 Y8.0299
G01 X43.8936 Y7.9285
G01 X43.8920 Y7.9207
G01 X43.8768 Y7.8173
G01 X43.8714 Y7.7088
G01 X43.8768 Y7.6004
G01 X43.8923 Y7.4950
G01 X43.9180 Y7.3916
G01 X43.9203 Y7.3840
G01 X43.9556 Y7.2856
G01 X44.0020 Y7.1874
G01 X44.0579 Y7.0943
G01 X44.1201 Y7.0103
G01 X44.1251 Y7.0041
G01 X44.1927 Y6.9296
G01 X44.1983 Y6.9240
G01 X44.2758 Y6.8538
G01 X44.3630 Y6.7892
G01 X44.4561 Y6.7334
G01 X44.5506 Y6.6886
G01 X44.5580 Y6.6855
G01 X44.6527 Y6.6516
G01 X44.6603 Y6.6493
G01 X44.7618 Y6.6240
G01 X44.8671 Y6.6083
G01 X44.9775 Y6.6027
G01 X45.0860 Y6.6081
G01 X45.1933 Y6.6240
G01 X45.2986 Y6.6504
G01 X45.4008 Y6.6869
G01 X45.4990 Y6.7334
G01 X45.5921 Y6.7892
G01 X45.6792 Y6.8538
G01 X45.7597 Y6.9267
G01 X45.8326 Y7.0071
G01 X45.8972 Y7.0943
G01 X45.9530 Y7.1874
G01 X45.9994 Y7.2856
G01 X46.0360 Y7.3878
G01 X46.0624 Y7.4931
G01 X46.0778 Y7.5965
G01 X46.0786 Y7.6044
G01 X46.0836 Y7.7088
G01 X46.0786 Y7.8133
G01 X46.0778 Y7.8212
G01 X46.0631 Y7.9207
G01 X46.0615 Y7.9285
G01 X46.0360 Y8.0299
G01 X45.9994 Y8.1321
G01 X45.9530 Y8.2303
G01 X45.8972 Y8.3234
G01 X45.8326 Y8.4105
G01 X45.7624 Y8.4881
G01 X45.7568 Y8.4937
G01 X45.6823 Y8.5613
G01 X45.6761 Y8.5663
G01 X45.5921 Y8.6285
G01 X45.4990 Y8.6843
G01 X45.4008 Y8.7307
G01 X45.3088 Y8.7638
G01 X45.3088 Y12.7931
G01 X45.4517 Y12.7932
G01 X45.4822 Y12.7947
G01 X45.5124 Y12.7991
G01 X45.5459 Y12.8074
G01 X45.5764 Y12.8184
G01 X45.6058 Y12.8322
G01 X45.6353 Y12.8501
G01 X45.6567 Y12.8659
G01 X45.6628 Y12.8709
G01 X45.6839 Y12.8901
G01 X45.7031 Y12.9112
G01 X45.7081 Y12.9173
G01 X45.7250 Y12.9403
G01 X45.7417 Y12.9682
G01 X45.7556 Y12.9975
G01 X45.7653 Y13.0244
G01 X45.7676 Y13.0320
G01 X45.7736 Y13.0558
G01 X45.7752 Y13.0636
G01 X45.7792 Y13.0918
G01 X45.7806 Y13.1180
G01 X56.3465 Y13.1180
G01 X56.8383 Y12.6262
G01 X56.8383 Y12.5831
G01 X56.6676 Y12.5831
G01 X56.6576 Y12.5823
G01 X56.6498 Y12.5807
G01 X56.6385 Y12.5770
G01 X56.6296 Y12.5726
G01 X56.6196 Y12.5660
G01 X56.6108 Y12.5580
G01 X56.6032 Y12.5487
G01 X56.5971 Y12.5385
G01 X56.5925 Y12.5275
G01 X56.5900 Y12.5179
G01 X56.5888 Y12.5100
G01 X56.5884 Y12.5020
G01 X56.5885 Y11.4501
G01 X56.5891 Y11.4421
G01 X56.5900 Y11.4362
G01 X56.5914 Y11.4304
G01 X56.5939 Y11.4229
G01 X56.5971 Y11.4156
G01 X56.6000 Y11.4104
G01 X56.6068 Y11.4006
G01 X56.6136 Y11.3933
G01 X56.6196 Y11.3881
G01 X56.6262 Y11.3835
G01 X56.6349 Y11.3787
G01 X56.6441 Y11.3750
G01 X56.6518 Y11.3729
G01 X56.6596 Y11.3716
G01 X56.6676 Y11.3710
G01 X57.6715 Y11.3710
G01 X57.6795 Y11.3716
G01 X57.6854 Y11.3725
G01 X57.6931 Y11.3744
G01 X57.7006 Y11.3771
G01 X57.7078 Y11.3805
G01 X57.7129 Y11.3835
G01 X57.7179 Y11.3869
G01 X57.7240 Y11.3920
G01 X57.7296 Y11.3976
G01 X57.7347 Y11.4037
G01 X57.7381 Y11.4087
G01 X57.7420 Y11.4156
G01 X57.7445 Y11.4210
G01 X57.7471 Y11.4285
G01 X57.7491 Y11.4362
G01 X57.7500 Y11.4421
G01 X57.7506 Y11.4520
G01 X57.7506 Y12.5020
G01 X57.7500 Y12.5120
G01 X57.7482 Y12.5218
G01 X57.7452 Y12.5312
G01 X57.7411 Y12.5403
G01 X57.7358 Y12.5487
G01 X57.7296 Y12.5565
G01 X57.7225 Y12.5635
G01 X57.7162 Y12.5684
G01 X57.7078 Y12.5736
G01 X57.7006 Y12.5770
G01 X57.6931 Y12.5797
G01 X57.6834 Y12.5820
G01 X57.6755 Y12.5829
G01 X57.6695 Y12.5831
G01 X57.5008 Y12.5831
G01 X57.5007 Y12.7654
G01 X57.4992 Y12.7959
G01 X57.4944 Y12.8281
G01 X57.4865 Y12.8596
G01 X57.4770 Y12.8865
G01 X57.4739 Y12.8938
G01 X57.4617 Y12.9196
G01 X57.4471 Y12.9441
G01 X57.4427 Y12.9507
G01 X57.4256 Y12.9736
G01 X57.4038 Y12.9977
G01 X56.7180 Y13.6835
G01 X56.6969 Y13.7027
G01 X56.6907 Y13.7077
G01 X56.6710 Y13.7224
G01 X56.6644 Y13.7268
G01 X56.6399 Y13.7414
G01 X56.6105 Y13.7553
G01 X56.5837 Y13.7650
G01 X56.5761 Y13.7673
G01 X56.5484 Y13.7741
G01 X56.5182 Y13.7787
G01 X56.4837 Y13.7805
G01 X45.7806 Y13.7805
G01 X45.7792 Y13.8067
G01 X45.7745 Y13.8388
G01 X45.7666 Y13.8704
G01 X45.7571 Y13.8972
G01 X45.7540 Y13.9046
G01 X45.7435 Y13.9268
G01 X45.7398 Y13.9338
G01 X45.7250 Y13.9582
G01 X45.7057 Y13.9843
G01 X45.6839 Y14.0084
G01 X45.6628 Y14.0276
G01 X45.6567 Y14.0326
G01 X45.6369 Y14.0473
G01 X45.6303 Y14.0517
G01 X45.6058 Y14.0663
G01 X45.5764 Y14.0801
G01 X45.5459 Y14.0911
G01 X45.5143 Y14.0990
G01 X45.4822 Y14.1038
G01 X45.4497 Y14.1053
G01 X44.1497 Y14.1053
G01 X44.1213 Y14.1040
G01 X44.1133 Y14.1033
G01 X44.0891 Y14.0997
G01 X44.0813 Y14.0981
G01 X44.0536 Y14.0911
G01 X44.0230 Y14.0801
G01 X43.9972 Y14.0680
G01 X43.9902 Y14.0643
G01 X43.9658 Y14.0495
G01 X43.9397 Y14.0302
G01 X43.9156 Y14.0084
G01 X43.8964 Y13.9873
G01 X43.8913 Y13.9812
G01 X43.8744 Y13.9582
G01 X43.8577 Y13.9303
G01 X43.8455 Y13.9046
G01 X43.8424 Y13.8972
G01 X43.8329 Y13.8704
G01 X43.8259 Y13.8427
G01 X43.8243 Y13.8349
G01 X43.8202 Y13.8067
G01 X43.8187 Y13.7762
G01 X43.8186 Y13.1242
G01 X43.8199 Y13.0958
G01 X43.8207 Y13.0878
G00 Z2.0000
G00 X44.4517 Y12.4195
G01 F50.00
G01 Z-0.1160
G01 F80.00
G01 X44.4517 Y12.5985
G01 X44.2688 Y12.5985
G01 X44.2829 Y12.5924
G01 X44.2952 Y12.5863
G01 X44.3071 Y12.5796
G01 X44.3187 Y12.5724
G01 X44.3300 Y12.5645
G01 X44.3408 Y12.5561
G01 X44.3512 Y12.5472
G01 X44.3611 Y12.5378
G01 X44.3706 Y12.5279
G01 X44.3795 Y12.5175
G01 X44.4275 Y12.4562
G01 X44.4396 Y12.4395
G01 X44.4469 Y12.4278
G01 X44.4517 Y12.4195
G00 Z2.0000
G00 X45.5722 Y12.6132
G01 F50.00
G01 Z-0.1160
G01 F80.00
G01 X45.5589 Y12.6100
G01 X45.5457 Y12.6074
G01 X45.5034 Y12.6013
G01 X45.5034 Y12.5178
G01 X45.5114 Y12.5345
G01 X45.5178 Y12.5462
G01 X45.5248 Y12.5575
G01 X45.5323 Y12.5685
G01 X45.5404 Y12.5792
G01 X45.5490 Y12.5894
G01 X45.5580 Y12.5992
G01 X45.5722 Y12.6132
G00 Z2.0000
G00 X45.9628 Y12.9234
G01 F50.00
G01 Z-0.1160
G01 F80.00
G01 X45.9356 Y12.9234
G01 X45.9244 Y12.8989
G01 X45.9487 Y12.9147
G01 X45.9628 Y12.9234
G00 Z2.0000
G00 X45.9275 Y13.9931
G01 F50.00
G01 Z-0.1160
G01 F80.00
G01 X45.9356 Y13.9751
G01 X45.9618 Y13.9751
G01 X45.9436 Y13.9839
G01 X45.9275 Y13.9931
G00 Z2.0000
G00 X46.6828 Y11.5575
G01 F50.00
G01 Z-0.1160
G01 F80.00
G01 X46.9356 Y11.3046
G01 X46.9525 Y11.3143
G01 X47.0560 Y11.3631
G01 X47.1636 Y11.4018
G01 X47.1713 Y11.4041
G01 X47.2822 Y11.4318
G01 X47.3954 Y11.4487
G01 X47.4033 Y11.4494
G01 X47.5175 Y11.4549
G01 X47.6318 Y11.4494
G01 X47.6397 Y11.4487
G01 X47.7528 Y11.4318
G01 X47.8638 Y11.4041
G01 X47.8714 Y11.4018
G01 X47.9791 Y11.3631
G01 X48.0825 Y11.3143
G01 X48.0994 Y11.3046
G01 X48.3522 Y11.5575
G01 X48.2258 Y11.6350
G01 X48.2226 Y11.6365
G01 X48.0002 Y11.7287
G01 X47.9969 Y11.7298
G01 X47.7628 Y11.7860
G01 X47.7593 Y11.7865
G01 X47.5193 Y11.8054
G01 X47.5158 Y11.8054
G01 X47.2758 Y11.7865
G01 X47.2723 Y11.7860
G01 X47.0382 Y11.7298
G01 X47.0349 Y11.7287
G01 X46.8124 Y11.6365
G01 X46.8093 Y11.6350
G01 X46.6828 Y11.5575
G00 Z2.0000
G00 X46.8389 Y11.5390
G01 F50.00
G01 Z-0.1160
G01 F80.00
G01 X46.9549 Y11.4231
G01 X47.0107 Y11.4495
G01 X47.0228 Y11.4547
G01 X47.1350 Y11.4948
G01 X47.1476 Y11.4985
G01 X47.2590 Y11.5263
G01 X47.2719 Y11.5287
G01 X47.3898 Y11.5460
G01 X47.5175 Y11.5523
G01 X47.6453 Y11.5460
G01 X47.7632 Y11.5287
G01 X47.7761 Y11.5263
G01 X47.8875 Y11.4985
G01 X47.9001 Y11.4948
G01 X48.0123 Y11.4547
G01 X48.0243 Y11.4495
G01 X48.0802 Y11.4231
G01 X48.1961 Y11.5390
G01 X48.1799 Y11.5489
G01 X47.9684 Y11.6365
G01 X47.7458 Y11.6900
G01 X47.5175 Y11.7079
G01 X47.2893 Y11.6900
G01 X47.0667 Y11.6365
G01 X46.8551 Y11.5489
G01 X46.8389 Y11.5390
G00 Z2.0000
G00 X45.5034 Y10.6676
G01 F50.00
G01 Z-0.1160
G01 F80.00
G01 X45.5034 Y9.8277
G01 X45.5089 Y9.8395
G01 X45.5153 Y9.8516
G01 X45.5259 Y9.8692
G01 X45.5379 Y9.8859
G01 X45.5465 Y9.8965
G01 X45.5557 Y9.9067
G01 X45.5704 Y9.9211
G01 X45.6291 Y9.9721
G01 X45.6451 Y9.9850
G01 X45.6621 Y9.9966
G01 X45.6798 Y10.0069
G01 X45.6983 Y10.0159
G01 X45.7174 Y10.0235
G01 X45.7370 Y10.0297
G01 X45.7502 Y10.0330
G01 X45.7637 Y10.0356
G01 X45.8407 Y10.0467
G01 X45.8543 Y10.0484
G01 X45.8748 Y10.0495
G01 X45.8885 Y10.0494
G01 X45.9090 Y10.0480
G01 X45.9226 Y10.0462
G01 X45.9428 Y10.0423
G01 X45.9626 Y10.0369
G01 X45.9819 Y10.0300
G01 X45.9945 Y10.0246
G01 X46.0653 Y9.9922
G01 X46.0773 Y9.9860
G01 X46.0891 Y9.9791
G01 X46.1060 Y9.9678
G01 X46.1168 Y9.9596
G01 X46.1272 Y9.9508
G01 X46.1420 Y9.9368
G01 X46.1574 Y9.9196
G01 X46.1467 Y9.9624
G01 X46.1425 Y9.9822
G01 X46.1243 Y10.1048
G01 X46.1226 Y10.1250
G01 X46.1171 Y10.2353
G01 X46.1168 Y10.2488
G01 X46.1171 Y10.2624
G01 X46.1226 Y10.3726
G01 X46.1243 Y10.3929
G01 X46.1425 Y10.5155
G01 X46.1467 Y10.5353
G01 X46.1592 Y10.5852
G01 X46.1442 Y10.5668
G01 X46.1304 Y10.5516
G01 X46.1154 Y10.5376
G01 X46.1049 Y10.5288
G01 X46.0883 Y10.5167
G01 X46.0709 Y10.5058
G01 X46.0589 Y10.4993
G01 X46.0402 Y10.4907
G01 X46.0210 Y10.4835
G01 X45.9536 Y10.4611
G01 X45.9405 Y10.4571
G01 X45.9205 Y10.4523
G01 X45.9071 Y10.4499
G01 X45.8935 Y10.4483
G01 X45.8730 Y10.4470
G01 X45.8524 Y10.4473
G01 X45.8320 Y10.4491
G01 X45.8117 Y10.4525
G01 X45.7983 Y10.4555
G01 X45.7296 Y10.4731
G01 X45.7099 Y10.4789
G01 X45.6906 Y10.4862
G01 X45.6720 Y10.4948
G01 X45.6600 Y10.5014
G01 X45.6426 Y10.5123
G01 X45.6261 Y10.5245
G01 X45.6156 Y10.5333
G01 X45.6055 Y10.5426
G01 X45.5959 Y10.5524
G01 X45.5430 Y10.6093
G01 X45.5300 Y10.6251
G01 X45.5221 Y10.6361
G01 X45.5112 Y10.6533
G01 X45.5034 Y10.6676
G00 Z2.0000
G00 X44.4517 Y9.8301
G01 F50.00
G01 Z-0.1160
G01 F80.00
G01 X44.4517 Y10.6700
G01 X44.4462 Y10.6582
G01 X44.4398 Y10.6461
G01 X44.4291 Y10.6285
G01 X44.4172 Y10.6118
G01 X44.4085 Y10.6012
G01 X44.3994 Y10.5910
G01 X44.3847 Y10.5766
G01 X44.3260 Y10.5256
G01 X44.3099 Y10.5127
G01 X44.2930 Y10.5011
G01 X44.2753 Y10.4908
G01 X44.2568 Y10.4818
G01 X44.2377 Y10.4742
G01 X44.2181 Y10.4680
G01 X44.2048 Y10.4647
G01 X44.1914 Y10.4621
G01 X44.1144 Y10.4510
G01 X44.0939 Y10.4488
G01 X44.0802 Y10.4482
G01 X44.0597 Y10.4486
G01 X44.0461 Y10.4497
G01 X44.0257 Y10.4526
G01 X44.0123 Y10.4554
G01 X43.9925 Y10.4608
G01 X43.9732 Y10.4677
G01 X43.9606 Y10.4731
G01 X43.8898 Y10.5055
G01 X43.8778 Y10.5117
G01 X43.8660 Y10.5185
G01 X43.8491 Y10.5299
G01 X43.8382 Y10.5381
G01 X43.8278 Y10.5468
G01 X43.8131 Y10.5609
G01 X43.7977 Y10.5781
G01 X43.8084 Y10.5353
G01 X43.8126 Y10.5155
G01 X43.8308 Y10.3929
G01 X43.8325 Y10.3726
G01 X43.8379 Y10.2624
G01 X43.8383 Y10.2488
G01 X43.8379 Y10.2353
G01 X43.8325 Y10.1250
G01 X43.8308 Y10.1048
G01 X43.8126 Y9.9822
G01 X43.8084 Y9.9624
G01 X43.7959 Y9.9125
G01 X43.8108 Y9.9309
G01 X43.8247 Y9.9460
G01 X43.8396 Y9.9601
G01 X43.8502 Y9.9689
G01 X43.8667 Y9.9810
G01 X43.8783 Y9.9884
G01 X43.8962 Y9.9984
G01 X43.9149 Y10.0070
G01 X43.9341 Y10.0142
G01 X44.0015 Y10.0366
G01 X44.0212 Y10.0424
G01 X44.0345 Y10.0454
G01 X44.0548 Y10.0487
G01 X44.0753 Y10.0504
G01 X44.0958 Y10.0507
G01 X44.1095 Y10.0500
G01 X44.1231 Y10.0486
G01 X44.1367 Y10.0465
G01 X44.1567 Y10.0422
G01 X44.2255 Y10.0246
G01 X44.2452 Y10.0188
G01 X44.2644 Y10.0115
G01 X44.2831 Y10.0029
G01 X44.3010 Y9.9928
G01 X44.3125 Y9.9854
G01 X44.3236 Y9.9774
G01 X44.3343 Y9.9689
G01 X44.3496 Y9.9551
G01 X44.3591 Y9.9453
G01 X44.4121 Y9.8884
G01 X44.4209 Y9.8780
G01 X44.4330 Y9.8616
G01 X44.4439 Y9.8444
G01 X44.4517 Y9.8301
G00 Z2.0000
G00 X43.6118 Y9.6862
G01 F50.00
G01 Z-0.1160
G01 F80.00
G01 X43.7277 Y9.5703
G01 X43.7376 Y9.5864
G01 X43.8118 Y9.7656
G01 X43.8190 Y9.7809
G01 X43.8254 Y9.7920
G01 X43.8351 Y9.8059
G01 X43.8823 Y9.8645
G01 X43.8910 Y9.8746
G01 X43.9037 Y9.8869
G01 X43.9105 Y9.8925
G01 X43.9213 Y9.9004
G01 X43.9287 Y9.9052
G01 X43.9403 Y9.9116
G01 X43.9565 Y9.9189
G01 X44.0322 Y9.9443
G01 X44.0450 Y9.9480
G01 X44.0580 Y9.9508
G01 X44.0667 Y9.9521
G01 X44.0800 Y9.9532
G01 X44.0933 Y9.9534
G01 X44.1109 Y9.9520
G01 X44.1284 Y9.9489
G01 X44.2015 Y9.9303
G01 X44.2184 Y9.9251
G01 X44.2347 Y9.9182
G01 X44.2426 Y9.9142
G01 X44.2540 Y9.9074
G01 X44.2684 Y9.8971
G01 X44.2817 Y9.8854
G01 X44.3421 Y9.8205
G01 X44.3476 Y9.8136
G01 X44.3552 Y9.8028
G01 X44.3641 Y9.7876
G01 X44.3714 Y9.7717
G01 X44.3745 Y9.7634
G01 X44.3783 Y9.7508
G01 X44.3937 Y9.6856
G01 X44.3960 Y9.6720
G01 X44.3972 Y9.6583
G01 X44.3973 Y9.1046
G01 X44.3956 Y9.0877
G01 X44.3942 Y9.0794
G01 X44.3914 Y9.0670
G01 X44.3690 Y8.9906
G01 X44.3661 Y8.9824
G01 X44.3611 Y8.9704
G01 X44.3552 Y8.9588
G01 X44.3485 Y8.9476
G01 X44.3410 Y8.9370
G01 X44.3356 Y8.9302
G01 X44.3238 Y8.9175
G01 X44.2772 Y8.8721
G01 X44.2668 Y8.8636
G01 X44.2559 Y8.8559
G01 X44.1786 Y8.8085
G01 X44.0164 Y8.6700
G01 X43.8779 Y8.5078
G01 X43.7664 Y8.3259
G01 X43.6848 Y8.1289
G01 X43.6350 Y7.9215
G01 X43.6183 Y7.7088
G01 X43.6350 Y7.4962
G01 X43.6848 Y7.2888
G01 X43.7664 Y7.0918
G01 X43.8779 Y6.9099
G01 X44.0164 Y6.7477
G01 X44.1786 Y6.6092
G01 X44.3604 Y6.4977
G01 X44.5575 Y6.4161
G01 X44.7649 Y6.3663
G01 X44.9775 Y6.3496
G01 X45.1902 Y6.3663
G01 X45.3976 Y6.4161
G01 X45.5946 Y6.4977
G01 X45.7765 Y6.6092
G01 X45.9387 Y6.7477
G01 X46.0772 Y6.9099
G01 X46.1887 Y7.0918
G01 X46.2703 Y7.2888
G01 X46.3201 Y7.4962
G01 X46.3368 Y7.7088
G01 X46.3201 Y7.9215
G01 X46.2703 Y8.1289
G01 X46.1887 Y8.3259
G01 X46.0772 Y8.5078
G01 X45.9387 Y8.6700
G01 X45.7765 Y8.8085
G01 X45.6994 Y8.8558
G01 X45.6924 Y8.8606
G01 X45.6823 Y8.8684
G01 X45.6728 Y8.8769
G01 X45.6668 Y8.8829
G01 X45.6106 Y8.9452
G01 X45.6003 Y8.9591
G01 X45.5913 Y8.9740
G01 X45.5856 Y8.9857
G01 X45.5793 Y9.0019
G01 X45.5746 Y9.0186
G01 X45.5612 Y9.0777
G01 X45.5590 Y9.0909
G01 X45.5578 Y9.1042
G01 X45.5576 Y9.6491
G01 X45.5584 Y9.6660
G01 X45.5608 Y9.6829
G01 X45.5648 Y9.6994
G01 X45.5876 Y9.7759
G01 X45.5942 Y9.7923
G01 X45.5981 Y9.8003
G01 X45.6048 Y9.8118
G01 X45.6122 Y9.8228
G01 X45.6176 Y9.8298
G01 X45.6234 Y9.8365
G01 X45.6327 Y9.8461
G01 X45.6929 Y9.8985
G01 X45.7032 Y9.9069
G01 X45.7179 Y9.9167
G01 X45.7336 Y9.9251
G01 X45.7499 Y9.9318
G01 X45.7669 Y9.9369
G01 X45.7843 Y9.9403
G01 X45.8590 Y9.9510
G01 X45.8722 Y9.9521
G01 X45.8855 Y9.9521
G01 X45.8988 Y9.9512
G01 X45.9119 Y9.9493
G01 X45.9249 Y9.9465
G01 X45.9418 Y9.9412
G01 X45.9541 Y9.9361
G01 X46.0227 Y9.9047
G01 X46.0305 Y9.9007
G01 X46.0418 Y9.8939
G01 X46.0526 Y9.8863
G01 X46.0628 Y9.8780
G01 X46.0723 Y9.8689
G01 X46.0812 Y9.8591
G01 X46.0893 Y9.8487
G01 X46.1232 Y9.8017
G01 X46.1331 Y9.7862
G01 X46.1375 Y9.7781
G01 X46.1433 Y9.7656
G01 X46.2175 Y9.5864
G01 X46.2274 Y9.5703
G01 X46.3433 Y9.6862
G01 X46.3169 Y9.7420
G01 X46.3117 Y9.7541
G01 X46.2716 Y9.8663
G01 X46.2679 Y9.8789
G01 X46.2401 Y9.9903
G01 X46.2377 Y10.0032
G01 X46.2204 Y10.1211
G01 X46.2141 Y10.2488
G01 X46.2204 Y10.3766
G01 X46.2377 Y10.4945
G01 X46.2401 Y10.5074
G01 X46.2679 Y10.6188
G01 X46.2716 Y10.6314
G01 X46.3117 Y10.7436
G01 X46.3169 Y10.7557
G01 X46.3433 Y10.8115
G01 X46.2274 Y10.9274
G01 X46.2175 Y10.9113
G01 X46.1433 Y10.7321
G01 X46.1361 Y10.7168
G01 X46.1274 Y10.7021
G01 X46.1200 Y10.6918
G01 X46.0728 Y10.6332
G01 X46.0641 Y10.6231
G01 X46.0579 Y10.6168
G01 X46.0480 Y10.6079
G01 X46.0338 Y10.5973
G01 X46.0264 Y10.5925
G01 X46.0148 Y10.5861
G01 X45.9986 Y10.5788
G01 X45.9229 Y10.5534
G01 X45.9101 Y10.5497
G01 X45.8971 Y10.5469
G01 X45.8840 Y10.5451
G01 X45.8707 Y10.5443
G01 X45.8618 Y10.5443
G01 X45.8442 Y10.5457
G01 X45.8267 Y10.5488
G01 X45.7536 Y10.5674
G01 X45.7367 Y10.5726
G01 X45.7204 Y10.5795
G01 X45.7048 Y10.5879
G01 X45.6902 Y10.5979
G01 X45.6766 Y10.6093
G01 X45.6672 Y10.6187
G01 X45.6130 Y10.6772
G01 X45.6023 Y10.6912
G01 X45.5952 Y10.7023
G01 X45.5910 Y10.7100
G01 X45.5871 Y10.7179
G01 X45.5821 Y10.7301
G01 X45.5768 Y10.7469
G01 X45.5614 Y10.8121
G01 X45.5586 Y10.8302
G01 X45.5576 Y10.8486
G01 X45.5576 Y12.3392
G01 X45.5581 Y12.3519
G01 X45.5589 Y12.3604
G01 X45.5601 Y12.3688
G01 X45.5627 Y12.3813
G01 X45.5861 Y12.4617
G01 X45.5905 Y12.4739
G01 X45.5939 Y12.4818
G01 X45.6019 Y12.4972
G01 X45.6113 Y12.5116
G01 X45.6192 Y12.5219
G01 X45.6310 Y12.5346
G01 X45.6738 Y12.5766
G01 X45.6838 Y12.5853
G01 X45.6909 Y12.5907
G01 X45.7018 Y12.5981
G01 X45.8125 Y12.6665
G01 X45.9228 Y12.7770
G01 X45.9324 Y12.7859
G01 X45.9392 Y12.7915
G01 X45.9535 Y12.8016
G01 X45.9610 Y12.8061
G01 X45.9703 Y12.8110
G01 X46.0037 Y12.8344
G01 X46.0193 Y12.8433
G01 X46.0315 Y12.8488
G01 X46.0483 Y12.8548
G01 X46.0657 Y12.8591
G01 X46.1152 Y12.8674
G01 X46.1278 Y12.8687
G01 X46.1404 Y12.8692
G01 X56.0359 Y12.8692
G01 X56.0528 Y12.8684
G01 X56.0696 Y12.8659
G01 X56.0861 Y12.8619
G01 X56.1543 Y12.8419
G01 X56.1669 Y12.8377
G01 X56.1751 Y12.8344
G01 X56.1910 Y12.8265
G01 X56.2060 Y12.8171
G01 X56.2200 Y12.8063
G01 X56.2329 Y12.7941
G01 X56.2908 Y12.7273
G01 X56.3008 Y12.7133
G01 X56.3093 Y12.6984
G01 X56.3148 Y12.6867
G01 X56.3179 Y12.6787
G01 X56.3231 Y12.6623
G01 X56.3259 Y12.6498
G01 X56.3329 Y12.6069
G01 X56.3359 Y12.5952
G01 X56.3375 Y12.5866
G01 X56.3392 Y12.5736
G01 X56.3400 Y12.5561
G01 X56.3395 Y12.5423
G01 X56.3395 Y12.1860
G01 X56.3390 Y12.1733
G01 X56.3382 Y12.1649
G01 X56.3370 Y12.1565
G01 X56.3344 Y12.1440
G01 X56.3122 Y12.0677
G01 X56.3064 Y12.0509
G01 X56.3010 Y12.0388
G01 X56.2923 Y12.0233
G01 X56.2849 Y12.0123
G01 X56.2766 Y12.0019
G01 X56.2676 Y11.9922
G01 X56.2579 Y11.9831
G01 X56.2042 Y11.9366
G01 X56.1902 Y11.9256
G01 X56.1751 Y11.9161
G01 X56.1592 Y11.9081
G01 X56.1425 Y11.9017
G01 X56.1270 Y11.8975
G01 X56.1270 Y11.7305
G01 X56.2195 Y11.7305
G01 X56.2370 Y11.7296
G01 X56.2543 Y11.7270
G01 X56.2671 Y11.7240
G01 X56.2838 Y11.7185
G01 X56.2958 Y11.7133
G01 X56.3075 Y11.7073
G01 X56.3150 Y11.7028
G01 X56.3293 Y11.6927
G01 X56.3426 Y11.6813
G01 X56.3546 Y11.6686
G01 X56.3654 Y11.6548
G01 X56.3748 Y11.6400
G01 X56.3827 Y11.6243
G01 X56.3890 Y11.6080
G01 X56.3926 Y11.5954
G01 X56.3953 Y11.5825
G01 X56.3971 Y11.5695
G01 X56.3979 Y11.5564
G01 X56.3980 Y10.8845
G01 X56.5612 Y10.8845
G01 X56.5776 Y10.9402
G01 X56.5839 Y10.9568
G01 X56.5896 Y10.9687
G01 X56.5963 Y10.9803
G01 X56.6064 Y10.9948
G01 X56.6149 Y11.0050
G01 X56.6274 Y11.0176
G01 X56.6844 Y11.0670
G01 X56.6912 Y11.0727
G01 X56.7021 Y11.0805
G01 X56.7174 Y11.0897
G01 X56.7335 Y11.0972
G01 X56.7461 Y11.1018
G01 X56.7633 Y11.1065
G01 X56.8240 Y11.1195
G01 X56.8366 Y11.1212
G01 X56.8493 Y11.1219
G01 X57.4855 Y11.1220
G01 X57.4940 Y11.1218
G01 X57.5067 Y11.1207
G01 X57.5151 Y11.1195
G01 X57.5276 Y11.1169
G01 X57.6082 Y11.0934
G01 X57.6247 Y11.0872
G01 X57.6367 Y11.0814
G01 X57.6520 Y11.0724
G01 X57.6663 Y11.0619
G01 X57.6763 Y11.0532
G01 X57.6885 Y11.0404
G01 X57.7379 Y10.9833
G01 X57.7434 Y10.9763
G01 X57.7509 Y10.9653
G01 X57.7597 Y10.9498
G01 X57.7652 Y10.9376
G01 X57.7684 Y10.9292
G01 X57.7735 Y10.9122
G01 X57.7796 Y10.8845
G01 X57.9411 Y10.8845
G01 X57.9411 Y11.5520
G01 X57.9413 Y11.5608
G01 X57.9425 Y11.5739
G01 X57.9445 Y11.5869
G01 X57.9476 Y11.5996
G01 X57.9501 Y11.6080
G01 X57.9547 Y11.6203
G01 X57.9622 Y11.6362
G01 X57.9712 Y11.6512
G01 X57.9816 Y11.6652
G01 X57.9903 Y11.6751
G01 X57.9965 Y11.6813
G01 X58.0098 Y11.6927
G01 X58.0241 Y11.7028
G01 X58.0393 Y11.7114
G01 X58.0553 Y11.7185
G01 X58.0677 Y11.7228
G01 X58.0847 Y11.7270
G01 X58.1021 Y11.7296
G01 X58.1195 Y11.7305
G01 X58.2121 Y11.7305
G01 X58.2121 Y11.9011
G01 X58.1772 Y11.9116
G01 X58.1648 Y11.9164
G01 X58.1568 Y11.9201
G01 X58.1451 Y11.9265
G01 X58.1339 Y11.9336
G01 X58.1233 Y11.9416
G01 X58.1133 Y11.9504
G01 X58.1011 Y11.9632
G01 X58.0546 Y12.0169
G01 X58.0462 Y12.0273
G01 X58.0386 Y12.0383
G01 X58.0299 Y12.0538
G01 X58.0243 Y12.0660
G01 X58.0197 Y12.0786
G01 X58.0151 Y12.0958
G01 X58.0028 Y12.1523
G01 X58.0009 Y12.1649
G01 X57.9998 Y12.1776
G01 X57.9996 Y12.5405
G01 X57.9963 Y12.5708
G01 X57.9621 Y12.6622
G01 X57.9054 Y12.7379
G01 X57.8277 Y12.7960
G01 X57.8177 Y12.8042
G01 X57.8113 Y12.8100
G01 X57.8023 Y12.8192
G01 X57.7940 Y12.8291
G01 X57.7460 Y12.8939
G01 X57.7389 Y12.9047
G01 X57.7347 Y12.9122
G01 X57.7273 Y12.9277
G01 X57.7177 Y12.9539
G01 X57.6995 Y13.0099
G01 X57.6937 Y13.0220
G01 X57.6591 Y13.0749
G01 X57.6278 Y13.1265
G01 X57.6201 Y13.1357
G01 X57.5706 Y13.1828
G01 X56.9413 Y13.8120
G01 X56.9352 Y13.8185
G01 X56.9198 Y13.8363
G01 X56.9109 Y13.8476
G01 X56.8837 Y13.8707
G01 X56.8701 Y13.8833
G01 X56.8500 Y13.8993
G01 X56.8051 Y13.9374
G01 X56.7938 Y13.9447
G01 X56.7366 Y13.9715
G01 X56.6842 Y13.9982
G01 X56.6715 Y14.0027
G01 X56.6096 Y14.0157
G01 X56.5510 Y14.0300
G01 X56.5392 Y14.0311
G01 X56.4708 Y14.0293
G01 X46.1362 Y14.0294
G01 X46.1235 Y14.0301
G01 X46.1108 Y14.0318
G01 X46.0984 Y14.0344
G01 X46.0902 Y14.0366
G01 X46.0135 Y14.0593
G01 X46.0011 Y14.0642
G01 X45.9851 Y14.0721
G01 X45.9737 Y14.0791
G01 X45.9628 Y14.0869
G01 X45.9559 Y14.0925
G01 X45.9407 Y14.1063
G01 X45.9285 Y14.1163
G01 X45.8117 Y14.2326
G01 X45.6966 Y14.3036
G01 X45.5670 Y14.3465
G01 X45.4910 Y14.3543
G01 X44.1086 Y14.3543
G01 X44.0315 Y14.3463
G01 X43.9020 Y14.3031
G01 X43.7870 Y14.2320
G01 X43.6914 Y14.1362
G01 X43.6204 Y14.0211
G01 X43.5774 Y13.8915
G01 X43.5697 Y13.8155
G01 X43.5697 Y13.0831
G01 X43.5777 Y13.0060
G01 X43.6209 Y12.8765
G01 X43.6920 Y12.7615
G01 X43.7878 Y12.6659
G01 X43.9029 Y12.5949
G01 X44.0325 Y12.5519
G01 X44.1213 Y12.5429
G01 X44.1340 Y12.5409
G01 X44.1466 Y12.5380
G01 X44.1588 Y12.5342
G01 X44.2296 Y12.5093
G01 X44.2378 Y12.5060
G01 X44.2498 Y12.5002
G01 X44.2650 Y12.4912
G01 X44.2758 Y12.4835
G01 X44.2892 Y12.4719
G01 X44.3015 Y12.4591
G01 X44.3561 Y12.3892
G01 X44.3634 Y12.3780
G01 X44.3677 Y12.3702
G01 X44.3736 Y12.3582
G01 X44.3769 Y12.3499
G01 X44.3824 Y12.3330
G01 X44.3854 Y12.3200
G01 X44.3950 Y12.2694
G01 X44.3967 Y12.2569
G01 X44.3974 Y12.2443
G01 X44.3975 Y10.8486
G01 X44.3967 Y10.8316
G01 X44.3942 Y10.8148
G01 X44.3914 Y10.8024
G01 X44.3689 Y10.7260
G01 X44.3627 Y10.7094
G01 X44.3548 Y10.6935
G01 X44.3454 Y10.6785
G01 X44.3346 Y10.6645
G01 X44.3256 Y10.6547
G01 X44.3192 Y10.6486
G01 X44.2554 Y10.5935
G01 X44.2483 Y10.5882
G01 X44.2371 Y10.5810
G01 X44.2255 Y10.5746
G01 X44.2175 Y10.5708
G01 X44.2093 Y10.5674
G01 X44.1967 Y10.5631
G01 X44.1882 Y10.5608
G01 X44.1752 Y10.5581
G01 X44.0961 Y10.5467
G01 X44.0784 Y10.5455
G01 X44.0607 Y10.5460
G01 X44.0432 Y10.5484
G01 X44.0345 Y10.5502
G01 X44.0217 Y10.5537
G01 X44.0050 Y10.5598
G01 X43.9364 Y10.5911
G01 X43.9208 Y10.5992
G01 X43.9096 Y10.6062
G01 X43.8990 Y10.6141
G01 X43.8891 Y10.6227
G01 X43.8797 Y10.6320
G01 X43.8684 Y10.6455
G01 X43.8319 Y10.6960
G01 X43.8243 Y10.7075
G01 X43.8176 Y10.7196
G01 X43.8118 Y10.7321
G01 X43.7376 Y10.9113
G01 X43.7277 Y10.9274
G01 X43.6118 Y10.8115
G01 X43.6382 Y10.7557
G01 X43.6434 Y10.7436
G01 X43.6835 Y10.6314
G01 X43.6872 Y10.6188
G01 X43.7150 Y10.5074
G01 X43.7174 Y10.4945
G01 X43.7347 Y10.3766
G01 X43.7410 Y10.2488
G01 X43.7347 Y10.1211
G01 X43.7174 Y10.0032
G01 X43.7150 Y9.9903
G01 X43.6872 Y9.8789
G01 X43.6835 Y9.8663
G01 X43.6434 Y9.7541
G01 X43.6382 Y9.7420
G01 X43.6118 Y9.6862
G00 Z2.0000
G00 X43.4933 Y9.6669
G01 F50.00
G01 Z-0.1160
G01 F80.00
G01 X43.7461 Y9.4141
G01 X43.8237 Y9.5406
G01 X43.8252 Y9.5437
G01 X43.9017 Y9.7283
G01 X43.9069 Y9.7387
G01 X43.9135 Y9.7482
G01 X43.9620 Y9.8080
G01 X43.9678 Y9.8136
G01 X43.9741 Y9.8186
G01 X43.9809 Y9.8230
G01 X43.9881 Y9.8266
G01 X43.9956 Y9.8295
G01 X44.0649 Y9.8526
G01 X44.0766 Y9.8552
G01 X44.0887 Y9.8561
G01 X44.0987 Y9.8555
G01 X44.1086 Y9.8536
G01 X44.1793 Y9.8355
G01 X44.1888 Y9.8322
G01 X44.1961 Y9.8287
G01 X44.2062 Y9.8221
G01 X44.2153 Y9.8142
G01 X44.2664 Y9.7593
G01 X44.2714 Y9.7530
G01 X44.2758 Y9.7463
G01 X44.2810 Y9.7356
G01 X44.2842 Y9.7261
G01 X44.2984 Y9.6657
G01 X44.2999 Y9.6554
G01 X44.3000 Y9.1093
G01 X44.2993 Y9.1016
G01 X44.2974 Y9.0921
G01 X44.2769 Y9.0222
G01 X44.2735 Y9.0129
G01 X44.2710 Y9.0076
G01 X44.2670 Y9.0007
G01 X44.2598 Y8.9913
G01 X44.2111 Y8.9437
G01 X44.2013 Y8.9366
G01 X44.1212 Y8.8875
G01 X43.9474 Y8.7390
G01 X43.7989 Y8.5652
G01 X43.6794 Y8.3703
G01 X43.5920 Y8.1591
G01 X43.5386 Y7.9368
G01 X43.5206 Y7.7088
G01 X43.5386 Y7.4809
G01 X43.5920 Y7.2586
G01 X43.6794 Y7.0474
G01 X43.7989 Y6.8525
G01 X43.9474 Y6.6787
G01 X44.1212 Y6.5302
G01 X44.3161 Y6.4107
G01 X44.5273 Y6.3233
G01 X44.7496 Y6.2699
G01 X44.9775 Y6.2520
G01 X45.2054 Y6.2699
G01 X45.4277 Y6.3233
G01 X45.6390 Y6.4107
G01 X45.8339 Y6.5302
G01 X46.0077 Y6.6787
G01 X46.1562 Y6.8525
G01 X46.2756 Y7.0474
G01 X46.3631 Y7.2586
G01 X46.4165 Y7.4809
G01 X46.4344 Y7.7088
G01 X46.4165 Y7.9368
G01 X46.3631 Y8.1591
G01 X46.2756 Y8.3703
G01 X46.1562 Y8.5652
G01 X46.0077 Y8.7390
G01 X45.8339 Y8.8875
G01 X45.7538 Y8.9366
G01 X45.7444 Y8.9433
G01 X45.7361 Y8.9513
G01 X45.6871 Y9.0054
G01 X45.6823 Y9.0116
G01 X45.6781 Y9.0183
G01 X45.6745 Y9.0253
G01 X45.6710 Y9.0345
G01 X45.6570 Y9.0950
G01 X45.6552 Y9.1071
G01 X45.6549 Y9.6491
G01 X45.6558 Y9.6606
G01 X45.6582 Y9.6719
G01 X45.6788 Y9.7420
G01 X45.6825 Y9.7514
G01 X45.6873 Y9.7602
G01 X45.6931 Y9.7684
G01 X45.7014 Y9.7772
G01 X45.7566 Y9.8250
G01 X45.7629 Y9.8300
G01 X45.7697 Y9.8343
G01 X45.7788 Y9.8387
G01 X45.7864 Y9.8414
G01 X45.7942 Y9.8433
G01 X45.8704 Y9.8543
G01 X45.8785 Y9.8549
G01 X45.8885 Y9.8545
G01 X45.9004 Y9.8523
G01 X45.9062 Y9.8506
G01 X45.9137 Y9.8476
G01 X45.9818 Y9.8163
G01 X45.9904 Y9.8112
G01 X45.9998 Y9.8037
G01 X46.0053 Y9.7980
G01 X46.0103 Y9.7917
G01 X46.0442 Y9.7447
G01 X46.0498 Y9.7359
G01 X46.0534 Y9.7283
G01 X46.1298 Y9.5437
G01 X46.1314 Y9.5406
G01 X46.2089 Y9.4141
G01 X46.4617 Y9.6669
G01 X46.4521 Y9.6839
G01 X46.4032 Y9.7873
G01 X46.3646 Y9.8950
G01 X46.3623 Y9.9026
G01 X46.3346 Y10.0135
G01 X46.3177 Y10.1267
G01 X46.3170 Y10.1346
G01 X46.3114 Y10.2488
G01 X46.3170 Y10.3631
G01 X46.3177 Y10.3710
G01 X46.3346 Y10.4841
G01 X46.3623 Y10.5951
G01 X46.3646 Y10.6027
G01 X46.4032 Y10.7104
G01 X46.4521 Y10.8138
G01 X46.4617 Y10.8307
G01 X46.2089 Y11.0835
G01 X46.1314 Y10.9571
G01 X46.1298 Y10.9540
G01 X46.0534 Y10.7694
G01 X46.0482 Y10.7590
G01 X46.0416 Y10.7495
G01 X45.9931 Y10.6897
G01 X45.9873 Y10.6841
G01 X45.9810 Y10.6791
G01 X45.9742 Y10.6747
G01 X45.9670 Y10.6711
G01 X45.9595 Y10.6682
G01 X45.8902 Y10.6451
G01 X45.8785 Y10.6425
G01 X45.8664 Y10.6416
G01 X45.8564 Y10.6422
G01 X45.8465 Y10.6441
G01 X45.7757 Y10.6622
G01 X45.7662 Y10.6655
G01 X45.7590 Y10.6690
G01 X45.7488 Y10.6755
G01 X45.7398 Y10.6835
G01 X45.6887 Y10.7384
G01 X45.6837 Y10.7447
G01 X45.6803 Y10.7496
G01 X45.6756 Y10.7585
G01 X45.6715 Y10.7697
G01 X45.6571 Y10.8300
G01 X45.6556 Y10.8382
G01 X45.6549 Y10.8486
G01 X45.6549 Y12.3392
G01 X45.6555 Y12.3488
G01 X45.6568 Y12.3564
G01 X45.6788 Y12.4320
G01 X45.6816 Y12.4394
G01 X45.6850 Y12.4464
G01 X45.6902 Y12.4547
G01 X45.6965 Y12.4623
G01 X45.7389 Y12.5042
G01 X45.7449 Y12.5095
G01 X45.7514 Y12.5142
G01 X45.8734 Y12.5898
G01 X45.9960 Y12.7123
G01 X46.0023 Y12.7172
G01 X46.0073 Y12.7205
G01 X46.0125 Y12.7234
G01 X46.0190 Y12.7263
G01 X46.0560 Y12.7523
G01 X46.0667 Y12.7581
G01 X46.0762 Y12.7616
G01 X46.0841 Y12.7635
G01 X46.1290 Y12.7710
G01 X46.1404 Y12.7718
G01 X56.0359 Y12.7718
G01 X56.0436 Y12.7715
G01 X56.0512 Y12.7704
G01 X56.0587 Y12.7686
G01 X56.1269 Y12.7486
G01 X56.1345 Y12.7459
G01 X56.1418 Y12.7425
G01 X56.1487 Y12.7384
G01 X56.1567 Y12.7324
G01 X56.1626 Y12.7268
G01 X56.2130 Y12.6687
G01 X56.2188 Y12.6608
G01 X56.2236 Y12.6523
G01 X56.2273 Y12.6433
G01 X56.2298 Y12.6339
G01 X56.2379 Y12.5843
G01 X56.2404 Y12.5763
G01 X56.2421 Y12.5665
G01 X56.2427 Y12.5566
G01 X56.2421 Y12.5459
G01 X56.2421 Y12.1860
G01 X56.2418 Y12.1783
G01 X56.2403 Y12.1688
G01 X56.2189 Y12.0951
G01 X56.2162 Y12.0875
G01 X56.2128 Y12.0802
G01 X56.2076 Y12.0716
G01 X56.2013 Y12.0637
G01 X56.1957 Y12.0580
G01 X56.1389 Y12.0088
G01 X56.1307 Y12.0029
G01 X56.1219 Y11.9980
G01 X56.1144 Y11.9950
G01 X56.1066 Y11.9926
G01 X56.0523 Y11.9808
G01 X56.0408 Y11.9792
G01 X56.0296 Y11.9789
G01 X56.0296 Y11.6331
G01 X56.2195 Y11.6331
G01 X56.2275 Y11.6328
G01 X56.2354 Y11.6316
G01 X56.2469 Y11.6284
G01 X56.2560 Y11.6245
G01 X56.2662 Y11.6184
G01 X56.2740 Y11.6121
G01 X56.2822 Y11.6035
G01 X56.2881 Y11.5954
G01 X56.2929 Y11.5867
G01 X56.2965 Y11.5775
G01 X56.2994 Y11.5659
G01 X56.3004 Y11.5580
G01 X56.3006 Y11.5520
G01 X56.3006 Y10.7871
G01 X56.6464 Y10.7871
G01 X56.6465 Y10.8214
G01 X56.6473 Y10.8291
G01 X56.6487 Y10.8367
G01 X56.6710 Y10.9124
G01 X56.6732 Y10.9180
G01 X56.6767 Y10.9252
G01 X56.6799 Y10.9304
G01 X56.6846 Y10.9368
G01 X56.6929 Y10.9456
G01 X56.7481 Y10.9935
G01 X56.7545 Y10.9984
G01 X56.7613 Y11.0028
G01 X56.7704 Y11.0072
G01 X56.7800 Y11.0104
G01 X56.8382 Y11.0232
G01 X56.8458 Y11.0243
G01 X56.8535 Y11.0246
G01 X57.4855 Y11.0246
G01 X57.4971 Y11.0238
G01 X57.5065 Y11.0219
G01 X57.5822 Y10.9994
G01 X57.5914 Y10.9953
G01 X57.6000 Y10.9901
G01 X57.6079 Y10.9838
G01 X57.6150 Y10.9767
G01 X57.6640 Y10.9199
G01 X57.6698 Y10.9115
G01 X57.6752 Y10.9007
G01 X57.6789 Y10.8891
G01 X57.6918 Y10.8291
G01 X57.6926 Y10.8195
G01 X57.6926 Y10.7871
G01 X58.0384 Y10.7871
G01 X58.0384 Y11.5520
G01 X58.0391 Y11.5620
G01 X58.0404 Y11.5698
G01 X58.0439 Y11.5812
G01 X58.0480 Y11.5903
G01 X58.0544 Y11.6004
G01 X58.0622 Y11.6094
G01 X58.0712 Y11.6172
G01 X58.0813 Y11.6236
G01 X58.0922 Y11.6284
G01 X58.1018 Y11.6312
G01 X58.1116 Y11.6328
G01 X58.1195 Y11.6331
G01 X58.3094 Y11.6331
G01 X58.3094 Y11.9789
G01 X58.2963 Y11.9793
G01 X58.2887 Y11.9804
G01 X58.2831 Y11.9817
G01 X58.2111 Y12.0028
G01 X58.2018 Y12.0065
G01 X58.1929 Y12.0113
G01 X58.1832 Y12.0184
G01 X58.1746 Y12.0269
G01 X58.1268 Y12.0821
G01 X58.1209 Y12.0903
G01 X58.1169 Y12.0974
G01 X58.1136 Y12.1048
G01 X58.1106 Y12.1145
G01 X58.0984 Y12.1707
G01 X58.0970 Y12.1822
G01 X58.0969 Y12.5458
G01 X58.0918 Y12.5935
G01 X58.0483 Y12.7094
G01 X57.9749 Y12.8074
G01 X57.8861 Y12.8739
G01 X57.8786 Y12.8803
G01 X57.8708 Y12.8890
G01 X57.8255 Y12.9499
G01 X57.8204 Y12.9583
G01 X57.8163 Y12.9671
G01 X57.8093 Y12.9868
G01 X57.7896 Y13.0475
G01 X57.7795 Y13.0687
G01 X57.7414 Y13.1268
G01 X57.7066 Y13.1843
G01 X57.6972 Y13.1952
G01 X57.6929 Y13.2008
G01 X57.6394 Y13.2516
G01 X57.0102 Y13.8808
G01 X56.9923 Y13.9013
G01 X56.9825 Y13.9144
G01 X56.9482 Y13.9436
G01 X56.9347 Y13.9562
G01 X56.9117 Y13.9746
G01 X56.8620 Y14.0168
G01 X56.8423 Y14.0294
G01 X56.7794 Y14.0589
G01 X56.7213 Y14.0886
G01 X56.6992 Y14.0964
G01 X56.6311 Y14.1106
G01 X56.5659 Y14.1266
G01 X56.5516 Y14.1276
G01 X56.5445 Y14.1286
G01 X56.4708 Y14.1266
G01 X46.1385 Y14.1267
G01 X46.1289 Y14.1275
G01 X46.1194 Y14.1294
G01 X46.0495 Y14.1499
G01 X46.0381 Y14.1542
G01 X46.0275 Y14.1602
G01 X46.0194 Y14.1663
G01 X46.0022 Y14.1818
G01 X45.9923 Y14.1898
G01 X45.8724 Y14.3095
G01 X45.7380 Y14.3924
G01 X45.5875 Y14.4423
G01 X45.4960 Y14.4516
G01 X44.1035 Y14.4516
G01 X44.0108 Y14.4420
G01 X43.8604 Y14.3919
G01 X43.7261 Y14.3087
G01 X43.6145 Y14.1969
G01 X43.5316 Y14.0625
G01 X43.4817 Y13.9120
G01 X43.4723 Y13.8205
G01 X43.4723 Y13.0780
G01 X43.4820 Y12.9853
G01 X43.5321 Y12.8349
G01 X43.6153 Y12.7006
G01 X43.7270 Y12.5890
G01 X43.8615 Y12.5061
G01 X44.0120 Y12.4562
G01 X44.1077 Y12.4465
G01 X44.1173 Y12.4450
G01 X44.1267 Y12.4423
G01 X44.1933 Y12.4190
G01 X44.2025 Y12.4151
G01 X44.2096 Y12.4112
G01 X44.2162 Y12.4066
G01 X44.2223 Y12.4013
G01 X44.2291 Y12.3939
G01 X44.2753 Y12.3348
G01 X44.2808 Y12.3263
G01 X44.2860 Y12.3153
G01 X44.2894 Y12.3037
G01 X44.2987 Y12.2553
G01 X44.2998 Y12.2477
G01 X44.3001 Y12.2401
G01 X44.3001 Y10.8486
G01 X44.2996 Y10.8390
G01 X44.2974 Y10.8276
G01 X44.2763 Y10.7557
G01 X44.2726 Y10.7463
G01 X44.2678 Y10.7375
G01 X44.2607 Y10.7278
G01 X44.2537 Y10.7205
G01 X44.1938 Y10.6689
G01 X44.1871 Y10.6644
G01 X44.1800 Y10.6606
G01 X44.1725 Y10.6576
G01 X44.1648 Y10.6553
G01 X44.1569 Y10.6537
G01 X44.0847 Y10.6434
G01 X44.0746 Y10.6428
G01 X44.0626 Y10.6438
G01 X44.0508 Y10.6465
G01 X44.0414 Y10.6501
G01 X43.9750 Y10.6805
G01 X43.9680 Y10.6843
G01 X43.9599 Y10.6901
G01 X43.9525 Y10.6968
G01 X43.9459 Y10.7043
G01 X43.9097 Y10.7547
G01 X43.9053 Y10.7618
G01 X43.9017 Y10.7694
G01 X43.8252 Y10.9540
G01 X43.8237 Y10.9571
G01 X43.7461 Y11.0835
G01 X43.4933 Y10.8307
G01 X43.5030 Y10.8138
G01 X43.5518 Y10.7104
G01 X43.5905 Y10.6027
G01 X43.5928 Y10.5951
G01 X43.6205 Y10.4841
G01 X43.6373 Y10.3710
G01 X43.6381 Y10.3631
G01 X43.6436 Y10.2488
G01 X43.6381 Y10.1346
G01 X43.6373 Y10.1267
G01 X43.6205 Y10.0135
G01 X43.5928 Y9.9026
G01 X43.5905 Y9.8950
G01 X43.5518 Y9.7873
G01 X43.5030 Y9.6839
G01 X43.4933 Y9.6669
G00 Z2.0000
G00 X44.4229 Y8.8841
G01 F50.00
G01 Z-0.1160
G01 F80.00
G01 X44.4517 Y8.8977
G01 X44.4517 Y8.9346
G01 X44.4436 Y8.9177
G01 X44.4371 Y8.9059
G01 X44.4301 Y8.8945
G01 X44.4229 Y8.8841
G00 Z2.0000
G00 X45.5034 Y8.9322
G01 F50.00
G01 Z-0.1160
G01 F80.00
G01 X45.5034 Y8.8977
G01 X45.5367 Y8.8819
G01 X45.5271 Y8.8941
G01 X45.5194 Y8.9050
G01 X45.5122 Y8.9164
G01 X45.5034 Y8.9322
G00 Z2.0000
G00 X46.6828 Y8.9402
G01 F50.00
G01 Z-0.1160
G01 F80.00
G01 X46.8093 Y8.8627
G01 X46.8124 Y8.8611
G01 X47.0349 Y8.7690
G01 X47.0382 Y8.7679
G01 X47.2723 Y8.7117
G01 X47.2758 Y8.7112
G01 X47.5158 Y8.6923
G01 X47.5193 Y8.6923
G01 X47.7593 Y8.7112
G01 X47.7628 Y8.7117
G01 X47.9969 Y8.7679
G01 X48.0002 Y8.7690
G01 X48.2226 Y8.8611
G01 X48.2258 Y8.8627
G01 X48.3522 Y8.9402
G01 X48.0994 Y9.1930
G01 X48.0825 Y9.1834
G01 X47.9791 Y9.1346
G01 X47.8714 Y9.0959
G01 X47.8638 Y9.0936
G01 X47.7528 Y9.0659
G01 X47.6397 Y9.0490
G01 X47.6318 Y9.0483
G01 X47.5175 Y9.0427
G01 X47.4033 Y9.0483
G01 X47.3954 Y9.0490
G01 X47.2822 Y9.0659
G01 X47.1713 Y9.0936
G01 X47.1636 Y9.0959
G01 X47.0560 Y9.1346
G01 X46.9525 Y9.1834
G01 X46.9356 Y9.1930
G01 X46.6828 Y8.9402
G00 Z2.0000
G00 X46.8389 Y8.9587
G01 F50.00
G01 Z-0.1160
G01 F80.00
G01 X46.8551 Y8.9488
G01 X47.0667 Y8.8612
G01 X47.2893 Y8.8077
G01 X47.5175 Y8.7898
G01 X47.7458 Y8.8077
G01 X47.9684 Y8.8612
G01 X48.1799 Y8.9488
G01 X48.1961 Y8.9587
G01 X48.0802 Y9.0746
G01 X48.0243 Y9.0482
G01 X48.0123 Y9.0430
G01 X47.9001 Y9.0029
G01 X47.8875 Y8.9992
G01 X47.7761 Y8.9714
G01 X47.7632 Y8.9690
G01 X47.6453 Y8.9517
G01 X47.5175 Y8.9454
G01 X47.3898 Y8.9517
G01 X47.2719 Y8.9690
G01 X47.2590 Y8.9714
G01 X47.1476 Y8.9992
G01 X47.1350 Y9.0029
G01 X47.0228 Y9.0430
G01 X47.0107 Y9.0482
G01 X46.9549 Y9.0746
G01 X46.8389 Y8.9587
G00 Z2.0000
G00 X48.5733 Y9.6669
G01 F50.00
G01 Z-0.1160
G01 F80.00
G01 X48.8261 Y9.4141
G01 X48.9037 Y9.5406
G01 X48.9052 Y9.5437
G01 X48.9974 Y9.7662
G01 X48.9985 Y9.7695
G01 X49.0547 Y10.0036
G01 X49.0552 Y10.0071
G01 X49.0741 Y10.2471
G01 X49.0741 Y10.2506
G01 X49.0552 Y10.4906
G01 X49.0547 Y10.4941
G01 X48.9985 Y10.7282
G01 X48.9974 Y10.7315
G01 X48.9052 Y10.9540
G01 X48.9037 Y10.9571
G01 X48.8261 Y11.0835
G01 X48.5733 Y10.8307
G01 X48.5830 Y10.8138
G01 X48.6318 Y10.7104
G01 X48.6705 Y10.6027
G01 X48.6728 Y10.5951
G01 X48.7005 Y10.4841
G01 X48.7173 Y10.3710
G01 X48.7181 Y10.3631
G01 X48.7236 Y10.2488
G01 X48.7181 Y10.1346
G01 X48.7173 Y10.1267
G01 X48.7005 Y10.0135
G01 X48.6728 Y9.9026
G01 X48.6705 Y9.8950
G01 X48.6318 Y9.7873
G01 X48.5830 Y9.6839
G01 X48.5733 Y9.6669
G00 Z2.0000
G00 X48.6918 Y9.6862
G01 F50.00
G01 Z-0.1160
G01 F80.00
G01 X48.8077 Y9.5703
G01 X48.8176 Y9.5864
G01 X48.9052 Y9.7980
G01 X48.9587 Y10.0206
G01 X48.9766 Y10.2488
G01 X48.9587 Y10.4771
G01 X48.9052 Y10.6997
G01 X48.8176 Y10.9113
G01 X48.8077 Y10.9274
G01 X48.6918 Y10.8115
G01 X48.7182 Y10.7557
G01 X48.7234 Y10.7436
G01 X48.7635 Y10.6314
G01 X48.7672 Y10.6188
G01 X48.7950 Y10.5074
G01 X48.7974 Y10.4945
G01 X48.8147 Y10.3766
G01 X48.8210 Y10.2488
G01 X48.8147 Y10.1211
G01 X48.7974 Y10.0032
G01 X48.7950 Y9.9903
G01 X48.7672 Y9.8789
G01 X48.7635 Y9.8663
G01 X48.7234 Y9.7541
G01 X48.7182 Y9.7420
G01 X48.6918 Y9.6862
G00 Z2.0000
G00 X46.8389 Y6.4590
G01 F50.00
G01 Z-0.1160
G01 F80.00
G01 X46.9549 Y6.3431
G01 X47.0107 Y6.3695
G01 X47.0228 Y6.3747
G01 X47.1350 Y6.4148
G01 X47.1476 Y6.4185
G01 X47.2590 Y6.4463
G01 X47.2719 Y6.4487
G01 X47.3898 Y6.4660
G01 X47.5175 Y6.4723
G01 X47.6453 Y6.4660
G01 X47.7632 Y6.4487
G01 X47.7761 Y6.4463
G01 X47.8875 Y6.4185
G01 X47.9001 Y6.4148
G01 X48.0123 Y6.3747
G01 X48.0243 Y6.3695
G01 X48.0802 Y6.3431
G01 X48.1961 Y6.4590
G01 X48.1799 Y6.4689
G01 X47.9684 Y6.5565
G01 X47.7458 Y6.6100
G01 X47.5175 Y6.6279
G01 X47.2893 Y6.6100
G01 X47.0667 Y6.5565
G01 X46.8551 Y6.4689
G01 X46.8389 Y6.4590
G00 Z2.0000
G00 X46.6828 Y6.4775
G01 F50.00
G01 Z-0.1160
G01 F80.00
G01 X46.9356 Y6.2246
G01 X46.9525 Y6.2343
G01 X47.0560 Y6.2831
G01 X47.1636 Y6.3218
G01 X47.1713 Y6.3241
G01 X47.2822 Y6.3518
G01 X47.3954 Y6.3687
G01 X47.4033 Y6.3694
G01 X47.5175 Y6.3749
G01 X47.6318 Y6.3694
G01 X47.6397 Y6.3687
G01 X47.7528 Y6.3518
G01 X47.8638 Y6.3241
G01 X47.8714 Y6.3218
G01 X47.9791 Y6.2831
G01 X48.0825 Y6.2343
G01 X48.0994 Y6.2246
G01 X48.3522 Y6.4775
G01 X48.2258 Y6.5550
G01 X48.2226 Y6.5565
G01 X48.0002 Y6.6487
G01 X47.9969 Y6.6498
G01 X47.7628 Y6.7060
G01 X47.7593 Y6.7065
G01 X47.5193 Y6.7254
G01 X47.5158 Y6.7254
G01 X47.2758 Y6.7065
G01 X47.2723 Y6.7060
G01 X47.0382 Y6.6498
G01 X47.0349 Y6.6487
G01 X46.8124 Y6.5565
G01 X46.8093 Y6.5550
G01 X46.6828 Y6.4775
G00 Z2.0000
G00 X46.0585 Y5.1688
G01 F50.00
G01 Z-0.1160
G01 F80.00
G01 X46.0764 Y4.9406
G01 X46.1299 Y4.7180
G01 X46.2175 Y4.5064
G01 X46.2274 Y4.4903
G01 X46.3433 Y4.6062
G01 X46.3169 Y4.6620
G01 X46.3117 Y4.6741
G01 X46.2716 Y4.7863
G01 X46.2679 Y4.7989
G01 X46.2401 Y4.9103
G01 X46.2377 Y4.9232
G01 X46.2204 Y5.0411
G01 X46.2141 Y5.1688
G01 X46.2204 Y5.2966
G01 X46.2377 Y5.4145
G01 X46.2401 Y5.4274
G01 X46.2679 Y5.5388
G01 X46.2716 Y5.5514
G01 X46.3117 Y5.6636
G01 X46.3169 Y5.6757
G01 X46.3433 Y5.7315
G01 X46.2274 Y5.8474
G01 X46.2175 Y5.8313
G01 X46.1299 Y5.6197
G01 X46.0764 Y5.3971
G01 X46.0585 Y5.1688
G00 Z2.0000
G00 X45.9610 Y5.1671
G01 F50.00
G01 Z-0.1160
G01 F80.00
G01 X45.9799 Y4.9271
G01 X45.9804 Y4.9236
G01 X46.0366 Y4.6895
G01 X46.0377 Y4.6862
G01 X46.1298 Y4.4637
G01 X46.1314 Y4.4606
G01 X46.2089 Y4.3341
G01 X46.4617 Y4.5869
G01 X46.4521 Y4.6039
G01 X46.4032 Y4.7073
G01 X46.3646 Y4.8150
G01 X46.3623 Y4.8226
G01 X46.3346 Y4.9335
G01 X46.3177 Y5.0467
G01 X46.3170 Y5.0546
G01 X46.3114 Y5.1688
G01 X46.3170 Y5.2831
G01 X46.3177 Y5.2910
G01 X46.3346 Y5.4041
G01 X46.3623 Y5.5151
G01 X46.3646 Y5.5227
G01 X46.4032 Y5.6304
G01 X46.4521 Y5.7338
G01 X46.4617 Y5.7507
G01 X46.2089 Y6.0035
G01 X46.1314 Y5.8771
G01 X46.1298 Y5.8740
G01 X46.0377 Y5.6515
G01 X46.0366 Y5.6482
G01 X45.9804 Y5.4141
G01 X45.9799 Y5.4106
G01 X45.9610 Y5.1706
G01 X45.9610 Y5.1671
G00 Z2.0000
G00 X46.6828 Y3.8602
G01 F50.00
G01 Z-0.1160
G01 F80.00
G01 X46.8093 Y3.7827
G01 X46.8124 Y3.7811
G01 X47.0349 Y3.6890
G01 X47.0382 Y3.6879
G01 X47.2723 Y3.6317
G01 X47.2758 Y3.6312
G01 X47.5158 Y3.6123
G01 X47.5193 Y3.6123
G01 X47.7593 Y3.6312
G01 X47.7628 Y3.6317
G01 X47.9969 Y3.6879
G01 X48.0002 Y3.6890
G01 X48.2226 Y3.7811
G01 X48.2258 Y3.7827
G01 X48.3522 Y3.8602
G01 X48.0994 Y4.1130
G01 X48.0825 Y4.1034
G01 X47.9791 Y4.0546
G01 X47.8714 Y4.0159
G01 X47.8638 Y4.0136
G01 X47.7528 Y3.9859
G01 X47.6397 Y3.9690
G01 X47.6318 Y3.9683
G01 X47.5175 Y3.9627
G01 X47.4033 Y3.9683
G01 X47.3954 Y3.9690
G01 X47.2822 Y3.9859
G01 X47.1713 Y4.0136
G01 X47.1636 Y4.0159
G01 X47.0560 Y4.0546
G01 X46.9525 Y4.1034
G01 X46.9356 Y4.1130
G01 X46.6828 Y3.8602
G00 Z2.0000
G00 X46.8389 Y3.8787
G01 F50.00
G01 Z-0.1160
G01 F80.00
G01 X46.8551 Y3.8688
G01 X47.0667 Y3.7812
G01 X47.2893 Y3.7277
G01 X47.5175 Y3.7098
G01 X47.7458 Y3.7277
G01 X47.9684 Y3.7812
G01 X48.1799 Y3.8688
G01 X48.1961 Y3.8787
G01 X48.0802 Y3.9946
G01 X48.0243 Y3.9682
G01 X48.0123 Y3.9630
G01 X47.9001 Y3.9229
G01 X47.8875 Y3.9192
G01 X47.7761 Y3.8914
G01 X47.7632 Y3.8890
G01 X47.6453 Y3.8717
G01 X47.5175 Y3.8654
G01 X47.3898 Y3.8717
G01 X47.2719 Y3.8890
G01 X47.2590 Y3.8914
G01 X47.1476 Y3.9192
G01 X47.1350 Y3.9229
G01 X47.0228 Y3.9630
G01 X47.0107 Y3.9682
G01 X46.9549 Y3.9946
G01 X46.8389 Y3.8787
G00 Z2.0000
G00 X48.5733 Y4.5869
G01 F50.00
G01 Z-0.1160
G01 F80.00
G01 X48.8261 Y4.3341
G01 X48.9037 Y4.4606
G01 X48.9052 Y4.4637
G01 X48.9974 Y4.6862
G01 X48.9985 Y4.6895
G01 X49.0547 Y4.9236
G01 X49.0552 Y4.9271
G01 X49.0741 Y5.1671
G01 X49.0741 Y5.1706
G01 X49.0552 Y5.4106
G01 X49.0547 Y5.4141
G01 X48.9985 Y5.6482
G01 X48.9974 Y5.6515
G01 X48.9052 Y5.8740
G01 X48.9037 Y5.8771
G01 X48.8261 Y6.0035
G01 X48.5733 Y5.7507
G01 X48.5830 Y5.7338
G01 X48.6318 Y5.6304
G01 X48.6705 Y5.5227
G01 X48.6728 Y5.5151
G01 X48.7005 Y5.4041
G01 X48.7173 Y5.2910
G01 X48.7181 Y5.2831
G01 X48.7236 Y5.1688
G01 X48.7181 Y5.0546
G01 X48.7173 Y5.0467
G01 X48.7005 Y4.9335
G01 X48.6728 Y4.8226
G01 X48.6705 Y4.8150
G01 X48.6318 Y4.7073
G01 X48.5830 Y4.6039
G01 X48.5733 Y4.5869
G00 Z2.0000
G00 X48.6918 Y4.6062
G01 F50.00
G01 Z-0.1160
G01 F80.00
G01 X48.8077 Y4.4903
G01 X48.8176 Y4.5064
G01 X48.9052 Y4.7180
G01 X48.9587 Y4.9406
G01 X48.9766 Y5.1688
G01 X48.9587 Y5.3971
G01 X48.9052 Y5.6197
G01 X48.8176 Y5.8313
G01 X48.8077 Y5.8474
G01 X48.6918 Y5.7315
G01 X48.7182 Y5.6757
G01 X48.7234 Y5.6636
G01 X48.7635 Y5.5514
G01 X48.7672 Y5.5388
G01 X48.7950 Y5.4274
G01 X48.7974 Y5.4145
G01 X48.8147 Y5.2966
G01 X48.8210 Y5.1688
G01 X48.8147 Y5.0411
G01 X48.7974 Y4.9232
G01 X48.7950 Y4.9103
G01 X48.7672 Y4.7989
G01 X48.7635 Y4.7863
G01 X48.7234 Y4.6741
G01 X48.7182 Y4.6620
G01 X48.6918 Y4.6062
G00 Z2.0000
G00 X43.6118 Y4.6062
G01 F50.00
G01 Z-0.1160
G01 F80.00
G01 X43.7277 Y4.4903
G01 X43.7376 Y4.5064
G01 X43.8252 Y4.7180
G01 X43.8787 Y4.9406
G01 X43.8966 Y5.1688
G01 X43.8787 Y5.3971
G01 X43.8252 Y5.6197
G01 X43.7376 Y5.8313
G01 X43.7277 Y5.8474
G01 X43.6118 Y5.7315
G01 X43.6382 Y5.6757
G01 X43.6434 Y5.6636
G01 X43.6835 Y5.5514
G01 X43.6872 Y5.5388
G01 X43.7150 Y5.4274
G01 X43.7174 Y5.4145
G01 X43.7347 Y5.2966
G01 X43.7410 Y5.1688
G01 X43.7347 Y5.0411
G01 X43.7174 Y4.9232
G01 X43.7150 Y4.9103
G01 X43.6872 Y4.7989
G01 X43.6835 Y4.7863
G01 X43.6434 Y4.6741
G01 X43.6382 Y4.6620
G01 X43.6118 Y4.6062
G00 Z2.0000
G00 X43.4933 Y4.5869
G01 F50.00
G01 Z-0.1160
G01 F80.00
G01 X43.7461 Y4.3341
G01 X43.8237 Y4.4606
G01 X43.8252 Y4.4637
G01 X43.9174 Y4.6862
G01 X43.9185 Y4.6895
G01 X43.9747 Y4.9236
G01 X43.9752 Y4.9271
G01 X43.9941 Y5.1671
G01 X43.9941 Y5.1706
G01 X43.9752 Y5.4106
G01 X43.9747 Y5.4141
G01 X43.9185 Y5.6482
G01 X43.9174 Y5.6515
G01 X43.8252 Y5.8740
G01 X43.8237 Y5.8771
G01 X43.7461 Y6.0035
G01 X43.4933 Y5.7507
G01 X43.5030 Y5.7338
G01 X43.5518 Y5.6304
G01 X43.5905 Y5.5227
G01 X43.5928 Y5.5151
G01 X43.6205 Y5.4041
G01 X43.6373 Y5.2910
G01 X43.6381 Y5.2831
G01 X43.6436 Y5.1688
G01 X43.6381 Y5.0546
G01 X43.6373 Y5.0467
G01 X43.6205 Y4.9335
G01 X43.5928 Y4.8226
G01 X43.5905 Y4.8150
G01 X43.5518 Y4.7073
G01 X43.5030 Y4.6039
G01 X43.4933 Y4.5869
G00 Z2.0000
G00 X41.7589 Y3.8787
G01 F50.00
G01 Z-0.1160
G01 F80.00
G01 X41.7751 Y3.8688
G01 X41.9867 Y3.7812
G01 X42.2093 Y3.7277
G01 X42.4375 Y3.7098
G01 X42.6658 Y3.7277
G01 X42.8884 Y3.7812
G01 X43.0999 Y3.8688
G01 X43.1161 Y3.8787
G01 X43.0002 Y3.9946
G01 X42.9443 Y3.9682
G01 X42.9323 Y3.9630
G01 X42.8201 Y3.9229
G01 X42.8075 Y3.9192
G01 X42.6961 Y3.8914
G01 X42.6832 Y3.8890
G01 X42.5653 Y3.8717
G01 X42.4375 Y3.8654
G01 X42.3098 Y3.8717
G01 X42.1919 Y3.8890
G01 X42.1790 Y3.8914
G01 X42.0676 Y3.9192
G01 X42.0550 Y3.9229
G01 X41.9428 Y3.9630
G01 X41.9307 Y3.9682
G01 X41.8749 Y3.9946
G01 X41.7589 Y3.8787
G00 Z2.0000
G00 X41.6028 Y3.8602
G01 F50.00
G01 Z-0.1160
G01 F80.00
G01 X41.7293 Y3.7827
G01 X41.7324 Y3.7811
G01 X41.9549 Y3.6890
G01 X41.9582 Y3.6879
G01 X42.1923 Y3.6317
G01 X42.1958 Y3.6312
G01 X42.4358 Y3.6123
G01 X42.4393 Y3.6123
G01 X42.6793 Y3.6312
G01 X42.6828 Y3.6317
G01 X42.9169 Y3.6879
G01 X42.9202 Y3.6890
G01 X43.1426 Y3.7811
G01 X43.1458 Y3.7827
G01 X43.2722 Y3.8602
G01 X43.0194 Y4.1130
G01 X43.0025 Y4.1034
G01 X42.8991 Y4.0546
G01 X42.7914 Y4.0159
G01 X42.7838 Y4.0136
G01 X42.6728 Y3.9859
G01 X42.5597 Y3.9690
G01 X42.5518 Y3.9683
G01 X42.4375 Y3.9627
G01 X42.3233 Y3.9683
G01 X42.3154 Y3.9690
G01 X42.2022 Y3.9859
G01 X42.0913 Y4.0136
G01 X42.0836 Y4.0159
G01 X41.9760 Y4.0546
G01 X41.8725 Y4.1034
G01 X41.8556 Y4.1130
G01 X41.6028 Y3.8602
G00 Z2.0000
G00 X40.9785 Y5.1688
G01 F50.00
G01 Z-0.1160
G01 F80.00
G01 X40.9964 Y4.9406
G01 X41.0499 Y4.7180
G01 X41.1375 Y4.5064
G01 X41.1474 Y4.4903
G01 X41.2633 Y4.6062
G01 X41.2369 Y4.6620
G01 X41.2317 Y4.6741
G01 X41.1916 Y4.7863
G01 X41.1879 Y4.7989
G01 X41.1601 Y4.9103
G01 X41.1577 Y4.9232
G01 X41.1404 Y5.0411
G01 X41.1341 Y5.1688
G01 X41.1404 Y5.2966
G01 X41.1577 Y5.4145
G01 X41.1601 Y5.4274
G01 X41.1879 Y5.5388
G01 X41.1916 Y5.5514
G01 X41.2317 Y5.6636
G01 X41.2369 Y5.6757
G01 X41.2633 Y5.7315
G01 X41.1474 Y5.8474
G01 X41.1375 Y5.8313
G01 X41.0499 Y5.6197
G01 X40.9964 Y5.3971
G01 X40.9785 Y5.1688
G00 Z2.0000
G00 X40.8810 Y5.1671
G01 F50.00
G01 Z-0.1160
G01 F80.00
G01 X40.8999 Y4.9271
G01 X40.9004 Y4.9236
G01 X40.9566 Y4.6895
G01 X40.9577 Y4.6862
G01 X41.0498 Y4.4637
G01 X41.0514 Y4.4606
G01 X41.1289 Y4.3341
G01 X41.3817 Y4.5869
G01 X41.3721 Y4.6039
G01 X41.3232 Y4.7073
G01 X41.2846 Y4.8150
G01 X41.2823 Y4.8226
G01 X41.2546 Y4.9335
G01 X41.2377 Y5.0467
G01 X41.2370 Y5.0546
G01 X41.2314 Y5.1688
G01 X41.2370 Y5.2831
G01 X41.2377 Y5.2910
G01 X41.2546 Y5.4041
G01 X41.2823 Y5.5151
G01 X41.2846 Y5.5227
G01 X41.3232 Y5.6304
G01 X41.3721 Y5.7338
G01 X41.3817 Y5.7507
G01 X41.1289 Y6.0035
G01 X41.0514 Y5.8771
G01 X41.0498 Y5.8740
G01 X40.9577 Y5.6515
G01 X40.9566 Y5.6482
G01 X40.9004 Y5.4141
G01 X40.8999 Y5.4106
G01 X40.8810 Y5.1706
G01 X40.8810 Y5.1671
G00 Z2.0000
G00 X41.6028 Y6.4775
G01 F50.00
G01 Z-0.1160
G01 F80.00
G01 X41.8556 Y6.2246
G01 X41.8725 Y6.2343
G01 X41.9760 Y6.2831
G01 X42.0836 Y6.3218
G01 X42.0913 Y6.3241
G01 X42.2022 Y6.3518
G01 X42.3154 Y6.3687
G01 X42.3233 Y6.3694
G01 X42.4375 Y6.3749
G01 X42.5518 Y6.3694
G01 X42.5597 Y6.3687
G01 X42.6728 Y6.3518
G01 X42.7838 Y6.3241
G01 X42.7914 Y6.3218
G01 X42.8991 Y6.2831
G01 X43.0025 Y6.2343
G01 X43.0194 Y6.2246
G01 X43.2722 Y6.4775
G01 X43.1458 Y6.5550
G01 X43.1426 Y6.5565
G01 X42.9202 Y6.6487
G01 X42.9169 Y6.6498
G01 X42.6828 Y6.7060
G01 X42.6793 Y6.7065
G01 X42.4393 Y6.7254
G01 X42.4358 Y6.7254
G01 X42.1958 Y6.7065
G01 X42.1923 Y6.7060
G01 X41.9582 Y6.6498
G01 X41.9549 Y6.6487
G01 X41.7324 Y6.5565
G01 X41.7293 Y6.5550
G01 X41.6028 Y6.4775
G00 Z2.0000
G00 X41.7589 Y6.4590
G01 F50.00
G01 Z-0.1160
G01 F80.00
G01 X41.8749 Y6.3431
G01 X41.9307 Y6.3695
G01 X41.9428 Y6.3747
G01 X42.0550 Y6.4148
G01 X42.0676 Y6.4185
G01 X42.1790 Y6.4463
G01 X42.1919 Y6.4487
G01 X42.3098 Y6.4660
G01 X42.4375 Y6.4723
G01 X42.5653 Y6.4660
G01 X42.6832 Y6.4487
G01 X42.6961 Y6.4463
G01 X42.8075 Y6.4185
G01 X42.8201 Y6.4148
G01 X42.9323 Y6.3747
G01 X42.9443 Y6.3695
G01 X43.0002 Y6.3431
G01 X43.1161 Y6.4590
G01 X43.0999 Y6.4689
G01 X42.8884 Y6.5565
G01 X42.6658 Y6.6100
G01 X42.4375 Y6.6279
G01 X42.2093 Y6.6100
G01 X41.9867 Y6.5565
G01 X41.7751 Y6.4689
G01 X41.7589 Y6.4590
G00 Z2.0000
G00 X41.6028 Y8.9402
G01 F50.00
G01 Z-0.1160
G01 F80.00
G01 X41.7293 Y8.8627
G01 X41.7324 Y8.8611
G01 X41.9549 Y8.7690
G01 X41.9582 Y8.7679
G01 X42.1923 Y8.7117
G01 X42.1958 Y8.7112
G01 X42.4358 Y8.6923
G01 X42.4393 Y8.6923
G01 X42.6793 Y8.7112
