(G-CODE GENERATED BY FLATCAM v8.992 - www.flatcam.org - Version Date: 2020/05/03)

(Name: Phoenix612_Stage_3_PA_Testing_v1-F_Cu_deep)
(Type: G-code from Geometry)
(Units: MM)

(Created on Thursday, 12 January 2023 at 17:49)

(This preprocessor is the default preprocessor used by FlatCAM.)
(It is made to work with MACH3 compatible motion controllers.)

(TOOL DIAMETER: 0.1697 mm)
(Feedrate_XY: 50.0 mm/min)
(Feedrate_Z: 30.0 mm/min)
(Feedrate rapids 1500.0 mm/min)

(Z_Cut: -0.13 mm)
(Z_Move: 2.0 mm)
(Z Start: None mm)
(Z End: 10.0 mm)
(Steps per circle: 64)
(Preprocessor Geometry: default)

(X range:    0.1629 ...   65.1796  mm)
(Y range:    0.1814 ...   93.1381  mm)

(Spindle Speed: None RPM)
G21
G90
G94



G01 F50.00
G00 Z2.0000

M03
G00 X0.1742 Y0.6949
G01 F30.00
G01 Z-0.1300
G01 F50.00
G01 X0.1883 Y0.6306
G01 X0.1947 Y0.6069
G01 X0.2023 Y0.5835
G01 X0.2111 Y0.5605
G01 X0.2210 Y0.5380
G01 X0.2320 Y0.5160
G01 X0.2441 Y0.4946
G01 X0.2505 Y0.4841
G01 X0.2642 Y0.4637
G01 X0.2789 Y0.4439
G01 X0.2945 Y0.4249
G01 X0.3410 Y0.3713
G01 X0.3575 Y0.3532
G01 X0.3748 Y0.3360
G01 X0.3930 Y0.3196
G01 X0.4119 Y0.3042
G01 X0.4316 Y0.2897
G01 X0.4520 Y0.2763
G01 X0.4625 Y0.2699
G01 X0.4838 Y0.2580
G01 X0.5057 Y0.2472
G01 X0.5281 Y0.2374
G01 X0.5510 Y0.2288
G01 X0.5743 Y0.2214
G01 X0.6424 Y0.2014
G01 X0.6537 Y0.1982
G01 X0.6764 Y0.1927
G01 X0.6994 Y0.1882
G01 X0.7226 Y0.1849
G01 X0.7343 Y0.1836
G01 X0.7576 Y0.1820
G01 X0.7810 Y0.1814
G01 X64.5614 Y0.1814
G01 X64.5849 Y0.1820
G01 X64.5965 Y0.1827
G01 X64.6082 Y0.1836
G01 X64.6315 Y0.1864
G01 X64.6430 Y0.1882
G01 X64.6660 Y0.1927
G01 X64.7304 Y0.2068
G01 X64.7541 Y0.2132
G01 X64.7659 Y0.2169
G01 X64.7891 Y0.2251
G01 X64.8118 Y0.2344
G01 X64.8341 Y0.2449
G01 X64.8450 Y0.2505
G01 X64.8558 Y0.2564
G01 X64.8769 Y0.2690
G01 X64.8973 Y0.2827
G01 X64.9073 Y0.2899
G01 X64.9267 Y0.3051
G01 X64.9897 Y0.3595
G01 X64.9989 Y0.3676
G01 X65.0165 Y0.3845
G01 X65.0333 Y0.4023
G01 X65.0414 Y0.4115
G01 X65.0568 Y0.4304
G01 X65.0712 Y0.4501
G01 X65.0781 Y0.4602
G01 X65.0911 Y0.4810
G01 X65.0972 Y0.4916
G01 X65.1085 Y0.5132
G01 X65.1138 Y0.5242
G01 X65.1236 Y0.5466
G01 X65.1322 Y0.5695
G01 X65.1360 Y0.5811
G01 X65.1628 Y0.6722
G01 X65.1657 Y0.6835
G01 X65.1707 Y0.7064
G01 X65.1746 Y0.7295
G01 X65.1773 Y0.7528
G01 X65.1790 Y0.7761
G01 X65.1796 Y0.7995
G01 X65.1796 Y92.5199
G01 X65.1794 Y92.5317
G01 X65.1783 Y92.5551
G01 X65.1761 Y92.5784
G01 X65.1746 Y92.5900
G01 X65.1728 Y92.6016
G01 X65.1683 Y92.6246
G01 X65.1542 Y92.6889
G01 X65.1478 Y92.7126
G01 X65.1402 Y92.7360
G01 X65.1359 Y92.7476
G01 X65.1314 Y92.7590
G01 X65.1215 Y92.7815
G01 X65.1105 Y92.8035
G01 X65.1046 Y92.8143
G01 X65.0920 Y92.8354
G01 X65.0852 Y92.8457
G01 X65.0711 Y92.8658
G01 X65.0559 Y92.8852
G01 X65.0015 Y92.9482
G01 X64.9850 Y92.9663
G01 X64.9677 Y92.9835
G01 X64.9587 Y92.9918
G01 X64.9401 Y93.0077
G01 X64.9208 Y93.0226
G01 X64.9109 Y93.0298
G01 X64.9007 Y93.0366
G01 X64.8800 Y93.0496
G01 X64.8587 Y93.0615
G01 X64.8478 Y93.0670
G01 X64.8256 Y93.0773
G01 X64.8144 Y93.0821
G01 X64.7915 Y93.0907
G01 X64.7799 Y93.0946
G01 X64.6888 Y93.1213
G01 X64.6660 Y93.1268
G01 X64.6546 Y93.1292
G01 X64.6315 Y93.1331
G01 X64.6082 Y93.1358
G01 X64.5849 Y93.1375
G01 X64.5614 Y93.1381
G01 X0.7810 Y93.1381
G01 X0.7693 Y93.1379
G01 X0.7459 Y93.1368
G01 X0.7226 Y93.1346
G01 X0.7110 Y93.1331
G01 X0.6994 Y93.1313
G01 X0.6764 Y93.1268
G01 X0.6121 Y93.1127
G01 X0.5884 Y93.1063
G01 X0.5650 Y93.0987
G01 X0.5534 Y93.0944
G01 X0.5420 Y93.0899
G01 X0.5195 Y93.0800
G01 X0.4975 Y93.0690
G01 X0.4867 Y93.0631
G01 X0.4656 Y93.0505
G01 X0.4553 Y93.0438
G01 X0.4352 Y93.0296
G01 X0.4158 Y93.0144
G01 X0.3528 Y92.9600
G01 X0.3347 Y92.9435
G01 X0.3260 Y92.9350
G01 X0.3092 Y92.9172
G01 X0.2933 Y92.8986
G01 X0.2783 Y92.8793
G01 X0.2712 Y92.8694
G01 X0.2578 Y92.8490
G01 X0.2514 Y92.8385
G01 X0.2395 Y92.8172
G01 X0.2339 Y92.8063
G01 X0.2287 Y92.7953
G01 X0.2189 Y92.7729
G01 X0.2145 Y92.7615
G01 X0.2064 Y92.7384
G01 X0.1797 Y92.6473
G01 X0.1768 Y92.6360
G01 X0.1718 Y92.6131
G01 X0.1679 Y92.5900
G01 X0.1651 Y92.5667
G01 X0.1635 Y92.5434
G01 X0.1629 Y92.5199
G01 X0.1629 Y0.7995
G01 X0.1631 Y0.7878
G01 X0.1642 Y0.7644
G01 X0.1664 Y0.7411
G01 X0.1697 Y0.7179
G01 X0.1742 Y0.6949
G00 Z2.0000
G00 X0.2737 Y0.7166
G01 F30.00
G01 Z-0.1300
G01 F50.00
G01 X0.2872 Y0.6547
G01 X0.2952 Y0.6266
G01 X0.3017 Y0.6082
G01 X0.3091 Y0.5902
G01 X0.3174 Y0.5725
G01 X0.3266 Y0.5553
G01 X0.3366 Y0.5385
G01 X0.3474 Y0.5223
G01 X0.3652 Y0.4991
G01 X0.4244 Y0.4307
G01 X0.4378 Y0.4167
G01 X0.4592 Y0.3970
G01 X0.4819 Y0.3789
G01 X0.4978 Y0.3678
G01 X0.5143 Y0.3576
G01 X0.5312 Y0.3481
G01 X0.5486 Y0.3395
G01 X0.5664 Y0.3318
G01 X0.5845 Y0.3250
G01 X0.6030 Y0.3190
G01 X0.6711 Y0.2990
G01 X0.6981 Y0.2922
G01 X0.7255 Y0.2872
G01 X0.7439 Y0.2850
G01 X0.7625 Y0.2837
G01 X0.7810 Y0.2832
G01 X64.5614 Y0.2832
G01 X64.5893 Y0.2842
G01 X64.6170 Y0.2872
G01 X64.6444 Y0.2922
G01 X64.7063 Y0.3057
G01 X64.7344 Y0.3137
G01 X64.7528 Y0.3202
G01 X64.7708 Y0.3276
G01 X64.7972 Y0.3404
G01 X64.8141 Y0.3500
G01 X64.8306 Y0.3604
G01 X64.8543 Y0.3776
G01 X64.8694 Y0.3900
G01 X64.9230 Y0.4364
G01 X64.9374 Y0.4495
G01 X64.9576 Y0.4704
G01 X64.9702 Y0.4851
G01 X64.9877 Y0.5083
G01 X65.0034 Y0.5328
G01 X65.0173 Y0.5583
G01 X65.0292 Y0.5849
G01 X65.0391 Y0.6122
G01 X65.0619 Y0.6896
G01 X65.0688 Y0.7166
G01 X65.0723 Y0.7348
G01 X65.0750 Y0.7532
G01 X65.0773 Y0.7810
G01 X65.0778 Y0.7995
G01 X65.0778 Y92.5199
G01 X65.0768 Y92.5478
G01 X65.0738 Y92.5755
G01 X65.0688 Y92.6029
G01 X65.0553 Y92.6648
G01 X65.0502 Y92.6836
G01 X65.0408 Y92.7113
G01 X65.0293 Y92.7382
G01 X65.0206 Y92.7557
G01 X65.0110 Y92.7726
G01 X65.0006 Y92.7891
G01 X64.9834 Y92.8128
G01 X64.9710 Y92.8279
G01 X64.9245 Y92.8815
G01 X64.9047 Y92.9028
G01 X64.8906 Y92.9161
G01 X64.8683 Y92.9347
G01 X64.8527 Y92.9462
G01 X64.8282 Y92.9619
G01 X64.8026 Y92.9758
G01 X64.7761 Y92.9877
G01 X64.7488 Y92.9976
G01 X64.6714 Y93.0204
G01 X64.6444 Y93.0273
G01 X64.6262 Y93.0309
G01 X64.6078 Y93.0335
G01 X64.5800 Y93.0358
G01 X64.5614 Y93.0363
G01 X0.7810 Y93.0363
G01 X0.7532 Y93.0353
G01 X0.7255 Y93.0323
G01 X0.6981 Y93.0273
G01 X0.6362 Y93.0138
G01 X0.6081 Y93.0058
G01 X0.5897 Y92.9993
G01 X0.5628 Y92.9878
G01 X0.5453 Y92.9791
G01 X0.5200 Y92.9644
G01 X0.5038 Y92.9536
G01 X0.4882 Y92.9419
G01 X0.4731 Y92.9295
G01 X0.4194 Y92.8830
G01 X0.4051 Y92.8700
G01 X0.3849 Y92.8491
G01 X0.3663 Y92.8268
G01 X0.3548 Y92.8112
G01 X0.3391 Y92.7867
G01 X0.3252 Y92.7611
G01 X0.3133 Y92.7346
G01 X0.3034 Y92.7073
G01 X0.2805 Y92.6299
G01 X0.2737 Y92.6029
G01 X0.2687 Y92.5755
G01 X0.2665 Y92.5570
G01 X0.2652 Y92.5385
G01 X0.2647 Y92.5199
G01 X0.2647 Y0.7995
G01 X0.2657 Y0.7717
G01 X0.2675 Y0.7532
G01 X0.2701 Y0.7348
G01 X0.2737 Y0.7166
G00 Z2.0000
G00 X0.3731 Y0.7382
G01 F30.00
G01 Z-0.1300
G01 F50.00
G01 X0.3861 Y0.6789
G01 X0.3921 Y0.6581
G01 X0.3969 Y0.6445
G01 X0.4023 Y0.6311
G01 X0.4085 Y0.6181
G01 X0.4152 Y0.6053
G01 X0.4266 Y0.5869
G01 X0.4349 Y0.5751
G01 X0.4437 Y0.5638
G01 X0.4997 Y0.4993
G01 X0.5147 Y0.4839
G01 X0.5254 Y0.4744
G01 X0.5365 Y0.4653
G01 X0.5480 Y0.4568
G01 X0.5661 Y0.4452
G01 X0.5786 Y0.4382
G01 X0.5914 Y0.4319
G01 X0.6046 Y0.4262
G01 X0.6180 Y0.4211
G01 X0.6316 Y0.4167
G01 X0.6998 Y0.3967
G01 X0.7197 Y0.3916
G01 X0.7332 Y0.3891
G01 X0.7468 Y0.3871
G01 X0.7605 Y0.3858
G01 X0.7810 Y0.3851
G01 X64.5614 Y0.3851
G01 X64.5752 Y0.3854
G01 X64.5889 Y0.3864
G01 X64.6093 Y0.3891
G01 X64.6228 Y0.3916
G01 X64.6821 Y0.4047
G01 X64.6960 Y0.4084
G01 X64.7165 Y0.4154
G01 X64.7364 Y0.4238
G01 X64.7493 Y0.4303
G01 X64.7680 Y0.4411
G01 X64.7800 Y0.4491
G01 X64.7916 Y0.4577
G01 X64.8027 Y0.4669
G01 X64.8564 Y0.5134
G01 X64.8721 Y0.5281
G01 X64.8819 Y0.5385
G01 X64.8957 Y0.5550
G01 X64.9042 Y0.5665
G01 X64.9158 Y0.5846
G01 X64.9260 Y0.6035
G01 X64.9348 Y0.6231
G01 X64.9421 Y0.6433
G01 X64.9642 Y0.7183
G01 X64.9693 Y0.7382
G01 X64.9719 Y0.7517
G01 X64.9739 Y0.7653
G01 X64.9752 Y0.7790
G01 X64.9759 Y0.7995
G01 X64.9759 Y92.5199
G01 X64.9752 Y92.5405
G01 X64.9739 Y92.5542
G01 X64.9719 Y92.5678
G01 X64.9693 Y92.5813
G01 X64.9563 Y92.6406
G01 X64.9526 Y92.6546
G01 X64.9456 Y92.6750
G01 X64.9372 Y92.6949
G01 X64.9307 Y92.7078
G01 X64.9236 Y92.7204
G01 X64.9159 Y92.7326
G01 X64.9032 Y92.7501
G01 X64.8941 Y92.7612
G01 X64.8476 Y92.8149
G01 X64.8329 Y92.8306
G01 X64.8225 Y92.8404
G01 X64.8116 Y92.8497
G01 X64.7945 Y92.8627
G01 X64.7764 Y92.8743
G01 X64.7575 Y92.8845
G01 X64.7379 Y92.8933
G01 X64.7177 Y92.9006
G01 X64.6427 Y92.9228
G01 X64.6228 Y92.9278
G01 X64.6093 Y92.9304
G01 X64.5957 Y92.9324
G01 X64.5820 Y92.9337
G01 X64.5614 Y92.9344
G01 X0.7810 Y92.9344
G01 X0.7605 Y92.9337
G01 X0.7468 Y92.9324
G01 X0.7332 Y92.9304
G01 X0.7197 Y92.9278
G01 X0.6604 Y92.9148
G01 X0.6464 Y92.9111
G01 X0.6260 Y92.9041
G01 X0.6126 Y92.8987
G01 X0.5932 Y92.8892
G01 X0.5745 Y92.8784
G01 X0.5625 Y92.8704
G01 X0.5509 Y92.8618
G01 X0.5398 Y92.8526
G01 X0.4861 Y92.8061
G01 X0.4704 Y92.7914
G01 X0.4606 Y92.7810
G01 X0.4468 Y92.7645
G01 X0.4383 Y92.7530
G01 X0.4267 Y92.7349
G01 X0.4165 Y92.7160
G01 X0.4077 Y92.6964
G01 X0.4003 Y92.6762
G01 X0.3782 Y92.6012
G01 X0.3731 Y92.5813
G01 X0.3705 Y92.5678
G01 X0.3686 Y92.5542
G01 X0.3669 Y92.5337
G01 X0.3666 Y92.5199
G01 X0.3666 Y0.7995
G01 X0.3673 Y0.7790
G01 X0.3686 Y0.7653
G01 X0.3705 Y0.7517
G01 X0.3731 Y0.7382
G00 Z2.0000
G00 X0.4726 Y0.7599
G01 F30.00
G01 Z-0.1300
G01 F50.00
G01 X0.4840 Y0.7075
G01 X0.4875 Y0.6940
G01 X0.4937 Y0.6764
G01 X0.4995 Y0.6636
G01 X0.5039 Y0.6554
G01 X0.5139 Y0.6397
G01 X0.5223 Y0.6285
G01 X0.5749 Y0.5678
G01 X0.5881 Y0.5548
G01 X0.6024 Y0.5431
G01 X0.6179 Y0.5329
G01 X0.6343 Y0.5242
G01 X0.6515 Y0.5173
G01 X0.7370 Y0.4921
G01 X0.7457 Y0.4903
G01 X0.7589 Y0.4882
G01 X0.7722 Y0.4871
G01 X0.7810 Y0.4869
G01 X64.5614 Y0.4869
G01 X64.5792 Y0.4877
G01 X64.5924 Y0.4895
G01 X64.6580 Y0.5036
G01 X64.6715 Y0.5074
G01 X64.6803 Y0.5105
G01 X64.6889 Y0.5140
G01 X64.7015 Y0.5201
G01 X64.7175 Y0.5297
G01 X64.7288 Y0.5379
G01 X64.7897 Y0.5903
G01 X64.7998 Y0.5998
G01 X64.8062 Y0.6066
G01 X64.8122 Y0.6136
G01 X64.8206 Y0.6247
G01 X64.8304 Y0.6404
G01 X64.8368 Y0.6528
G01 X64.8421 Y0.6656
G01 X64.8465 Y0.6788
G01 X64.8665 Y0.7470
G01 X64.8698 Y0.7599
G01 X64.8728 Y0.7774
G01 X64.8739 Y0.7907
G01 X64.8741 Y0.7995
G01 X64.8741 Y92.5199
G01 X64.8736 Y92.5333
G01 X64.8715 Y92.5509
G01 X64.8574 Y92.6165
G01 X64.8536 Y92.6300
G01 X64.8505 Y92.6388
G01 X64.8450 Y92.6516
G01 X64.8408 Y92.6600
G01 X64.8338 Y92.6721
G01 X64.8231 Y92.6873
G01 X64.7706 Y92.7482
G01 X64.7644 Y92.7550
G01 X64.7544 Y92.7647
G01 X64.7474 Y92.7707
G01 X64.7363 Y92.7791
G01 X64.7246 Y92.7866
G01 X64.7123 Y92.7933
G01 X64.6997 Y92.7990
G01 X64.6822 Y92.8051
G01 X64.6140 Y92.8251
G01 X64.6011 Y92.8284
G01 X64.5836 Y92.8313
G01 X64.5703 Y92.8324
G01 X64.5614 Y92.8326
G01 X0.7810 Y92.8326
G01 X0.7677 Y92.8321
G01 X0.7501 Y92.8300
G01 X0.6845 Y92.8159
G01 X0.6710 Y92.8121
G01 X0.6622 Y92.8090
G01 X0.6493 Y92.8035
G01 X0.6410 Y92.7993
G01 X0.6250 Y92.7898
G01 X0.6137 Y92.7816
G01 X0.5528 Y92.7291
G01 X0.5459 Y92.7229
G01 X0.5363 Y92.7129
G01 X0.5302 Y92.7059
G01 X0.5219 Y92.6948
G01 X0.5144 Y92.6831
G01 X0.5057 Y92.6667
G01 X0.5003 Y92.6538
G01 X0.4959 Y92.6407
G01 X0.4759 Y92.5725
G01 X0.4726 Y92.5596
G01 X0.4703 Y92.5465
G01 X0.4692 Y92.5377
G01 X0.4684 Y92.5199
G01 X0.4684 Y0.7995
G01 X0.4686 Y0.7907
G01 X0.4697 Y0.7774
G01 X0.4726 Y0.7599
G00 Z2.0000
G00 X0.5721 Y0.7815
G01 F30.00
G01 Z-0.1300
G01 F50.00
G01 X0.5845 Y0.7250
G01 X0.5879 Y0.7150
G01 X0.5925 Y0.7055
G01 X0.5971 Y0.6983
G01 X0.6009 Y0.6933
G01 X0.6488 Y0.6380
G01 X0.6546 Y0.6319
G01 X0.6627 Y0.6252
G01 X0.6697 Y0.6205
G01 X0.6772 Y0.6166
G01 X0.6850 Y0.6134
G01 X0.7591 Y0.5916
G01 X0.7690 Y0.5896
G01 X0.7810 Y0.5887
G01 X64.5614 Y0.5887
G01 X64.5695 Y0.5891
G01 X64.5775 Y0.5902
G01 X64.6339 Y0.6025
G01 X64.6440 Y0.6056
G01 X64.6536 Y0.6100
G01 X64.6609 Y0.6144
G01 X64.6677 Y0.6194
G01 X64.7230 Y0.6673
G01 X64.7305 Y0.6747
G01 X64.7371 Y0.6829
G01 X64.7405 Y0.6882
G01 X64.7444 Y0.6957
G01 X64.7489 Y0.7075
G01 X64.7699 Y0.7795
G01 X64.7717 Y0.7895
G01 X64.7723 Y0.7995
G01 X64.7723 Y92.5199
G01 X64.7719 Y92.5280
G01 X64.7708 Y92.5360
G01 X64.7585 Y92.5924
G01 X64.7553 Y92.6025
G01 X64.7510 Y92.6122
G01 X64.7466 Y92.6194
G01 X64.7415 Y92.6262
G01 X64.6937 Y92.6815
G01 X64.6863 Y92.6890
G01 X64.6781 Y92.6956
G01 X64.6727 Y92.6990
G01 X64.6653 Y92.7029
G01 X64.6535 Y92.7074
G01 X64.5814 Y92.7284
G01 X64.5715 Y92.7302
G01 X64.5614 Y92.7308
G01 X0.7810 Y92.7308
G01 X0.7730 Y92.7304
G01 X0.7650 Y92.7293
G01 X0.7086 Y92.7170
G01 X0.6985 Y92.7138
G01 X0.6888 Y92.7095
G01 X0.6816 Y92.7051
G01 X0.6748 Y92.7001
G01 X0.6195 Y92.6522
G01 X0.6120 Y92.6448
G01 X0.6054 Y92.6366
G01 X0.5990 Y92.6257
G01 X0.5964 Y92.6199
G01 X0.5936 Y92.6120
G01 X0.5726 Y92.5400
G01 X0.5708 Y92.5300
G01 X0.5702 Y92.5199
G01 X0.5702 Y0.7995
G01 X0.5708 Y0.7895
G01 X0.5721 Y0.7815
G00 Z2.0000
G00 X10.4050 Y6.1508
G01 F30.00
G01 Z-0.1300
G01 F50.00
G01 X10.4050 Y5.5973
G01 X10.4098 Y5.5517
G01 X10.4110 Y5.5468
G01 X10.4521 Y5.4370
G01 X10.4549 Y5.4320
G01 X10.5241 Y5.3396
G01 X10.5281 Y5.3356
G01 X10.6205 Y5.2664
G01 X10.6255 Y5.2637
G01 X10.7353 Y5.2225
G01 X10.7402 Y5.2213
G01 X10.7858 Y5.2165
G01 X11.3393 Y5.2165
G01 X11.3393 Y5.5548
G01 X10.8261 Y5.5548
G01 X10.8136 Y5.5560
G01 X10.8035 Y5.5585
G01 X10.7919 Y5.5629
G01 X10.7827 Y5.5680
G01 X10.7743 Y5.5741
G01 X10.7667 Y5.5811
G01 X10.7600 Y5.5891
G01 X10.7554 Y5.5960
G01 X10.7514 Y5.6034
G01 X10.7476 Y5.6130
G01 X10.7449 Y5.6231
G01 X10.7435 Y5.6334
G01 X10.7433 Y6.1508
G01 X10.4050 Y6.1508
G00 Z2.0000
G00 X10.5068 Y6.0490
G01 F30.00
G01 Z-0.1300
G01 F50.00
G01 X10.5068 Y5.6017
G01 X10.5099 Y5.5730
G01 X10.5434 Y5.4837
G01 X10.5986 Y5.4101
G01 X10.6722 Y5.3549
G01 X10.7615 Y5.3214
G01 X10.7902 Y5.3183
G01 X11.2375 Y5.3183
G01 X11.2375 Y5.4530
G01 X10.8281 Y5.4530
G01 X10.8098 Y5.4539
G01 X10.7917 Y5.4566
G01 X10.7784 Y5.4597
G01 X10.7653 Y5.4639
G01 X10.7483 Y5.4709
G01 X10.7361 Y5.4772
G01 X10.7207 Y5.4870
G01 X10.7062 Y5.4983
G01 X10.6961 Y5.5077
G01 X10.6838 Y5.5212
G01 X10.6755 Y5.5322
G01 X10.6657 Y5.5476
G01 X10.6594 Y5.5598
G01 X10.6540 Y5.5725
G01 X10.6482 Y5.5899
G01 X10.6451 Y5.6032
G01 X10.6424 Y5.6214
G01 X10.6415 Y5.6396
G01 X10.6415 Y6.0490
G01 X10.5068 Y6.0490
G00 Z2.0000
G00 X10.4050 Y6.8285
G01 F30.00
G01 Z-0.1300
G01 F50.00
G01 X10.7433 Y6.8285
G01 X10.7433 Y7.3417
G01 X10.7445 Y7.3542
G01 X10.7469 Y7.3643
G01 X10.7514 Y7.3759
G01 X10.7565 Y7.3850
G01 X10.7626 Y7.3935
G01 X10.7696 Y7.4011
G01 X10.7776 Y7.4078
G01 X10.7845 Y7.4124
G01 X10.7938 Y7.4172
G01 X10.8015 Y7.4202
G01 X10.8116 Y7.4229
G01 X10.8219 Y7.4243
G01 X11.3393 Y7.4245
G01 X11.3393 Y7.7628
G01 X10.7858 Y7.7628
G01 X10.7402 Y7.7580
G01 X10.7353 Y7.7568
G01 X10.6255 Y7.7156
G01 X10.6205 Y7.7129
G01 X10.5281 Y7.6437
G01 X10.5241 Y7.6396
G01 X10.4549 Y7.5472
G01 X10.4521 Y7.5423
G01 X10.4110 Y7.4325
G01 X10.4098 Y7.4275
G01 X10.4050 Y7.3820
G01 X10.4050 Y6.8285
G00 Z2.0000
G00 X10.5068 Y6.9303
G01 F30.00
G01 Z-0.1300
G01 F50.00
G01 X10.6415 Y6.9303
G01 X10.6415 Y7.3396
G01 X10.6424 Y7.3579
G01 X10.6442 Y7.3716
G01 X10.6482 Y7.3894
G01 X10.6524 Y7.4025
G01 X10.6594 Y7.4195
G01 X10.6680 Y7.4356
G01 X10.6755 Y7.4471
G01 X10.6868 Y7.4616
G01 X10.6961 Y7.4716
G01 X10.7097 Y7.4839
G01 X10.7207 Y7.4923
G01 X10.7322 Y7.4998
G01 X10.7483 Y7.5084
G01 X10.7610 Y7.5138
G01 X10.7784 Y7.5196
G01 X10.7962 Y7.5236
G01 X10.8098 Y7.5254
G01 X10.8281 Y7.5263
G01 X11.2375 Y7.5263
G01 X11.2375 Y7.6610
G01 X10.7902 Y7.6610
G01 X10.7615 Y7.6579
G01 X10.6722 Y7.6244
G01 X10.5986 Y7.5692
G01 X10.5434 Y7.4956
G01 X10.5099 Y7.4063
G01 X10.5068 Y7.3776
G01 X10.5068 Y6.9303
G00 Z2.0000
G00 X13.0883 Y5.9800
G01 F30.00
G01 Z-0.1300
G01 F50.00
G01 X13.0760 Y6.0062
G01 X13.0687 Y6.0239
G01 X13.0341 Y6.1205
G01 X13.0261 Y6.1481
G01 X13.0036 Y6.2383
G01 X12.9984 Y6.2665
G01 X12.9861 Y6.3491
G01 X12.9838 Y6.3681
G01 X12.9824 Y6.3872
G01 X12.9783 Y6.4705
G01 X12.9778 Y6.4896
G01 X12.9783 Y6.5088
G01 X12.9824 Y6.5921
G01 X12.9838 Y6.6112
G01 X12.9861 Y6.6302
G01 X12.9984 Y6.7127
G01 X13.0036 Y6.7410
G01 X13.0261 Y6.8312
G01 X13.0341 Y6.8588
G01 X13.0687 Y6.9554
G01 X13.0760 Y6.9731
G01 X13.0895 Y7.0019
G01 X13.0613 Y7.0038
G01 X13.0420 Y7.0062
G01 X13.0229 Y7.0095
G01 X13.0040 Y7.0138
G01 X12.9854 Y7.0190
G01 X12.9579 Y7.0285
G01 X12.9400 Y7.0360
G01 X12.9185 Y7.0465
G01 X12.9185 Y5.9292
G01 X12.9958 Y5.9581
G01 X13.0234 Y5.9672
G01 X13.0516 Y5.9742
G01 X13.0707 Y5.9777
G01 X13.0883 Y5.9800
G00 Z2.0000
G00 X13.2719 Y5.8565
G01 F30.00
G01 Z-0.1300
G01 F50.00
G01 X13.2639 Y5.8691
G01 X13.2211 Y5.9406
G01 X13.2141 Y5.9530
G01 X13.2077 Y5.9656
G01 X13.1721 Y6.0410
G01 X13.1663 Y6.0540
G01 X13.1612 Y6.0672
G01 X13.1331 Y6.1457
G01 X13.1287 Y6.1592
G01 X13.1249 Y6.1728
G01 X13.1046 Y6.2537
G01 X13.1015 Y6.2675
G01 X13.0991 Y6.2815
G01 X13.0869 Y6.3640
G01 X13.0851 Y6.3781
G01 X13.0841 Y6.3922
G01 X13.0800 Y6.4755
G01 X13.0797 Y6.4896
G01 X13.0800 Y6.5038
G01 X13.0841 Y6.5871
G01 X13.0851 Y6.6012
G01 X13.0869 Y6.6153
G01 X13.0991 Y6.6978
G01 X13.1015 Y6.7118
G01 X13.1046 Y6.7256
G01 X13.1249 Y6.8065
G01 X13.1287 Y6.8201
G01 X13.1331 Y6.8336
G01 X13.1612 Y6.9121
G01 X13.1663 Y6.9253
G01 X13.1721 Y6.9383
G01 X13.2077 Y7.0137
G01 X13.2141 Y7.0263
G01 X13.2211 Y7.0386
G01 X13.2684 Y7.1174
G01 X13.2555 Y7.1131
G01 X13.2417 Y7.1092
G01 X13.2207 Y7.1047
G01 X13.1994 Y7.1017
G01 X13.1851 Y7.1006
G01 X13.1708 Y7.1003
G01 X13.1565 Y7.1006
G01 X13.0856 Y7.1041
G01 X13.0713 Y7.1051
G01 X13.0570 Y7.1069
G01 X13.0429 Y7.1093
G01 X13.0290 Y7.1125
G01 X13.0152 Y7.1164
G01 X12.9949 Y7.1234
G01 X12.9751 Y7.1319
G01 X12.9561 Y7.1419
G01 X12.9379 Y7.1533
G01 X12.8742 Y7.1986
G01 X12.8575 Y7.2115
G01 X12.8469 Y7.2208
G01 X12.8368 Y7.2305
G01 X12.8271 Y7.2408
G01 X12.8166 Y7.2532
G01 X12.8166 Y5.7171
G01 X12.8387 Y5.7464
G01 X12.8479 Y5.7574
G01 X12.8576 Y5.7680
G01 X12.8678 Y5.7780
G01 X12.8840 Y5.7921
G01 X12.8954 Y5.8008
G01 X12.9072 Y5.8090
G01 X12.9256 Y5.8200
G01 X12.9383 Y5.8266
G01 X12.9513 Y5.8326
G01 X12.9646 Y5.8379
G01 X13.0312 Y5.8626
G01 X13.0448 Y5.8673
G01 X13.0585 Y5.8712
G01 X13.0725 Y5.8745
G01 X13.0937 Y5.8781
G01 X13.1150 Y5.8802
G01 X13.1294 Y5.8806
G01 X13.1437 Y5.8804
G01 X13.1651 Y5.8787
G01 X13.1863 Y5.8754
G01 X13.2719 Y5.8565
G00 Z2.0000
G00 X15.2765 Y6.9081
G01 F30.00
G01 Z-0.1300
G01 F50.00
G01 X15.3032 Y6.8336
G01 X15.3076 Y6.8201
G01 X15.3114 Y6.8065
G01 X15.3317 Y6.7256
G01 X15.3348 Y6.7118
G01 X15.3372 Y6.6978
G01 X15.3494 Y6.6153
G01 X15.3511 Y6.6012
G01 X15.3522 Y6.5871
G01 X15.3563 Y6.5038
G01 X15.3566 Y6.4896
G01 X15.3563 Y6.4755
G01 X15.3522 Y6.3922
G01 X15.3511 Y6.3781
G01 X15.3494 Y6.3640
G01 X15.3372 Y6.2815
G01 X15.3348 Y6.2675
G01 X15.3317 Y6.2537
G01 X15.3114 Y6.1728
G01 X15.3076 Y6.1592
G01 X15.3032 Y6.1457
G01 X15.2765 Y6.0713
G01 X15.2850 Y6.0766
G01 X15.2975 Y6.0838
G01 X15.3168 Y6.0934
G01 X15.3301 Y6.0990
G01 X15.3436 Y6.1039
G01 X15.3643 Y6.1100
G01 X15.3855 Y6.1145
G01 X15.4625 Y6.1278
G01 X15.4838 Y6.1302
G01 X15.5053 Y6.1310
G01 X15.5268 Y6.1302
G01 X15.5481 Y6.1278
G01 X15.5692 Y6.1238
G01 X15.5900 Y6.1182
G01 X15.6036 Y6.1136
G01 X15.6169 Y6.1084
G01 X15.6824 Y6.0809
G01 X15.6991 Y6.0732
G01 X15.6731 Y6.1457
G01 X15.6687 Y6.1592
G01 X15.6649 Y6.1728
G01 X15.6446 Y6.2537
G01 X15.6415 Y6.2675
G01 X15.6391 Y6.2815
G01 X15.6269 Y6.3640
G01 X15.6251 Y6.3781
G01 X15.6241 Y6.3922
G01 X15.6200 Y6.4755
G01 X15.6197 Y6.4896
G01 X15.6200 Y6.5038
G01 X15.6241 Y6.5871
G01 X15.6251 Y6.6012
G01 X15.6269 Y6.6153
G01 X15.6391 Y6.6978
G01 X15.6415 Y6.7118
G01 X15.6446 Y6.7256
G01 X15.6649 Y6.8065
G01 X15.6687 Y6.8201
G01 X15.6731 Y6.8336
G01 X15.6991 Y6.9061
G01 X15.6905 Y6.9005
G01 X15.6782 Y6.8932
G01 X15.6656 Y6.8865
G01 X15.6526 Y6.8804
G01 X15.6326 Y6.8725
G01 X15.6190 Y6.8681
G01 X15.6052 Y6.8643
G01 X15.5841 Y6.8600
G01 X15.5699 Y6.8580
G01 X15.4923 Y6.8491
G01 X15.4780 Y6.8482
G01 X15.4637 Y6.8479
G01 X15.4422 Y6.8489
G01 X15.4209 Y6.8515
G01 X15.3998 Y6.8557
G01 X15.3791 Y6.8614
G01 X15.3655 Y6.8660
G01 X15.3457 Y6.8743
G01 X15.2765 Y6.9081
G00 Z2.0000
G00 X15.4310 Y6.7477
G01 F30.00
G01 Z-0.1300
G01 F50.00
G01 X15.4346 Y6.7316
G01 X15.4379 Y6.7127
G01 X15.4501 Y6.6302
G01 X15.4525 Y6.6112
G01 X15.4539 Y6.5921
G01 X15.4580 Y6.5088
G01 X15.4585 Y6.4896
G01 X15.4580 Y6.4705
G01 X15.4539 Y6.3872
G01 X15.4525 Y6.3681
G01 X15.4501 Y6.3491
G01 X15.4379 Y6.2665
G01 X15.4346 Y6.2477
G01 X15.4296 Y6.2255
G01 X15.4570 Y6.2298
G01 X15.4860 Y6.2323
G01 X15.5151 Y6.2327
G01 X15.5344 Y6.2317
G01 X15.5455 Y6.2307
G01 X15.5417 Y6.2477
G01 X15.5384 Y6.2665
G01 X15.5261 Y6.3491
G01 X15.5238 Y6.3681
G01 X15.5224 Y6.3872
G01 X15.5183 Y6.4705
G01 X15.5178 Y6.4896
G01 X15.5183 Y6.5088
G01 X15.5224 Y6.5921
G01 X15.5238 Y6.6112
G01 X15.5261 Y6.6302
G01 X15.5384 Y6.7127
G01 X15.5417 Y6.7316
G01 X15.5465 Y6.7528
G01 X15.5015 Y6.7477
G01 X15.4821 Y6.7464
G01 X15.4531 Y6.7463
G01 X15.4310 Y6.7477
G00 Z2.0000
G00 X17.0970 Y7.7204
G01 F30.00
G01 Z-0.1300
G01 F50.00
G01 X17.0970 Y7.3602
G01 X17.1178 Y7.3525
G01 X17.1970 Y7.3151
G01 X17.2758 Y7.2681
G01 X17.3512 Y7.2123
G01 X17.4192 Y7.1507
G01 X17.4808 Y7.0827
G01 X17.5366 Y7.0073
G01 X17.5836 Y6.9285
G01 X17.6210 Y6.8493
G01 X17.6287 Y6.8285
G01 X17.9858 Y6.8285
G01 X17.9679 Y6.8997
G01 X17.9668 Y6.9029
G01 X17.8847 Y7.0918
G01 X17.8831 Y7.0947
G01 X17.7712 Y7.2677
G01 X17.7692 Y7.2704
G01 X17.6305 Y7.4227
G01 X17.6281 Y7.4250
G01 X17.4664 Y7.5527
G01 X17.4636 Y7.5545
G01 X17.2833 Y7.6541
G01 X17.2802 Y7.6555
G01 X17.0970 Y7.7204
G00 Z2.0000
G00 X17.1988 Y7.5763
G01 F30.00
G01 Z-0.1300
G01 F50.00
G01 X17.1988 Y7.4269
G01 X17.2386 Y7.4080
G01 X17.2508 Y7.4017
G01 X17.3263 Y7.3565
G01 X17.3379 Y7.3490
G01 X17.4158 Y7.2910
G01 X17.4912 Y7.2227
G01 X17.5595 Y7.1473
G01 X17.6175 Y7.0694
G01 X17.6250 Y7.0578
G01 X17.6702 Y6.9823
G01 X17.6765 Y6.9701
G01 X17.6954 Y6.9303
G01 X17.8439 Y6.9303
G01 X17.7940 Y7.0451
G01 X17.6894 Y7.2068
G01 X17.5597 Y7.3492
G01 X17.4086 Y7.4686
G01 X17.2399 Y7.5617
G01 X17.1988 Y7.5763
G00 Z2.0000
G00 X17.1988 Y5.4011
G01 F30.00
G01 Z-0.1300
G01 F50.00
G01 X17.3600 Y5.4801
G01 X17.5168 Y5.5919
G01 X17.6532 Y5.7279
G01 X17.7656 Y5.8843
G01 X17.8470 Y6.0490
G01 X17.6954 Y6.0490
G01 X17.6765 Y6.0091
G01 X17.6702 Y5.9970
G01 X17.6250 Y5.9214
G01 X17.6175 Y5.9099
G01 X17.5595 Y5.8320
G01 X17.4912 Y5.7566
G01 X17.4158 Y5.6883
G01 X17.3379 Y5.6303
G01 X17.3263 Y5.6228
G01 X17.2508 Y5.5776
G01 X17.2386 Y5.5713
G01 X17.1988 Y5.5524
G01 X17.1988 Y5.4011
G00 Z2.0000
G00 X17.0970 Y5.2620
G01 F30.00
G01 Z-0.1300
G01 F50.00
G01 X17.2227 Y5.2997
G01 X17.2258 Y5.3009
G01 X17.4108 Y5.3916
G01 X17.4136 Y5.3933
G01 X17.5814 Y5.5129
G01 X17.5839 Y5.5151
G01 X17.7298 Y5.6605
G01 X17.7320 Y5.6630
G01 X17.8522 Y5.8303
G01 X17.8539 Y5.8332
G01 X17.9452 Y6.0179
G01 X17.9464 Y6.0210
G01 X17.9859 Y6.1508
G01 X17.6287 Y6.1508
G01 X17.6210 Y6.1300
G01 X17.5836 Y6.0508
G01 X17.5366 Y5.9720
G01 X17.4808 Y5.8966
G01 X17.4192 Y5.8286
G01 X17.3512 Y5.7670
G01 X17.2758 Y5.7112
G01 X17.1970 Y5.6642
G01 X17.1178 Y5.6268
G01 X17.0970 Y5.6191
G01 X17.0970 Y5.2620
G00 Z2.0000
G00 X25.5287 Y5.9010
G01 F30.00
G01 Z-0.1300
G01 F50.00
G01 X25.6519 Y5.9010
G01 X25.6519 Y6.0151
G01 X25.6423 Y6.0007
G01 X25.6292 Y5.9837
G01 X25.6198 Y5.9729
G01 X25.6047 Y5.9576
G01 X25.5940 Y5.9480
G01 X25.5772 Y5.9347
G01 X25.5287 Y5.9010
G00 Z2.0000
G00 X26.1170 Y6.4509
G01 F30.00
G01 Z-0.1300
G01 F50.00
G01 X27.3638 Y6.4509
G01 X27.3465 Y6.4628
G01 X27.3352 Y6.4716
G01 X27.3191 Y6.4858
G01 X27.3090 Y6.4960
G01 X27.2948 Y6.5121
G01 X27.2759 Y6.5363
G01 X27.2609 Y6.5526
G01 X27.2477 Y6.5693
G01 X27.2396 Y6.5809
G01 X27.2321 Y6.5929
G01 X27.2196 Y6.6159
G01 X27.0234 Y6.8122
G01 X26.9665 Y6.7979
G01 X26.9527 Y6.7948
G01 X26.9387 Y6.7924
G01 X26.8541 Y6.7799
G01 X26.8329 Y6.7781
G01 X26.7545 Y6.7743
G01 X26.7403 Y6.7739
G01 X26.7262 Y6.7743
G01 X26.6478 Y6.7781
G01 X26.6266 Y6.7799
G01 X26.5419 Y6.7924
G01 X26.5280 Y6.7948
G01 X26.5142 Y6.7979
G01 X26.4573 Y6.8122
G01 X26.2635 Y6.6184
G01 X26.2552 Y6.6012
G01 X26.2444 Y6.5826
G01 X26.2323 Y6.5649
G01 X26.2189 Y6.5481
G01 X26.2043 Y6.5324
G01 X26.1491 Y6.4773
G01 X26.1334 Y6.4634
G01 X26.1170 Y6.4509
G00 Z2.0000
G00 X26.3447 Y6.5527
G01 F30.00
G01 Z-0.1300
G01 F50.00
G01 X27.1379 Y6.5527
G01 X27.1369 Y6.5546
G01 X26.9922 Y6.6994
G01 X26.9726 Y6.6950
G01 X26.9537 Y6.6917
G01 X26.8760 Y6.6802
G01 X26.8570 Y6.6778
G01 X26.8379 Y6.6764
G01 X26.7595 Y6.6726
G01 X26.7403 Y6.6721
G01 X26.7212 Y6.6726
G01 X26.6428 Y6.6764
G01 X26.6237 Y6.6778
G01 X26.6047 Y6.6802
G01 X26.5270 Y6.6917
G01 X26.5081 Y6.6950
G01 X26.4885 Y6.6994
G01 X26.3477 Y6.5586
G01 X26.3447 Y6.5527
G00 Z2.0000
G00 X27.8288 Y6.0181
G01 F30.00
G01 Z-0.1300
G01 F50.00
G01 X27.8288 Y5.9010
G01 X27.9433 Y5.9010
G01 X27.9271 Y5.9127
G01 X27.9159 Y5.9217
G01 X27.9053 Y5.9313
G01 X27.8951 Y5.9414
G01 X27.8855 Y5.9520
G01 X27.8390 Y6.0056
G01 X27.8288 Y6.0181
G00 Z2.0000
G00 X27.9520 Y4.8238
G01 F30.00
G01 Z-0.1300
G01 F50.00
G01 X27.8288 Y4.8238
G01 X27.8288 Y4.7097
G01 X27.8384 Y4.7241
G01 X27.8515 Y4.7411
G01 X27.8609 Y4.7519
G01 X27.8760 Y4.7672
G01 X27.8921 Y4.7813
G01 X27.9035 Y4.7901
G01 X27.9520 Y4.8238
G00 Z2.0000
G00 X25.6519 Y4.7067
G01 F30.00
G01 Z-0.1300
G01 F50.00
G01 X25.6519 Y4.8238
G01 X25.5374 Y4.8238
G01 X25.5536 Y4.8121
G01 X25.5647 Y4.8031
G01 X25.5754 Y4.7935
G01 X25.5855 Y4.7834
G01 X25.5952 Y4.7728
G01 X25.6417 Y4.7192
G01 X25.6519 Y4.7067
G00 Z2.0000
G00 X25.6984 Y8.2812
G01 F30.00
G01 Z-0.1300
G01 F50.00
G01 X25.6826 Y8.2474
G01 X25.6318 Y8.0579
G01 X25.6147 Y7.8624
G01 X25.6318 Y7.6669
G01 X25.6826 Y7.4774
G01 X25.6984 Y7.4436
G01 X25.8051 Y7.5503
G01 X25.7975 Y7.5716
G01 X25.7949 Y7.5804
G01 X25.7746 Y7.6610
G01 X25.7718 Y7.6744
G01 X25.7584 Y7.7657
G01 X25.7537 Y7.8624
G01 X25.7584 Y7.9591
G01 X25.7718 Y8.0504
G01 X25.7746 Y8.0638
G01 X25.7949 Y8.1444
G01 X25.7975 Y8.1532
G01 X25.8051 Y8.1744
G01 X25.6984 Y8.2812
G00 Z2.0000
G00 X25.6675 Y8.4560
G01 F30.00
G01 Z-0.1300
G01 F50.00
G01 X25.5873 Y8.2839
G01 X25.5861 Y8.2806
G01 X25.5316 Y8.0773
G01 X25.5310 Y8.0738
G01 X25.5127 Y7.8642
G01 X25.5127 Y7.8606
G01 X25.5310 Y7.6510
G01 X25.5316 Y7.6475
G01 X25.5861 Y7.4442
G01 X25.5873 Y7.4408
G01 X25.6675 Y7.2688
G01 X25.9228 Y7.5240
G01 X25.8936 Y7.6055
G01 X25.8725 Y7.6898
G01 X25.8598 Y7.7757
G01 X25.8555 Y7.8624
G01 X25.8598 Y7.9491
G01 X25.8725 Y8.0350
G01 X25.8936 Y8.1193
G01 X25.9228 Y8.2008
G01 X25.6675 Y8.4560
G00 Z2.0000
G00 X26.1467 Y8.9352
G01 F30.00
G01 Z-0.1300
G01 F50.00
G01 X26.4020 Y8.6800
G01 X26.4835 Y8.7091
G01 X26.5677 Y8.7302
G01 X26.6536 Y8.7430
G01 X26.7403 Y8.7472
G01 X26.8271 Y8.7430
G01 X26.9130 Y8.7302
G01 X26.9972 Y8.7091
G01 X27.0787 Y8.6800
G01 X27.3339 Y8.9352
G01 X27.1619 Y9.0154
G01 X27.1586 Y9.0166
G01 X26.9553 Y9.0711
G01 X26.9518 Y9.0717
G01 X26.7421 Y9.0901
G01 X26.7386 Y9.0901
G01 X26.5289 Y9.0717
G01 X26.5254 Y9.0711
G01 X26.3221 Y9.0166
G01 X26.3188 Y9.0154
G01 X26.1467 Y8.9352
G00 Z2.0000
G00 X26.3216 Y8.9044
G01 F30.00
G01 Z-0.1300
G01 F50.00
G01 X26.4283 Y8.7976
G01 X26.4496 Y8.8052
G01 X26.4583 Y8.8079
G01 X26.5389 Y8.8281
G01 X26.5524 Y8.8309
G01 X26.6436 Y8.8443
G01 X26.7403 Y8.8491
G01 X26.8371 Y8.8443
G01 X26.9283 Y8.8309
G01 X26.9418 Y8.8281
G01 X27.0224 Y8.8079
G01 X27.0311 Y8.8052
G01 X27.0524 Y8.7976
G01 X27.1591 Y8.9044
G01 X27.1253 Y8.9201
G01 X26.9358 Y8.9709
G01 X26.7403 Y8.9880
G01 X26.5449 Y8.9709
G01 X26.3554 Y8.9201
G01 X26.3216 Y8.9044
G00 Z2.0000
G00 X27.5579 Y8.2008
G01 F30.00
G01 Z-0.1300
G01 F50.00
G01 X27.5871 Y8.1193
G01 X27.6082 Y8.0350
G01 X27.6209 Y7.9491
G01 X27.6252 Y7.8624
G01 X27.6209 Y7.7757
G01 X27.6082 Y7.6898
G01 X27.5871 Y7.6055
G01 X27.5579 Y7.5240
G01 X27.8131 Y7.2688
G01 X27.8934 Y7.4408
G01 X27.8946 Y7.4442
G01 X27.9490 Y7.6475
G01 X27.9497 Y7.6510
G01 X27.9680 Y7.8606
G01 X27.9680 Y7.8642
G01 X27.9497 Y8.0738
G01 X27.9490 Y8.0773
G01 X27.8946 Y8.2806
G01 X27.8934 Y8.2839
G01 X27.8131 Y8.4560
G01 X27.5579 Y8.2008
G00 Z2.0000
G00 X27.6756 Y8.1744
G01 F30.00
G01 Z-0.1300
G01 F50.00
G01 X27.6831 Y8.1532
G01 X27.6858 Y8.1444
G01 X27.7060 Y8.0638
G01 X27.7089 Y8.0504
G01 X27.7223 Y7.9591
G01 X27.7270 Y7.8624
G01 X27.7223 Y7.7657
G01 X27.7089 Y7.6744
G01 X27.7060 Y7.6610
G01 X27.6858 Y7.5804
G01 X27.6831 Y7.5716
G01 X27.6756 Y7.5503
G01 X27.7823 Y7.4436
G01 X27.7981 Y7.4774
G01 X27.8489 Y7.6669
G01 X27.8660 Y7.8624
G01 X27.8489 Y8.0579
G01 X27.7981 Y8.2474
G01 X27.7823 Y8.2812
G01 X27.6756 Y8.1744
G00 Z2.0000
G00 X25.6215 Y12.2204
G01 F30.00
G01 Z-0.1300
G01 F50.00
G01 X25.6971 Y12.1729
G01 X25.9234 Y12.0708
G01 X26.1615 Y12.0002
G01 X26.4070 Y11.9627
G01 X26.6553 Y11.9588
G01 X26.9018 Y11.9886
G01 X27.1420 Y12.0516
G01 X27.3715 Y12.1466
G01 X27.4979 Y12.2205
G01 X27.3983 Y12.3201
G01 X27.3628 Y12.2989
G01 X27.3508 Y12.2922
G01 X27.2094 Y12.2254
G01 X27.1967 Y12.2203
G01 X27.0581 Y12.1707
G01 X27.0450 Y12.1665
G01 X26.8888 Y12.1276
G01 X26.7342 Y12.1044
G01 X26.7159 Y12.1026
G01 X26.5597 Y12.0952
G01 X26.4036 Y12.1026
G01 X26.3853 Y12.1044
G01 X26.2307 Y12.1276
G01 X26.0745 Y12.1665
G01 X26.0614 Y12.1707
G01 X25.9228 Y12.2203
G01 X25.9101 Y12.2254
G01 X25.7687 Y12.2922
G01 X25.7567 Y12.2989
G01 X25.7212 Y12.3201
G01 X25.6215 Y12.2204
G00 Z2.0000
G00 X25.4591 Y12.2020
G01 F30.00
G01 Z-0.1300
G01 F50.00
G01 X25.6501 Y12.0824
G01 X25.8865 Y11.9757
G01 X26.1379 Y11.9010
G01 X26.3971 Y11.8612
G01 X26.6592 Y11.8569
G01 X26.9223 Y11.8887
G01 X27.1759 Y11.9554
G01 X27.4180 Y12.0559
G01 X27.6420 Y12.1868
G01 X27.6610 Y12.2014
G01 X27.4141 Y12.4483
G01 X27.3068 Y12.3841
G01 X27.1700 Y12.3193
G01 X27.1624 Y12.3161
G01 X27.0198 Y12.2652
G01 X26.8730 Y12.2284
G01 X26.8648 Y12.2267
G01 X26.7151 Y12.2046
G01 X26.5597 Y12.1970
G01 X26.4044 Y12.2046
G01 X26.2547 Y12.2267
G01 X26.2465 Y12.2284
G01 X26.0997 Y12.2652
G01 X25.9571 Y12.3161
G01 X25.9494 Y12.3193
G01 X25.8126 Y12.3841
G01 X25.7054 Y12.4483
G01 X25.4591 Y12.2020
G00 Z2.0000
G00 X24.7343 Y13.8010
G01 F30.00
G01 Z-0.1300
G01 F50.00
G01 X24.7485 Y13.5530
G01 X24.7964 Y13.3093
G01 X24.8768 Y13.0744
G01 X24.9884 Y12.8525
G01 X24.9961 Y12.8414
G01 X25.0980 Y12.9433
G01 X25.0767 Y12.9788
G01 X25.0701 Y12.9908
G01 X25.0033 Y13.1322
G01 X24.9982 Y13.1449
G01 X24.9486 Y13.2835
G01 X24.9444 Y13.2966
G01 X24.9055 Y13.4528
G01 X24.8823 Y13.6074
G01 X24.8805 Y13.6257
G01 X24.8731 Y13.7818
G01 X24.8805 Y13.9380
G01 X24.8823 Y13.9563
G01 X24.9055 Y14.1109
G01 X24.9444 Y14.2671
G01 X24.9486 Y14.2802
G01 X24.9982 Y14.4188
G01 X25.0033 Y14.4315
G01 X25.0701 Y14.5729
G01 X25.0767 Y14.5849
G01 X25.0980 Y14.6204
G01 X24.9965 Y14.7218
G01 X24.8920 Y14.5244
G01 X24.8066 Y14.2912
G01 X24.7537 Y14.0485
G01 X24.7343 Y13.8010
G00 Z2.0000
G00 X24.6323 Y13.8006
G01 F30.00
G01 Z-0.1300
G01 F50.00
G01 X24.6476 Y13.5389
G01 X24.6982 Y13.2816
G01 X24.7833 Y13.0336
G01 X24.8999 Y12.8018
G01 X24.9815 Y12.6828
G01 X25.2262 Y12.9275
G01 X25.1620 Y13.0348
G01 X25.0972 Y13.1715
G01 X25.0940 Y13.1792
G01 X25.0431 Y13.3218
G01 X25.0063 Y13.4686
G01 X25.0046 Y13.4768
G01 X24.9825 Y13.6265
G01 X24.9749 Y13.7818
G01 X24.9825 Y13.9372
G01 X25.0046 Y14.0869
G01 X25.0063 Y14.0951
G01 X25.0431 Y14.2419
G01 X25.0940 Y14.3845
G01 X25.0972 Y14.3922
G01 X25.1620 Y14.5289
G01 X25.2262 Y14.6362
G01 X24.9814 Y14.8810
G01 X24.9208 Y14.7964
G01 X24.7994 Y14.5671
G01 X24.7091 Y14.3210
G01 X24.6527 Y14.0621
G01 X24.6323 Y13.8006
G00 Z2.0000
G00 X25.4576 Y15.3632
G01 F30.00
G01 Z-0.1300
G01 F50.00
G01 X25.7054 Y15.1154
G01 X25.8126 Y15.1796
G01 X25.9494 Y15.2444
G01 X25.9571 Y15.2476
G01 X26.0997 Y15.2985
G01 X26.2465 Y15.3353
G01 X26.2547 Y15.3370
G01 X26.4044 Y15.3591
G01 X26.5597 Y15.3667
G01 X26.7151 Y15.3591
G01 X26.8648 Y15.3370
G01 X26.8730 Y15.3353
G01 X27.0198 Y15.2985
G01 X27.1624 Y15.2476
G01 X27.1700 Y15.2444
G01 X27.3068 Y15.1796
G01 X27.4141 Y15.1154
G01 X27.6612 Y15.3625
G01 X27.4515 Y15.4907
G01 X27.2140 Y15.5950
G01 X26.9619 Y15.6670
G01 X26.7023 Y15.7041
G01 X26.4401 Y15.7057
G01 X26.1774 Y15.6711
G01 X25.9245 Y15.6017
G01 X25.6834 Y15.4987
G01 X25.4608 Y15.3654
G01 X25.4576 Y15.3632
G00 Z2.0000
G00 X25.6217 Y15.3431
G01 F30.00
G01 Z-0.1300
G01 F50.00
G01 X25.7212 Y15.2436
G01 X25.7567 Y15.2648
G01 X25.7687 Y15.2715
G01 X25.9101 Y15.3383
G01 X25.9228 Y15.3434
G01 X26.0614 Y15.3930
G01 X26.0745 Y15.3972
G01 X26.2307 Y15.4361
G01 X26.3853 Y15.4593
G01 X26.4036 Y15.4611
G01 X26.5597 Y15.4685
G01 X26.7159 Y15.4611
G01 X26.7342 Y15.4593
G01 X26.8888 Y15.4361
G01 X27.0450 Y15.3972
G01 X27.0581 Y15.3930
G01 X27.1967 Y15.3434
G01 X27.2094 Y15.3383
G01 X27.3508 Y15.2715
G01 X27.3628 Y15.2648
G01 X27.3983 Y15.2436
G01 X27.4978 Y15.3431
G01 X27.4055 Y15.3997
G01 X27.1781 Y15.4995
G01 X26.9393 Y15.5675
G01 X26.6934 Y15.6025
G01 X26.4451 Y15.6038
G01 X26.1989 Y15.5714
G01 X25.9594 Y15.5059
G01 X25.7309 Y15.4085
G01 X25.6217 Y15.3431
G00 Z2.0000
G00 X27.8933 Y12.9275
G01 F30.00
G01 Z-0.1300
G01 F50.00
G01 X28.1384 Y12.6824
G01 X28.1880 Y12.7502
G01 X28.3129 Y12.9807
G01 X28.4054 Y13.2261
G01 X28.4638 Y13.4817
G01 X28.4871 Y13.7431
G01 X28.4875 Y13.7802
G01 X28.4696 Y14.0421
G01 X28.4167 Y14.2989
G01 X28.3282 Y14.5486
G01 X28.2092 Y14.7792
G01 X28.1380 Y14.8809
G01 X27.8933 Y14.6362
G01 X27.9575 Y14.5289
G01 X28.0223 Y14.3922
G01 X28.0254 Y14.3845
G01 X28.0763 Y14.2419
G01 X28.1132 Y14.0951
G01 X28.1149 Y14.0869
G01 X28.1370 Y13.9372
G01 X28.1446 Y13.7818
G01 X28.1370 Y13.6265
G01 X28.1149 Y13.4768
G01 X28.1132 Y13.4686
G01 X28.0763 Y13.3218
G01 X28.0254 Y13.1792
G01 X28.0223 Y13.1715
G01 X27.9575 Y13.0348
G01 X27.8933 Y12.9275
G00 Z2.0000
G00 X28.0215 Y12.9433
G01 F30.00
G01 Z-0.1300
G01 F50.00
G01 X28.1223 Y12.8425
G01 X28.2196 Y13.0219
G01 X28.3074 Y13.2542
G01 X28.3629 Y13.4963
G01 X28.3854 Y13.7490
G01 X28.3857 Y13.7765
G01 X28.3684 Y14.0296
G01 X28.3181 Y14.2728
G01 X28.2352 Y14.5069
G01 X28.1238 Y14.7227
G01 X28.0215 Y14.6204
G01 X28.0427 Y14.5849
G01 X28.0494 Y14.5729
G01 X28.1143 Y14.4357
G01 X28.1197 Y14.4231
G01 X28.1738 Y14.2715
G01 X28.2131 Y14.1154
G01 X28.2156 Y14.1019
G01 X28.2372 Y13.9563
G01 X28.2390 Y13.9380
G01 X28.2464 Y13.7818
G01 X28.2390 Y13.6257
G01 X28.2372 Y13.6074
G01 X28.2140 Y13.4528
G01 X28.1762 Y13.3011
G01 X28.1724 Y13.2879
G01 X28.1213 Y13.1449
G01 X28.1162 Y13.1322
G01 X28.0494 Y12.9908
G01 X28.0427 Y12.9788
G01 X28.0215 Y12.9433
G00 Z2.0000
G00 X32.2451 Y11.9767
G01 F30.00
G01 Z-0.1300
G01 F50.00
G01 X32.2451 Y12.0223
G01 X32.2178 Y12.0264
G01 X32.2074 Y12.0285
G01 X32.2200 Y12.0137
G01 X32.2287 Y12.0023
G01 X32.2368 Y11.9905
G01 X32.2451 Y11.9767
G00 Z2.0000
G00 X34.7356 Y10.7401
G01 F30.00
G01 Z-0.1300
G01 F50.00
G01 X35.0739 Y10.7401
G01 X35.0739 Y11.0533
G01 X35.0755 Y11.0841
G01 X35.0796 Y11.1125
G01 X35.0812 Y11.1206
G01 X35.0889 Y11.1504
G01 X35.0994 Y11.1794
G01 X35.1116 Y11.2054
G01 X35.1155 Y11.2127
G01 X35.1303 Y11.2373
G01 X35.1499 Y11.2637
G01 X35.1691 Y11.2850
G01 X35.1750 Y11.2909
G01 X35.1979 Y11.3114
G01 X35.2227 Y11.3297
G01 X35.2473 Y11.3445
G01 X35.2546 Y11.3484
G01 X35.2825 Y11.3614
G01 X35.3115 Y11.3717
G01 X35.3414 Y11.3792
G01 X35.3738 Y11.3843
G01 X35.3949 Y11.3855
G01 X35.3949 Y11.7244
G01 X35.3617 Y11.7243
G01 X35.2729 Y11.7151
G01 X35.2686 Y11.7141
G01 X35.1235 Y11.6657
G01 X35.1192 Y11.6637
G01 X34.9898 Y11.5836
G01 X34.9861 Y11.5807
G01 X34.8785 Y11.4730
G01 X34.8756 Y11.4693
G01 X34.7957 Y11.3397
G01 X34.7938 Y11.3354
G01 X34.7456 Y11.1902
G01 X34.7447 Y11.1859
G01 X34.7356 Y11.0962
G01 X34.7356 Y10.7401
G00 Z2.0000
G00 X34.8374 Y10.8419
G01 F30.00
G01 Z-0.1300
G01 F50.00
G01 X34.9721 Y10.8419
G01 X34.9721 Y11.0512
G01 X34.9742 Y11.0940
G01 X34.9805 Y11.1364
G01 X34.9884 Y11.1692
G01 X34.9923 Y11.1824
G01 X35.0053 Y11.2184
G01 X35.0236 Y11.2571
G01 X35.0432 Y11.2900
G01 X35.0509 Y11.3013
G01 X35.0712 Y11.3283
G01 X35.0937 Y11.3534
G01 X35.1032 Y11.3632
G01 X35.1282 Y11.3858
G01 X35.1389 Y11.3944
G01 X35.1661 Y11.4143
G01 X35.2029 Y11.4364
G01 X35.2333 Y11.4510
G01 X35.2459 Y11.4564
G01 X35.2776 Y11.4677
G01 X35.2931 Y11.4721
G01 X35.2931 Y11.6148
G01 X35.1647 Y11.5722
G01 X35.0514 Y11.5020
G01 X34.9573 Y11.4078
G01 X34.8874 Y11.2943
G01 X34.8451 Y11.1666
G01 X34.8374 Y11.0921
G01 X34.8374 Y10.8419
G00 Z2.0000
G00 X34.8453 Y9.6348
G01 F30.00
G01 Z-0.1300
G01 F50.00
G01 X34.8878 Y9.5072
G01 X34.9579 Y9.3939
G01 X35.0548 Y9.2973
G01 X35.0705 Y9.2846
G01 X35.0837 Y9.2719
G01 X35.0956 Y9.2579
G01 X35.1060 Y9.2429
G01 X35.1264 Y9.2201
G01 X35.1323 Y9.2130
G01 X35.1378 Y9.2055
G01 X35.1453 Y9.1938
G01 X35.1519 Y9.1816
G01 X35.1576 Y9.1689
G01 X35.1609 Y9.1602
G01 X35.1650 Y9.1469
G01 X35.1689 Y9.1288
G01 X35.1810 Y9.0541
G01 X35.1826 Y9.0357
G01 X35.1824 Y9.0171
G01 X35.1804 Y8.9987
G01 X35.1765 Y8.9806
G01 X35.1739 Y8.9717
G01 X35.1691 Y8.9586
G01 X35.1351 Y8.8806
G01 X35.1307 Y8.8722
G01 X35.1232 Y8.8601
G01 X35.1149 Y8.8486
G01 X35.1089 Y8.8412
G01 X35.0924 Y8.8233
G01 X35.0353 Y8.7662
G01 X34.9654 Y8.6527
G01 X34.9231 Y8.5250
G01 X34.9154 Y8.4505
G01 X34.9154 Y8.2003
G01 X35.0501 Y8.2003
G01 X35.0501 Y8.4096
G01 X35.0515 Y8.4433
G01 X35.0527 Y8.4570
G01 X35.0585 Y8.4948
G01 X35.0689 Y8.5364
G01 X35.0833 Y8.5768
G01 X35.0975 Y8.6073
G01 X35.1061 Y8.6235
G01 X35.1212 Y8.6484
G01 X35.1289 Y8.6597
G01 X35.1463 Y8.6831
G01 X35.1521 Y8.6902
G01 X35.1717 Y8.7118
G01 X35.1812 Y8.7216
G01 X35.2062 Y8.7442
G01 X35.2169 Y8.7528
G01 X35.2441 Y8.7727
G01 X35.2769 Y8.7925
G01 X35.2891 Y8.7989
G01 X35.3196 Y8.8131
G01 X35.3556 Y8.8261
G01 X35.3711 Y8.8305
G01 X35.3711 Y8.8629
G01 X35.3625 Y8.8745
G01 X35.3551 Y8.8862
G01 X35.3146 Y8.9607
G01 X35.3091 Y8.9733
G01 X35.3045 Y8.9863
G01 X35.3009 Y8.9995
G01 X35.2982 Y9.0130
G01 X35.2941 Y9.0489
G01 X35.2931 Y9.0638
G01 X35.2931 Y9.3304
G01 X35.2776 Y9.3348
G01 X35.2459 Y9.3461
G01 X35.2333 Y9.3515
G01 X35.2029 Y9.3661
G01 X35.1661 Y9.3882
G01 X35.1353 Y9.4108
G01 X35.1248 Y9.4197
G01 X35.1000 Y9.4425
G01 X35.0772 Y9.4673
G01 X35.0683 Y9.4778
G01 X35.0483 Y9.5049
G01 X35.0408 Y9.5164
G01 X35.0236 Y9.5454
G01 X35.0071 Y9.5799
G01 X35.0020 Y9.5927
G01 X34.9909 Y9.6245
G01 X34.9814 Y9.6616
G01 X34.9796 Y9.6706
G01 X34.9753 Y9.6994
G01 X34.9738 Y9.7130
G01 X34.9721 Y9.7512
G01 X34.9721 Y9.9606
G01 X34.8374 Y9.9606
G01 X34.8374 Y9.7105
G01 X34.8453 Y9.6348
G00 Z2.0000
G00 X34.7449 Y9.6154
G01 F30.00
G01 Z-0.1300
G01 F50.00
G01 X34.7458 Y9.6111
G01 X34.7943 Y9.4660
G01 X34.7962 Y9.4617
G01 X34.8764 Y9.3323
G01 X34.8793 Y9.3286
G01 X34.9870 Y9.2210
G01 X35.0019 Y9.2092
G01 X35.0095 Y9.2021
G01 X35.0174 Y9.1924
G01 X35.0232 Y9.1827
G01 X35.0491 Y9.1539
G01 X35.0530 Y9.1490
G01 X35.0577 Y9.1419
G01 X35.0633 Y9.1306
G01 X35.0661 Y9.1227
G01 X35.0676 Y9.1165
G01 X35.0798 Y9.0423
G01 X35.0809 Y9.0318
G01 X35.0808 Y9.0234
G01 X35.0799 Y9.0150
G01 X35.0781 Y9.0068
G01 X35.0755 Y8.9988
G01 X35.0457 Y8.9297
G01 X35.0397 Y8.9183
G01 X35.0334 Y8.9096
G01 X35.0216 Y8.8966
G01 X34.9565 Y8.8314
G01 X34.9536 Y8.8277
G01 X34.8737 Y8.6981
G01 X34.8718 Y8.6938
G01 X34.8236 Y8.5486
G01 X34.8227 Y8.5443
G01 X34.8136 Y8.4546
G01 X34.8136 Y8.0985
G01 X35.1519 Y8.0985
G01 X35.1519 Y8.4096
G01 X35.1533 Y8.4404
G01 X35.1583 Y8.4750
G01 X35.1663 Y8.5068
G01 X35.1774 Y8.5378
G01 X35.1905 Y8.5656
G01 X35.2083 Y8.5957
G01 X35.2253 Y8.6188
G01 X35.2306 Y8.6252
G01 X35.2500 Y8.6464
G01 X35.2712 Y8.6658
G01 X35.2776 Y8.6711
G01 X35.3025 Y8.6892
G01 X35.3289 Y8.7050
G01 X35.3548 Y8.7173
G01 X35.3625 Y8.7205
G01 X35.3876 Y8.7294
G01 X35.4235 Y8.7384
G01 X35.4539 Y8.7429
G01 X35.4729 Y8.7439
G01 X35.4729 Y8.9070
G01 X35.4637 Y8.9134
G01 X35.4559 Y8.9205
G01 X35.4490 Y8.9285
G01 X35.4432 Y8.9372
G01 X35.4062 Y9.0051
G01 X35.4037 Y9.0108
G01 X35.4010 Y9.0187
G01 X35.3995 Y9.0247
G01 X35.3983 Y9.0330
G01 X35.3952 Y9.0620
G01 X35.3949 Y9.0688
G01 X35.3949 Y9.4170
G01 X35.3759 Y9.4180
G01 X35.3455 Y9.4224
G01 X35.3096 Y9.4314
G01 X35.2845 Y9.4404
G01 X35.2768 Y9.4436
G01 X35.2509 Y9.4559
G01 X35.2245 Y9.4717
G01 X35.1963 Y9.4924
G01 X35.1750 Y9.5116
G01 X35.1691 Y9.5175
G01 X35.1499 Y9.5388
G01 X35.1327 Y9.5618
G01 X35.1281 Y9.5687
G01 X35.1125 Y9.5952
G01 X35.0994 Y9.6231
G01 X35.0883 Y9.6540
G01 X35.0803 Y9.6859
G01 X35.0753 Y9.7205
G01 X35.0739 Y9.7512
G01 X35.0739 Y10.0624
G01 X34.7356 Y10.0624
G01 X34.7356 Y9.7063
G01 X34.7449 Y9.6154
G00 Z2.0000
G00 X36.0726 Y9.2539
G01 F30.00
G01 Z-0.1300
G01 F50.00
G01 X36.0801 Y9.2488
G01 X36.0881 Y9.2419
G01 X36.0952 Y9.2341
G01 X36.1012 Y9.2255
G01 X36.1392 Y9.1558
G01 X36.1438 Y9.1442
G01 X36.1467 Y9.1321
G01 X36.1501 Y9.1012
G01 X36.1506 Y9.0921
G01 X36.1506 Y8.7439
G01 X36.1716 Y8.7427
G01 X36.2041 Y8.7376
G01 X36.2339 Y8.7301
G01 X36.2629 Y8.7198
G01 X36.2909 Y8.7068
G01 X36.2982 Y8.7029
G01 X36.3228 Y8.6881
G01 X36.3475 Y8.6698
G01 X36.3705 Y8.6493
G01 X36.3764 Y8.6434
G01 X36.3956 Y8.6221
G01 X36.4152 Y8.5957
G01 X36.4300 Y8.5711
G01 X36.4339 Y8.5638
G01 X36.4461 Y8.5378
G01 X36.4559 Y8.5108
G01 X36.4583 Y8.5028
G01 X36.4655 Y8.4729
G01 X36.4700 Y8.4425
G01 X36.4715 Y8.4138
G01 X36.4716 Y8.0985
G01 X36.8099 Y8.0985
G01 X36.8098 Y8.4567
G01 X36.8006 Y8.5455
G01 X36.7996 Y8.5498
G01 X36.7512 Y8.6949
G01 X36.7492 Y8.6992
G01 X36.6691 Y8.8286
G01 X36.6662 Y8.8323
G01 X36.5585 Y8.9399
G01 X36.5435 Y8.9517
G01 X36.5360 Y8.9588
G01 X36.5281 Y8.9685
G01 X36.5223 Y8.9782
G01 X36.4964 Y9.0070
G01 X36.4900 Y9.0154
G01 X36.4857 Y9.0226
G01 X36.4822 Y9.0303
G01 X36.4794 Y9.0382
G01 X36.4779 Y9.0444
G01 X36.4656 Y9.1186
G01 X36.4646 Y9.1291
G01 X36.4647 Y9.1375
G01 X36.4656 Y9.1458
G01 X36.4674 Y9.1541
G01 X36.4700 Y9.1621
G01 X36.4998 Y9.2312
G01 X36.5058 Y9.2426
G01 X36.5121 Y9.2513
G01 X36.5239 Y9.2643
G01 X36.5889 Y9.3295
G01 X36.5918 Y9.3332
G01 X36.6717 Y9.4628
G01 X36.6737 Y9.4671
G01 X36.7219 Y9.6123
G01 X36.7228 Y9.6166
G01 X36.7319 Y9.7063
G01 X36.7319 Y10.0624
G01 X36.3936 Y10.0624
G01 X36.3936 Y9.7512
G01 X36.3923 Y9.7226
G01 X36.3915 Y9.7143
G01 X36.3875 Y9.6880
G01 X36.3862 Y9.6819
G01 X36.3792 Y9.6540
G01 X36.3689 Y9.6250
G01 X36.3559 Y9.5971
G01 X36.3520 Y9.5898
G01 X36.3372 Y9.5652
G01 X36.3176 Y9.5388
G01 X36.2984 Y9.5175
G01 X36.2925 Y9.5116
G01 X36.2712 Y9.4924
G01 X36.2465 Y9.4740
G01 X36.2202 Y9.4580
G01 X36.2129 Y9.4541
G01 X36.1869 Y9.4419
G01 X36.1579 Y9.4314
G01 X36.1220 Y9.4224
G01 X36.0916 Y9.4180
G01 X36.0726 Y9.4170
G01 X36.0726 Y9.2539
G00 Z2.0000
G00 X36.1744 Y9.2980
G01 F30.00
G01 Z-0.1300
G01 F50.00
G01 X36.1830 Y9.2864
G01 X36.1904 Y9.2747
G01 X36.2309 Y9.2002
G01 X36.2364 Y9.1876
G01 X36.2410 Y9.1746
G01 X36.2446 Y9.1614
G01 X36.2473 Y9.1479
G01 X36.2513 Y9.1120
G01 X36.2523 Y9.0971
G01 X36.2524 Y8.8305
G01 X36.2679 Y8.8261
G01 X36.2996 Y8.8148
G01 X36.3122 Y8.8094
G01 X36.3385 Y8.7969
G01 X36.3506 Y8.7902
G01 X36.3793 Y8.7727
G01 X36.4138 Y8.7472
G01 X36.4455 Y8.7184
G01 X36.4743 Y8.6867
G01 X36.4998 Y8.6522
G01 X36.5173 Y8.6235
G01 X36.5240 Y8.6114
G01 X36.5402 Y8.5768
G01 X36.5546 Y8.5364
G01 X36.5650 Y8.4948
G01 X36.5708 Y8.4570
G01 X36.5720 Y8.4433
G01 X36.5734 Y8.4096
G01 X36.5734 Y8.2003
G01 X36.7081 Y8.2003
G01 X36.7081 Y8.4504
G01 X36.7002 Y8.5261
G01 X36.6576 Y8.6537
G01 X36.5875 Y8.7669
G01 X36.4907 Y8.8636
G01 X36.4750 Y8.8763
G01 X36.4618 Y8.8890
G01 X36.4499 Y8.9029
G01 X36.4395 Y8.9180
G01 X36.4161 Y8.9443
G01 X36.4077 Y8.9554
G01 X36.4026 Y8.9631
G01 X36.3957 Y8.9752
G01 X36.3896 Y8.9877
G01 X36.3831 Y9.0051
G01 X36.3793 Y9.0185
G01 X36.3766 Y9.0321
G01 X36.3651 Y9.1022
G01 X36.3634 Y9.1160
G01 X36.3628 Y9.1252
G01 X36.3628 Y9.1391
G01 X36.3639 Y9.1530
G01 X36.3668 Y9.1713
G01 X36.3702 Y9.1848
G01 X36.3731 Y9.1936
G01 X36.3781 Y9.2065
G01 X36.4104 Y9.2803
G01 X36.4148 Y9.2887
G01 X36.4222 Y9.3008
G01 X36.4306 Y9.3123
G01 X36.4366 Y9.3197
G01 X36.4531 Y9.3376
G01 X36.5102 Y9.3947
G01 X36.5801 Y9.5081
G01 X36.6224 Y9.6358
G01 X36.6301 Y9.7104
G01 X36.6301 Y9.9606
G01 X36.4954 Y9.9606
G01 X36.4954 Y9.7512
G01 X36.4940 Y9.7176
G01 X36.4928 Y9.7039
G01 X36.4870 Y9.6661
G01 X36.4766 Y9.6245
G01 X36.4622 Y9.5841
G01 X36.4480 Y9.5536
G01 X36.4393 Y9.5374
G01 X36.4243 Y9.5125
G01 X36.4165 Y9.5012
G01 X36.3992 Y9.4778
G01 X36.3933 Y9.4707
G01 X36.3738 Y9.4491
G01 X36.3642 Y9.4393
G01 X36.3393 Y9.4166
G01 X36.3285 Y9.4081
G01 X36.3013 Y9.3882
G01 X36.2686 Y9.3683
G01 X36.2564 Y9.3620
G01 X36.2258 Y9.3478
G01 X36.1899 Y9.3348
G01 X36.1744 Y9.3304
G01 X36.1744 Y9.2980
G00 Z2.0000
G00 X36.1744 Y11.6148
G01 F30.00
G01 Z-0.1300
G01 F50.00
G01 X36.1744 Y11.4721
G01 X36.1899 Y11.4677
G01 X36.2216 Y11.4564
G01 X36.2342 Y11.4510
G01 X36.2646 Y11.4364
G01 X36.3013 Y11.4143
G01 X36.3285 Y11.3944
G01 X36.3393 Y11.3858
G01 X36.3642 Y11.3632
G01 X36.3738 Y11.3534
G01 X36.3963 Y11.3283
G01 X36.4165 Y11.3013
G01 X36.4243 Y11.2900
G01 X36.4438 Y11.2571
G01 X36.4622 Y11.2184
G01 X36.4766 Y11.1780
G01 X36.4850 Y11.1454
G01 X36.4879 Y11.1319
G01 X36.4933 Y11.0940
G01 X36.4954 Y11.0512
G01 X36.4954 Y10.8419
G01 X36.6301 Y10.8419
G01 X36.6301 Y11.0920
G01 X36.6222 Y11.1677
G01 X36.5796 Y11.2953
G01 X36.5095 Y11.4085
G01 X36.4153 Y11.5027
G01 X36.3018 Y11.5726
G01 X36.1744 Y11.6148
G00 Z2.0000
G00 X36.0726 Y11.7244
G01 F30.00
G01 Z-0.1300
G01 F50.00
G01 X36.0726 Y11.3855
G01 X36.0936 Y11.3843
G01 X36.1261 Y11.3792
G01 X36.1559 Y11.3717
G01 X36.1849 Y11.3614
G01 X36.2129 Y11.3484
G01 X36.2202 Y11.3445
G01 X36.2448 Y11.3297
G01 X36.2695 Y11.3114
G01 X36.2925 Y11.2909
G01 X36.2984 Y11.2850
G01 X36.3176 Y11.2637
G01 X36.3372 Y11.2373
G01 X36.3520 Y11.2127
G01 X36.3559 Y11.2054
G01 X36.3681 Y11.1794
G01 X36.3785 Y11.1504
G01 X36.3862 Y11.1206
G01 X36.3879 Y11.1125
G01 X36.3920 Y11.0841
G01 X36.3936 Y11.0533
G01 X36.3936 Y10.7401
G01 X36.7319 Y10.7401
G01 X36.7319 Y11.0962
G01 X36.7226 Y11.1871
G01 X36.7216 Y11.1914
G01 X36.6732 Y11.3365
G01 X36.6712 Y11.3408
G01 X36.5911 Y11.4702
G01 X36.5882 Y11.4739
G01 X36.4805 Y11.5815
G01 X36.4768 Y11.5844
G01 X36.3472 Y11.6642
G01 X36.3429 Y11.6662
G01 X36.1977 Y11.7144
G01 X36.1934 Y11.7153
G01 X36.1058 Y11.7243
G01 X36.0726 Y11.7244
G00 Z2.0000
G00 X32.3231 Y9.1173
G01 F30.00
G01 Z-0.1300
G01 F50.00
G01 X32.3231 Y9.2304
G01 X32.3024 Y9.2359
G01 X32.2841 Y9.2421
G01 X32.2924 Y9.2266
G01 X32.2984 Y9.2136
G01 X32.3038 Y9.2003
G01 X32.3085 Y9.1868
G01 X32.3126 Y9.1731
G01 X32.3159 Y9.1591
G01 X32.3231 Y9.1173
G00 Z2.0000
G00 X32.3012 Y8.8936
G01 F30.00
G01 Z-0.1300
G01 F50.00
G01 X32.3231 Y8.9039
G01 X32.3231 Y8.9509
G01 X32.3200 Y8.9405
G01 X32.3153 Y8.9269
G01 X32.3012 Y8.8936
G00 Z2.0000
G00 X34.8229 Y6.9738
G01 F30.00
G01 Z-0.1300
G01 F50.00
G01 X34.8238 Y6.9695
G01 X34.8723 Y6.8244
G01 X34.8742 Y6.8201
G01 X34.9544 Y6.6907
G01 X34.9573 Y6.6870
G01 X35.0650 Y6.5794
G01 X35.0687 Y6.5765
G01 X35.1983 Y6.4966
G01 X35.2026 Y6.4947
G01 X35.3478 Y6.4465
G01 X35.3521 Y6.4456
G01 X35.4397 Y6.4366
G01 X35.4729 Y6.4365
G01 X35.4729 Y6.7754
G01 X35.4518 Y6.7766
G01 X35.4194 Y6.7817
G01 X35.3895 Y6.7892
G01 X35.3605 Y6.7995
G01 X35.3326 Y6.8125
G01 X35.3253 Y6.8164
G01 X35.3007 Y6.8312
G01 X35.2759 Y6.8495
G01 X35.2530 Y6.8700
G01 X35.2471 Y6.8759
G01 X35.2279 Y6.8972
G01 X35.2083 Y6.9236
G01 X35.1935 Y6.9482
G01 X35.1896 Y6.9555
G01 X35.1774 Y6.9815
G01 X35.1669 Y7.0105
G01 X35.1592 Y7.0403
G01 X35.1576 Y7.0484
G01 X35.1535 Y7.0768
G01 X35.1519 Y7.1076
G01 X35.1519 Y7.4208
G01 X34.8136 Y7.4208
G01 X34.8136 Y7.0647
G01 X34.8229 Y6.9738
G00 Z2.0000
G00 X34.9233 Y6.9932
G01 F30.00
G01 Z-0.1300
G01 F50.00
G01 X34.9658 Y6.8656
G01 X35.0359 Y6.7523
G01 X35.1302 Y6.6582
G01 X35.2436 Y6.5883
G01 X35.3711 Y6.5460
G01 X35.3711 Y6.6888
G01 X35.3556 Y6.6932
G01 X35.3239 Y6.7045
G01 X35.3113 Y6.7099
G01 X35.2809 Y6.7245
G01 X35.2441 Y6.7466
G01 X35.2169 Y6.7665
G01 X35.2062 Y6.7750
G01 X35.1812 Y6.7977
G01 X35.1717 Y6.8075
G01 X35.1492 Y6.8326
G01 X35.1289 Y6.8596
G01 X35.1212 Y6.8709
G01 X35.1016 Y6.9038
G01 X35.0833 Y6.9425
G01 X35.0689 Y6.9829
G01 X35.0605 Y7.0155
G01 X35.0576 Y7.0290
G01 X35.0522 Y7.0668
G01 X35.0501 Y7.1096
G01 X35.0501 Y7.3190
G01 X34.9154 Y7.3190
G01 X34.9154 Y7.0689
G01 X34.9233 Y6.9932
G00 Z2.0000
G00 X36.1506 Y6.7754
G01 F30.00
G01 Z-0.1300
G01 F50.00
G01 X36.1506 Y6.4365
G01 X36.1838 Y6.4366
G01 X36.2726 Y6.4458
G01 X36.2769 Y6.4468
G01 X36.4220 Y6.4952
G01 X36.4262 Y6.4972
G01 X36.5557 Y6.5773
G01 X36.5594 Y6.5802
G01 X36.6669 Y6.6879
G01 X36.6698 Y6.6916
G01 X36.7497 Y6.8212
G01 X36.7517 Y6.8255
G01 X36.7999 Y6.9707
G01 X36.8008 Y6.9750
G01 X36.8099 Y7.0647
G01 X36.8099 Y7.4208
G01 X36.4716 Y7.4208
G01 X36.4716 Y7.1096
G01 X36.4702 Y7.0789
G01 X36.4652 Y7.0443
G01 X36.4572 Y7.0124
G01 X36.4461 Y6.9815
G01 X36.4330 Y6.9536
G01 X36.4152 Y6.9236
G01 X36.3981 Y6.9005
G01 X36.3929 Y6.8941
G01 X36.3735 Y6.8729
G01 X36.3523 Y6.8535
G01 X36.3459 Y6.8482
G01 X36.3210 Y6.8301
G01 X36.2946 Y6.8143
G01 X36.2687 Y6.8020
G01 X36.2610 Y6.7988
G01 X36.2359 Y6.7898
G01 X36.2000 Y6.7808
G01 X36.1696 Y6.7764
G01 X36.1506 Y6.7754
G00 Z2.0000
G00 X36.2524 Y6.6888
G01 F30.00
G01 Z-0.1300
G01 F50.00
G01 X36.2524 Y6.5461
G01 X36.3808 Y6.5887
G01 X36.4940 Y6.6588
G01 X36.5882 Y6.7531
G01 X36.6581 Y6.8665
G01 X36.7004 Y6.9942
G01 X36.7081 Y7.0688
G01 X36.7081 Y7.3190
G01 X36.5734 Y7.3190
G01 X36.5734 Y7.1096
G01 X36.5720 Y7.0760
G01 X36.5708 Y7.0623
G01 X36.5650 Y7.0245
G01 X36.5546 Y6.9829
G01 X36.5402 Y6.9425
G01 X36.5240 Y6.9079
G01 X36.5173 Y6.8958
G01 X36.4998 Y6.8670
G01 X36.4743 Y6.8326
G01 X36.4455 Y6.8009
G01 X36.4138 Y6.7721
G01 X36.3793 Y6.7466
G01 X36.3506 Y6.7291
G01 X36.3385 Y6.7224
G01 X36.3122 Y6.7099
G01 X36.2996 Y6.7045
G01 X36.2679 Y6.6932
G01 X36.2524 Y6.6888
G00 Z2.0000
G00 X40.8847 Y5.1673
G01 F30.00
G01 Z-0.1300
G01 F50.00
G01 X40.9041 Y4.9243
G01 X40.9602 Y4.6905
G01 X41.0532 Y4.4653
G01 X41.1296 Y4.3402
G01 X41.3770 Y4.5875
G01 X41.3687 Y4.6022
G01 X41.3198 Y4.7059
G01 X41.2811 Y4.8137
G01 X41.2787 Y4.8217
G01 X41.2509 Y4.9328
G01 X41.2340 Y5.0461
G01 X41.2332 Y5.0544
G01 X41.2277 Y5.1688
G01 X41.2332 Y5.2833
G01 X41.2340 Y5.2916
G01 X41.2509 Y5.4049
G01 X41.2787 Y5.5160
G01 X41.2811 Y5.5240
G01 X41.3198 Y5.6318
G01 X41.3687 Y5.7354
G01 X41.3770 Y5.7502
G01 X41.1296 Y5.9975
G01 X41.0532 Y5.8724
G01 X40.9602 Y5.6472
G01 X40.9036 Y5.4102
G01 X40.8847 Y5.1673
G00 Z2.0000
G00 X40.9867 Y5.1688
G01 F30.00
G01 Z-0.1300
G01 F50.00
G01 X41.0046 Y4.9419
G01 X41.0577 Y4.7205
G01 X41.1449 Y4.5102
G01 X41.1490 Y4.5035
G01 X41.2534 Y4.6079
G01 X41.2294 Y4.6585
G01 X41.2240 Y4.6711
G01 X41.1837 Y4.7837
G01 X41.1799 Y4.7969
G01 X41.1520 Y4.9085
G01 X41.1495 Y4.9220
G01 X41.1322 Y5.0403
G01 X41.1259 Y5.1688
G01 X41.1322 Y5.2974
G01 X41.1495 Y5.4157
G01 X41.1520 Y5.4292
G01 X41.1799 Y5.5408
G01 X41.1837 Y5.5540
G01 X41.2240 Y5.6665
G01 X41.2294 Y5.6792
G01 X41.2534 Y5.7298
G01 X41.1490 Y5.8342
G01 X41.1449 Y5.8275
G01 X41.0577 Y5.6172
G01 X41.0046 Y5.3958
G01 X40.9867 Y5.1688
G00 Z2.0000
G00 X41.6089 Y6.4767
G01 F30.00
G01 Z-0.1300
G01 F50.00
G01 X41.8562 Y6.2294
G01 X41.8709 Y6.2377
G01 X41.9746 Y6.2866
G01 X42.0824 Y6.3253
G01 X42.0904 Y6.3277
G01 X42.2015 Y6.3554
G01 X42.3148 Y6.3724
G01 X42.3231 Y6.3732
G01 X42.4375 Y6.3787
G01 X42.5520 Y6.3732
G01 X42.5603 Y6.3724
G01 X42.6736 Y6.3554
G01 X42.7847 Y6.3277
G01 X42.7927 Y6.3253
G01 X42.9005 Y6.2866
G01 X43.0041 Y6.2377
G01 X43.0189 Y6.2294
G01 X43.2662 Y6.4767
G01 X43.1411 Y6.5531
G01 X42.9159 Y6.6462
G01 X42.6789 Y6.7028
G01 X42.4359 Y6.7217
G01 X42.1930 Y6.7023
G01 X41.9592 Y6.6462
G01 X41.7340 Y6.5531
G01 X41.6089 Y6.4767
G00 Z2.0000
G00 X41.7722 Y6.4574
G01 F30.00
G01 Z-0.1300
G01 F50.00
G01 X41.8766 Y6.3530
G01 X41.9272 Y6.3770
G01 X41.9398 Y6.3824
G01 X42.0524 Y6.4227
G01 X42.0656 Y6.4265
G01 X42.1772 Y6.4544
G01 X42.1907 Y6.4569
G01 X42.3090 Y6.4742
G01 X42.4375 Y6.4805
G01 X42.5661 Y6.4742
G01 X42.6844 Y6.4569
G01 X42.6979 Y6.4544
G01 X42.8095 Y6.4265
G01 X42.8227 Y6.4227
G01 X42.9352 Y6.3824
G01 X42.9479 Y6.3770
G01 X42.9985 Y6.3530
G01 X43.1029 Y6.4574
G01 X43.0962 Y6.4615
G01 X42.8859 Y6.5486
G01 X42.6645 Y6.6018
G01 X42.4375 Y6.6196
G01 X42.2106 Y6.6018
G01 X41.9892 Y6.5486
G01 X41.7789 Y6.4615
G01 X41.7722 Y6.4574
G00 Z2.0000
G00 X41.6089 Y8.9410
G01 F30.00
G01 Z-0.1300
G01 F50.00
G01 X41.7340 Y8.8646
G01 X41.9592 Y8.7715
G01 X42.1962 Y8.7149
G01 X42.4391 Y8.6960
G01 X42.6820 Y8.7154
G01 X42.9159 Y8.7715
G01 X43.1411 Y8.8646
G01 X43.2662 Y8.9410
G01 X43.0189 Y9.1883
G01 X43.0041 Y9.1800
G01 X42.9005 Y9.1311
G01 X42.7927 Y9.0924
G01 X42.7847 Y9.0900
G01 X42.6736 Y9.0622
G01 X42.5603 Y9.0453
G01 X42.5520 Y9.0445
G01 X42.4375 Y9.0390
G01 X42.3231 Y9.0445
G01 X42.3148 Y9.0453
G01 X42.2015 Y9.0622
G01 X42.0904 Y9.0900
G01 X42.0824 Y9.0924
G01 X41.9746 Y9.1311
G01 X41.8709 Y9.1800
G01 X41.8562 Y9.1883
G01 X41.6089 Y8.9410
G00 Z2.0000
G00 X41.7722 Y8.9603
G01 F30.00
G01 Z-0.1300
G01 F50.00
G01 X41.7789 Y8.9562
G01 X41.9892 Y8.8691
G01 X42.2106 Y8.8159
G01 X42.4375 Y8.7980
G01 X42.6645 Y8.8159
G01 X42.8859 Y8.8691
G01 X43.0962 Y8.9562
G01 X43.1029 Y8.9603
G01 X42.9985 Y9.0647
G01 X42.9479 Y9.0407
G01 X42.9352 Y9.0353
G01 X42.8227 Y8.9950
G01 X42.8095 Y8.9912
G01 X42.6979 Y8.9633
G01 X42.6844 Y8.9608
G01 X42.5661 Y8.9435
G01 X42.4375 Y8.9372
G01 X42.3090 Y8.9435
G01 X42.1907 Y8.9608
G01 X42.1772 Y8.9633
G01 X42.0656 Y8.9912
G01 X42.0524 Y8.9950
G01 X41.9398 Y9.0353
G01 X41.9272 Y9.0407
G01 X41.8766 Y9.0647
G01 X41.7722 Y8.9603
G00 Z2.0000
G00 X40.9867 Y10.2488
G01 F30.00
G01 Z-0.1300
G01 F50.00
G01 X41.0046 Y10.0219
G01 X41.0577 Y9.8005
G01 X41.1449 Y9.5902
G01 X41.1490 Y9.5835
G01 X41.2534 Y9.6879
G01 X41.2294 Y9.7385
G01 X41.2240 Y9.7511
G01 X41.1837 Y9.8637
G01 X41.1799 Y9.8769
G01 X41.1520 Y9.9885
G01 X41.1495 Y10.0020
G01 X41.1322 Y10.1203
G01 X41.1259 Y10.2488
G01 X41.1322 Y10.3774
G01 X41.1495 Y10.4957
G01 X41.1520 Y10.5092
G01 X41.1799 Y10.6208
G01 X41.1837 Y10.6340
G01 X41.2240 Y10.7465
G01 X41.2294 Y10.7592
G01 X41.2534 Y10.8098
G01 X41.1490 Y10.9142
G01 X41.1449 Y10.9075
G01 X41.0577 Y10.6972
G01 X41.0046 Y10.4758
G01 X40.9867 Y10.2488
G00 Z2.0000
G00 X40.8847 Y10.2473
G01 F30.00
G01 Z-0.1300
G01 F50.00
G01 X40.9041 Y10.0043
G01 X40.9602 Y9.7705
G01 X41.0532 Y9.5453
G01 X41.1296 Y9.4202
G01 X41.3770 Y9.6675
G01 X41.3687 Y9.6822
G01 X41.3198 Y9.7859
G01 X41.2811 Y9.8937
G01 X41.2787 Y9.9017
G01 X41.2509 Y10.0128
G01 X41.2340 Y10.1261
G01 X41.2332 Y10.1344
G01 X41.2277 Y10.2488
G01 X41.2332 Y10.3633
G01 X41.2340 Y10.3716
G01 X41.2509 Y10.4849
G01 X41.2787 Y10.5960
G01 X41.2811 Y10.6040
G01 X41.3198 Y10.7118
G01 X41.3687 Y10.8154
G01 X41.3770 Y10.8302
G01 X41.1296 Y11.0775
G01 X41.0532 Y10.9524
G01 X40.9602 Y10.7272
G01 X40.9036 Y10.4902
G01 X40.8847 Y10.2473
G00 Z2.0000
G00 X41.6089 Y11.5567
G01 F30.00
G01 Z-0.1300
G01 F50.00
G01 X41.8562 Y11.3094
G01 X41.8709 Y11.3177
G01 X41.9746 Y11.3666
G01 X42.0824 Y11.4053
G01 X42.0904 Y11.4077
G01 X42.2015 Y11.4354
G01 X42.3148 Y11.4524
G01 X42.3231 Y11.4532
G01 X42.4375 Y11.4587
G01 X42.5520 Y11.4532
G01 X42.5603 Y11.4524
G01 X42.6736 Y11.4354
G01 X42.7847 Y11.4077
G01 X42.7927 Y11.4053
G01 X42.9005 Y11.3666
G01 X43.0041 Y11.3177
G01 X43.0189 Y11.3094
G01 X43.2662 Y11.5567
G01 X43.1411 Y11.6331
G01 X42.9159 Y11.7262
G01 X42.6789 Y11.7828
G01 X42.4359 Y11.8017
G01 X42.1930 Y11.7823
G01 X41.9592 Y11.7262
G01 X41.7340 Y11.6331
G01 X41.6089 Y11.5567
G00 Z2.0000
G00 X41.7722 Y11.5374
G01 F30.00
G01 Z-0.1300
G01 F50.00
G01 X41.8766 Y11.4330
G01 X41.9272 Y11.4570
G01 X41.9398 Y11.4624
G01 X42.0524 Y11.5027
G01 X42.0656 Y11.5065
G01 X42.1772 Y11.5344
G01 X42.1907 Y11.5369
G01 X42.3090 Y11.5542
G01 X42.4375 Y11.5605
G01 X42.5661 Y11.5542
G01 X42.6844 Y11.5369
G01 X42.6979 Y11.5344
G01 X42.8095 Y11.5065
G01 X42.8227 Y11.5027
G01 X42.9352 Y11.4624
G01 X42.9479 Y11.4570
G01 X42.9985 Y11.4330
G01 X43.1029 Y11.5374
G01 X43.0962 Y11.5415
G01 X42.8859 Y11.6286
G01 X42.6645 Y11.6818
G01 X42.4375 Y11.6996
G01 X42.2106 Y11.6818
G01 X41.9892 Y11.6286
G01 X41.7789 Y11.5415
G01 X41.7722 Y11.5374
G00 Z2.0000
G00 X43.7163 Y13.0724
G01 F30.00
G01 Z-0.1300
G01 F50.00
G01 X43.7215 Y13.0391
G01 X43.7294 Y13.0063
G01 X43.7333 Y12.9931
G01 X43.7446 Y12.9614
G01 X43.7500 Y12.9488
G01 X43.7646 Y12.9184
G01 X43.7842 Y12.8855
G01 X43.7919 Y12.8742
G01 X43.8122 Y12.8472
G01 X43.8347 Y12.8221
G01 X43.8442 Y12.8123
G01 X43.8727 Y12.7867
G01 X43.9034 Y12.7638
G01 X43.9149 Y12.7563
G01 X43.9439 Y12.7391
G01 X43.9743 Y12.7245
G01 X43.9869 Y12.7191
G01 X44.0143 Y12.7093
G01 X44.0318 Y12.7039
G01 X44.0601 Y12.6969
G01 X44.0691 Y12.6951
G01 X44.0978 Y12.6908
G01 X44.1115 Y12.6893
G01 X44.1497 Y12.6876
G01 X44.5407 Y12.6876
G01 X44.5407 Y8.8381
G01 X44.5181 Y8.8300
G01 X44.5055 Y8.8246
G01 X44.4145 Y8.7816
G01 X44.3984 Y8.7729
G01 X44.3044 Y8.7163
G01 X44.2161 Y8.6511
G01 X44.2054 Y8.6425
G01 X44.1208 Y8.5656
G01 X44.0409 Y8.4775
G01 X43.9701 Y8.3820
G01 X43.9112 Y8.2840
G01 X43.9048 Y8.2718
G01 X43.8581 Y8.1725
G01 X43.8209 Y8.0693
G01 X43.8156 Y8.0517
G01 X43.7912 Y7.9542
G01 X43.7876 Y7.9362
G01 X43.7717 Y7.8276
G01 X43.7659 Y7.7088
G01 X43.7717 Y7.5901
G01 X43.7883 Y7.4770
G01 X43.7912 Y7.4635
G01 X43.8156 Y7.3659
G01 X43.8209 Y7.3484
G01 X43.8581 Y7.2452
G01 X43.9089 Y7.1377
G01 X43.9701 Y7.0357
G01 X44.0353 Y6.9474
G01 X44.0469 Y6.9332
G01 X44.1144 Y6.8587
G01 X44.1274 Y6.8457
G01 X44.2089 Y6.7722
G01 X44.3044 Y6.7014
G01 X44.4064 Y6.6402
G01 X44.5055 Y6.5931
G01 X44.5224 Y6.5861
G01 X44.6171 Y6.5522
G01 X44.6346 Y6.5469
G01 X44.7412 Y6.5205
G01 X44.8542 Y6.5035
G01 X44.8679 Y6.5023
G01 X44.9775 Y6.4972
G01 X45.0963 Y6.5030
G01 X45.2139 Y6.5205
G01 X45.3293 Y6.5494
G01 X45.4412 Y6.5894
G01 X45.5487 Y6.6402
G01 X45.6507 Y6.7014
G01 X45.7390 Y6.7666
G01 X45.7532 Y6.7782
G01 X45.8277 Y6.8457
G01 X45.8406 Y6.8587
G01 X45.9142 Y6.9402
G01 X45.9797 Y7.0282
G01 X45.9899 Y7.0434
G01 X46.0461 Y7.1377
G01 X46.0970 Y7.2452
G01 X46.1370 Y7.3571
G01 X46.1639 Y7.4635
G01 X46.1675 Y7.4815
G01 X46.1834 Y7.5901
G01 X46.1892 Y7.7088
G01 X46.1834 Y7.8276
G01 X46.1675 Y7.9362
G01 X46.1639 Y7.9542
G01 X46.1395 Y8.0517
G01 X46.1342 Y8.0693
G01 X46.0970 Y8.1725
G01 X46.0503 Y8.2718
G01 X46.0439 Y8.2840
G01 X45.9850 Y8.3820
G01 X45.9142 Y8.4775
G01 X45.8343 Y8.5656
G01 X45.7497 Y8.6425
G01 X45.7390 Y8.6511
G01 X45.6507 Y8.7163
G01 X45.5567 Y8.7729
G01 X45.5405 Y8.7816
G01 X45.4496 Y8.8246
G01 X45.4370 Y8.8300
G01 X45.4143 Y8.8381
G01 X45.4143 Y12.6876
G01 X45.4543 Y12.6876
G01 X45.4834 Y12.6890
G01 X45.4971 Y12.6902
G01 X45.5349 Y12.6960
G01 X45.5721 Y12.7051
G01 X45.5852 Y12.7093
G01 X45.6126 Y12.7191
G01 X45.6211 Y12.7226
G01 X45.6474 Y12.7350
G01 X45.6636 Y12.7437
G01 X45.6885 Y12.7587
G01 X45.6961 Y12.7638
G01 X45.7268 Y12.7867
G01 X45.7585 Y12.8155
G01 X45.7873 Y12.8472
G01 X45.8102 Y12.8779
G01 X45.8177 Y12.8894
G01 X45.8348 Y12.9184
G01 X45.8514 Y12.9529
G01 X45.8565 Y12.9657
G01 X45.8662 Y12.9931
G01 X45.8716 Y13.0125
G01 X56.3028 Y13.0125
G01 X56.6307 Y12.6846
G01 X56.6154 Y12.6807
G01 X56.6024 Y12.6762
G01 X56.5897 Y12.6708
G01 X56.5736 Y12.6622
G01 X56.5583 Y12.6520
G01 X56.5476 Y12.6434
G01 X56.5375 Y12.6340
G01 X56.5282 Y12.6240
G01 X56.5196 Y12.6132
G01 X56.5118 Y12.6019
G01 X56.5028 Y12.5860
G01 X56.4971 Y12.5735
G01 X56.4923 Y12.5606
G01 X56.4885 Y12.5474
G01 X56.4849 Y12.5294
G01 X56.4834 Y12.5158
G01 X56.4829 Y12.5020
G01 X56.4831 Y11.4429
G01 X56.4849 Y11.4247
G01 X56.4874 Y11.4111
G01 X56.4923 Y11.3935
G01 X56.4989 Y11.3764
G01 X56.5071 Y11.3600
G01 X56.5143 Y11.3483
G01 X56.5252 Y11.3336
G01 X56.5375 Y11.3201
G01 X56.5511 Y11.3077
G01 X56.5658 Y11.2968
G01 X56.5815 Y11.2874
G01 X56.5939 Y11.2814
G01 X56.6110 Y11.2748
G01 X56.6242 Y11.2710
G01 X56.6422 Y11.2674
G01 X56.6604 Y11.2656
G01 X57.6695 Y11.2654
G01 X57.6833 Y11.2659
G01 X57.6969 Y11.2674
G01 X57.7149 Y11.2710
G01 X57.7324 Y11.2763
G01 X57.7452 Y11.2814
G01 X57.7575 Y11.2874
G01 X57.7732 Y11.2968
G01 X57.7844 Y11.3049
G01 X57.7983 Y11.3169
G01 X57.8079 Y11.3267
G01 X57.8195 Y11.3408
G01 X57.8297 Y11.3561
G01 X57.8363 Y11.3681
G01 X57.8420 Y11.3806
G01 X57.8482 Y11.3979
G01 X57.8526 Y11.4156
G01 X57.8548 Y11.4292
G01 X57.8560 Y11.4429
G01 X57.8562 Y11.4520
G01 X57.8562 Y12.5066
G01 X57.8557 Y12.5158
G01 X57.8542 Y12.5294
G01 X57.8517 Y12.5429
G01 X57.8494 Y12.5518
G01 X57.8468 Y12.5606
G01 X57.8420 Y12.5735
G01 X57.8342 Y12.5900
G01 X57.8248 Y12.6058
G01 X57.8167 Y12.6169
G01 X57.8079 Y12.6274
G01 X57.7983 Y12.6372
G01 X57.7880 Y12.6463
G01 X57.7732 Y12.6573
G01 X57.7575 Y12.6667
G01 X57.7452 Y12.6727
G01 X57.7324 Y12.6778
G01 X57.7193 Y12.6820
G01 X57.7060 Y12.6851
G01 X57.6924 Y12.6873
G01 X57.6741 Y12.6887
G01 X57.6063 Y12.6887
G01 X57.6063 Y12.7680
G01 X57.6042 Y12.8063
G01 X57.5979 Y12.8487
G01 X57.5888 Y12.8858
G01 X57.5847 Y12.8989
G01 X57.5731 Y12.9306
G01 X57.5548 Y12.9694
G01 X57.5327 Y13.0061
G01 X57.5101 Y13.0370
G01 X57.5012 Y13.0475
G01 X57.4784 Y13.0723
G01 X56.7926 Y13.7581
G01 X56.7608 Y13.7869
G01 X56.7339 Y13.8072
G01 X56.7187 Y13.8173
G01 X56.6937 Y13.8323
G01 X56.6815 Y13.8386
G01 X56.6509 Y13.8528
G01 X56.6105 Y13.8672
G01 X56.5690 Y13.8776
G01 X56.5311 Y13.8834
G01 X56.5174 Y13.8846
G01 X56.4837 Y13.8860
G01 X45.8716 Y13.8860
G01 X45.8662 Y13.9054
G01 X45.8549 Y13.9371
G01 X45.8514 Y13.9456
G01 X45.8390 Y13.9719
G01 X45.8326 Y13.9841
G01 X45.8128 Y14.0168
G01 X45.7929 Y14.0440
G01 X45.7813 Y14.0582
G01 X45.7617 Y14.0797
G01 X45.7552 Y14.0862
G01 X45.7268 Y14.1118
G01 X45.6998 Y14.1320
G01 X45.6885 Y14.1398
G01 X45.6556 Y14.1594
G01 X45.6168 Y14.1777
G01 X45.5852 Y14.1892
G01 X45.5677 Y14.1946
G01 X45.5394 Y14.2016
G01 X45.5304 Y14.2034
G01 X45.4925 Y14.2088
G01 X45.4497 Y14.2109
G01 X44.1497 Y14.2109
G01 X44.1115 Y14.2092
G01 X44.1024 Y14.2083
G01 X44.0736 Y14.2041
G01 X44.0556 Y14.2005
G01 X44.0230 Y14.1921
G01 X43.9826 Y14.1777
G01 X43.9480 Y14.1615
G01 X43.9359 Y14.1548
G01 X43.9071 Y14.1373
G01 X43.8763 Y14.1147
G01 X43.8692 Y14.1088
G01 X43.8476 Y14.0893
G01 X43.8347 Y14.0764
G01 X43.8122 Y14.0513
G01 X43.7893 Y14.0206
G01 X43.7842 Y14.0130
G01 X43.7691 Y13.9881
G01 X43.7625 Y13.9760
G01 X43.7463 Y13.9414
G01 X43.7347 Y13.9097
G01 X43.7294 Y13.8922
G01 X43.7224 Y13.8639
G01 X43.7206 Y13.8549
G01 X43.7152 Y13.8170
G01 X43.7131 Y13.7788
G01 X43.7131 Y13.1242
G01 X43.7148 Y13.0860
G01 X43.7163 Y13.0724
G00 Z2.0000
G00 X43.8170 Y13.0873
G01 F30.00
G01 Z-0.1300
G01 F50.00
G01 X43.8213 Y13.0589
G01 X43.8282 Y13.0311
G01 X43.8306 Y13.0231
G01 X43.8404 Y12.9961
G01 X43.8526 Y12.9701
G01 X43.8565 Y12.9628
G01 X43.8713 Y12.9382
G01 X43.8896 Y12.9134
G01 X43.9101 Y12.8905
G01 X43.9160 Y12.8846
G01 X43.9373 Y12.8654
G01 X43.9603 Y12.8482
G01 X43.9672 Y12.8436
G01 X43.9919 Y12.8289
G01 X44.0178 Y12.8166
G01 X44.0255 Y12.8134
G01 X44.0525 Y12.8038
G01 X44.0844 Y12.7958
G01 X44.1169 Y12.7910
G01 X44.1456 Y12.7895
G01 X44.6426 Y12.7894
G01 X44.6426 Y8.7664
G01 X44.5528 Y8.7342
G01 X44.4544 Y8.6876
G01 X44.3609 Y8.6317
G01 X44.2735 Y8.5668
G01 X44.1928 Y8.4936
G01 X44.1196 Y8.4129
G01 X44.0547 Y8.3254
G01 X44.0008 Y8.2357
G01 X43.9969 Y8.2283
G01 X43.9539 Y8.1374
G01 X43.9507 Y8.1297
G01 X43.9155 Y8.0310
G01 X43.8899 Y7.9294
G01 X43.8883 Y7.9213
G01 X43.8730 Y7.8176
G01 X43.8677 Y7.7088
G01 X43.8730 Y7.6001
G01 X43.8886 Y7.4944
G01 X43.9144 Y7.3907
G01 X43.9168 Y7.3827
G01 X43.9522 Y7.2841
G01 X43.9987 Y7.1857
G01 X44.0547 Y7.0922
G01 X44.1171 Y7.0080
G01 X44.1223 Y7.0016
G01 X44.1899 Y6.9271
G01 X44.1958 Y6.9212
G01 X44.2735 Y6.8509
G01 X44.3609 Y6.7860
G01 X44.4544 Y6.7300
G01 X44.5490 Y6.6852
G01 X44.5567 Y6.6820
G01 X44.6514 Y6.6481
G01 X44.6594 Y6.6457
G01 X44.7610 Y6.6203
G01 X44.8667 Y6.6046
G01 X44.9775 Y6.5990
G01 X45.0863 Y6.6043
G01 X45.1941 Y6.6203
G01 X45.2997 Y6.6468
G01 X45.4023 Y6.6835
G01 X45.5007 Y6.7300
G01 X45.5941 Y6.7860
G01 X45.6816 Y6.8509
G01 X45.7623 Y6.9241
G01 X45.8355 Y7.0048
G01 X45.9003 Y7.0922
G01 X45.9563 Y7.1857
G01 X46.0029 Y7.2841
G01 X46.0396 Y7.3867
G01 X46.0661 Y7.4923
G01 X46.0815 Y7.5959
G01 X46.0824 Y7.6042
G01 X46.0874 Y7.7088
G01 X46.0824 Y7.8135
G01 X46.0815 Y7.8218
G01 X46.0668 Y7.9213
G01 X46.0652 Y7.9294
G01 X46.0396 Y8.0310
G01 X46.0029 Y8.1336
G01 X45.9563 Y8.2320
G01 X45.9003 Y8.3254
G01 X45.8355 Y8.4129
G01 X45.7652 Y8.4906
G01 X45.7593 Y8.4965
G01 X45.6848 Y8.5641
G01 X45.6783 Y8.5693
G01 X45.5941 Y8.6317
G01 X45.5007 Y8.6876
G01 X45.4023 Y8.7342
G01 X45.3125 Y8.7664
G01 X45.3125 Y12.7894
G01 X45.4518 Y12.7894
G01 X45.4826 Y12.7910
G01 X45.5130 Y12.7954
G01 X45.5469 Y12.8038
G01 X45.5779 Y12.8149
G01 X45.6076 Y12.8289
G01 X45.6375 Y12.8470
G01 X45.6589 Y12.8628
G01 X45.6653 Y12.8681
G01 X45.6865 Y12.8875
G01 X45.7059 Y12.9087
G01 X45.7111 Y12.9151
G01 X45.7282 Y12.9382
G01 X45.7451 Y12.9664
G01 X45.7591 Y12.9961
G01 X45.7708 Y13.0290
G01 X45.7772 Y13.0549
G01 X45.7789 Y13.0630
G01 X45.7830 Y13.0914
G01 X45.7842 Y13.1143
G01 X56.3450 Y13.1143
G01 X56.8346 Y12.6247
G01 X56.8346 Y12.5869
G01 X56.6675 Y12.5869
G01 X56.6612 Y12.5865
G01 X56.6530 Y12.5853
G01 X56.6449 Y12.5832
G01 X56.6371 Y12.5804
G01 X56.6277 Y12.5759
G01 X56.6190 Y12.5702
G01 X56.6110 Y12.5635
G01 X56.6040 Y12.5559
G01 X56.5979 Y12.5474
G01 X56.5928 Y12.5383
G01 X56.5890 Y12.5287
G01 X56.5863 Y12.5186
G01 X56.5851 Y12.5104
G01 X56.5847 Y12.5020
G01 X56.5847 Y11.4500
G01 X56.5851 Y11.4437
G01 X56.5863 Y11.4355
G01 X56.5883 Y11.4274
G01 X56.5904 Y11.4215
G01 X56.5928 Y11.4158
G01 X56.5968 Y11.4084
G01 X56.6014 Y11.4015
G01 X56.6053 Y11.3966
G01 X56.6110 Y11.3906
G01 X56.6173 Y11.3852
G01 X56.6241 Y11.3804
G01 X56.6333 Y11.3753
G01 X56.6410 Y11.3722
G01 X56.6489 Y11.3697
G01 X56.6592 Y11.3678
G01 X56.6675 Y11.3672
G01 X57.6737 Y11.3673
G01 X57.6799 Y11.3678
G01 X57.6881 Y11.3693
G01 X57.6962 Y11.3715
G01 X57.7020 Y11.3737
G01 X57.7077 Y11.3763
G01 X57.7149 Y11.3804
G01 X57.7201 Y11.3839
G01 X57.7265 Y11.3892
G01 X57.7324 Y11.3951
G01 X57.7364 Y11.3998
G01 X57.7401 Y11.4049
G01 X57.7444 Y11.4120
G01 X57.7479 Y11.4196
G01 X57.7507 Y11.4274
G01 X57.7523 Y11.4335
G01 X57.7538 Y11.4417
G01 X57.7544 Y11.4520
G01 X57.7544 Y12.5020
G01 X57.7538 Y12.5124
G01 X57.7518 Y12.5227
G01 X57.7487 Y12.5326
G01 X57.7444 Y12.5420
G01 X57.7389 Y12.5509
G01 X57.7338 Y12.5575
G01 X57.7265 Y12.5649
G01 X57.7201 Y12.5702
G01 X57.7132 Y12.5748
G01 X57.7039 Y12.5796
G01 X57.6942 Y12.5832
G01 X57.6861 Y12.5853
G01 X57.6779 Y12.5865
G01 X57.6695 Y12.5869
G01 X57.5045 Y12.5869
G01 X57.5045 Y12.7655
G01 X57.5029 Y12.7963
G01 X57.4981 Y12.8288
G01 X57.4901 Y12.8607
G01 X57.4805 Y12.8878
G01 X57.4773 Y12.8954
G01 X57.4650 Y12.9214
G01 X57.4503 Y12.9460
G01 X57.4457 Y12.9530
G01 X57.4285 Y12.9760
G01 X57.4064 Y13.0003
G01 X56.7206 Y13.6861
G01 X56.6994 Y13.7055
G01 X56.6946 Y13.7095
G01 X56.6732 Y13.7254
G01 X56.6663 Y13.7300
G01 X56.6416 Y13.7447
G01 X56.6119 Y13.7587
G01 X56.5849 Y13.7685
G01 X56.5770 Y13.7709
G01 X56.5491 Y13.7778
G01 X56.5186 Y13.7824
G01 X56.4837 Y13.7842
G01 X45.7842 Y13.7842
G01 X45.7830 Y13.8071
G01 X45.7782 Y13.8396
G01 X45.7702 Y13.8714
G01 X45.7599 Y13.9005
G01 X45.7469 Y13.9284
G01 X45.7430 Y13.9357
G01 X45.7282 Y13.9603
G01 X45.7072 Y13.9883
G01 X45.6865 Y14.0110
G01 X45.6622 Y14.0331
G01 X45.6358 Y14.0527
G01 X45.6112 Y14.0675
G01 X45.6039 Y14.0714
G01 X45.5798 Y14.0828
G01 X45.5740 Y14.0851
G01 X45.5469 Y14.0947
G01 X45.5151 Y14.1027
G01 X45.4826 Y14.1075
G01 X45.4497 Y14.1091
G01 X44.1497 Y14.1091
G01 X44.1211 Y14.1078
G01 X44.1128 Y14.1070
G01 X44.0865 Y14.1030
G01 X44.0804 Y14.1018
G01 X44.0525 Y14.0947
G01 X44.0216 Y14.0836
G01 X43.9956 Y14.0714
G01 X43.9883 Y14.0675
G01 X43.9637 Y14.0527
G01 X43.9373 Y14.0331
G01 X43.9130 Y14.0110
G01 X43.8936 Y13.9898
G01 X43.8883 Y13.9834
G01 X43.8713 Y13.9603
G01 X43.8544 Y13.9321
G01 X43.8421 Y13.9062
G01 X43.8389 Y13.8985
G01 X43.8293 Y13.8714
G01 X43.8222 Y13.8436
G01 X43.8206 Y13.8355
G01 X43.8165 Y13.8071
G01 X43.8149 Y13.7763
G01 X43.8149 Y13.1242
G01 X43.8162 Y13.0956
G01 X43.8170 Y13.0873
G00 Z2.0000
G00 X44.4389 Y12.4622
G01 F30.00
G01 Z-0.1300
G01 F50.00
G01 X44.4389 Y12.5858
G01 X44.3215 Y12.5858
G01 X44.3375 Y12.5748
G01 X44.3488 Y12.5660
G01 X44.3650 Y12.5518
G01 X44.3751 Y12.5417
G01 X44.3894 Y12.5256
G01 X44.4389 Y12.4622
G00 Z2.0000
G00 X45.5351 Y12.5928
G01 F30.00
G01 Z-0.1300
G01 F50.00
G01 X45.5162 Y12.5900
G01 X45.5162 Y12.5675
G01 X45.5262 Y12.5816
G01 X45.5351 Y12.5928
G00 Z2.0000
G00 X46.6889 Y11.5567
G01 F30.00
G01 Z-0.1300
G01 F50.00
G01 X46.9362 Y11.3094
G01 X46.9509 Y11.3177
G01 X47.0546 Y11.3666
G01 X47.1624 Y11.4053
G01 X47.1704 Y11.4077
G01 X47.2815 Y11.4354
G01 X47.3948 Y11.4524
G01 X47.4031 Y11.4532
G01 X47.5175 Y11.4587
G01 X47.6320 Y11.4532
G01 X47.6403 Y11.4524
G01 X47.7536 Y11.4354
G01 X47.8647 Y11.4077
G01 X47.8727 Y11.4053
G01 X47.9805 Y11.3666
G01 X48.0841 Y11.3177
G01 X48.0989 Y11.3094
G01 X48.3462 Y11.5567
G01 X48.2211 Y11.6331
G01 X47.9959 Y11.7262
G01 X47.7589 Y11.7828
G01 X47.5159 Y11.8017
G01 X47.2730 Y11.7823
G01 X47.0392 Y11.7262
G01 X46.8140 Y11.6331
G01 X46.6889 Y11.5567
G00 Z2.0000
G00 X46.8522 Y11.5374
G01 F30.00
G01 Z-0.1300
G01 F50.00
G01 X46.9566 Y11.4330
G01 X47.0072 Y11.4570
G01 X47.0198 Y11.4624
G01 X47.1324 Y11.5027
G01 X47.1456 Y11.5065
G01 X47.2572 Y11.5344
G01 X47.2707 Y11.5369
G01 X47.3890 Y11.5542
G01 X47.5175 Y11.5605
G01 X47.6461 Y11.5542
G01 X47.7644 Y11.5369
G01 X47.7779 Y11.5344
G01 X47.8895 Y11.5065
G01 X47.9027 Y11.5027
G01 X48.0152 Y11.4624
G01 X48.0279 Y11.4570
G01 X48.0785 Y11.4330
G01 X48.1829 Y11.5374
G01 X48.1762 Y11.5415
G01 X47.9659 Y11.6286
G01 X47.7445 Y11.6818
G01 X47.5175 Y11.6996
G01 X47.2906 Y11.6818
G01 X47.0692 Y11.6286
G01 X46.8589 Y11.5415
G01 X46.8522 Y11.5374
G00 Z2.0000
G00 X45.5162 Y10.6224
G01 F30.00
G01 Z-0.1300
G01 F50.00
G01 X45.5162 Y9.8774
G01 X45.5278 Y9.8937
G01 X45.5368 Y9.9048
G01 X45.5514 Y9.9206
G01 X45.5618 Y9.9305
G01 X45.6208 Y9.9817
G01 X45.6318 Y9.9908
G01 X45.6492 Y10.0034
G01 X45.6675 Y10.0147
G01 X45.6866 Y10.0246
G01 X45.6997 Y10.0304
G01 X45.7131 Y10.0355
G01 X45.7336 Y10.0420
G01 X45.7475 Y10.0454
G01 X45.7616 Y10.0481
G01 X45.8389 Y10.0594
G01 X45.8531 Y10.0610
G01 X45.8746 Y10.0622
G01 X45.8889 Y10.0622
G01 X45.9032 Y10.0614
G01 X45.9175 Y10.0598
G01 X45.9387 Y10.0563
G01 X45.9526 Y10.0530
G01 X45.9732 Y10.0468
G01 X45.9866 Y10.0419
G01 X45.9998 Y10.0362
G01 X46.0644 Y10.0067
G01 X46.0772 Y10.0005
G01 X46.0958 Y9.9900
G01 X46.1077 Y9.9823
G01 X46.1192 Y9.9739
G01 X46.1336 Y9.9622
G01 X46.1312 Y9.9731
G01 X46.1288 Y9.9870
G01 X46.1126 Y10.0962
G01 X46.1109 Y10.1103
G01 X46.1098 Y10.1244
G01 X46.1044 Y10.2347
G01 X46.1041 Y10.2488
G01 X46.1044 Y10.2630
G01 X46.1098 Y10.3733
G01 X46.1109 Y10.3874
G01 X46.1126 Y10.4014
G01 X46.1288 Y10.5107
G01 X46.1312 Y10.5246
G01 X46.1341 Y10.5374
G01 X46.1184 Y10.5233
G01 X46.1014 Y10.5102
G01 X46.0834 Y10.4984
G01 X46.0646 Y10.4879
G01 X46.0517 Y10.4818
G01 X46.0318 Y10.4737
G01 X45.9576 Y10.4490
G01 X45.9439 Y10.4448
G01 X45.9300 Y10.4413
G01 X45.9089 Y10.4373
G01 X45.8947 Y10.4356
G01 X45.8804 Y10.4345
G01 X45.8661 Y10.4342
G01 X45.8446 Y10.4350
G01 X45.8304 Y10.4365
G01 X45.8162 Y10.4386
G01 X45.8022 Y10.4415
G01 X45.7264 Y10.4607
G01 X45.7126 Y10.4646
G01 X45.6990 Y10.4692
G01 X45.6857 Y10.4744
G01 X45.6726 Y10.4803
G01 X45.6536 Y10.4903
G01 X45.6414 Y10.4978
G01 X45.6238 Y10.5101
G01 X45.6071 Y10.5237
G01 X45.5966 Y10.5334
G01 X45.5866 Y10.5437
G01 X45.5334 Y10.6009
G01 X45.5243 Y10.6118
G01 X45.5162 Y10.6224
G00 Z2.0000
G00 X45.6180 Y10.3938
G01 F30.00
G01 Z-0.1300
G01 F50.00
G01 X45.6180 Y10.1037
G01 X45.6432 Y10.1167
G01 X45.6609 Y10.1245
G01 X45.6790 Y10.1315
G01 X45.7067 Y10.1402
G01 X45.7255 Y10.1448
G01 X45.7446 Y10.1485
G01 X45.8244 Y10.1601
G01 X45.8437 Y10.1624
G01 X45.8630 Y10.1637
G01 X45.8824 Y10.1641
G01 X45.9114 Y10.1628
G01 X45.9307 Y10.1608
G01 X45.9499 Y10.1578
G01 X45.9689 Y10.1539
G01 X45.9876 Y10.1490
G01 X46.0070 Y10.1429
G01 X46.0027 Y10.2297
G01 X46.0022 Y10.2488
G01 X46.0027 Y10.2680
G01 X46.0071 Y10.3581
G01 X45.9806 Y10.3494
G01 X45.9619 Y10.3442
G01 X45.9430 Y10.3399
G01 X45.9143 Y10.3353
G01 X45.8853 Y10.3328
G01 X45.8659 Y10.3324
G01 X45.8466 Y10.3329
G01 X45.8272 Y10.3344
G01 X45.8080 Y10.3368
G01 X45.7794 Y10.3422
G01 X45.6919 Y10.3646
G01 X45.6733 Y10.3703
G01 X45.6551 Y10.3769
G01 X45.6373 Y10.3845
G01 X45.6180 Y10.3938
G00 Z2.0000
G00 X45.7198 Y10.2522
G01 F30.00
G01 Z-0.1300
G01 F50.00
G01 X45.7198 Y10.2475
G01 X45.7308 Y10.2494
G01 X45.7198 Y10.2522
G00 Z2.0000
G00 X44.4389 Y9.8753
G01 F30.00
G01 Z-0.1300
G01 F50.00
G01 X44.4389 Y10.6203
G01 X44.4273 Y10.6040
G01 X44.4182 Y10.5929
G01 X44.4037 Y10.5771
G01 X44.3933 Y10.5672
G01 X44.3343 Y10.5160
G01 X44.3232 Y10.5069
G01 X44.3058 Y10.4942
G01 X44.2876 Y10.4830
G01 X44.2685 Y10.4731
G01 X44.2554 Y10.4673
G01 X44.2420 Y10.4622
G01 X44.2215 Y10.4557
G01 X44.2076 Y10.4523
G01 X44.1935 Y10.4495
G01 X44.1162 Y10.4383
G01 X44.1019 Y10.4366
G01 X44.0876 Y10.4357
G01 X44.0733 Y10.4354
G01 X44.0518 Y10.4363
G01 X44.0305 Y10.4389
G01 X44.0164 Y10.4414
G01 X44.0025 Y10.4447
G01 X43.9819 Y10.4509
G01 X43.9684 Y10.4558
G01 X43.9553 Y10.4615
G01 X43.8907 Y10.4910
G01 X43.8779 Y10.4972
G01 X43.8593 Y10.5077
G01 X43.8474 Y10.5154
G01 X43.8359 Y10.5238
G01 X43.8215 Y10.5355
G01 X43.8239 Y10.5246
G01 X43.8263 Y10.5107
G01 X43.8425 Y10.4014
G01 X43.8442 Y10.3874
G01 X43.8453 Y10.3733
G01 X43.8507 Y10.2630
G01 X43.8510 Y10.2488
G01 X43.8507 Y10.2347
G01 X43.8453 Y10.1244
G01 X43.8442 Y10.1103
G01 X43.8425 Y10.0962
G01 X43.8263 Y9.9870
G01 X43.8239 Y9.9731
G01 X43.8210 Y9.9603
G01 X43.8367 Y9.9744
G01 X43.8537 Y9.9875
G01 X43.8717 Y9.9993
G01 X43.8904 Y10.0098
G01 X43.9034 Y10.0159
G01 X43.9233 Y10.0240
G01 X43.9974 Y10.0487
G01 X44.0111 Y10.0529
G01 X44.0250 Y10.0564
G01 X44.0462 Y10.0604
G01 X44.0604 Y10.0621
G01 X44.0747 Y10.0632
G01 X44.0962 Y10.0634
G01 X44.1105 Y10.0627
G01 X44.1247 Y10.0612
G01 X44.1389 Y10.0591
G01 X44.1529 Y10.0562
G01 X44.2287 Y10.0370
G01 X44.2425 Y10.0331
G01 X44.2561 Y10.0285
G01 X44.2760 Y10.0204
G01 X44.2889 Y10.0142
G01 X44.3015 Y10.0074
G01 X44.3137 Y9.9999
G01 X44.3313 Y9.9876
G01 X44.3425 Y9.9787
G01 X44.3585 Y9.9643
G01 X44.3685 Y9.9540
G01 X44.4216 Y9.8968
G01 X44.4308 Y9.8859
G01 X44.4389 Y9.8753
G00 Z2.0000
G00 X44.3371 Y10.1039
G01 F30.00
G01 Z-0.1300
G01 F50.00
G01 X44.3371 Y10.3940
G01 X44.3119 Y10.3810
G01 X44.2942 Y10.3732
G01 X44.2761 Y10.3662
G01 X44.2484 Y10.3575
G01 X44.2295 Y10.3529
G01 X44.2105 Y10.3492
G01 X44.1307 Y10.3376
G01 X44.1114 Y10.3353
G01 X44.0921 Y10.3339
G01 X44.0727 Y10.3336
G01 X44.0436 Y10.3348
G01 X44.0244 Y10.3369
G01 X44.0052 Y10.3399
G01 X43.9862 Y10.3438
G01 X43.9675 Y10.3487
G01 X43.9481 Y10.3548
G01 X43.9524 Y10.2680
G01 X43.9529 Y10.2488
G01 X43.9524 Y10.2297
G01 X43.9480 Y10.1396
G01 X43.9745 Y10.1483
G01 X43.9932 Y10.1535
G01 X44.0216 Y10.1595
G01 X44.0408 Y10.1624
G01 X44.0698 Y10.1649
G01 X44.0891 Y10.1653
G01 X44.1085 Y10.1648
G01 X44.1279 Y10.1633
G01 X44.1471 Y10.1609
G01 X44.1756 Y10.1555
G01 X44.2632 Y10.1331
G01 X44.2817 Y10.1274
G01 X44.3000 Y10.1208
G01 X44.3178 Y10.1132
G01 X44.3371 Y10.1039
G00 Z2.0000
G00 X44.2353 Y10.2455
G01 F30.00
G01 Z-0.1300
G01 F50.00
G01 X44.2353 Y10.2502
G01 X44.2243 Y10.2483
G01 X44.2353 Y10.2455
G00 Z2.0000
G00 X43.6217 Y9.6879
G01 F30.00
G01 Z-0.1300
G01 F50.00
G01 X43.7261 Y9.5835
G01 X43.7302 Y9.5902
G01 X43.8042 Y9.7687
G01 X43.8117 Y9.7848
G01 X43.8184 Y9.7964
G01 X43.8285 Y9.8109
G01 X43.8758 Y9.8697
G01 X43.8882 Y9.8836
G01 X43.8948 Y9.8900
G01 X43.9054 Y9.8990
G01 X43.9205 Y9.9098
G01 X43.9366 Y9.9190
G01 X43.9535 Y9.9266
G01 X44.0296 Y9.9521
G01 X44.0429 Y9.9560
G01 X44.0565 Y9.9589
G01 X44.0657 Y9.9603
G01 X44.0796 Y9.9615
G01 X44.0935 Y9.9616
G01 X44.1120 Y9.9602
G01 X44.1302 Y9.9570
G01 X44.2035 Y9.9383
G01 X44.2212 Y9.9329
G01 X44.2341 Y9.9276
G01 X44.2424 Y9.9236
G01 X44.2585 Y9.9143
G01 X44.2736 Y9.9035
G01 X44.2875 Y9.8913
G01 X44.3484 Y9.8258
G01 X44.3569 Y9.8149
G01 X44.3621 Y9.8073
G01 X44.3714 Y9.7914
G01 X44.3754 Y9.7832
G01 X44.3807 Y9.7704
G01 X44.3863 Y9.7529
G01 X44.4018 Y9.6873
G01 X44.4042 Y9.6731
G01 X44.4055 Y9.6587
G01 X44.4055 Y9.1043
G01 X44.4049 Y9.0954
G01 X44.4031 Y9.0822
G01 X44.3994 Y9.0648
G01 X44.3768 Y8.9881
G01 X44.3738 Y8.9795
G01 X44.3686 Y8.9669
G01 X44.3625 Y8.9548
G01 X44.3579 Y8.9470
G01 X44.3503 Y8.9357
G01 X44.3419 Y8.9249
G01 X44.3296 Y8.9116
G01 X44.2826 Y8.8659
G01 X44.2718 Y8.8571
G01 X44.2604 Y8.8490
G01 X44.1834 Y8.8018
G01 X44.0222 Y8.6641
G01 X43.8846 Y8.5029
G01 X43.7738 Y8.3222
G01 X43.6927 Y8.1263
G01 X43.6432 Y7.9202
G01 X43.6265 Y7.7088
G01 X43.6432 Y7.4975
G01 X43.6927 Y7.2914
G01 X43.7738 Y7.0955
G01 X43.8846 Y6.9148
G01 X44.0222 Y6.7535
G01 X44.1834 Y6.6159
G01 X44.3642 Y6.5051
G01 X44.5601 Y6.4240
G01 X44.7662 Y6.3745
G01 X44.9775 Y6.3579
G01 X45.1889 Y6.3745
G01 X45.3950 Y6.4240
G01 X45.5909 Y6.5051
G01 X45.7716 Y6.6159
G01 X45.9328 Y6.7535
G01 X46.0705 Y6.9148
G01 X46.1813 Y7.0955
G01 X46.2624 Y7.2914
G01 X46.3119 Y7.4975
G01 X46.3285 Y7.7088
G01 X46.3119 Y7.9202
G01 X46.2624 Y8.1263
G01 X46.1813 Y8.3222
G01 X46.0705 Y8.5029
G01 X45.9328 Y8.6641
G01 X45.7716 Y8.8018
G01 X45.6949 Y8.8489
G01 X45.6840 Y8.8565
G01 X45.6770 Y8.8620
G01 X45.6703 Y8.8679
G01 X45.6608 Y8.8772
G01 X45.6042 Y8.9400
G01 X45.5934 Y8.9546
G01 X45.5841 Y8.9701
G01 X45.5763 Y8.9865
G01 X45.5715 Y8.9992
G01 X45.5666 Y9.0167
G01 X45.5531 Y9.0761
G01 X45.5508 Y9.0899
G01 X45.5496 Y9.1038
G01 X45.5494 Y9.6491
G01 X45.5502 Y9.6668
G01 X45.5527 Y9.6844
G01 X45.5569 Y9.7017
G01 X45.5798 Y9.7786
G01 X45.5867 Y9.7958
G01 X45.5908 Y9.8041
G01 X45.5978 Y9.8162
G01 X45.6029 Y9.8239
G01 X45.6112 Y9.8350
G01 X45.6173 Y9.8421
G01 X45.6269 Y9.8520
G01 X45.6875 Y9.9048
G01 X45.6983 Y9.9135
G01 X45.7137 Y9.9238
G01 X45.7301 Y9.9325
G01 X45.7472 Y9.9396
G01 X45.7649 Y9.9449
G01 X45.7831 Y9.9485
G01 X45.8580 Y9.9592
G01 X45.8719 Y9.9603
G01 X45.8858 Y9.9604
G01 X45.8996 Y9.9594
G01 X45.9134 Y9.9575
G01 X45.9315 Y9.9532
G01 X45.9447 Y9.9489
G01 X45.9575 Y9.9436
G01 X46.0221 Y9.9141
G01 X46.0304 Y9.9101
G01 X46.0424 Y9.9033
G01 X46.0539 Y9.8956
G01 X46.0647 Y9.8871
G01 X46.0750 Y9.8779
G01 X46.0845 Y9.8679
G01 X46.0960 Y9.8535
G01 X46.1299 Y9.8065
G01 X46.1403 Y9.7903
G01 X46.1449 Y9.7819
G01 X46.1509 Y9.7687
G01 X46.2249 Y9.5902
G01 X46.2290 Y9.5835
G01 X46.3334 Y9.6879
G01 X46.3094 Y9.7385
G01 X46.3040 Y9.7511
G01 X46.2637 Y9.8637
G01 X46.2599 Y9.8769
G01 X46.2320 Y9.9885
G01 X46.2295 Y10.0020
G01 X46.2122 Y10.1203
G01 X46.2059 Y10.2488
G01 X46.2122 Y10.3774
G01 X46.2295 Y10.4957
G01 X46.2320 Y10.5092
G01 X46.2599 Y10.6208
G01 X46.2637 Y10.6340
G01 X46.3040 Y10.7465
G01 X46.3094 Y10.7592
G01 X46.3334 Y10.8098
G01 X46.2290 Y10.9142
G01 X46.2249 Y10.9075
G01 X46.1509 Y10.7290
G01 X46.1433 Y10.7129
G01 X46.1343 Y10.6976
G01 X46.1265 Y10.6868
G01 X46.0793 Y10.6280
G01 X46.0669 Y10.6141
G01 X46.0533 Y10.6016
G01 X46.0460 Y10.5958
G01 X46.0346 Y10.5879
G01 X46.0185 Y10.5787
G01 X46.0016 Y10.5711
G01 X45.9255 Y10.5456
G01 X45.9121 Y10.5417
G01 X45.8985 Y10.5388
G01 X45.8848 Y10.5369
G01 X45.8709 Y10.5361
G01 X45.8616 Y10.5361
G01 X45.8431 Y10.5375
G01 X45.8249 Y10.5407
G01 X45.7516 Y10.5594
G01 X45.7339 Y10.5648
G01 X45.7168 Y10.5720
G01 X45.7005 Y10.5809
G01 X45.6852 Y10.5913
G01 X45.6710 Y10.6032
G01 X45.6611 Y10.6130
G01 X45.6066 Y10.6719
G01 X45.5955 Y10.6865
G01 X45.5905 Y10.6942
G01 X45.5837 Y10.7062
G01 X45.5760 Y10.7230
G01 X45.5714 Y10.7360
G01 X45.5688 Y10.7448
G01 X45.5533 Y10.8104
G01 X45.5504 Y10.8294
G01 X45.5494 Y10.8486
G01 X45.5494 Y12.3392
G01 X45.5498 Y12.3525
G01 X45.5507 Y12.3614
G01 X45.5520 Y12.3702
G01 X45.5546 Y12.3832
G01 X45.5783 Y12.4642
G01 X45.5829 Y12.4770
G01 X45.5864 Y12.4853
G01 X45.5925 Y12.4974
G01 X45.6020 Y12.5128
G01 X45.6129 Y12.5272
G01 X45.6252 Y12.5404
G01 X45.6682 Y12.5827
G01 X45.6751 Y12.5888
G01 X45.6860 Y12.5974
G01 X45.6975 Y12.6051
G01 X45.8074 Y12.6731
G01 X45.9169 Y12.7828
G01 X45.9270 Y12.7922
G01 X45.9341 Y12.7980
G01 X45.9490 Y12.8086
G01 X45.9569 Y12.8133
G01 X45.9661 Y12.8182
G01 X45.9993 Y12.8414
G01 X46.0114 Y12.8485
G01 X46.0283 Y12.8565
G01 X46.0459 Y12.8627
G01 X46.0641 Y12.8672
G01 X46.1140 Y12.8755
G01 X46.1272 Y12.8769
G01 X46.1404 Y12.8774
G01 X56.0359 Y12.8774
G01 X56.0536 Y12.8766
G01 X56.0712 Y12.8740
G01 X56.0885 Y12.8699
G01 X56.1566 Y12.8499
G01 X56.1698 Y12.8454
G01 X56.1784 Y12.8420
G01 X56.1950 Y12.8337
G01 X56.2107 Y12.8239
G01 X56.2254 Y12.8126
G01 X56.2388 Y12.7998
G01 X56.2973 Y12.7324
G01 X56.3077 Y12.7177
G01 X56.3167 Y12.7022
G01 X56.3241 Y12.6858
G01 X56.3286 Y12.6731
G01 X56.3311 Y12.6644
G01 X56.3340 Y12.6513
G01 X56.3409 Y12.6087
G01 X56.3439 Y12.5970
G01 X56.3457 Y12.5880
G01 X56.3478 Y12.5698
G01 X56.3483 Y12.5560
G01 X56.3477 Y12.5421
G01 X56.3477 Y12.1860
G01 X56.3472 Y12.1727
G01 X56.3464 Y12.1639
G01 X56.3451 Y12.1551
G01 X56.3424 Y12.1420
G01 X56.3201 Y12.0653
G01 X56.3140 Y12.0478
G01 X56.3084 Y12.0351
G01 X56.3017 Y12.0229
G01 X56.2942 Y12.0112
G01 X56.2858 Y12.0001
G01 X56.2767 Y11.9897
G01 X56.2667 Y11.9799
G01 X56.2096 Y11.9304
G01 X56.1987 Y11.9216
G01 X56.1832 Y11.9112
G01 X56.1667 Y11.9025
G01 X56.1495 Y11.8954
G01 X56.1352 Y11.8910
G01 X56.1352 Y11.7387
G01 X56.2241 Y11.7387
G01 X56.2424 Y11.7373
G01 X56.2560 Y11.7351
G01 X56.2737 Y11.7307
G01 X56.2867 Y11.7262
G01 X56.3035 Y11.7188
G01 X56.3194 Y11.7098
G01 X56.3344 Y11.6992
G01 X56.3483 Y11.6872
G01 X56.3609 Y11.6740
G01 X56.3722 Y11.6595
G01 X56.3820 Y11.6441
G01 X56.3902 Y11.6277
G01 X56.3968 Y11.6106
G01 X56.4006 Y11.5974
G01 X56.4035 Y11.5840
G01 X56.4053 Y11.5703
G01 X56.4062 Y11.5566
G01 X56.4062 Y10.8927
G01 X56.5551 Y10.8927
G01 X56.5698 Y10.9427
G01 X56.5745 Y10.9558
G01 X56.5782 Y10.9643
G01 X56.5845 Y10.9767
G01 X56.5918 Y10.9885
G01 X56.6027 Y11.0035
G01 X56.6119 Y11.0139
G01 X56.6253 Y11.0267
G01 X56.6790 Y11.0732
G01 X56.6899 Y11.0820
G01 X56.6975 Y11.0874
G01 X56.7135 Y11.0969
G01 X56.7261 Y11.1031
G01 X56.7435 Y11.1097
G01 X56.7615 Y11.1146
G01 X56.8226 Y11.1276
G01 X56.8358 Y11.1294
G01 X56.8491 Y11.1302
G01 X57.4855 Y11.1302
G01 X57.4944 Y11.1300
G01 X57.5077 Y11.1289
G01 X57.5165 Y11.1276
G01 X57.5295 Y11.1250
G01 X57.6107 Y11.1013
G01 X57.6238 Y11.0966
G01 X57.6406 Y11.0887
G01 X57.6526 Y11.0818
G01 X57.6678 Y11.0712
G01 X57.6819 Y11.0592
G01 X57.6917 Y11.0493
G01 X57.7442 Y10.9886
G01 X57.7554 Y10.9736
G01 X57.7627 Y10.9617
G01 X57.7671 Y10.9534
G01 X57.7746 Y10.9364
G01 X57.7803 Y10.9186
G01 X57.7862 Y10.8927
G01 X57.9329 Y10.8927
G01 X57.9329 Y11.5520
G01 X57.9331 Y11.5612
G01 X57.9343 Y11.5749
G01 X57.9365 Y11.5885
G01 X57.9396 Y11.6018
G01 X57.9454 Y11.6192
G01 X57.9528 Y11.6360
G01 X57.9571 Y11.6441
G01 X57.9643 Y11.6558
G01 X57.9752 Y11.6705
G01 X57.9875 Y11.6840
G01 X58.0011 Y11.6963
G01 X58.0158 Y11.7073
G01 X58.0275 Y11.7145
G01 X58.0356 Y11.7188
G01 X58.0524 Y11.7262
G01 X58.0654 Y11.7307
G01 X58.0786 Y11.7342
G01 X58.0967 Y11.7373
G01 X58.1150 Y11.7387
G01 X58.2039 Y11.7387
G01 X58.2039 Y11.8949
G01 X58.1789 Y11.9023
G01 X58.1701 Y11.9054
G01 X58.1616 Y11.9088
G01 X58.1490 Y11.9148
G01 X58.1370 Y11.9218
G01 X58.1254 Y11.9296
G01 X58.1146 Y11.9382
G01 X58.1077 Y11.9444
G01 X58.0948 Y11.9578
G01 X58.0484 Y12.0115
G01 X58.0396 Y12.0224
G01 X58.0317 Y12.0339
G01 X58.0225 Y12.0501
G01 X58.0167 Y12.0629
G01 X58.0119 Y12.0760
G01 X58.0070 Y12.0940
G01 X57.9947 Y12.1507
G01 X57.9927 Y12.1639
G01 X57.9916 Y12.1772
G01 X57.9914 Y12.5401
G01 X57.9882 Y12.5688
G01 X57.9547 Y12.6582
G01 X57.8995 Y12.7320
G01 X57.8228 Y12.7894
G01 X57.8122 Y12.7979
G01 X57.8056 Y12.8040
G01 X57.7962 Y12.8137
G01 X57.7875 Y12.8241
G01 X57.7392 Y12.8891
G01 X57.7342 Y12.8966
G01 X57.7274 Y12.9083
G01 X57.7197 Y12.9246
G01 X57.7099 Y12.9512
G01 X57.6918 Y13.0069
G01 X57.6865 Y13.0179
G01 X57.6522 Y13.0705
G01 X57.6211 Y13.1217
G01 X57.6141 Y13.1300
G01 X57.5647 Y13.1770
G01 X56.9355 Y13.8062
G01 X56.9259 Y13.8165
G01 X56.9105 Y13.8345
G01 X56.9048 Y13.8419
G01 X56.8782 Y13.8645
G01 X56.8646 Y13.8771
G01 X56.8447 Y13.8930
G01 X56.8002 Y13.9308
G01 X56.7898 Y13.9374
G01 X56.7330 Y13.9641
G01 X56.6809 Y13.9907
G01 X56.6693 Y13.9947
G01 X56.6078 Y14.0076
G01 X56.5497 Y14.0218
G01 X56.5389 Y14.0228
G01 X56.4708 Y14.0211
G01 X46.1360 Y14.0211
G01 X46.1271 Y14.0216
G01 X46.1139 Y14.0230
G01 X46.1007 Y14.0253
G01 X46.0878 Y14.0286
G01 X46.0108 Y14.0515
G01 X45.9978 Y14.0566
G01 X45.9811 Y14.0649
G01 X45.9691 Y14.0722
G01 X45.9577 Y14.0804
G01 X45.9505 Y14.0863
G01 X45.9354 Y14.0999
G01 X45.9230 Y14.1102
G01 X45.8066 Y14.2261
G01 X45.6931 Y14.2960
G01 X45.5652 Y14.3384
G01 X45.4906 Y14.3461
G01 X44.1090 Y14.3461
G01 X44.0332 Y14.3382
G01 X43.9055 Y14.2956
G01 X43.7921 Y14.2254
G01 X43.6979 Y14.1311
G01 X43.6280 Y14.0176
G01 X43.5856 Y13.8897
G01 X43.5779 Y13.8151
G01 X43.5779 Y13.0835
G01 X43.5858 Y13.0077
G01 X43.6284 Y12.8800
G01 X43.6985 Y12.7666
G01 X43.7929 Y12.6724
G01 X43.9064 Y12.6025
G01 X44.0342 Y12.5601
G01 X44.1223 Y12.5511
G01 X44.1356 Y12.5490
G01 X44.1487 Y12.5459
G01 X44.1616 Y12.5419
G01 X44.2325 Y12.5171
G01 X44.2453 Y12.5117
G01 X44.2536 Y12.5075
G01 X44.2695 Y12.4981
G01 X44.2845 Y12.4871
G01 X44.2982 Y12.4747
G01 X44.3077 Y12.4645
G01 X44.3628 Y12.3939
G01 X44.3680 Y12.3862
G01 X44.3750 Y12.3741
G01 X44.3792 Y12.3657
G01 X44.3847 Y12.3529
G01 X44.3904 Y12.3351
G01 X44.3935 Y12.3215
G01 X44.4032 Y12.2708
G01 X44.4049 Y12.2577
G01 X44.4057 Y12.2445
G01 X44.4057 Y10.8486
G01 X44.4049 Y10.8309
G01 X44.4031 Y10.8177
G01 X44.3994 Y10.8003
G01 X44.3768 Y10.7235
G01 X44.3703 Y10.7061
G01 X44.3620 Y10.6895
G01 X44.3548 Y10.6776
G01 X44.3495 Y10.6700
G01 X44.3378 Y10.6556
G01 X44.3247 Y10.6425
G01 X44.2676 Y10.5929
G01 X44.2568 Y10.5842
G01 X44.2453 Y10.5763
G01 X44.2374 Y10.5716
G01 X44.2208 Y10.5632
G01 X44.2079 Y10.5581
G01 X44.1991 Y10.5552
G01 X44.1811 Y10.5508
G01 X44.1017 Y10.5391
G01 X44.0878 Y10.5377
G01 X44.0786 Y10.5373
G01 X44.0601 Y10.5378
G01 X44.0462 Y10.5395
G01 X44.0371 Y10.5411
G01 X44.0192 Y10.5458
G01 X44.0018 Y10.5522
G01 X43.9330 Y10.5836
G01 X43.9166 Y10.5920
G01 X43.9050 Y10.5994
G01 X43.8939 Y10.6076
G01 X43.8834 Y10.6167
G01 X43.8737 Y10.6264
G01 X43.8619 Y10.6405
G01 X43.8252 Y10.6912
G01 X43.8172 Y10.7032
G01 X43.8102 Y10.7158
G01 X43.8042 Y10.7290
G01 X43.7302 Y10.9075
G01 X43.7261 Y10.9142
G01 X43.6217 Y10.8098
G01 X43.6457 Y10.7592
G01 X43.6511 Y10.7465
G01 X43.6913 Y10.6340
G01 X43.6952 Y10.6208
G01 X43.7231 Y10.5092
G01 X43.7256 Y10.4957
G01 X43.7429 Y10.3774
G01 X43.7492 Y10.2488
G01 X43.7429 Y10.1203
G01 X43.7256 Y10.0020
G01 X43.7231 Y9.9885
G01 X43.6952 Y9.8769
G01 X43.6913 Y9.8637
G01 X43.6511 Y9.7511
G01 X43.6457 Y9.7385
G01 X43.6217 Y9.6879
G00 Z2.0000
G00 X43.4981 Y9.6675
G01 F30.00
G01 Z-0.1300
G01 F50.00
G01 X43.7454 Y9.4202
G01 X43.8218 Y9.5453
G01 X43.8982 Y9.7298
G01 X43.9037 Y9.7406
G01 X43.9106 Y9.7505
G01 X43.9593 Y9.8106
G01 X43.9653 Y9.8165
G01 X43.9737 Y9.8229
G01 X43.9809 Y9.8272
G01 X43.9885 Y9.8309
G01 X44.0658 Y9.8567
G01 X44.0761 Y9.8589
G01 X44.0887 Y9.8599
G01 X44.0992 Y9.8592
G01 X44.1095 Y9.8572
G01 X44.1804 Y9.8391
G01 X44.1883 Y9.8364
G01 X44.1979 Y9.8320
G01 X44.2085 Y9.8251
G01 X44.2180 Y9.8168
G01 X44.2692 Y9.7618
G01 X44.2745 Y9.7552
G01 X44.2779 Y9.7500
G01 X44.2837 Y9.7389
G01 X44.2878 Y9.7270
G01 X44.3021 Y9.6665
G01 X44.3036 Y9.6556
G01 X44.3039 Y9.6491
G01 X44.3038 Y9.1091
G01 X44.3030 Y9.1011
G01 X44.3010 Y9.0912
G01 X44.2805 Y9.0211
G01 X44.2770 Y9.0114
G01 X44.2743 Y9.0058
G01 X44.2701 Y8.9987
G01 X44.2627 Y8.9889
G01 X44.2135 Y8.9408
G01 X44.2032 Y8.9334
G01 X44.1234 Y8.8845
G01 X43.9500 Y8.7364
G01 X43.8019 Y8.5630
G01 X43.6828 Y8.3686
G01 X43.5955 Y8.1579
G01 X43.5423 Y7.9362
G01 X43.5244 Y7.7088
G01 X43.5423 Y7.4815
G01 X43.5955 Y7.2598
G01 X43.6828 Y7.0491
G01 X43.8019 Y6.8547
G01 X43.9500 Y6.6813
G01 X44.1234 Y6.5332
G01 X44.3178 Y6.4141
G01 X44.5285 Y6.3268
G01 X44.7502 Y6.2736
G01 X44.9775 Y6.2557
G01 X45.2049 Y6.2736
G01 X45.4266 Y6.3268
G01 X45.6372 Y6.4141
G01 X45.8317 Y6.5332
G01 X46.0051 Y6.6813
G01 X46.1531 Y6.8547
G01 X46.2723 Y7.0491
G01 X46.3595 Y7.2598
G01 X46.4128 Y7.4815
G01 X46.4307 Y7.7088
G01 X46.4128 Y7.9362
G01 X46.3595 Y8.1579
G01 X46.2723 Y8.3686
G01 X46.1531 Y8.5630
G01 X46.0051 Y8.7364
G01 X45.8317 Y8.8845
G01 X45.7519 Y8.9334
G01 X45.7420 Y8.9404
G01 X45.7333 Y8.9488
G01 X45.6843 Y9.0030
G01 X45.6792 Y9.0095
G01 X45.6748 Y9.0164
G01 X45.6703 Y9.0257
G01 X45.6675 Y9.0334
G01 X45.6533 Y9.0942
G01 X45.6514 Y9.1068
G01 X45.6512 Y9.6491
G01 X45.6521 Y9.6612
G01 X45.6546 Y9.6730
G01 X45.6752 Y9.7431
G01 X45.6791 Y9.7529
G01 X45.6841 Y9.7622
G01 X45.6916 Y9.7724
G01 X45.6989 Y9.7799
G01 X45.7541 Y9.8278
G01 X45.7608 Y9.8330
G01 X45.7697 Y9.8385
G01 X45.7773 Y9.8421
G01 X45.7853 Y9.8450
G01 X45.7935 Y9.8470
G01 X45.8700 Y9.8581
G01 X45.8805 Y9.8587
G01 X45.8889 Y9.8582
G01 X45.9013 Y9.8559
G01 X45.9094 Y9.8534
G01 X45.9152 Y9.8510
G01 X45.9836 Y9.8197
G01 X45.9925 Y9.8143
G01 X46.0023 Y9.8065
G01 X46.0082 Y9.8005
G01 X46.0134 Y9.7939
G01 X46.0473 Y9.7469
G01 X46.0531 Y9.7377
G01 X46.0568 Y9.7298
G01 X46.1332 Y9.5453
G01 X46.2096 Y9.4202
G01 X46.4570 Y9.6675
G01 X46.4487 Y9.6822
G01 X46.3998 Y9.7859
G01 X46.3611 Y9.8937
G01 X46.3587 Y9.9017
G01 X46.3309 Y10.0128
G01 X46.3140 Y10.1261
G01 X46.3132 Y10.1344
G01 X46.3077 Y10.2488
G01 X46.3132 Y10.3633
G01 X46.3140 Y10.3716
G01 X46.3309 Y10.4849
G01 X46.3587 Y10.5960
G01 X46.3611 Y10.6040
G01 X46.3998 Y10.7118
G01 X46.4487 Y10.8154
G01 X46.4570 Y10.8302
G01 X46.2096 Y11.0775
G01 X46.1332 Y10.9524
G01 X46.0568 Y10.7679
G01 X46.0514 Y10.7571
G01 X46.0445 Y10.7471
G01 X45.9958 Y10.6871
G01 X45.9898 Y10.6812
G01 X45.9814 Y10.6748
G01 X45.9742 Y10.6704
G01 X45.9666 Y10.6668
G01 X45.8893 Y10.6409
G01 X45.8769 Y10.6385
G01 X45.8664 Y10.6378
G01 X45.8559 Y10.6385
G01 X45.8456 Y10.6405
G01 X45.7747 Y10.6586
G01 X45.7667 Y10.6613
G01 X45.7572 Y10.6657
G01 X45.7466 Y10.6726
G01 X45.7371 Y10.6809
G01 X45.6859 Y10.7359
G01 X45.6806 Y10.7425
G01 X45.6771 Y10.7477
G01 X45.6714 Y10.7588
G01 X45.6679 Y10.7686
G01 X45.6535 Y10.8291
G01 X45.6519 Y10.8377
G01 X45.6512 Y10.8486
G01 X45.6512 Y12.3392
G01 X45.6518 Y12.3493
G01 X45.6531 Y12.3572
G01 X45.6752 Y12.4332
G01 X45.6781 Y12.4409
G01 X45.6817 Y12.4483
G01 X45.6872 Y12.4569
G01 X45.6937 Y12.4649
G01 X45.7363 Y12.5068
G01 X45.7425 Y12.5124
G01 X45.7493 Y12.5174
G01 X45.8710 Y12.5927
G01 X45.9936 Y12.7151
G01 X45.9984 Y12.7191
G01 X46.0054 Y12.7237
G01 X46.0108 Y12.7267
G01 X46.0172 Y12.7296
G01 X46.0539 Y12.7555
G01 X46.0652 Y12.7615
G01 X46.0752 Y12.7652
G01 X46.0834 Y12.7672
G01 X46.1284 Y12.7747
G01 X46.1404 Y12.7756
G01 X56.0359 Y12.7756
G01 X56.0439 Y12.7752
G01 X56.0519 Y12.7741
G01 X56.0598 Y12.7722
G01 X56.1279 Y12.7522
G01 X56.1359 Y12.7494
G01 X56.1435 Y12.7458
G01 X56.1525 Y12.7404
G01 X56.1592 Y12.7352
G01 X56.1653 Y12.7294
G01 X56.2159 Y12.6711
G01 X56.2220 Y12.6628
G01 X56.2269 Y12.6539
G01 X56.2308 Y12.6445
G01 X56.2335 Y12.6346
G01 X56.2416 Y12.5853
G01 X56.2440 Y12.5772
G01 X56.2459 Y12.5669
G01 X56.2464 Y12.5565
G01 X56.2459 Y12.5458
G01 X56.2459 Y12.1860
G01 X56.2453 Y12.1760
G01 X56.2440 Y12.1680
G01 X56.2225 Y12.0940
G01 X56.2197 Y12.0861
G01 X56.2151 Y12.0766
G01 X56.2107 Y12.0694
G01 X56.2041 Y12.0612
G01 X56.1982 Y12.0552
G01 X56.1413 Y12.0059
G01 X56.1327 Y11.9997
G01 X56.1254 Y11.9956
G01 X56.1156 Y11.9914
G01 X56.1054 Y11.9885
G01 X56.0511 Y11.9767
G01 X56.0431 Y11.9756
G01 X56.0334 Y11.9752
G01 X56.0334 Y11.6369
G01 X56.2195 Y11.6369
G01 X56.2299 Y11.6363
G01 X56.2381 Y11.6348
G01 X56.2481 Y11.6319
G01 X56.2595 Y11.6269
G01 X56.2684 Y11.6214
G01 X56.2765 Y11.6149
G01 X56.2838 Y11.6075
G01 X56.2901 Y11.5992
G01 X56.2962 Y11.5883
G01 X56.3001 Y11.5787
G01 X56.3031 Y11.5666
G01 X56.3040 Y11.5604
G01 X56.3044 Y11.5520
G01 X56.3044 Y10.7909
G01 X56.6427 Y10.7909
G01 X56.6428 Y10.8216
G01 X56.6436 Y10.8296
G01 X56.6456 Y10.8395
G01 X56.6681 Y10.9156
G01 X56.6715 Y10.9233
G01 X56.6745 Y10.9289
G01 X56.6817 Y10.9392
G01 X56.6904 Y10.9484
G01 X56.7456 Y10.9963
G01 X56.7523 Y11.0015
G01 X56.7595 Y11.0060
G01 X56.7690 Y11.0107
G01 X56.7790 Y11.0141
G01 X56.8375 Y11.0269
G01 X56.8455 Y11.0280
G01 X56.8535 Y11.0284
G01 X57.4855 Y11.0284
G01 X57.4956 Y11.0278
G01 X57.5075 Y11.0255
G01 X57.5836 Y11.0030
G01 X57.5932 Y10.9986
G01 X57.6022 Y10.9932
G01 X57.6104 Y10.9866
G01 X57.6178 Y10.9791
G01 X57.6670 Y10.9222
G01 X57.6730 Y10.9134
G01 X57.6787 Y10.9021
G01 X57.6826 Y10.8900
G01 X57.6952 Y10.8316
G01 X57.6964 Y10.8196
G01 X57.6964 Y10.7909
G01 X58.0347 Y10.7909
G01 X58.0347 Y11.5520
G01 X58.0351 Y11.5604
G01 X58.0368 Y11.5706
G01 X58.0404 Y11.5826
G01 X58.0447 Y11.5920
G01 X58.0502 Y11.6009
G01 X58.0581 Y11.6106
G01 X58.0657 Y11.6176
G01 X58.0759 Y11.6248
G01 X58.0871 Y11.6304
G01 X58.0989 Y11.6344
G01 X58.1092 Y11.6363
G01 X58.1175 Y11.6369
G01 X58.3057 Y11.6369
G01 X58.3057 Y11.9752
G01 X58.2980 Y11.9754
G01 X58.2920 Y11.9761
G01 X58.2801 Y11.9786
G01 X58.2100 Y11.9993
G01 X58.2002 Y12.0031
G01 X58.1909 Y12.0081
G01 X58.1808 Y12.0156
G01 X58.1718 Y12.0245
G01 X58.1239 Y12.0798
G01 X58.1177 Y12.0883
G01 X58.1136 Y12.0957
G01 X58.1101 Y12.1035
G01 X58.1070 Y12.1136
G01 X58.0947 Y12.1700
G01 X58.0933 Y12.1820
G01 X58.0932 Y12.5456
G01 X58.0881 Y12.5926
G01 X58.0450 Y12.7076
G01 X57.9722 Y12.8047
G01 X57.8838 Y12.8709
G01 X57.8760 Y12.8775
G01 X57.8678 Y12.8867
G01 X57.8225 Y12.9478
G01 X57.8171 Y12.9565
G01 X57.8128 Y12.9658
G01 X57.8057 Y12.9857
G01 X57.7862 Y13.0460
G01 X57.7761 Y13.0669
G01 X57.7383 Y13.1248
G01 X57.7035 Y13.1821
G01 X57.6943 Y13.1928
G01 X57.6900 Y13.1983
G01 X57.6367 Y13.2490
G01 X57.0075 Y13.8782
G01 X56.9894 Y13.8989
G01 X56.9798 Y13.9118
G01 X56.9457 Y13.9407
G01 X56.9323 Y13.9534
G01 X56.9093 Y13.9717
G01 X56.8599 Y14.0137
G01 X56.8403 Y14.0262
G01 X56.7777 Y14.0556
G01 X56.7200 Y14.0851
G01 X56.6980 Y14.0928
G01 X56.6303 Y14.1069
G01 X56.5653 Y14.1228
G01 X56.5513 Y14.1239
G01 X56.5443 Y14.1248
G01 X56.4708 Y14.1229
G01 X46.1384 Y14.1229
G01 X46.1283 Y14.1238
G01 X46.1185 Y14.1258
G01 X46.0484 Y14.1463
G01 X46.0365 Y14.1508
G01 X46.0254 Y14.1570
G01 X46.0169 Y14.1635
G01 X45.9999 Y14.1789
G01 X45.9944 Y14.1830
G01 X45.9898 Y14.1871
G01 X45.8701 Y14.3065
G01 X45.7364 Y14.3889
G01 X45.5867 Y14.4386
G01 X45.4958 Y14.4479
G01 X44.1037 Y14.4479
G01 X44.0116 Y14.4383
G01 X43.8620 Y14.3884
G01 X43.7285 Y14.3058
G01 X43.6175 Y14.1946
G01 X43.5350 Y14.0609
G01 X43.4854 Y13.9112
G01 X43.4761 Y13.8203
G01 X43.4761 Y13.0782
G01 X43.4857 Y12.9861
G01 X43.5355 Y12.8365
G01 X43.6182 Y12.7030
G01 X43.7294 Y12.5920
G01 X43.8631 Y12.5096
G01 X44.0128 Y12.4599
G01 X44.1081 Y12.4502
G01 X44.1181 Y12.4486
G01 X44.1279 Y12.4458
G01 X44.1945 Y12.4225
G01 X44.2042 Y12.4185
G01 X44.2116 Y12.4143
G01 X44.2185 Y12.4095
G01 X44.2249 Y12.4040
G01 X44.2320 Y12.3963
G01 X44.2796 Y12.3353
G01 X44.2851 Y12.3263
G01 X44.2895 Y12.3167
G01 X44.2931 Y12.3045
G01 X44.3024 Y12.2560
G01 X44.3035 Y12.2481
G01 X44.3039 Y12.2401
G01 X44.3039 Y10.8486
G01 X44.3033 Y10.8385
G01 X44.3010 Y10.8266
G01 X44.2798 Y10.7546
G01 X44.2760 Y10.7448
G01 X44.2710 Y10.7355
G01 X44.2635 Y10.7253
G01 X44.2562 Y10.7178
G01 X44.1960 Y10.6659
G01 X44.1890 Y10.6612
G01 X44.1816 Y10.6573
G01 X44.1738 Y10.6540
G01 X44.1657 Y10.6516
G01 X44.1575 Y10.6500
G01 X44.0851 Y10.6396
G01 X44.0746 Y10.6390
G01 X44.0641 Y10.6398
G01 X44.0517 Y10.6423
G01 X44.0418 Y10.6459
G01 X43.9734 Y10.6771
G01 X43.9643 Y10.6822
G01 X43.9575 Y10.6871
G01 X43.9498 Y10.6942
G01 X43.9442 Y10.7004
G01 X43.9066 Y10.7525
G01 X43.9020 Y10.7600
G01 X43.8982 Y10.7679
G01 X43.8218 Y10.9524
G01 X43.7454 Y11.0775
G01 X43.4981 Y10.8302
G01 X43.5064 Y10.8154
G01 X43.5553 Y10.7118
G01 X43.5940 Y10.6040
G01 X43.5964 Y10.5960
G01 X43.6241 Y10.4849
G01 X43.6411 Y10.3716
G01 X43.6419 Y10.3633
G01 X43.6474 Y10.2488
G01 X43.6419 Y10.1344
G01 X43.6411 Y10.1261
G01 X43.6241 Y10.0128
G01 X43.5964 Y9.9017
G01 X43.5940 Y9.8937
G01 X43.5553 Y9.7859
G01 X43.5064 Y9.6822
G01 X43.4981 Y9.6675
G00 Z2.0000
G00 X46.6889 Y8.9410
G01 F30.00
G01 Z-0.1300
G01 F50.00
G01 X46.8140 Y8.8646
G01 X47.0392 Y8.7715
G01 X47.2762 Y8.7149
G01 X47.5191 Y8.6960
G01 X47.7620 Y8.7154
G01 X47.9959 Y8.7715
G01 X48.2211 Y8.8646
G01 X48.3462 Y8.9410
G01 X48.0989 Y9.1883
G01 X48.0841 Y9.1800
G01 X47.9805 Y9.1311
G01 X47.8727 Y9.0924
G01 X47.8647 Y9.0900
G01 X47.7536 Y9.0622
G01 X47.6403 Y9.0453
G01 X47.6320 Y9.0445
G01 X47.5175 Y9.0390
G01 X47.4031 Y9.0445
G01 X47.3948 Y9.0453
G01 X47.2815 Y9.0622
G01 X47.1704 Y9.0900
G01 X47.1624 Y9.0924
G01 X47.0546 Y9.1311
G01 X46.9509 Y9.1800
G01 X46.9362 Y9.1883
G01 X46.6889 Y8.9410
G00 Z2.0000
G00 X46.8522 Y8.9603
G01 F30.00
G01 Z-0.1300
G01 F50.00
G01 X46.8589 Y8.9562
G01 X47.0692 Y8.8691
G01 X47.2906 Y8.8159
G01 X47.5175 Y8.7980
G01 X47.7445 Y8.8159
G01 X47.9659 Y8.8691
G01 X48.1762 Y8.9562
G01 X48.1829 Y8.9603
G01 X48.0785 Y9.0647
G01 X48.0279 Y9.0407
G01 X48.0152 Y9.0353
G01 X47.9027 Y8.9950
G01 X47.8895 Y8.9912
G01 X47.7779 Y8.9633
G01 X47.7644 Y8.9608
G01 X47.6461 Y8.9435
G01 X47.5175 Y8.9372
G01 X47.3890 Y8.9435
G01 X47.2707 Y8.9608
G01 X47.2572 Y8.9633
G01 X47.1456 Y8.9912
G01 X47.1324 Y8.9950
G01 X47.0198 Y9.0353
G01 X47.0072 Y9.0407
G01 X46.9566 Y9.0647
G01 X46.8522 Y8.9603
G00 Z2.0000
G00 X48.5781 Y9.6675
G01 F30.00
G01 Z-0.1300
G01 F50.00
G01 X48.8254 Y9.4202
G01 X48.9018 Y9.5453
G01 X48.9939 Y9.7675
G01 X49.0510 Y10.0043
G01 X49.0515 Y10.0075
G01 X49.0704 Y10.2504
G01 X49.0510 Y10.4933
G01 X48.9939 Y10.7302
G01 X48.9018 Y10.9524
G01 X48.8254 Y11.0775
G01 X48.5781 Y10.8302
G01 X48.5864 Y10.8154
G01 X48.6353 Y10.7118
G01 X48.6740 Y10.6040
G01 X48.6764 Y10.5960
G01 X48.7041 Y10.4849
G01 X48.7211 Y10.3716
G01 X48.7219 Y10.3633
G01 X48.7274 Y10.2488
G01 X48.7219 Y10.1344
G01 X48.7211 Y10.1261
G01 X48.7041 Y10.0128
G01 X48.6764 Y9.9017
G01 X48.6740 Y9.8937
G01 X48.6353 Y9.7859
G01 X48.5864 Y9.6822
G01 X48.5781 Y9.6675
G00 Z2.0000
G00 X48.7017 Y9.6879
G01 F30.00
G01 Z-0.1300
G01 F50.00
G01 X48.8061 Y9.5835
G01 X48.8102 Y9.5902
G01 X48.8973 Y9.8005
G01 X48.9505 Y10.0219
G01 X48.9683 Y10.2488
G01 X48.9505 Y10.4758
G01 X48.8973 Y10.6972
G01 X48.8102 Y10.9075
G01 X48.8061 Y10.9142
G01 X48.7017 Y10.8098
G01 X48.7257 Y10.7592
G01 X48.7311 Y10.7465
G01 X48.7713 Y10.6340
G01 X48.7752 Y10.6208
G01 X48.8031 Y10.5092
G01 X48.8056 Y10.4957
G01 X48.8229 Y10.3774
G01 X48.8292 Y10.2488
G01 X48.8229 Y10.1203
G01 X48.8056 Y10.0020
G01 X48.8031 Y9.9885
G01 X48.7752 Y9.8769
G01 X48.7713 Y9.8637
G01 X48.7311 Y9.7511
G01 X48.7257 Y9.7385
G01 X48.7017 Y9.6879
G00 Z2.0000
G00 X46.8522 Y6.4574
G01 F30.00
G01 Z-0.1300
G01 F50.00
G01 X46.9566 Y6.3530
G01 X47.0072 Y6.3770
G01 X47.0198 Y6.3824
G01 X47.1324 Y6.4227
G01 X47.1456 Y6.4265
G01 X47.2572 Y6.4544
G01 X47.2707 Y6.4569
G01 X47.3890 Y6.4742
G01 X47.5175 Y6.4805
G01 X47.6461 Y6.4742
G01 X47.7644 Y6.4569
G01 X47.7779 Y6.4544
G01 X47.8895 Y6.4265
G01 X47.9027 Y6.4227
G01 X48.0152 Y6.3824
G01 X48.0279 Y6.3770
G01 X48.0785 Y6.3530
G01 X48.1829 Y6.4574
G01 X48.1762 Y6.4615
G01 X47.9659 Y6.5486
G01 X47.7445 Y6.6018
G01 X47.5175 Y6.6196
G01 X47.2906 Y6.6018
G01 X47.0692 Y6.5486
G01 X46.8589 Y6.4615
G01 X46.8522 Y6.4574
G00 Z2.0000
G00 X46.6889 Y6.4767
G01 F30.00
G01 Z-0.1300
G01 F50.00
G01 X46.9362 Y6.2294
G01 X46.9509 Y6.2377
G01 X47.0546 Y6.2866
G01 X47.1624 Y6.3253
G01 X47.1704 Y6.3277
G01 X47.2815 Y6.3554
G01 X47.3948 Y6.3724
G01 X47.4031 Y6.3732
G01 X47.5175 Y6.3787
G01 X47.6320 Y6.3732
G01 X47.6403 Y6.3724
G01 X47.7536 Y6.3554
G01 X47.8647 Y6.3277
G01 X47.8727 Y6.3253
G01 X47.9805 Y6.2866
G01 X48.0841 Y6.2377
G01 X48.0989 Y6.2294
G01 X48.3462 Y6.4767
G01 X48.2211 Y6.5531
G01 X47.9959 Y6.6462
G01 X47.7589 Y6.7028
G01 X47.5159 Y6.7217
G01 X47.2730 Y6.7023
G01 X47.0392 Y6.6462
G01 X46.8140 Y6.5531
G01 X46.6889 Y6.4767
G00 Z2.0000
G00 X46.0667 Y5.1688
G01 F30.00
G01 Z-0.1300
G01 F50.00
G01 X46.0846 Y4.9419
G01 X46.1377 Y4.7205
G01 X46.2249 Y4.5102
G01 X46.2290 Y4.5035
G01 X46.3334 Y4.6079
G01 X46.3094 Y4.6585
G01 X46.3040 Y4.6711
G01 X46.2637 Y4.7837
G01 X46.2599 Y4.7969
G01 X46.2320 Y4.9085
G01 X46.2295 Y4.9220
G01 X46.2122 Y5.0403
G01 X46.2059 Y5.1688
G01 X46.2122 Y5.2974
G01 X46.2295 Y5.4157
G01 X46.2320 Y5.4292
G01 X46.2599 Y5.5408
G01 X46.2637 Y5.5540
G01 X46.3040 Y5.6665
G01 X46.3094 Y5.6792
G01 X46.3334 Y5.7298
G01 X46.2290 Y5.8342
G01 X46.2249 Y5.8275
G01 X46.1377 Y5.6172
G01 X46.0846 Y5.3958
G01 X46.0667 Y5.1688
G00 Z2.0000
G00 X45.9647 Y5.1673
G01 F30.00
G01 Z-0.1300
G01 F50.00
G01 X45.9841 Y4.9243
G01 X46.0402 Y4.6905
G01 X46.1332 Y4.4653
G01 X46.2096 Y4.3402
G01 X46.4570 Y4.5875
G01 X46.4487 Y4.6022
G01 X46.3998 Y4.7059
G01 X46.3611 Y4.8137
G01 X46.3587 Y4.8217
G01 X46.3309 Y4.9328
G01 X46.3140 Y5.0461
G01 X46.3132 Y5.0544
G01 X46.3077 Y5.1688
G01 X46.3132 Y5.2833
G01 X46.3140 Y5.2916
G01 X46.3309 Y5.4049
G01 X46.3587 Y5.5160
G01 X46.3611 Y5.5240
G01 X46.3998 Y5.6318
G01 X46.4487 Y5.7354
G01 X46.4570 Y5.7502
G01 X46.2096 Y5.9975
G01 X46.1332 Y5.8724
G01 X46.0402 Y5.6472
G01 X45.9836 Y5.4102
G01 X45.9647 Y5.1673
G00 Z2.0000
G00 X46.6889 Y3.8610
G01 F30.00
G01 Z-0.1300
G01 F50.00
G01 X46.8140 Y3.7846
G01 X47.0392 Y3.6915
G01 X47.2762 Y3.6349
G01 X47.5191 Y3.6160
G01 X47.7620 Y3.6354
G01 X47.9959 Y3.6915
G01 X48.2211 Y3.7846
G01 X48.3462 Y3.8610
G01 X48.0989 Y4.1083
G01 X48.0841 Y4.1000
G01 X47.9805 Y4.0511
G01 X47.8727 Y4.0124
G01 X47.8647 Y4.0100
G01 X47.7536 Y3.9822
G01 X47.6403 Y3.9653
G01 X47.6320 Y3.9645
G01 X47.5175 Y3.9590
G01 X47.4031 Y3.9645
G01 X47.3948 Y3.9653
G01 X47.2815 Y3.9822
G01 X47.1704 Y4.0100
G01 X47.1624 Y4.0124
G01 X47.0546 Y4.0511
G01 X46.9509 Y4.1000
G01 X46.9362 Y4.1083
