(G-CODE GENERATED BY FLATCAM v8.992 - www.flatcam.org - Version Date: 2020/05/03)

(Name: Phoenix612_All_Stages_PA_Testing_v2-F_Cu.gbr_iso_cnc_fastpass)
(Type: G-code from Geometry)
(Units: MM)

(Created on Friday, 27 January 2023 at 15:00)

(This preprocessor is the default preprocessor used by FlatCAM.)
(It is made to work with MACH3 compatible motion controllers.)

(TOOL DIAMETER: 0.1697 mm)
(Feedrate_XY: 120.0 mm/min)
(Feedrate_Z: 60.0 mm/min)
(Feedrate rapids 1500.0 mm/min)

(Z_Cut: -0.13 mm)
(Z_Move: 2.0 mm)
(Z Start: None mm)
(Z End: 10.0 mm)
(Steps per circle: 64)
(Preprocessor Geometry: default)

(X range:    0.4027 ...  152.0853  mm)
(Y range:    0.6054 ...   79.1791  mm)

(Spindle Speed: None RPM)
G21
G90
G94



G01 F120.00
G00 Z2.0000

M03
G00 X0.5405 Y0.8577
G01 F60.00
G01 Z-0.1300
G01 F120.00
G01 X0.5870 Y0.8041
G01 X0.6043 Y0.7851
G01 X0.6225 Y0.7669
G01 X0.6416 Y0.7497
G01 X0.6616 Y0.7335
G01 X0.6718 Y0.7258
G01 X0.6929 Y0.7111
G01 X0.7037 Y0.7041
G01 X0.7259 Y0.6911
G01 X0.7486 Y0.6791
G01 X0.7719 Y0.6683
G01 X0.7838 Y0.6633
G01 X0.8078 Y0.6542
G01 X0.8323 Y0.6464
G01 X0.9004 Y0.6264
G01 X0.9242 Y0.6200
G01 X0.9483 Y0.6148
G01 X0.9604 Y0.6126
G01 X0.9848 Y0.6091
G01 X1.0093 Y0.6067
G01 X1.0339 Y0.6056
G01 X1.0463 Y0.6054
G01 X151.4417 Y0.6054
G01 X151.4664 Y0.6060
G01 X151.4787 Y0.6067
G01 X151.5032 Y0.6091
G01 X151.5154 Y0.6107
G01 X151.5276 Y0.6126
G01 X151.5518 Y0.6172
G01 X151.6167 Y0.6315
G01 X151.6417 Y0.6383
G01 X151.6663 Y0.6463
G01 X151.6905 Y0.6555
G01 X151.7024 Y0.6606
G01 X151.7258 Y0.6715
G01 X151.7486 Y0.6837
G01 X151.7708 Y0.6970
G01 X151.7816 Y0.7040
G01 X151.8028 Y0.7189
G01 X151.8232 Y0.7349
G01 X151.8330 Y0.7432
G01 X151.8963 Y0.7983
G01 X151.9149 Y0.8160
G01 X151.9238 Y0.8253
G01 X151.9410 Y0.8444
G01 X151.9572 Y0.8643
G01 X151.9650 Y0.8746
G01 X151.9797 Y0.8957
G01 X151.9866 Y0.9065
G01 X151.9933 Y0.9175
G01 X152.0058 Y0.9399
G01 X152.0117 Y0.9514
G01 X152.0225 Y0.9747
G01 X152.0275 Y0.9865
G01 X152.0365 Y1.0106
G01 X152.0444 Y1.0351
G01 X152.0677 Y1.1150
G01 X152.0707 Y1.1270
G01 X152.0760 Y1.1510
G01 X152.0782 Y1.1632
G01 X152.0817 Y1.1876
G01 X152.0840 Y1.2121
G01 X152.0852 Y1.2367
G01 X152.0853 Y16.1205
G01 X152.0848 Y16.1448
G01 X152.0831 Y16.1690
G01 X152.0795 Y16.2055
G01 X152.0757 Y16.2314
G01 X152.0706 Y16.2571
G01 X152.0643 Y16.2824
G01 X152.0566 Y16.3075
G01 X152.0477 Y16.3321
G01 X152.0376 Y16.3562
G01 X152.0321 Y16.3681
G01 X151.9939 Y16.4430
G01 X151.9817 Y16.4656
G01 X151.9683 Y16.4876
G01 X151.9538 Y16.5088
G01 X151.9383 Y16.5293
G01 X151.9218 Y16.5490
G01 X151.9044 Y16.5679
G01 X151.8860 Y16.5859
G01 X151.8668 Y16.6030
G01 X151.8467 Y16.6190
G01 X151.8364 Y16.6267
G01 X151.8152 Y16.6412
G01 X151.8043 Y16.6481
G01 X151.7319 Y16.6904
G01 X151.7094 Y16.7027
G01 X151.6863 Y16.7140
G01 X151.6626 Y16.7240
G01 X151.6506 Y16.7286
G01 X151.6263 Y16.7369
G01 X151.6015 Y16.7440
G01 X151.5765 Y16.7498
G01 X151.5512 Y16.7543
G01 X151.5290 Y16.7573
G01 X151.5290 Y68.1873
G01 X151.5678 Y68.1928
G01 X151.5931 Y68.1971
G01 X151.6182 Y68.2027
G01 X151.6430 Y68.2094
G01 X151.6674 Y68.2175
G01 X151.6914 Y68.2267
G01 X151.7149 Y68.2370
G01 X151.7379 Y68.2486
G01 X151.7603 Y68.2613
G01 X151.7820 Y68.2750
G01 X151.8030 Y68.2898
G01 X151.8232 Y68.3057
G01 X151.8963 Y68.3690
G01 X151.9149 Y68.3868
G01 X151.9325 Y68.4055
G01 X151.9410 Y68.4151
G01 X151.9572 Y68.4351
G01 X151.9724 Y68.4558
G01 X151.9866 Y68.4772
G01 X151.9997 Y68.4994
G01 X152.0117 Y68.5221
G01 X152.0225 Y68.5454
G01 X152.0321 Y68.5693
G01 X152.0406 Y68.5935
G01 X152.0444 Y68.6058
G01 X152.0644 Y68.6739
G01 X152.0707 Y68.6977
G01 X152.0760 Y68.7218
G01 X152.0801 Y68.7461
G01 X152.0830 Y68.7706
G01 X152.0847 Y68.7951
G01 X152.0853 Y68.8198
G01 X152.0853 Y78.5355
G01 X152.0847 Y78.5601
G01 X152.0840 Y78.5724
G01 X152.0817 Y78.5969
G01 X152.0801 Y78.6092
G01 X152.0760 Y78.6335
G01 X152.0735 Y78.6455
G01 X152.0592 Y78.7105
G01 X152.0525 Y78.7354
G01 X152.0445 Y78.7600
G01 X152.0400 Y78.7722
G01 X152.0302 Y78.7961
G01 X152.0192 Y78.8195
G01 X152.0070 Y78.8424
G01 X151.9938 Y78.8646
G01 X151.9794 Y78.8861
G01 X151.9718 Y78.8965
G01 X151.9640 Y78.9068
G01 X151.9475 Y78.9268
G01 X151.8925 Y78.9901
G01 X151.8837 Y78.9994
G01 X151.8655 Y79.0176
G01 X151.8560 Y79.0263
G01 X151.8365 Y79.0430
G01 X151.8162 Y79.0587
G01 X151.8057 Y79.0662
G01 X151.7843 Y79.0804
G01 X151.7621 Y79.0934
G01 X151.7394 Y79.1054
G01 X151.7278 Y79.1110
G01 X151.7042 Y79.1212
G01 X151.6802 Y79.1303
G01 X151.6680 Y79.1343
G01 X151.5876 Y79.1581
G01 X151.5757 Y79.1614
G01 X151.5518 Y79.1673
G01 X151.5276 Y79.1719
G01 X151.5154 Y79.1738
G01 X151.5032 Y79.1754
G01 X151.4787 Y79.1778
G01 X151.4541 Y79.1789
G01 X151.4417 Y79.1791
G01 X1.0463 Y79.1791
G01 X1.0216 Y79.1785
G01 X1.0093 Y79.1778
G01 X0.9848 Y79.1754
G01 X0.9726 Y79.1738
G01 X0.9604 Y79.1719
G01 X0.9362 Y79.1673
G01 X0.8713 Y79.1530
G01 X0.8463 Y79.1462
G01 X0.8217 Y79.1382
G01 X0.8096 Y79.1338
G01 X0.7856 Y79.1239
G01 X0.7622 Y79.1130
G01 X0.7394 Y79.1008
G01 X0.7282 Y79.0943
G01 X0.7064 Y79.0805
G01 X0.6852 Y79.0656
G01 X0.6749 Y79.0577
G01 X0.6550 Y79.0413
G01 X0.5917 Y78.9862
G01 X0.5731 Y78.9685
G01 X0.5642 Y78.9592
G01 X0.5470 Y78.9401
G01 X0.5308 Y78.9202
G01 X0.5230 Y78.9099
G01 X0.5156 Y78.8995
G01 X0.5014 Y78.8780
G01 X0.4947 Y78.8670
G01 X0.4822 Y78.8446
G01 X0.4708 Y78.8216
G01 X0.4605 Y78.7980
G01 X0.4515 Y78.7739
G01 X0.4474 Y78.7617
G01 X0.4236 Y78.6813
G01 X0.4173 Y78.6575
G01 X0.4145 Y78.6455
G01 X0.4098 Y78.6213
G01 X0.4079 Y78.6092
G01 X0.4063 Y78.5969
G01 X0.4040 Y78.5724
G01 X0.4028 Y78.5478
G01 X0.4027 Y78.5355
G01 X0.4027 Y1.2490
G01 X0.4033 Y1.2244
G01 X0.4050 Y1.1998
G01 X0.4079 Y1.1753
G01 X0.4120 Y1.1510
G01 X0.4288 Y1.0740
G01 X0.4355 Y1.0491
G01 X0.4435 Y1.0245
G01 X0.4527 Y1.0003
G01 X0.4578 Y0.9884
G01 X0.4688 Y0.9650
G01 X0.4810 Y0.9421
G01 X0.4942 Y0.9199
G01 X0.5086 Y0.8984
G01 X0.5240 Y0.8777
G01 X0.5405 Y0.8577
G00 Z2.0000
G00 X0.6495 Y0.9522
G01 F60.00
G01 Z-0.1300
G01 F120.00
G01 X0.7021 Y0.8916
G01 X0.7150 Y0.8782
G01 X0.7284 Y0.8655
G01 X0.7425 Y0.8534
G01 X0.7647 Y0.8367
G01 X0.7881 Y0.8216
G01 X0.8043 Y0.8126
G01 X0.8294 Y0.8006
G01 X0.8553 Y0.7904
G01 X0.8729 Y0.7848
G01 X0.9496 Y0.7624
G01 X0.9756 Y0.7564
G01 X0.9931 Y0.7535
G01 X1.0196 Y0.7506
G01 X1.0463 Y0.7497
G01 X151.4417 Y0.7497
G01 X151.4684 Y0.7506
G01 X151.4861 Y0.7523
G01 X151.5037 Y0.7548
G01 X151.5211 Y0.7582
G01 X151.5825 Y0.7717
G01 X151.6095 Y0.7793
G01 X151.6271 Y0.7855
G01 X151.6443 Y0.7926
G01 X151.6612 Y0.8005
G01 X151.6777 Y0.8093
G01 X151.6937 Y0.8189
G01 X151.7168 Y0.8347
G01 X151.7386 Y0.8522
G01 X151.7992 Y0.9049
G01 X151.8190 Y0.9244
G01 X151.8374 Y0.9453
G01 X151.8541 Y0.9675
G01 X151.8643 Y0.9830
G01 X151.8737 Y0.9989
G01 X151.8864 Y1.0237
G01 X151.8971 Y1.0493
G01 X151.9060 Y1.0757
G01 X151.9260 Y1.1438
G01 X151.9326 Y1.1696
G01 X151.9359 Y1.1871
G01 X151.9384 Y1.2047
G01 X151.9401 Y1.2224
G01 X151.9410 Y1.2401
G01 X151.9411 Y16.1205
G01 X151.9402 Y16.1468
G01 X151.9372 Y16.1790
G01 X151.9350 Y16.1977
G01 X151.9318 Y16.2163
G01 X151.9277 Y16.2347
G01 X151.9226 Y16.2529
G01 X151.9134 Y16.2797
G01 X151.9061 Y16.2971
G01 X151.8979 Y16.3141
G01 X151.8655 Y16.3773
G01 X151.8567 Y16.3936
G01 X151.8470 Y16.4094
G01 X151.8311 Y16.4322
G01 X151.8196 Y16.4467
G01 X151.8009 Y16.4674
G01 X151.7808 Y16.4866
G01 X151.7593 Y16.5043
G01 X151.7366 Y16.5203
G01 X151.7208 Y16.5300
G01 X151.6594 Y16.5657
G01 X151.6432 Y16.5746
G01 X151.6265 Y16.5827
G01 X151.6008 Y16.5932
G01 X151.5832 Y16.5992
G01 X151.5564 Y16.6065
G01 X151.5382 Y16.6103
G01 X151.5199 Y16.6131
G01 X151.4922 Y16.6157
G01 X151.4644 Y16.6162
G01 X151.3803 Y16.6125
G01 X151.3817 Y16.6249
G01 X151.3831 Y16.6432
G01 X151.3843 Y16.6677
G01 X151.3847 Y16.6860
G01 X151.3847 Y68.2480
G01 X151.3843 Y68.2663
G01 X151.3825 Y68.3000
G01 X151.3799 Y68.3243
G01 X151.4030 Y68.3223
G01 X151.4215 Y68.3217
G01 X151.4400 Y68.3221
G01 X151.4585 Y68.3233
G01 X151.4770 Y68.3255
G01 X151.5564 Y68.3370
G01 X151.5746 Y68.3406
G01 X151.5926 Y68.3450
G01 X151.6103 Y68.3504
G01 X151.6364 Y68.3600
G01 X151.6534 Y68.3675
G01 X151.6700 Y68.3758
G01 X151.6940 Y68.3898
G01 X151.7094 Y68.4001
G01 X151.7243 Y68.4112
G01 X151.7386 Y68.4230
G01 X151.7992 Y68.4757
G01 X151.8126 Y68.4885
G01 X151.8253 Y68.5019
G01 X151.8431 Y68.5233
G01 X151.8541 Y68.5382
G01 X151.8643 Y68.5537
G01 X151.8782 Y68.5778
G01 X151.8902 Y68.6029
G01 X151.9003 Y68.6288
G01 X151.9060 Y68.6465
G01 X151.9284 Y68.7231
G01 X151.9326 Y68.7404
G01 X151.9359 Y68.7579
G01 X151.9384 Y68.7754
G01 X151.9407 Y68.8020
G01 X151.9411 Y68.8198
G01 X151.9411 Y78.5355
G01 X151.9407 Y78.5533
G01 X151.9394 Y78.5710
G01 X151.9359 Y78.5974
G01 X151.9326 Y78.6149
G01 X151.9191 Y78.6763
G01 X151.9142 Y78.6943
G01 X151.9052 Y78.7208
G01 X151.8981 Y78.7381
G01 X151.8902 Y78.7550
G01 X151.8814 Y78.7714
G01 X151.8719 Y78.7874
G01 X151.8560 Y78.8105
G01 X151.8385 Y78.8323
G01 X151.7859 Y78.8929
G01 X151.7664 Y78.9128
G01 X151.7455 Y78.9311
G01 X151.7233 Y78.9478
G01 X151.7078 Y78.9581
G01 X151.6918 Y78.9675
G01 X151.6754 Y78.9761
G01 X151.6586 Y78.9839
G01 X151.6414 Y78.9909
G01 X151.6151 Y78.9997
G01 X151.5469 Y79.0197
G01 X151.5211 Y79.0263
G01 X151.4949 Y79.0310
G01 X151.4684 Y79.0339
G01 X151.4417 Y79.0348
G01 X1.0463 Y79.0348
G01 X1.0196 Y79.0339
G01 X1.0019 Y79.0322
G01 X0.9843 Y79.0297
G01 X0.9669 Y79.0263
G01 X0.9055 Y79.0128
G01 X0.8874 Y79.0080
G01 X0.8697 Y79.0022
G01 X0.8437 Y78.9919
G01 X0.8268 Y78.9840
G01 X0.8103 Y78.9752
G01 X0.7943 Y78.9656
G01 X0.7712 Y78.9498
G01 X0.7494 Y78.9323
G01 X0.6888 Y78.8796
G01 X0.6754 Y78.8668
G01 X0.6566 Y78.8464
G01 X0.6393 Y78.8246
G01 X0.6237 Y78.8015
G01 X0.6143 Y78.7856
G01 X0.6056 Y78.7692
G01 X0.5978 Y78.7524
G01 X0.5909 Y78.7352
G01 X0.5820 Y78.7088
G01 X0.5620 Y78.6407
G01 X0.5554 Y78.6149
G01 X0.5507 Y78.5886
G01 X0.5479 Y78.5621
G01 X0.5469 Y78.5355
G01 X0.5469 Y1.2490
G01 X0.5473 Y1.2312
G01 X0.5486 Y1.2135
G01 X0.5507 Y1.1959
G01 X0.5537 Y1.1783
G01 X0.5689 Y1.1082
G01 X0.5738 Y1.0902
G01 X0.5796 Y1.0725
G01 X0.5862 Y1.0550
G01 X0.5937 Y1.0379
G01 X0.6021 Y1.0213
G01 X0.6112 Y1.0050
G01 X0.6265 Y0.9816
G01 X0.6376 Y0.9666
G01 X0.6495 Y0.9522
G00 Z2.0000
G00 X0.7585 Y1.0466
G01 F60.00
G01 Z-0.1300
G01 F120.00
G01 X0.8050 Y0.9930
G01 X0.8127 Y0.9846
G01 X0.8207 Y0.9765
G01 X0.8335 Y0.9653
G01 X0.8472 Y0.9550
G01 X0.8615 Y0.9458
G01 X0.8715 Y0.9403
G01 X0.8817 Y0.9352
G01 X0.8921 Y0.9307
G01 X0.9081 Y0.9249
G01 X0.9870 Y0.9017
G01 X1.0029 Y0.8980
G01 X1.0136 Y0.8962
G01 X1.0299 Y0.8945
G01 X1.0463 Y0.8939
G01 X151.4417 Y0.8939
G01 X151.4581 Y0.8945
G01 X151.4689 Y0.8955
G01 X151.4797 Y0.8971
G01 X151.5428 Y0.9105
G01 X151.5594 Y0.9148
G01 X151.5703 Y0.9183
G01 X151.5863 Y0.9247
G01 X151.5966 Y0.9295
G01 X151.6067 Y0.9349
G01 X151.6166 Y0.9408
G01 X151.6261 Y0.9471
G01 X151.6353 Y0.9540
G01 X151.6441 Y0.9612
G01 X151.7020 Y1.0115
G01 X151.7142 Y1.0235
G01 X151.7255 Y1.0363
G01 X151.7324 Y1.0453
G01 X151.7420 Y1.0594
G01 X151.7505 Y1.0742
G01 X151.7579 Y1.0896
G01 X151.7641 Y1.1055
G01 X151.7676 Y1.1163
G01 X151.7876 Y1.1845
G01 X151.7916 Y1.2003
G01 X151.7937 Y1.2110
G01 X151.7952 Y1.2218
G01 X151.7963 Y1.2327
G01 X151.7968 Y1.2435
G01 X151.7968 Y16.1205
G01 X151.7966 Y16.1313
G01 X151.7958 Y16.1420
G01 X151.7930 Y16.1712
G01 X151.7913 Y16.1827
G01 X151.7891 Y16.1940
G01 X151.7863 Y16.2053
G01 X151.7829 Y16.2164
G01 X151.7790 Y16.2273
G01 X151.7745 Y16.2379
G01 X151.7695 Y16.2484
G01 X151.7317 Y16.3216
G01 X151.7258 Y16.3313
G01 X151.7194 Y16.3407
G01 X151.7125 Y16.3498
G01 X151.7014 Y16.3627
G01 X151.6935 Y16.3709
G01 X151.6808 Y16.3824
G01 X151.6674 Y16.3929
G01 X151.6580 Y16.3993
G01 X151.5869 Y16.4410
G01 X151.5719 Y16.4490
G01 X151.5615 Y16.4537
G01 X151.5456 Y16.4598
G01 X151.5347 Y16.4632
G01 X151.5237 Y16.4660
G01 X151.5126 Y16.4683
G01 X151.5013 Y16.4701
G01 X151.4900 Y16.4713
G01 X151.4786 Y16.4719
G01 X151.4616 Y16.4718
G01 X151.3793 Y16.4678
G01 X151.3680 Y16.4664
G01 X151.3512 Y16.4634
G01 X151.3347 Y16.4590
G01 X151.3239 Y16.4555
G01 X151.3081 Y16.4492
G01 X151.2978 Y16.4443
G01 X151.2828 Y16.4361
G01 X151.2732 Y16.4300
G01 X151.2062 Y16.3825
G01 X151.1934 Y16.3723
G01 X151.1853 Y16.3650
G01 X151.1776 Y16.3573
G01 X151.1702 Y16.3492
G01 X151.1570 Y16.3330
G01 X151.1447 Y16.3196
G01 X151.1246 Y16.2960
G01 X151.1008 Y16.2760
G01 X151.0882 Y16.2642
G01 X147.5018 Y12.6778
G01 X147.4559 Y12.6296
G01 X147.4515 Y12.6260
G01 X147.4027 Y12.5963
G01 X147.3517 Y12.5630
G01 X147.3489 Y12.5616
G01 X147.3460 Y12.5603
G01 X147.2882 Y12.5414
G01 X147.2350 Y12.5222
G01 X147.2320 Y12.5215
G01 X147.2289 Y12.5208
G01 X147.1726 Y12.5162
G01 X147.1485 Y12.5135
G01 X147.1303 Y12.5128
G01 X147.0994 Y12.5103
G01 X147.0685 Y12.5129
G01 X147.0512 Y12.5136
G01 X144.7215 Y12.5136
G01 X144.7039 Y12.5129
G01 X144.6863 Y12.5109
G01 X144.6361 Y12.5018
G01 X144.6197 Y12.4982
G01 X144.6036 Y12.4934
G01 X144.5930 Y12.4895
G01 X144.5827 Y12.4851
G01 X144.5726 Y12.4803
G01 X144.5627 Y12.4749
G01 X144.5484 Y12.4660
G01 X144.4826 Y12.4167
G01 X144.4740 Y12.4099
G01 X144.4618 Y12.3991
G01 X144.4505 Y12.3873
G01 X144.4433 Y12.3791
G01 X144.3782 Y12.2919
G01 X144.2395 Y12.1596
G01 X144.0805 Y12.0526
G01 X143.9058 Y11.9739
G01 X143.7202 Y11.9257
G01 X143.5774 Y11.9136
G01 X141.1268 Y11.9138
G01 X140.9340 Y11.9486
G01 X140.7538 Y12.0140
G01 X140.5872 Y12.1089
G01 X140.4390 Y12.2304
G01 X140.3007 Y12.3898
G01 X140.2931 Y12.3981
G01 X140.2810 Y12.4099
G01 X140.2670 Y12.4215
G01 X140.2483 Y12.4388
G01 X140.2395 Y12.4459
G01 X140.2303 Y12.4526
G01 X140.2160 Y12.4618
G01 X140.2010 Y12.4699
G01 X140.1855 Y12.4769
G01 X140.1695 Y12.4826
G01 X140.0855 Y12.5071
G01 X140.0748 Y12.5095
G01 X140.0640 Y12.5113
G01 X140.0532 Y12.5126
G01 X140.0423 Y12.5133
G01 X140.0314 Y12.5136
G01 X136.7810 Y12.5136
G01 X136.7696 Y12.5133
G01 X136.7582 Y12.5125
G01 X136.7413 Y12.5101
G01 X136.7302 Y12.5079
G01 X136.6703 Y12.4942
G01 X136.6543 Y12.4895
G01 X136.6387 Y12.4837
G01 X136.6235 Y12.4768
G01 X136.6089 Y12.4687
G01 X136.5949 Y12.4597
G01 X136.5817 Y12.4496
G01 X136.5732 Y12.4424
G01 X136.5205 Y12.3949
G01 X136.5087 Y12.3835
G01 X136.4978 Y12.3714
G01 X136.4878 Y12.3584
G01 X136.4816 Y12.3494
G01 X136.4626 Y12.3186
G01 X136.3753 Y12.2313
G01 X136.2704 Y12.1663
G01 X136.1518 Y12.1268
G01 X136.0828 Y12.1196
G01 X134.7056 Y12.1196
G01 X134.6377 Y12.1265
G01 X134.5190 Y12.1659
G01 X134.4139 Y12.2307
G01 X134.3076 Y12.3368
G01 X134.2995 Y12.3445
G01 X134.2858 Y12.3560
G01 X134.2712 Y12.3691
G01 X134.2623 Y12.3764
G01 X134.2531 Y12.3832
G01 X134.2386 Y12.3925
G01 X134.2286 Y12.3981
G01 X134.2184 Y12.4032
G01 X134.2079 Y12.4078
G01 X134.1971 Y12.4118
G01 X134.1862 Y12.4153
G01 X134.1076 Y12.4381
G01 X134.0916 Y12.4414
G01 X134.0808 Y12.4430
G01 X134.0699 Y12.4440
G01 X134.0536 Y12.4446
G01 X133.5030 Y12.4445
G01 X133.4907 Y12.4439
G01 X133.4579 Y12.4404
G01 X133.4467 Y12.4389
G01 X133.4356 Y12.4369
G01 X133.4247 Y12.4343
G01 X133.4085 Y12.4295
G01 X133.3980 Y12.4256
G01 X133.3825 Y12.4188
G01 X133.3102 Y12.3797
G01 X133.2962 Y12.3713
G01 X133.2827 Y12.3620
G01 X133.2742 Y12.3553
G01 X133.2659 Y12.3481
G01 X133.2580 Y12.3406
G01 X131.1084 Y10.1909
G01 X131.0967 Y10.1784
G01 X131.0861 Y10.1651
G01 X131.0516 Y10.1155
G01 X131.0460 Y10.1061
G01 X131.0408 Y10.0963
G01 X131.0217 Y10.0559
G01 X130.9645 Y9.9836
G01 X124.0303 Y3.0493
G01 X123.9844 Y3.0011
G01 X123.9800 Y2.9975
G01 X123.9312 Y2.9678
G01 X123.8802 Y2.9345
G01 X123.8774 Y2.9331
G01 X123.8745 Y2.9318
G01 X123.8167 Y2.9129
G01 X123.7635 Y2.8937
G01 X123.7574 Y2.8923
G01 X123.7011 Y2.8877
G01 X123.6770 Y2.8850
G01 X123.6588 Y2.8843
G01 X123.6279 Y2.8818
G01 X123.5970 Y2.8844
G01 X123.5797 Y2.8851
G01 X98.0692 Y2.8851
G01 X98.0027 Y2.8834
G01 X97.9970 Y2.8839
G01 X97.9373 Y2.8985
G01 X97.8819 Y2.9100
G01 X97.8760 Y2.9121
G01 X97.8256 Y2.9378
G01 X97.7706 Y2.9636
G01 X97.7652 Y2.9670
G01 X97.7222 Y3.0036
G01 X97.7032 Y3.0187
G01 X97.6899 Y3.0310
G01 X97.6662 Y3.0512
G01 X97.6462 Y3.0749
G01 X97.6345 Y3.0876
G01 X92.0396 Y8.6825
G01 X91.9913 Y8.7284
G01 X91.9877 Y8.7327
G01 X91.9580 Y8.7816
G01 X91.9248 Y8.8325
G01 X91.9220 Y8.8382
G01 X91.9032 Y8.8961
G01 X91.8839 Y8.9492
G01 X91.8826 Y8.9554
G01 X91.8780 Y9.0117
G01 X91.8753 Y9.0358
G01 X91.8745 Y9.0539
G01 X91.8720 Y9.0849
G01 X91.8747 Y9.1158
G01 X91.8753 Y9.1331
G01 X91.8753 Y27.3051
G01 X91.8746 Y27.3235
G01 X91.8712 Y27.3564
G01 X91.8697 Y27.3675
G01 X91.8664 Y27.3841
G01 X91.8620 Y27.4004
G01 X91.8564 Y27.4163
G01 X91.8496 Y27.4317
G01 X91.8444 Y27.4417
G01 X91.8104 Y27.5040
G01 X91.8021 Y27.5181
G01 X91.7960 Y27.5271
G01 X91.7894 Y27.5358
G01 X91.7825 Y27.5442
G01 X91.7751 Y27.5523
G01 X90.5226 Y28.8050
G01 X90.4743 Y28.8509
G01 X90.4674 Y28.8590
G01 X90.4566 Y28.8734
G01 X90.4419 Y28.8912
G01 X90.4347 Y28.8995
G01 X90.4271 Y28.9074
G01 X89.6020 Y29.7325
G01 X89.5936 Y29.7405
G01 X89.5803 Y29.7517
G01 X89.5710 Y29.7585
G01 X89.5613 Y29.7649
G01 X89.5462 Y29.7735
G01 X89.4745 Y29.8110
G01 X89.4591 Y29.8179
G01 X89.4486 Y29.8218
G01 X89.4379 Y29.8252
G01 X89.4270 Y29.8281
G01 X89.4160 Y29.8305
G01 X89.4049 Y29.8323
G01 X89.3937 Y29.8336
G01 X89.3825 Y29.8343
G01 X89.3713 Y29.8345
G01 X89.3600 Y29.8341
G01 X89.2728 Y29.8250
G01 X89.2621 Y29.8233
G01 X89.2461 Y29.8198
G01 X89.2356 Y29.8169
G01 X89.2201 Y29.8115
G01 X89.1706 Y29.7911
G01 X88.9360 Y29.7295
G01 X88.6951 Y29.7004
G01 X88.4525 Y29.7042
G01 X88.2127 Y29.7409
G01 X87.9800 Y29.8098
G01 X87.7589 Y29.9096
G01 X87.5534 Y30.0386
G01 X87.3673 Y30.1942
G01 X87.2040 Y30.3736
G01 X87.0666 Y30.5736
G01 X86.9575 Y30.7903
G01 X86.8790 Y31.0199
G01 X86.8322 Y31.2580
G01 X86.8183 Y31.5002
G01 X86.8373 Y31.7420
G01 X86.8890 Y31.9791
G01 X86.9724 Y32.2069
G01 X87.0859 Y32.4214
G01 X87.2275 Y32.6184
G01 X87.3945 Y32.7944
G01 X87.5838 Y32.9461
G01 X87.7920 Y33.0707
G01 X88.0152 Y33.1659
G01 X88.2492 Y33.2299
G01 X88.4898 Y33.2615
G01 X88.7324 Y33.2603
G01 X88.9726 Y33.2261
G01 X89.2059 Y33.1596
G01 X89.4281 Y33.0621
G01 X89.6349 Y32.9353
G01 X89.8227 Y32.7817
G01 X89.9878 Y32.6039
G01 X90.1273 Y32.4054
G01 X90.2386 Y32.1898
G01 X90.3196 Y31.9611
G01 X90.3688 Y31.7236
G01 X90.3858 Y31.4749
G01 X90.3855 Y31.4507
G01 X90.3634 Y31.2025
G01 X90.3092 Y30.9660
G01 X90.2668 Y30.8536
G01 X90.2634 Y30.8432
G01 X90.2593 Y30.8272
G01 X90.2572 Y30.8164
G01 X90.2550 Y30.8001
G01 X90.2493 Y30.7233
G01 X90.2486 Y30.7062
G01 X90.2489 Y30.6948
G01 X90.2498 Y30.6834
G01 X90.2512 Y30.6721
G01 X90.2532 Y30.6608
G01 X90.2573 Y30.6442
G01 X90.2607 Y30.6333
G01 X90.2646 Y30.6225
G01 X90.2690 Y30.6120
G01 X90.2767 Y30.5967
G01 X90.3107 Y30.5344
G01 X90.3161 Y30.5249
G01 X90.3220 Y30.5158
G01 X90.3284 Y30.5069
G01 X90.3351 Y30.4983
G01 X90.3422 Y30.4901
G01 X90.3498 Y30.4822
G01 X91.2529 Y29.5790
G01 X91.3012 Y29.5331
G01 X91.3081 Y29.5249
G01 X91.3190 Y29.5106
G01 X91.3336 Y29.4928
G01 X91.3408 Y29.4845
G01 X91.3484 Y29.4766
G01 X92.7699 Y28.0550
G01 X92.8182 Y28.0091
G01 X92.8218 Y28.0048
G01 X92.8515 Y27.9559
G01 X92.8847 Y27.9050
G01 X92.8875 Y27.8993
G01 X92.9063 Y27.8414
G01 X92.9256 Y27.7883
G01 X92.9269 Y27.7821
G01 X92.9315 Y27.7258
G01 X92.9342 Y27.7017
G01 X92.9350 Y27.6836
G01 X92.9375 Y27.6526
G01 X92.9348 Y27.6217
G01 X92.9342 Y27.6044
G01 X92.9342 Y9.4324
G01 X92.9349 Y9.4140
G01 X92.9383 Y9.3811
G01 X92.9408 Y9.3644
G01 X92.9431 Y9.3534
G01 X92.9459 Y9.3425
G01 X92.9492 Y9.3318
G01 X92.9531 Y9.3212
G01 X92.9575 Y9.3109
G01 X92.9651 Y9.2958
G01 X92.9991 Y9.2335
G01 X93.0074 Y9.2194
G01 X93.0168 Y9.2060
G01 X93.0270 Y9.1933
G01 X93.0382 Y9.1813
G01 X98.1715 Y4.0479
G01 X98.1850 Y4.0354
G01 X98.2152 Y4.0111
G01 X98.2289 Y4.0014
G01 X98.2385 Y3.9955
G01 X98.2483 Y3.9900
G01 X98.2635 Y3.9827
G01 X98.2792 Y3.9766
G01 X98.3581 Y3.9532
G01 X98.3739 Y3.9491
G01 X98.3900 Y3.9462
G01 X98.4063 Y3.9445
G01 X98.4226 Y3.9439
G01 X123.2804 Y3.9439
G01 X123.2926 Y3.9442
G01 X123.3049 Y3.9452
G01 X123.3372 Y3.9488
G01 X123.3539 Y3.9516
G01 X123.3702 Y3.9556
G01 X123.3863 Y3.9609
G01 X123.4019 Y3.9673
G01 X123.4170 Y3.9748
G01 X123.4793 Y4.0088
G01 X123.4933 Y4.0172
G01 X123.5024 Y4.0233
G01 X123.5111 Y4.0298
G01 X123.5236 Y4.0404
G01 X123.5315 Y4.0479
G01 X128.6840 Y9.2004
G01 X128.6996 Y9.2171
G01 X128.7070 Y9.2259
G01 X128.7139 Y9.2350
G01 X128.7204 Y9.2444
G01 X128.7264 Y9.2542
G01 X128.7344 Y9.2694
G01 X128.7660 Y9.3384
G01 X128.7725 Y9.3542
G01 X128.7778 Y9.3704
G01 X128.7807 Y9.3814
G01 X128.7830 Y9.3925
G01 X128.7854 Y9.4094
G01 X128.7863 Y9.4208
G01 X128.7867 Y9.4321
G01 X128.7865 Y9.4435
G01 X128.7857 Y9.4549
G01 X128.7743 Y9.5364
G01 X128.7724 Y9.5477
G01 X128.7699 Y9.5588
G01 X128.7669 Y9.5697
G01 X128.7634 Y9.5806
G01 X128.7593 Y9.5912
G01 X128.7547 Y9.6016
G01 X128.7496 Y9.6118
G01 X128.7440 Y9.6217
G01 X128.7347 Y9.6360
G01 X128.7279 Y9.6451
G01 X128.6741 Y9.7075
G01 X128.6625 Y9.7200
G01 X128.6542 Y9.7278
G01 X128.6411 Y9.7387
G01 X128.6320 Y9.7455
G01 X128.6225 Y9.7517
G01 X128.6127 Y9.7575
G01 X128.6026 Y9.7628
G01 X128.5923 Y9.7676
G01 X128.5764 Y9.7738
G01 X128.4974 Y9.7973
G01 X128.4869 Y9.8001
G01 X128.4762 Y9.8025
G01 X128.4655 Y9.8043
G01 X128.4547 Y9.8056
G01 X128.4438 Y9.8063
G01 X128.4329 Y9.8066
G01 X126.6807 Y9.8066
G01 X126.6644 Y9.8060
G01 X126.6482 Y9.8043
G01 X126.6374 Y9.8025
G01 X126.6215 Y9.7988
G01 X126.5482 Y9.7774
G01 X126.5321 Y9.7720
G01 X126.5163 Y9.7654
G01 X126.5062 Y9.7604
G01 X126.4962 Y9.7548
G01 X126.4866 Y9.7488
G01 X126.4772 Y9.7423
G01 X126.4682 Y9.7354
G01 X126.4596 Y9.7280
G01 X126.4513 Y9.7202
G01 X126.4435 Y9.7120
G01 X126.3896 Y9.6500
G01 X126.3797 Y9.6370
G01 X126.3706 Y9.6234
G01 X126.3626 Y9.6091
G01 X126.3567 Y9.5967
G01 X126.2392 Y9.3803
G01 X126.0955 Y9.1848
G01 X125.9267 Y9.0106
G01 X125.7358 Y8.8608
G01 X125.5263 Y8.7384
G01 X125.3021 Y8.6456
G01 X125.0675 Y8.5840
G01 X124.8266 Y8.5549
G01 X124.5840 Y8.5587
G01 X124.3442 Y8.5954
G01 X124.1115 Y8.6643
G01 X123.8904 Y8.7641
G01 X123.6849 Y8.8931
G01 X123.4988 Y9.0487
G01 X123.3355 Y9.2281
G01 X123.1981 Y9.4281
G01 X123.0890 Y9.6448
G01 X123.0105 Y9.8744
G01 X122.9637 Y10.1125
G01 X122.9498 Y10.3547
G01 X122.9688 Y10.5965
G01 X123.0205 Y10.8336
G01 X123.1039 Y11.0614
G01 X123.2174 Y11.2759
G01 X123.3590 Y11.4729
G01 X123.5260 Y11.6489
G01 X123.7153 Y11.8006
G01 X123.9235 Y11.9252
G01 X124.1467 Y12.0204
G01 X124.3807 Y12.0844
G01 X124.6213 Y12.1160
G01 X124.8639 Y12.1148
G01 X125.1041 Y12.0806
G01 X125.3374 Y12.0141
G01 X125.5596 Y11.9166
G01 X125.7664 Y11.7898
G01 X125.9542 Y11.6362
G01 X126.1193 Y11.4584
G01 X126.2588 Y11.2599
G01 X126.3658 Y11.0528
G01 X126.3713 Y11.0434
G01 X126.3803 Y11.0298
G01 X126.3902 Y11.0168
G01 X126.3974 Y11.0086
G01 X126.4412 Y10.9604
G01 X126.4532 Y10.9482
G01 X126.4660 Y10.9369
G01 X126.4750 Y10.9299
G01 X126.4844 Y10.9234
G01 X126.4940 Y10.9173
G01 X126.5040 Y10.9118
G01 X126.5142 Y10.9067
G01 X126.5246 Y10.9022
G01 X126.5353 Y10.8982
G01 X126.6143 Y10.8747
G01 X126.6248 Y10.8719
G01 X126.6355 Y10.8695
G01 X126.6462 Y10.8677
G01 X126.6570 Y10.8664
G01 X126.6679 Y10.8657
G01 X126.6788 Y10.8654
G01 X130.1384 Y10.8654
G01 X130.1506 Y10.8657
G01 X130.1629 Y10.8667
G01 X130.1952 Y10.8703
G01 X130.2063 Y10.8720
G01 X130.2228 Y10.8757
G01 X130.2390 Y10.8805
G01 X130.2547 Y10.8865
G01 X130.2700 Y10.8937
G01 X130.3467 Y10.9358
G01 X130.3559 Y10.9417
G01 X130.3648 Y10.9480
G01 X130.3775 Y10.9583
G01 X130.3856 Y10.9656
G01 X132.7592 Y13.3392
G01 X132.8051 Y13.3874
G01 X132.8095 Y13.3910
G01 X132.8620 Y13.4230
G01 X132.9093 Y13.4540
G01 X132.9150 Y13.4567
G01 X132.9728 Y13.4756
G01 X133.0260 Y13.4948
G01 X133.0321 Y13.4962
G01 X133.0884 Y13.5008
G01 X133.1125 Y13.5035
G01 X133.1307 Y13.5042
G01 X133.1617 Y13.5067
G01 X133.1925 Y13.5041
G01 X133.2098 Y13.5034
G01 X134.0535 Y13.5034
G01 X134.0698 Y13.5040
G01 X134.0859 Y13.5057
G01 X134.1435 Y13.5156
G01 X134.1547 Y13.5183
G01 X134.1711 Y13.5234
G01 X134.1871 Y13.5298
G01 X134.2026 Y13.5374
G01 X134.2126 Y13.5430
G01 X134.2223 Y13.5492
G01 X134.2499 Y13.5687
G01 X134.2629 Y13.5759
G01 X134.2770 Y13.5851
G01 X134.2904 Y13.5953
G01 X134.3031 Y13.6065
G01 X134.4132 Y13.7167
G01 X134.5181 Y13.7817
G01 X134.6367 Y13.8212
G01 X134.7057 Y13.8284
G01 X136.0829 Y13.8284
G01 X136.1508 Y13.8215
G01 X136.2695 Y13.7821
G01 X136.3746 Y13.7173
G01 X136.4202 Y13.6719
G01 X136.4340 Y13.6599
G01 X136.4593 Y13.6396
G01 X136.4684 Y13.6330
G01 X136.4826 Y13.6239
G01 X136.4974 Y13.6159
G01 X136.5128 Y13.6091
G01 X136.5286 Y13.6033
G01 X136.6074 Y13.5802
G01 X136.6180 Y13.5776
G01 X136.6287 Y13.5756
G01 X136.6395 Y13.5740
G01 X136.6558 Y13.5727
G01 X136.6667 Y13.5724
G01 X140.0370 Y13.5724
G01 X140.0488 Y13.5727
G01 X140.0664 Y13.5743
G01 X140.0780 Y13.5761
G01 X140.1279 Y13.5853
G01 X140.1442 Y13.5893
G01 X140.1602 Y13.5945
G01 X140.1707 Y13.5986
G01 X140.1809 Y13.6032
G01 X140.1958 Y13.6111
G01 X140.2054 Y13.6169
G01 X140.2147 Y13.6233
G01 X140.2845 Y13.6761
G01 X140.2927 Y13.6832
G01 X140.3005 Y13.6908
G01 X140.3080 Y13.6987
G01 X140.3152 Y13.7069
G01 X140.3803 Y13.7941
G01 X140.5190 Y13.9264
G01 X140.6249 Y13.9977
G01 X140.6348 Y14.0047
G01 X140.6489 Y14.0163
G01 X140.6906 Y14.0555
G01 X140.6983 Y14.0638
G01 X140.7056 Y14.0725
G01 X140.7156 Y14.0862
G01 X140.7217 Y14.0957
G01 X140.7274 Y14.1055
G01 X140.7326 Y14.1156
G01 X140.7372 Y14.1259
G01 X140.7653 Y14.1972
G01 X140.7710 Y14.2133
G01 X140.7754 Y14.2298
G01 X140.7777 Y14.2409
G01 X140.7800 Y14.2578
G01 X140.7809 Y14.2692
G01 X140.7812 Y14.2806
G01 X140.7810 Y14.2919
G01 X140.7801 Y14.3033
G01 X140.7788 Y14.3146
G01 X140.7630 Y14.3954
G01 X140.7605 Y14.4065
G01 X140.7574 Y14.4175
G01 X140.7538 Y14.4283
G01 X140.7497 Y14.4389
G01 X140.7451 Y14.4493
G01 X140.7399 Y14.4594
G01 X140.7343 Y14.4693
G01 X140.7249 Y14.4836
G01 X140.7145 Y14.4971
G01 X140.7031 Y14.5098
G01 X140.6538 Y14.5609
G01 X140.6460 Y14.5685
G01 X140.6379 Y14.5758
G01 X140.6251 Y14.5860
G01 X140.6162 Y14.5923
G01 X140.6070 Y14.5981
G01 X140.5875 Y14.6093
G01 X140.4394 Y14.7307
G01 X140.3138 Y14.8754
G01 X140.2144 Y15.0392
G01 X140.2063 Y15.0599
G01 X140.2652 Y15.0599
G01 X140.2750 Y15.0393
G01 X140.2803 Y15.0294
G01 X140.3289 Y14.9482
G01 X140.3385 Y14.9343
G01 X140.3882 Y14.8673
G01 X140.3987 Y14.8541
G01 X140.4585 Y14.7881
G01 X140.4662 Y14.7800
G01 X140.5362 Y14.7162
G01 X140.5447 Y14.7088
G01 X140.5535 Y14.7019
G01 X140.6251 Y14.6489
G01 X140.6392 Y14.6397
G01 X140.7206 Y14.5913
G01 X140.8060 Y14.5506
G01 X140.8163 Y14.5460
G01 X140.8268 Y14.5420
G01 X140.9160 Y14.5104
G01 X141.0078 Y14.4871
G01 X141.0234 Y14.4838
G01 X141.1123 Y14.4705
G01 X141.1235 Y14.4691
G01 X141.1347 Y14.4683
G01 X141.2293 Y14.4639
G01 X143.5292 Y14.4639
G01 X143.6238 Y14.4683
G01 X143.6350 Y14.4691
G01 X143.6462 Y14.4705
G01 X143.7398 Y14.4846
G01 X143.8317 Y14.5074
G01 X143.8425 Y14.5104
G01 X143.8532 Y14.5139
G01 X143.9422 Y14.5460
G01 X144.0279 Y14.5863
G01 X144.0379 Y14.5913
G01 X144.0477 Y14.5969
G01 X144.1288 Y14.6458
G01 X144.2050 Y14.7019
G01 X144.2138 Y14.7088
G01 X144.2223 Y14.7162
G01 X144.2841 Y14.7722
G01 X144.2962 Y14.7840
G01 X144.3561 Y14.8499
G01 X144.3634 Y14.8584
G01 X144.3703 Y14.8673
G01 X144.4233 Y14.9389
G01 X144.4325 Y14.9530
G01 X144.4782 Y15.0294
G01 X144.4835 Y15.0393
G01 X144.4933 Y15.0599
G01 X144.5501 Y15.0599
G01 X144.4922 Y14.9460
G01 X144.3778 Y14.7923
G01 X144.2392 Y14.6600
G01 X144.1335 Y14.5889
G01 X144.1189 Y14.5781
G01 X144.1051 Y14.5662
G01 X144.0718 Y14.5351
G01 X144.0602 Y14.5228
G01 X144.0495 Y14.5096
G01 X144.0397 Y14.4957
G01 X144.0338 Y14.4860
G01 X144.0284 Y14.4761
G01 X144.0235 Y14.4659
G01 X144.0191 Y14.4555
G01 X143.9911 Y14.3841
G01 X143.9875 Y14.3733
G01 X143.9844 Y14.3623
G01 X143.9808 Y14.3457
G01 X143.9784 Y14.3288
G01 X143.9776 Y14.3174
G01 X143.9773 Y14.3060
G01 X143.9779 Y14.2890
G01 X143.9790 Y14.2777
G01 X143.9806 Y14.2664
G01 X143.9955 Y14.1912
G01 X143.9980 Y14.1801
G01 X144.0011 Y14.1691
G01 X144.0047 Y14.1583
G01 X144.0088 Y14.1477
G01 X144.0134 Y14.1373
G01 X144.0186 Y14.1272
G01 X144.0242 Y14.1173
G01 X144.0303 Y14.1077
G01 X144.0369 Y14.0985
G01 X144.0440 Y14.0895
G01 X144.0554 Y14.0768
G01 X144.1047 Y14.0257
G01 X144.1125 Y14.0180
G01 X144.1208 Y14.0106
G01 X144.1337 Y14.0003
G01 X144.1428 Y13.9940
G01 X144.1521 Y13.9881
G01 X144.1713 Y13.9771
G01 X144.3195 Y13.8556
G01 X144.4578 Y13.6962
G01 X144.4654 Y13.6879
G01 X144.4775 Y13.6761
G01 X144.4915 Y13.6645
G01 X144.5060 Y13.6510
G01 X144.5146 Y13.6436
G01 X144.5282 Y13.6334
G01 X144.5425 Y13.6242
G01 X144.5524 Y13.6187
G01 X144.5626 Y13.6137
G01 X144.5730 Y13.6091
G01 X144.5836 Y13.6052
G01 X144.6625 Y13.5817
G01 X144.6784 Y13.5776
G01 X144.6891 Y13.5756
G01 X144.7053 Y13.5734
G01 X144.7216 Y13.5725
G01 X146.7580 Y13.5725
G01 X146.7764 Y13.5737
G01 X146.8087 Y13.5773
G01 X146.8198 Y13.5790
G01 X146.8308 Y13.5813
G01 X146.8417 Y13.5841
G01 X146.8525 Y13.5875
G01 X146.8630 Y13.5914
G01 X146.8734 Y13.5958
G01 X146.8835 Y13.6007
G01 X146.9508 Y13.6373
G01 X146.9602 Y13.6428
G01 X146.9694 Y13.6487
G01 X146.9826 Y13.6583
G01 X146.9910 Y13.6653
G01 X147.0030 Y13.6764
G01 X150.1321 Y16.8057
G01 X150.1442 Y16.8195
G01 X150.1646 Y16.8449
G01 X150.1712 Y16.8540
G01 X150.1774 Y16.8634
G01 X150.1831 Y16.8731
G01 X150.1883 Y16.8831
G01 X150.1930 Y16.8933
G01 X150.1972 Y16.9037
G01 X150.2009 Y16.9143
G01 X150.2226 Y16.9878
G01 X150.2254 Y16.9984
G01 X150.2277 Y17.0090
G01 X150.2302 Y17.0252
G01 X150.2313 Y17.0360
G01 X150.2318 Y17.0524
G01 X150.2318 Y37.4378
G01 X150.2311 Y37.4608
G01 X150.2301 Y37.4721
G01 X150.2276 Y37.4890
G01 X150.2253 Y37.5000
G01 X150.2224 Y37.5110
G01 X150.2170 Y37.5271
G01 X150.1879 Y37.6042
G01 X150.1805 Y37.6196
G01 X150.1750 Y37.6295
G01 X150.1690 Y37.6392
G01 X150.1625 Y37.6486
G01 X150.1556 Y37.6576
G01 X150.1482 Y37.6662
G01 X150.1404 Y37.6745
G01 X150.1322 Y37.6824
G01 X150.1236 Y37.6899
G01 X150.1147 Y37.6969
G01 X150.0485 Y37.7460
G01 X150.0389 Y37.7521
G01 X150.0290 Y37.7577
G01 X150.0189 Y37.7629
G01 X150.0085 Y37.7675
G01 X149.9925 Y37.7734
G01 X149.9816 Y37.7767
G01 X149.9650 Y37.7807
G01 X149.9538 Y37.7826
G01 X149.9368 Y37.7844
G01 X149.8660 Y37.7894
G01 X149.8489 Y37.7900
G01 X149.8319 Y37.7893
G01 X149.8206 Y37.7881
G01 X149.8037 Y37.7853
G01 X149.7927 Y37.7827
G01 X149.7763 Y37.7779
G01 X149.7656 Y37.7739
G01 X149.7500 Y37.7671
G01 X149.6776 Y37.7278
G01 X149.6682 Y37.7223
G01 X149.6590 Y37.7164
G01 X149.6458 Y37.7068
G01 X149.6333 Y37.6962
G01 X149.5830 Y37.6462
G01 X149.4781 Y37.5813
G01 X149.3597 Y37.5417
G01 X149.2908 Y37.5346
G01 X149.0853 Y37.5346
G01 X149.0853 Y37.5844
G01 X149.2579 Y37.5845
G01 X149.2936 Y37.5862
G01 X149.3104 Y37.5881
G01 X149.3457 Y37.5936
G01 X149.3567 Y37.5961
G01 X149.3913 Y37.6050
G01 X149.4020 Y37.6086
G01 X149.4356 Y37.6209
G01 X149.4731 Y37.6384
G01 X149.4830 Y37.6437
G01 X149.5089 Y37.6591
G01 X149.5184 Y37.6651
G01 X149.5276 Y37.6716
G01 X149.5562 Y37.6932
G01 X149.5647 Y37.7005
G01 X149.5910 Y37.7247
G01 X149.6190 Y37.7553
G01 X149.6295 Y37.7684
G01 X149.6506 Y37.7973
G01 X149.6692 Y37.8279
G01 X149.6748 Y37.8377
G01 X149.6798 Y37.8477
G01 X149.6949 Y37.8802
G01 X149.6989 Y37.8906
G01 X149.7107 Y37.9244
G01 X149.7197 Y37.9591
G01 X149.7221 Y37.9700
G01 X149.7277 Y38.0054
G01 X149.7296 Y38.0233
G01 X149.7313 Y38.0635
G01 X149.7313 Y38.7135
G01 X149.7311 Y38.7247
G01 X149.7290 Y38.7605
G01 X149.7241 Y38.7959
G01 X149.7210 Y38.8125
G01 X149.7137 Y38.8417
G01 X149.7090 Y38.8579
G01 X149.6970 Y38.8916
G01 X149.6903 Y38.9071
G01 X149.6774 Y38.9344
G01 X149.6692 Y38.9491
G01 X149.6506 Y38.9797
G01 X149.6295 Y39.0086
G01 X149.6190 Y39.0217
G01 X149.5949 Y39.0482
G01 X149.5829 Y39.0600
G01 X149.5562 Y39.0838
G01 X149.5276 Y39.1054
G01 X149.5137 Y39.1149
G01 X149.4830 Y39.1333
G01 X149.4680 Y39.1411
G01 X149.4356 Y39.1561
G01 X149.4020 Y39.1684
G01 X149.3859 Y39.1735
G01 X149.3512 Y39.1822
G01 X149.3346 Y39.1853
G01 X149.3048 Y39.1897
G01 X149.2936 Y39.1908
G01 X149.2635 Y39.1923
G01 X149.2523 Y39.1926
G01 X149.0853 Y39.1926
G01 X149.0853 Y39.2424
G01 X149.2909 Y39.2424
G01 X149.3587 Y39.2355
G01 X149.4773 Y39.1961
G01 X149.5823 Y39.1314
G01 X149.6259 Y39.0879
G01 X149.6424 Y39.0724
G01 X149.6512 Y39.0650
G01 X149.6603 Y39.0581
G01 X149.6697 Y39.0517
G01 X149.6795 Y39.0457
G01 X149.6895 Y39.0402
G01 X149.6991 Y39.0356
G01 X149.7741 Y39.0016
G01 X149.7902 Y38.9959
G01 X149.8011 Y38.9928
G01 X149.8122 Y38.9902
G01 X149.8290 Y38.9873
G01 X149.8403 Y38.9861
G01 X149.8574 Y38.9854
G01 X149.8688 Y38.9856
G01 X149.8858 Y38.9870
G01 X149.9617 Y38.9978
G01 X149.9729 Y38.9997
G01 X149.9895 Y39.0036
G01 X150.0004 Y39.0069
G01 X150.0111 Y39.0107
G01 X150.0217 Y39.0150
G01 X150.0370 Y39.0225
G01 X150.0518 Y39.0311
G01 X150.0658 Y39.0408
G01 X150.0791 Y39.0514
G01 X150.1328 Y39.0979
G01 X150.1412 Y39.1056
G01 X150.1492 Y39.1137
G01 X150.1568 Y39.1221
G01 X150.1640 Y39.1310
G01 X150.1707 Y39.1401
G01 X150.1770 Y39.1496
G01 X150.1828 Y39.1594
G01 X150.1881 Y39.1695
G01 X150.1929 Y39.1798
G01 X150.1971 Y39.1904
G01 X150.2026 Y39.2065
G01 X150.2254 Y39.2852
G01 X150.2277 Y39.2958
G01 X150.2295 Y39.3066
G01 X150.2308 Y39.3174
G01 X150.2316 Y39.3283
G01 X150.2318 Y39.3392
G01 X150.2318 Y40.3871
G01 X150.2311 Y40.4101
G01 X150.2301 Y40.4214
G01 X150.2276 Y40.4382
G01 X150.2253 Y40.4493
G01 X150.2224 Y40.4603
G01 X150.2189 Y40.4711
G01 X150.1921 Y40.5429
G01 X150.1856 Y40.5587
G01 X150.1778 Y40.5739
G01 X150.1721 Y40.5837
G01 X150.1658 Y40.5932
G01 X150.1591 Y40.6024
G01 X150.1520 Y40.6112
G01 X150.1444 Y40.6197
G01 X150.1364 Y40.6278
G01 X150.1280 Y40.6355
G01 X150.1192 Y40.6427
G01 X150.0578 Y40.6887
G01 X150.0438 Y40.6984
G01 X150.0340 Y40.7043
G01 X150.0240 Y40.7097
G01 X150.0137 Y40.7145
G01 X149.9979 Y40.7209
G01 X149.9871 Y40.7244
G01 X149.9761 Y40.7275
G01 X149.9594 Y40.7310
G01 X149.9482 Y40.7326
G01 X149.9368 Y40.7337
G01 X149.8546 Y40.7392
G01 X149.8433 Y40.7392
G01 X149.8319 Y40.7386
G01 X149.8149 Y40.7366
G01 X149.7982 Y40.7334
G01 X149.7872 Y40.7305
G01 X149.7763 Y40.7272
G01 X149.7604 Y40.7211
G01 X149.7449 Y40.7138
G01 X149.6776 Y40.6771
G01 X149.6636 Y40.6687
G01 X149.6545 Y40.6626
G01 X149.6458 Y40.6561
G01 X149.6374 Y40.6491
G01 X149.6254 Y40.6380
G01 X149.5833 Y40.5958
G01 X149.4784 Y40.5308
G01 X149.3598 Y40.4913
G01 X149.2908 Y40.4841
G01 X147.9136 Y40.4841
G01 X147.8457 Y40.4910
G01 X147.7270 Y40.5304
G01 X147.6242 Y40.5937
G01 X147.6093 Y40.6017
G01 X147.5990 Y40.6064
G01 X147.5885 Y40.6105
G01 X147.5387 Y40.6286
G01 X147.5281 Y40.6322
G01 X147.5173 Y40.6352
G01 X147.5063 Y40.6377
G01 X147.4897 Y40.6405
G01 X147.4785 Y40.6416
G01 X147.4617 Y40.6423
G01 X147.4448 Y40.6418
G01 X147.4336 Y40.6407
G01 X147.3578 Y40.6299
G01 X147.3466 Y40.6280
G01 X147.3355 Y40.6255
G01 X147.3191 Y40.6208
G01 X147.3031 Y40.6149
G01 X147.2927 Y40.6103
G01 X147.2825 Y40.6052
G01 X147.2677 Y40.5966
G01 X147.2537 Y40.5869
G01 X147.2447 Y40.5799
G01 X147.1867 Y40.5298
G01 X147.1783 Y40.5221
G01 X147.1664 Y40.5098
G01 X147.1590 Y40.5012
G01 X147.1521 Y40.4922
G01 X147.1425 Y40.4781
G01 X147.1340 Y40.4633
G01 X147.1290 Y40.4531
G01 X147.1244 Y40.4426
G01 X147.1186 Y40.4266
G01 X147.0969 Y40.3530
G01 X147.0929 Y40.3372
G01 X147.0908 Y40.3265
G01 X147.0893 Y40.3157
G01 X147.0882 Y40.3048
G01 X147.0877 Y40.2885
G01 X147.0877 Y39.4378
G01 X147.0880 Y39.4260
G01 X147.0895 Y39.4084
G01 X147.0914 Y39.3968
G01 X147.1042 Y39.3351
G01 X147.1087 Y39.3189
G01 X147.1123 Y39.3082
G01 X147.1164 Y39.2978
G01 X147.1236 Y39.2825
G01 X147.1290 Y39.2726
G01 X147.1349 Y39.2630
G01 X147.1446 Y39.2492
G01 X147.1972 Y39.1859
G01 X147.2086 Y39.1733
G01 X147.2209 Y39.1615
G01 X147.2341 Y39.1507
G01 X147.2433 Y39.1440
G01 X147.2578 Y39.1349
G01 X147.2678 Y39.1294
G01 X147.2780 Y39.1244
G01 X147.2938 Y39.1180
G01 X147.3045 Y39.1143
G01 X147.3778 Y39.0915
G01 X147.3943 Y39.0875
G01 X147.4055 Y39.0854
G01 X147.4225 Y39.0835
G01 X147.4395 Y39.0827
G01 X147.4566 Y39.0833
G01 X147.4679 Y39.0844
G01 X147.4792 Y39.0860
G01 X147.4903 Y39.0882
G01 X147.5698 Y39.1098
G01 X147.5803 Y39.1129
G01 X147.5906 Y39.1166
G01 X147.6056 Y39.1229
G01 X147.6154 Y39.1278
G01 X147.6249 Y39.1330
G01 X147.7264 Y39.1957
G01 X147.8448 Y39.2353
G01 X147.9137 Y39.2424
G01 X148.1192 Y39.2424
G01 X148.1192 Y39.1926
G01 X147.9466 Y39.1925
G01 X147.9109 Y39.1908
G01 X147.8941 Y39.1889
G01 X147.8588 Y39.1834
G01 X147.8478 Y39.1809
G01 X147.8132 Y39.1720
G01 X147.7794 Y39.1602
G01 X147.7689 Y39.1561
G01 X147.7314 Y39.1386
G01 X147.7215 Y39.1333
G01 X147.6956 Y39.1179
G01 X147.6861 Y39.1119
G01 X147.6769 Y39.1054
G01 X147.6483 Y39.0838
G01 X147.6398 Y39.0765
G01 X147.6135 Y39.0523
G01 X147.5855 Y39.0217
G01 X147.5750 Y39.0086
G01 X147.5539 Y38.9797
G01 X147.5353 Y38.9491
G01 X147.5297 Y38.9393
G01 X147.5247 Y38.9293
G01 X147.5096 Y38.8968
G01 X147.5056 Y38.8864
G01 X147.4938 Y38.8526
G01 X147.4848 Y38.8179
G01 X147.4824 Y38.8070
G01 X147.4768 Y38.7716
G01 X147.4750 Y38.7549
G01 X147.4732 Y38.7135
G01 X147.4732 Y38.0635
G01 X147.4734 Y38.0523
G01 X147.4755 Y38.0165
G01 X147.4804 Y37.9811
G01 X147.4835 Y37.9645
G01 X147.4908 Y37.9353
G01 X147.4955 Y37.9191
G01 X147.5075 Y37.8854
G01 X147.5142 Y37.8699
G01 X147.5271 Y37.8426
G01 X147.5353 Y37.8279
G01 X147.5539 Y37.7973
G01 X147.5750 Y37.7684
G01 X147.5855 Y37.7553
G01 X147.6096 Y37.7288
G01 X147.6216 Y37.7170
G01 X147.6483 Y37.6932
G01 X147.6769 Y37.6716
G01 X147.6908 Y37.6621
G01 X147.7215 Y37.6437
G01 X147.7365 Y37.6359
G01 X147.7689 Y37.6209
G01 X147.8025 Y37.6086
G01 X147.8186 Y37.6035
G01 X147.8533 Y37.5948
G01 X147.8699 Y37.5917
G01 X147.8997 Y37.5873
G01 X147.9109 Y37.5862
G01 X147.9410 Y37.5847
G01 X147.9522 Y37.5844
G01 X148.1192 Y37.5844
G01 X148.1192 Y37.5346
G01 X147.9136 Y37.5346
G01 X147.8458 Y37.5415
G01 X147.7272 Y37.5809
G01 X147.6222 Y37.6456
G01 X147.5349 Y37.7327
G01 X147.4933 Y37.7999
G01 X147.4838 Y37.8133
G01 X147.4735 Y37.8260
G01 X147.4294 Y37.8734
G01 X147.4167 Y37.8850
G01 X147.4077 Y37.8922
G01 X147.3984 Y37.8989
G01 X147.3887 Y37.9052
G01 X147.3788 Y37.9109
G01 X147.3686 Y37.9162
G01 X147.3581 Y37.9209
G01 X147.2807 Y37.9494
G01 X147.2645 Y37.9547
G01 X147.2535 Y37.9575
G01 X147.2423 Y37.9598
G01 X147.2311 Y37.9615
G01 X147.2197 Y37.9626
G01 X147.2084 Y37.9632
G01 X147.1970 Y37.9632
G01 X147.1800 Y37.9622
G01 X147.1687 Y37.9608
G01 X147.1519 Y37.9577
G01 X147.0826 Y37.9420
G01 X147.0718 Y37.9393
G01 X147.0612 Y37.9361
G01 X147.0455 Y37.9303
G01 X147.0303 Y37.9233
G01 X147.0204 Y37.9181
G01 X147.0108 Y37.9123
G01 X146.9970 Y37.9029
G01 X146.9839 Y37.8925
G01 X146.9717 Y37.8812
G01 X146.9201 Y37.8300
G01 X146.9088 Y37.8172
G01 X146.8985 Y37.8037
G01 X146.8893 Y37.7900
G01 X146.7621 Y37.6236
G01 X146.6125 Y37.4822
G01 X146.4423 Y37.3664
G01 X146.2557 Y37.2794
G01 X146.0576 Y37.2234
G01 X145.8530 Y37.1997
G01 X145.6474 Y37.2090
G01 X145.4458 Y37.2512
G01 X145.2536 Y37.3249
G01 X145.0757 Y37.4285
G01 X144.9166 Y37.5592
G01 X144.7805 Y37.7136
G01 X144.6707 Y37.8878
G01 X144.5903 Y38.0773
G01 X144.5412 Y38.2773
G01 X144.5288 Y38.4307
G01 X144.5288 Y38.5980
G01 X144.5286 Y38.6089
G01 X144.5278 Y38.6198
G01 X144.5265 Y38.6306
G01 X144.5247 Y38.6414
G01 X144.5122 Y38.6990
G01 X144.5095 Y38.7102
G01 X144.5062 Y38.7211
G01 X144.5024 Y38.7319
G01 X144.4981 Y38.7425
G01 X144.4932 Y38.7529
G01 X144.4878 Y38.7630
G01 X144.4820 Y38.7728
G01 X144.4756 Y38.7823
G01 X144.4688 Y38.7915
G01 X144.4615 Y38.8004
G01 X144.4112 Y38.8583
G01 X144.3993 Y38.8705
G01 X144.3908 Y38.8781
G01 X144.3774 Y38.8887
G01 X144.3633 Y38.8982
G01 X144.3485 Y38.9067
G01 X144.3331 Y38.9141
G01 X144.3172 Y38.9203
G01 X144.3064 Y38.9238
G01 X144.2383 Y38.9438
G01 X144.2224 Y38.9479
G01 X144.2117 Y38.9499
G01 X144.2009 Y38.9515
G01 X144.1901 Y38.9525
G01 X144.1792 Y38.9530
G01 X142.1106 Y38.9531
G01 X142.0922 Y38.9524
G01 X142.0482 Y38.9474
G01 X142.0371 Y38.9454
G01 X142.0262 Y38.9428
G01 X142.0100 Y38.9380
G01 X141.9943 Y38.9320
G01 X141.9790 Y38.9248
G01 X141.9070 Y38.8855
G01 X141.8977 Y38.8798
G01 X141.8842 Y38.8705
G01 X141.8757 Y38.8638
G01 X141.8634 Y38.8529
G01 X140.8637 Y37.8532
G01 X140.8512 Y37.8397
G01 X140.8235 Y37.8051
G01 X140.8171 Y37.7958
G01 X140.8112 Y37.7863
G01 X140.8058 Y37.7764
G01 X140.8008 Y37.7664
G01 X140.7963 Y37.7560
G01 X140.7906 Y37.7402
G01 X140.7675 Y37.6614
G01 X140.7638 Y37.6455
G01 X140.7620 Y37.6347
G01 X140.7602 Y37.6185
G01 X140.7597 Y37.6076
G01 X140.7597 Y36.4849
G01 X140.7609 Y36.4672
G01 X140.7634 Y36.4498
G01 X140.7725 Y36.3999
G01 X140.7750 Y36.3889
G01 X140.7781 Y36.3781
G01 X140.7837 Y36.3623
G01 X140.7905 Y36.3468
G01 X140.7984 Y36.3320
G01 X140.8042 Y36.3224
G01 X140.8138 Y36.3086
G01 X140.8633 Y36.2433
G01 X140.8705 Y36.2351
G01 X140.8780 Y36.2272
G01 X140.8859 Y36.2197
G01 X140.8942 Y36.2126
G01 X140.9813 Y36.1474
G01 X141.1136 Y36.0088
G01 X141.2063 Y35.8711
G01 X141.2134 Y35.8612
G01 X141.2249 Y35.8471
G01 X141.2601 Y35.8094
G01 X141.2724 Y35.7977
G01 X141.2856 Y35.7870
G01 X141.2995 Y35.7773
G01 X141.3141 Y35.7686
G01 X141.3242 Y35.7635
G01 X141.3345 Y35.7588
G01 X141.4111 Y35.7287
G01 X141.4219 Y35.7250
G01 X141.4329 Y35.7219
G01 X141.4440 Y35.7194
G01 X141.4608 Y35.7166
G01 X141.4778 Y35.7151
G01 X141.4892 Y35.7148
G01 X141.5062 Y35.7154
G01 X141.5175 Y35.7165
G01 X141.5344 Y35.7192
G01 X141.6040 Y35.7331
G01 X141.6206 Y35.7370
G01 X141.6369 Y35.7422
G01 X141.6475 Y35.7463
G01 X141.6579 Y35.7510
G01 X141.6730 Y35.7589
G01 X141.6827 Y35.7648
G01 X141.6922 Y35.7711
G01 X141.7013 Y35.7779
G01 X141.7100 Y35.7852
G01 X141.7695 Y35.8422
G01 X141.7772 Y35.8501
G01 X141.7846 Y35.8583
G01 X141.7949 Y35.8713
G01 X141.8042 Y35.8850
G01 X141.8361 Y35.9405
G01 X141.9576 Y36.0887
G01 X142.1024 Y36.2144
G01 X142.2663 Y36.3138
G01 X142.4445 Y36.3842
G01 X142.6321 Y36.4235
G01 X142.8236 Y36.4307
G01 X143.0137 Y36.4056
G01 X143.1967 Y36.3487
G01 X143.3675 Y36.2618
G01 X143.5213 Y36.1474
G01 X143.6536 Y36.0088
G01 X143.7466 Y35.8706
G01 X143.7537 Y35.8607
G01 X143.7652 Y35.8466
G01 X143.7965 Y35.8130
G01 X143.8086 Y35.8010
G01 X143.8171 Y35.7936
G01 X143.8259 Y35.7865
G01 X143.8398 Y35.7768
G01 X143.8495 Y35.7709
G01 X143.8645 Y35.7630
G01 X143.8801 Y35.7562
G01 X143.9461 Y35.7302
G01 X143.9622 Y35.7246
G01 X143.9732 Y35.7215
G01 X143.9843 Y35.7189
G01 X144.0011 Y35.7162
G01 X144.0181 Y35.7146
G01 X144.0295 Y35.7143
G01 X144.0409 Y35.7146
G01 X144.0522 Y35.7154
G01 X144.0635 Y35.7168
G01 X144.1443 Y35.7326
G01 X144.1609 Y35.7366
G01 X144.1718 Y35.7399
G01 X144.1825 Y35.7437
G01 X144.1930 Y35.7481
G01 X144.2033 Y35.7530
G01 X144.2133 Y35.7584
G01 X144.2230 Y35.7643
G01 X144.2371 Y35.7740
G01 X144.2503 Y35.7848
G01 X144.2587 Y35.7925
G01 X144.3137 Y35.8456
G01 X144.3213 Y35.8537
G01 X144.3284 Y35.8621
G01 X144.3384 Y35.8753
G01 X144.3445 Y35.8845
G01 X144.3765 Y35.9402
G01 X144.4980 Y36.0884
G01 X144.6427 Y36.2139
G01 X144.8065 Y36.3133
G01 X144.8272 Y36.3215
G01 X144.8272 Y36.2626
G01 X144.8066 Y36.2528
G01 X144.7966 Y36.2475
G01 X144.7155 Y36.1988
G01 X144.7015 Y36.1893
G01 X144.6345 Y36.1396
G01 X144.6214 Y36.1290
G01 X144.5554 Y36.0693
G01 X144.5472 Y36.0615
G01 X144.4834 Y35.9916
G01 X144.4761 Y35.9831
G01 X144.4692 Y35.9742
G01 X144.4162 Y35.9026
G01 X144.4070 Y35.8885
G01 X144.3586 Y35.8072
G01 X144.3179 Y35.7217
G01 X144.3133 Y35.7115
G01 X144.3092 Y35.7010
G01 X144.2776 Y35.6117
G01 X144.2544 Y35.5200
G01 X144.2509 Y35.5035
G01 X144.2377 Y35.4154
G01 X144.2364 Y35.4043
G01 X144.2355 Y35.3931
G01 X144.2312 Y35.2985
G01 X144.2312 Y32.9985
G01 X144.2355 Y32.9039
G01 X144.2364 Y32.8927
G01 X144.2377 Y32.8816
G01 X144.2519 Y32.7880
G01 X144.2746 Y32.6961
G01 X144.2776 Y32.6853
G01 X144.2811 Y32.6746
G01 X144.3133 Y32.5855
G01 X144.3535 Y32.4999
G01 X144.3586 Y32.4898
G01 X144.3641 Y32.4800
G01 X144.4130 Y32.3990
G01 X144.4692 Y32.3228
G01 X144.4761 Y32.3139
G01 X144.4834 Y32.3054
G01 X144.5395 Y32.2436
G01 X144.5512 Y32.2315
G01 X144.6172 Y32.1717
G01 X144.6257 Y32.1643
G01 X144.6345 Y32.1574
G01 X144.7061 Y32.1044
G01 X144.7202 Y32.0952
G01 X144.7966 Y32.0495
G01 X144.8066 Y32.0442
G01 X144.8272 Y32.0344
G01 X144.8272 Y31.9776
G01 X144.7132 Y32.0356
G01 X144.5595 Y32.1499
G01 X144.4273 Y32.2886
G01 X144.3345 Y32.4264
G01 X144.3274 Y32.4363
G01 X144.3159 Y32.4504
G01 X144.2846 Y32.4840
G01 X144.2725 Y32.4960
G01 X144.2640 Y32.5035
G01 X144.2552 Y32.5105
G01 X144.2460 Y32.5171
G01 X144.2365 Y32.5232
G01 X144.2217 Y32.5315
G01 X144.2063 Y32.5387
G01 X144.1350 Y32.5668
G01 X144.1243 Y32.5707
G01 X144.1134 Y32.5741
G01 X144.0968 Y32.5781
G01 X144.0856 Y32.5801
G01 X144.0687 Y32.5820
G01 X144.0573 Y32.5826
G01 X144.0402 Y32.5824
G01 X144.0289 Y32.5816
G01 X144.0120 Y32.5793
G01 X143.9312 Y32.5632
G01 X143.9147 Y32.5589
G01 X143.8986 Y32.5533
G01 X143.8829 Y32.5465
G01 X143.8678 Y32.5386
G01 X143.8533 Y32.5296
G01 X143.8395 Y32.5195
G01 X143.8308 Y32.5123
G01 X143.8224 Y32.5046
G01 X143.7674 Y32.4514
G01 X143.7598 Y32.4433
G01 X143.7526 Y32.4349
G01 X143.7459 Y32.4262
G01 X143.7396 Y32.4172
G01 X143.7313 Y32.4038
G01 X143.7044 Y32.3565
G01 X143.5829 Y32.2083
G01 X143.4381 Y32.0826
G01 X143.2742 Y31.9832
G01 X143.0906 Y31.9107
G01 X143.0798 Y31.9061
G01 X143.0693 Y31.9010
G01 X143.0540 Y31.8923
G01 X143.0014 Y31.8578
G01 X142.9873 Y31.8472
G01 X142.9742 Y31.8356
G01 X142.3777 Y31.2392
G01 X142.3652 Y31.2257
G01 X142.3409 Y31.1956
G01 X142.3311 Y31.1818
G01 X142.3224 Y31.1674
G01 X142.3172 Y31.1574
G01 X142.3125 Y31.1472
G01 X142.3083 Y31.1368
G01 X142.3046 Y31.1262
G01 X142.2829 Y31.0527
G01 X142.2789 Y31.0368
G01 X142.2760 Y31.0207
G01 X142.2742 Y31.0045
G01 X142.2737 Y30.9881
G01 X142.2737 Y30.8649
G01 X142.2743 Y30.8478
G01 X142.2754 Y30.8365
G01 X142.2771 Y30.8252
G01 X142.2794 Y30.8141
G01 X142.2917 Y30.7596
G01 X142.2960 Y30.7435
G01 X142.2995 Y30.7329
G01 X142.3057 Y30.7175
G01 X142.3130 Y30.7025
G01 X142.3214 Y30.6881
G01 X142.3308 Y30.6743
G01 X142.3412 Y30.6613
G01 X142.3923 Y30.6043
G01 X142.4001 Y30.5961
G01 X142.4125 Y30.5845
G01 X142.4258 Y30.5739
G01 X142.4350 Y30.5673
G01 X142.4526 Y30.5563
G01 X142.5443 Y30.4647
G01 X142.5531 Y30.4538
G01 X142.5605 Y30.4453
G01 X142.5683 Y30.4372
G01 X142.5765 Y30.4295
G01 X142.5851 Y30.4222
G01 X142.5940 Y30.4154
G01 X142.6068 Y30.4067
G01 X142.6471 Y30.3766
G01 X142.6611 Y30.3669
G01 X142.6709 Y30.3610
G01 X142.6860 Y30.3531
G01 X142.7017 Y30.3464
G01 X142.7124 Y30.3426
G01 X142.7233 Y30.3393
G01 X142.7343 Y30.3365
G01 X142.7455 Y30.3343
G01 X142.7567 Y30.3327
G01 X142.8389 Y30.3266
G01 X142.8559 Y30.3260
G01 X142.8673 Y30.3264
G01 X142.8787 Y30.3272
G01 X142.8899 Y30.3287
G01 X142.9011 Y30.3307
G01 X142.9122 Y30.3333
G01 X142.9232 Y30.3364
G01 X142.9339 Y30.3400
G01 X142.9445 Y30.3442
G01 X142.9549 Y30.3489
G01 X142.9650 Y30.3541
G01 X143.0320 Y30.3909
G01 X143.0459 Y30.3996
G01 X143.0591 Y30.4092
G01 X143.0716 Y30.4198
G01 X143.0794 Y30.4273
G01 X143.1692 Y30.5172
G01 X143.2741 Y30.5822
G01 X143.3927 Y30.6217
G01 X143.4617 Y30.6289
G01 X144.1889 Y30.6289
G01 X144.2568 Y30.6220
G01 X144.3755 Y30.5826
G01 X144.4806 Y30.5178
G01 X144.5680 Y30.4306
G01 X144.6329 Y30.3256
G01 X144.6725 Y30.2070
G01 X144.6797 Y30.1380
G01 X144.6797 Y28.7608
G01 X144.6727 Y28.6930
G01 X144.6333 Y28.5742
G01 X144.5685 Y28.4691
G01 X144.4625 Y28.3629
G01 X144.4547 Y28.3547
G01 X144.4433 Y28.3410
G01 X144.4301 Y28.3264
G01 X144.4229 Y28.3176
G01 X144.4129 Y28.3036
G01 X144.4039 Y28.2889
G01 X144.3961 Y28.2736
G01 X144.3915 Y28.2631
G01 X144.3874 Y28.2524
G01 X144.3639 Y28.1734
G01 X144.3599 Y28.1575
G01 X144.3578 Y28.1468
G01 X144.3557 Y28.1306
G01 X144.3547 Y28.1143
G01 X144.3547 Y27.5462
G01 X144.3560 Y27.5278
G01 X144.3596 Y27.4953
G01 X144.3613 Y27.4842
G01 X144.3636 Y27.4732
G01 X144.3665 Y27.4623
G01 X144.3698 Y27.4516
G01 X144.3737 Y27.4410
G01 X144.3805 Y27.4256
G01 X144.4198 Y27.3533
G01 X144.4281 Y27.3392
G01 X144.4375 Y27.3258
G01 X144.4442 Y27.3172
G01 X144.4513 Y27.3090
G01 X144.5045 Y27.2556
G01 X144.5694 Y27.1506
G01 X144.6090 Y27.0320
G01 X144.6162 Y26.9630
G01 X144.6162 Y25.5858
G01 X144.6092 Y25.5179
G01 X144.5698 Y25.3992
G01 X144.5050 Y25.2941
G01 X144.4178 Y25.2068
G01 X144.3129 Y25.1418
G01 X144.1943 Y25.1023
G01 X144.1253 Y25.0951
G01 X143.3981 Y25.0951
G01 X143.3302 Y25.1020
G01 X143.2115 Y25.1414
G01 X143.1064 Y25.2062
G01 X143.0190 Y25.2934
G01 X142.9541 Y25.3984
G01 X142.9145 Y25.5170
G01 X142.9073 Y25.5860
G01 X142.9073 Y26.9632
G01 X142.9143 Y27.0311
G01 X142.9537 Y27.1498
G01 X143.0185 Y27.2549
G01 X143.1057 Y27.3422
G01 X143.1324 Y27.3588
G01 X143.1417 Y27.3653
G01 X143.1507 Y27.3722
G01 X143.1636 Y27.3833
G01 X143.2113 Y27.4302
G01 X143.2224 Y27.4426
G01 X143.2293 Y27.4512
G01 X143.2389 Y27.4648
G01 X143.2447 Y27.4743
G01 X143.2525 Y27.4889
G01 X143.2593 Y27.5041
G01 X143.2632 Y27.5145
G01 X143.2666 Y27.5251
G01 X143.2866 Y27.5932
G01 X143.2906 Y27.6091
G01 X143.2935 Y27.6251
G01 X143.2953 Y27.6414
G01 X143.2958 Y27.6523
G01 X143.2958 Y28.1142
G01 X143.2948 Y28.1304
G01 X143.2935 Y28.1412
G01 X143.2849 Y28.1932
G01 X143.2824 Y28.2044
G01 X143.2794 Y28.2155
G01 X143.2758 Y28.2264
G01 X143.2717 Y28.2371
G01 X143.2671 Y28.2476
G01 X143.2619 Y28.2579
G01 X143.2532 Y28.2727
G01 X143.2306 Y28.3051
G01 X143.2234 Y28.3181
G01 X143.2173 Y28.3276
G01 X143.2108 Y28.3368
G01 X143.2039 Y28.3457
G01 X143.1966 Y28.3542
G01 X143.1888 Y28.3623
G01 X143.0825 Y28.4684
G01 X143.0716 Y28.4856
G01 X143.0585 Y28.5043
G01 X143.0474 Y28.5178
G01 X143.0353 Y28.5304
G01 X143.0223 Y28.5421
G01 X143.0132 Y28.5493
G01 X142.9563 Y28.5918
G01 X142.9470 Y28.5983
G01 X142.9374 Y28.6045
G01 X142.9225 Y28.6127
G01 X142.9122 Y28.6176
G01 X142.9017 Y28.6220
G01 X142.8856 Y28.6275
G01 X142.8746 Y28.6305
G01 X142.8635 Y28.6330
G01 X142.8523 Y28.6349
G01 X142.8353 Y28.6368
G01 X142.7588 Y28.6421
G01 X142.7475 Y28.6423
G01 X142.7361 Y28.6420
G01 X142.7191 Y28.6405
G01 X142.7078 Y28.6387
G01 X142.6967 Y28.6364
G01 X142.6857 Y28.6336
G01 X142.6748 Y28.6302
G01 X142.6589 Y28.6241
G01 X142.6485 Y28.6194
G01 X142.6384 Y28.6142
G01 X142.5761 Y28.5801
G01 X142.5667 Y28.5747
G01 X142.5530 Y28.5657
G01 X142.5401 Y28.5557
G01 X142.5278 Y28.5448
G01 X142.4533 Y28.4703
G01 X142.3484 Y28.4053
G01 X142.2298 Y28.3658
G01 X142.1608 Y28.3586
G01 X141.4586 Y28.3586
G01 X141.3907 Y28.3655
G01 X141.2720 Y28.4049
G01 X141.1669 Y28.4697
G01 X141.0795 Y28.5569
G01 X141.0146 Y28.6619
G01 X140.9750 Y28.7805
G01 X140.9678 Y28.8495
G01 X140.9678 Y30.1767
G01 X140.9748 Y30.2446
G01 X141.0142 Y30.3633
G01 X141.0790 Y30.4684
G01 X141.1111 Y30.5005
G01 X141.1235 Y30.5140
G01 X141.1510 Y30.5485
G01 X141.1604 Y30.5625
G01 X141.1661 Y30.5722
G01 X141.1713 Y30.5821
G01 X141.1760 Y30.5923
G01 X141.1802 Y30.6027
G01 X141.1839 Y30.6134
G01 X141.2070 Y30.6921
G01 X141.2096 Y30.7027
G01 X141.2117 Y30.7134
G01 X141.2132 Y30.7242
G01 X141.2143 Y30.7350
G01 X141.2148 Y30.7514
G01 X141.2148 Y31.3416
G01 X141.2132 Y31.4081
G01 X141.2137 Y31.4137
G01 X141.2282 Y31.4735
G01 X141.2397 Y31.5288
G01 X141.2510 Y31.5595
G01 X141.2559 Y31.5756
G01 X141.2582 Y31.5853
G01 X141.2614 Y31.5958
G01 X141.2641 Y31.6066
G01 X141.2663 Y31.6175
G01 X141.2686 Y31.6341
G01 X141.2695 Y31.6452
G01 X141.2698 Y31.6563
G01 X141.2696 Y31.6674
G01 X141.2688 Y31.6785
G01 X141.2592 Y31.7602
G01 X141.2562 Y31.7770
G01 X141.2535 Y31.7881
G01 X141.2484 Y31.8043
G01 X141.2443 Y31.8150
G01 X141.2397 Y31.8254
G01 X141.2346 Y31.8356
G01 X141.2290 Y31.8455
G01 X141.2197 Y31.8598
G01 X141.2094 Y31.8733
G01 X141.1606 Y31.9325
G01 X141.1530 Y31.9409
G01 X141.1449 Y31.9490
G01 X141.1364 Y31.9566
G01 X141.1276 Y31.9638
G01 X141.1137 Y31.9737
G01 X141.0992 Y31.9826
G01 X141.0840 Y31.9904
G01 X141.0683 Y31.9970
G01 X141.0575 Y32.0007
G01 X140.9845 Y32.0242
G01 X140.9735 Y32.0271
G01 X140.9624 Y32.0295
G01 X140.9455 Y32.0321
G01 X140.9285 Y32.0333
G01 X140.9114 Y32.0334
G01 X140.9001 Y32.0327
G01 X140.8831 Y32.0306
G01 X140.8720 Y32.0285
G01 X140.8609 Y32.0258
G01 X140.7923 Y32.0076
G01 X140.7766 Y32.0028
G01 X140.7664 Y31.9990
G01 X140.7514 Y31.9924
G01 X140.7344 Y31.9833
G01 X140.5560 Y31.9128
G01 X140.3684 Y31.8735
G01 X140.1769 Y31.8663
G01 X139.9868 Y31.8914
G01 X139.8038 Y31.9483
G01 X139.6330 Y32.0352
G01 X139.4792 Y32.1496
G01 X139.3469 Y32.2882
G01 X139.2398 Y32.4472
G01 X139.1611 Y32.6220
G01 X139.1130 Y32.8075
G01 X139.1008 Y32.9503
G01 X139.1010 Y35.4009
G01 X139.1359 Y35.5938
G01 X139.2013 Y35.7739
G01 X139.2961 Y35.9405
G01 X139.4176 Y36.0887
G01 X139.5813 Y36.2308
G01 X139.5894 Y36.2386
G01 X139.5971 Y36.2468
G01 X139.6087 Y36.2607
G01 X139.6223 Y36.2752
G01 X139.6296 Y36.2838
G01 X139.6399 Y36.2974
G01 X139.6491 Y36.3118
G01 X139.6571 Y36.3267
G01 X139.6641 Y36.3422
G01 X139.6681 Y36.3528
G01 X139.6716 Y36.3636
G01 X139.6944 Y36.4423
G01 X139.6977 Y36.4583
G01 X139.6992 Y36.4691
G01 X139.7003 Y36.4800
G01 X139.7008 Y36.4963
G01 X139.7008 Y37.5312
G01 X139.7006 Y37.5428
G01 X139.6990 Y37.5600
G01 X139.6973 Y37.5714
G01 X139.6869 Y37.6229
G01 X139.6833 Y37.6378
G01 X139.6741 Y37.6664
G01 X139.6619 Y37.6954
G01 X139.6495 Y37.7422
G01 X139.6327 Y37.7947
G01 X139.6293 Y37.8146
G01 X139.6279 Y37.8630
G01 X139.6237 Y37.9180
G01 X139.6250 Y37.9381
G01 X139.6359 Y37.9922
G01 X139.6433 Y38.0400
G01 X139.6491 Y38.0593
G01 X139.6722 Y38.1093
G01 X139.6904 Y38.1542
G01 X139.7005 Y38.1717
G01 X139.7305 Y38.2096
G01 X139.7600 Y38.2510
G01 X139.7861 Y38.2740
G01 X139.8021 Y38.2890
G01 X141.3607 Y39.8477
G01 X141.4066 Y39.8959
G01 X141.4110 Y39.8995
G01 X141.4598 Y39.9292
G01 X141.5108 Y39.9625
G01 X141.5165 Y39.9652
G01 X141.5743 Y39.9841
G01 X141.6275 Y40.0033
G01 X141.6336 Y40.0047
G01 X141.6899 Y40.0093
G01 X141.7140 Y40.0120
G01 X141.7322 Y40.0127
G01 X141.7631 Y40.0152
G01 X141.7940 Y40.0126
G01 X141.8113 Y40.0119
G01 X144.1792 Y40.0120
G01 X144.1901 Y40.0125
G01 X144.2009 Y40.0135
G01 X144.2171 Y40.0160
G01 X144.2748 Y40.0285
G01 X144.2914 Y40.0328
G01 X144.3077 Y40.0383
G01 X144.3235 Y40.0450
G01 X144.3387 Y40.0529
G01 X144.3534 Y40.0619
G01 X144.3627 Y40.0685
G01 X144.3717 Y40.0756
G01 X144.4298 Y40.1257
G01 X144.4422 Y40.1374
G01 X144.4538 Y40.1499
G01 X144.4610 Y40.1588
G01 X144.4677 Y40.1679
G01 X144.4740 Y40.1774
G01 X144.4798 Y40.1872
G01 X144.4851 Y40.1973
G01 X144.4921 Y40.2129
G01 X144.4961 Y40.2235
G01 X144.4996 Y40.2343
G01 X144.5210 Y40.3077
G01 X144.5247 Y40.3236
G01 X144.5272 Y40.3398
G01 X144.5283 Y40.3507
G01 X144.5288 Y40.3670
G01 X144.5288 Y40.5854
G01 X144.5293 Y40.5949
G01 X144.5650 Y40.8017
G01 X144.6320 Y40.9964
G01 X144.7293 Y41.1778
G01 X144.8544 Y41.3414
G01 X144.9475 Y41.4295
G01 X144.9673 Y41.4499
G01 X144.9784 Y41.4627
G01 X144.9886 Y41.4763
G01 X144.9949 Y41.4858
G01 X145.0033 Y41.5006
G01 X145.0105 Y41.5155
G01 X145.0430 Y41.5912
G01 X145.0484 Y41.6074
G01 X145.0513 Y41.6184
G01 X145.0537 Y41.6295
G01 X145.0556 Y41.6407
G01 X145.0568 Y41.6520
G01 X145.0575 Y41.6634
G01 X145.0577 Y41.6748
G01 X145.0568 Y41.6918
G01 X145.0547 Y41.7088
G01 X145.0423 Y41.7844
G01 X145.0399 Y41.7956
G01 X145.0370 Y41.8066
G01 X145.0315 Y41.8227
G01 X145.0273 Y41.8333
G01 X145.0225 Y41.8436
G01 X145.0172 Y41.8537
G01 X145.0114 Y41.8635
G01 X145.0018 Y41.8776
G01 X144.9912 Y41.8909
G01 X144.9325 Y41.9559
G01 X144.9246 Y41.9635
G01 X144.9164 Y41.9707
G01 X144.9079 Y41.9774
G01 X144.8990 Y41.9838
G01 X144.7894 Y42.0517
G01 X144.6916 Y42.1493
G01 X144.6827 Y42.1577
G01 X144.6734 Y42.1656
G01 X144.6481 Y42.1859
G01 X144.6344 Y42.1957
G01 X144.6248 Y42.2016
G01 X144.6150 Y42.2070
G01 X144.6049 Y42.2120
G01 X144.5894 Y42.2185
G01 X144.5788 Y42.2222
G01 X144.5000 Y42.2453
G01 X144.4894 Y42.2479
G01 X144.4787 Y42.2499
G01 X144.4625 Y42.2521
G01 X144.4516 Y42.2528
G01 X144.4407 Y42.2531
G01 X144.3596 Y42.2531
G01 X144.2962 Y42.2514
G01 X144.2905 Y42.2519
G01 X144.2308 Y42.2665
G01 X144.1754 Y42.2780
G01 X144.1695 Y42.2801
G01 X144.1191 Y42.3058
G01 X144.0640 Y42.3316
G01 X144.0587 Y42.3350
G01 X144.0157 Y42.3716
G01 X143.9967 Y42.3867
G01 X143.9834 Y42.3990
G01 X143.9597 Y42.4192
G01 X143.9397 Y42.4429
G01 X143.9280 Y42.4556
G01 X141.7158 Y44.6677
G01 X141.7080 Y44.6752
G01 X141.6999 Y44.6822
G01 X141.6771 Y44.7010
G01 X141.6678 Y44.7079
G01 X141.6582 Y44.7144
G01 X141.6482 Y44.7203
G01 X141.6380 Y44.7258
G01 X141.6274 Y44.7307
G01 X141.6167 Y44.7351
G01 X141.6058 Y44.7389
G01 X141.5382 Y44.7607
G01 X141.5217 Y44.7653
G01 X141.5050 Y44.7687
G01 X141.4937 Y44.7702
G01 X141.4824 Y44.7712
G01 X141.4710 Y44.7717
G01 X141.4597 Y44.7715
G01 X141.4483 Y44.7709
G01 X141.4370 Y44.7696
G01 X141.4258 Y44.7678
G01 X141.4146 Y44.7654
G01 X141.3353 Y44.7443
G01 X141.3197 Y44.7392
G01 X141.3046 Y44.7329
G01 X141.2948 Y44.7282
G01 X141.2805 Y44.7202
G01 X141.1149 Y44.6197
G01 X140.9366 Y44.5493
G01 X140.7490 Y44.5100
G01 X140.5575 Y44.5028
G01 X140.3675 Y44.5279
G01 X140.1845 Y44.5848
G01 X140.0136 Y44.6717
G01 X139.8598 Y44.7861
G01 X139.7275 Y44.9247
G01 X139.6562 Y45.0307
G01 X139.6454 Y45.0454
G01 X139.6336 Y45.0592
G01 X139.6024 Y45.0924
G01 X139.5943 Y45.1003
G01 X139.5814 Y45.1113
G01 X139.5723 Y45.1181
G01 X139.5630 Y45.1245
G01 X139.5484 Y45.1331
G01 X139.5383 Y45.1383
G01 X139.5228 Y45.1451
G01 X139.4460 Y45.1750
G01 X139.4296 Y45.1798
G01 X139.4186 Y45.1824
G01 X139.4074 Y45.1844
G01 X139.3961 Y45.1858
G01 X139.3847 Y45.1867
G01 X139.3733 Y45.1870
G01 X139.3620 Y45.1867
G01 X139.3450 Y45.1853
G01 X139.3281 Y45.1826
G01 X139.2585 Y45.1687
G01 X139.2474 Y45.1662
G01 X139.2364 Y45.1632
G01 X139.2203 Y45.1576
G01 X139.2098 Y45.1532
G01 X139.1995 Y45.1483
G01 X139.1895 Y45.1429
G01 X139.1798 Y45.1370
G01 X139.1658 Y45.1273
G01 X139.1525 Y45.1165
G01 X139.1441 Y45.1089
G01 X139.0930 Y45.0595
G01 X139.0854 Y45.0518
G01 X139.0781 Y45.0437
G01 X139.0679 Y45.0309
G01 X139.0616 Y45.0220
G01 X139.0558 Y45.0127
G01 X139.0446 Y44.9933
G01 X138.9232 Y44.8451
G01 X138.7785 Y44.7196
G01 X138.6147 Y44.6202
G01 X138.5940 Y44.6120
G01 X138.5940 Y44.6709
G01 X138.6146 Y44.6807
G01 X138.6245 Y44.6860
G01 X138.7057 Y44.7347
G01 X138.7196 Y44.7442
G01 X138.7866 Y44.7939
G01 X138.7998 Y44.8045
G01 X138.8658 Y44.8642
G01 X138.8739 Y44.8720
G01 X138.9377 Y44.9419
G01 X138.9451 Y44.9504
G01 X138.9520 Y44.9593
G01 X139.0050 Y45.0309
G01 X139.0142 Y45.0450
G01 X139.0626 Y45.1263
G01 X139.0676 Y45.1364
G01 X139.1079 Y45.2220
G01 X139.1119 Y45.2325
G01 X139.1435 Y45.3218
G01 X139.1668 Y45.4135
G01 X139.1701 Y45.4292
G01 X139.1834 Y45.5181
G01 X139.1848 Y45.5292
G01 X139.1856 Y45.5404
G01 X139.1900 Y45.6350
G01 X139.1900 Y47.9350
G01 X139.1856 Y48.0296
G01 X139.1848 Y48.0408
G01 X139.1834 Y48.0519
G01 X139.1693 Y48.1455
G01 X139.1465 Y48.2374
G01 X139.1437 Y48.2478
G01 X139.1403 Y48.2580
G01 X139.1079 Y48.3480
G01 X139.0676 Y48.4336
G01 X139.0626 Y48.4437
G01 X139.0570 Y48.4535
G01 X139.0081 Y48.5345
G01 X138.9520 Y48.6107
G01 X138.9451 Y48.6196
G01 X138.9377 Y48.6281
G01 X138.8817 Y48.6899
G01 X138.8699 Y48.7020
G01 X138.8040 Y48.7618
G01 X138.7955 Y48.7692
G01 X138.7866 Y48.7761
G01 X138.7151 Y48.8291
G01 X138.7009 Y48.8383
G01 X138.6245 Y48.8840
G01 X138.6146 Y48.8893
G01 X138.5940 Y48.8991
G01 X138.5940 Y48.9559
G01 X138.7079 Y48.8979
G01 X138.8616 Y48.7836
G01 X138.9939 Y48.6449
G01 X139.0650 Y48.5393
G01 X139.0758 Y48.5246
G01 X139.0877 Y48.5108
G01 X139.1188 Y48.4776
G01 X139.1311 Y48.4659
G01 X139.1443 Y48.4552
G01 X139.1535 Y48.4486
G01 X139.1679 Y48.4396
G01 X139.1778 Y48.4342
G01 X139.1880 Y48.4293
G01 X139.1984 Y48.4249
G01 X139.2698 Y48.3969
G01 X139.2861 Y48.3916
G01 X139.3027 Y48.3876
G01 X139.3195 Y48.3848
G01 X139.3365 Y48.3833
G01 X139.3479 Y48.3830
G01 X139.3592 Y48.3833
G01 X139.3706 Y48.3841
G01 X139.3819 Y48.3855
G01 X139.4627 Y48.4013
G01 X139.4793 Y48.4052
G01 X139.4902 Y48.4085
G01 X139.5009 Y48.4124
G01 X139.5166 Y48.4192
G01 X139.5267 Y48.4243
G01 X139.5366 Y48.4300
G01 X139.5462 Y48.4361
G01 X139.5555 Y48.4427
G01 X139.5644 Y48.4497
G01 X139.5771 Y48.4611
G01 X139.6282 Y48.5104
G01 X139.6359 Y48.5183
G01 X139.6433 Y48.5265
G01 X139.6503 Y48.5351
G01 X139.6599 Y48.5485
G01 X139.6658 Y48.5579
G01 X139.6768 Y48.5770
G01 X139.7983 Y48.7252
G01 X139.9431 Y48.8509
G01 X140.1069 Y48.9503
G01 X140.2852 Y49.0207
G01 X140.4728 Y49.0600
G01 X140.6643 Y49.0672
G01 X140.8543 Y49.0421
G01 X141.0373 Y48.9852
G01 X141.2082 Y48.8983
G01 X141.3620 Y48.7839
G01 X141.4943 Y48.6453
G01 X141.6013 Y48.4863
G01 X141.6800 Y48.3115
G01 X141.7282 Y48.1260
G01 X141.7403 Y47.9832
G01 X141.7403 Y46.2877
G01 X141.7406 Y46.2755
G01 X141.7445 Y46.2365
G01 X141.7469 Y46.2198
G01 X141.7492 Y46.2088
G01 X141.7520 Y46.1979
G01 X141.7554 Y46.1871
G01 X141.7593 Y46.1766
G01 X141.7637 Y46.1662
G01 X141.7686 Y46.1561
G01 X141.8079 Y46.0841
G01 X141.8166 Y46.0702
G01 X141.8229 Y46.0613
G01 X141.8296 Y46.0528
G01 X141.8368 Y46.0445
G01 X141.8443 Y46.0366
G01 X144.3301 Y43.5508
G01 X144.3425 Y43.5393
G01 X144.3747 Y43.5132
G01 X144.3883 Y43.5038
G01 X144.3977 Y43.4981
G01 X144.4074 Y43.4929
G01 X144.4223 Y43.4860
G01 X144.4378 Y43.4801
G01 X144.5108 Y43.4573
G01 X144.5217 Y43.4541
G01 X144.5328 Y43.4516
G01 X144.5440 Y43.4495
G01 X144.5553 Y43.4481
G01 X144.5666 Y43.4472
G01 X144.5780 Y43.4468
G01 X144.5894 Y43.4471
G01 X144.6007 Y43.4479
G01 X144.6120 Y43.4492
G01 X144.6232 Y43.4511
G01 X144.6398 Y43.4551
G01 X144.7135 Y43.4754
G01 X144.7290 Y43.4807
G01 X144.7441 Y43.4870
G01 X144.7539 Y43.4919
G01 X144.7681 Y43.5000
G01 X144.8936 Y43.5777
G01 X145.0122 Y43.6172
G01 X145.0812 Y43.6244
G01 X146.4084 Y43.6244
G01 X146.4763 Y43.6175
G01 X146.5950 Y43.5781
G01 X146.7001 Y43.5133
G01 X146.7875 Y43.4261
G01 X146.8524 Y43.3211
G01 X146.8920 Y43.2025
G01 X146.8992 Y43.1335
G01 X146.8992 Y42.4313
G01 X146.8922 Y42.3634
G01 X146.8812 Y42.3300
G01 X146.8784 Y42.3202
G01 X146.8708 Y42.2879
G01 X146.8687 Y42.2767
G01 X146.8667 Y42.2597
G01 X146.8659 Y42.2425
G01 X146.8661 Y42.2311
G01 X146.8675 Y42.2140
G01 X146.8784 Y42.1381
G01 X146.8803 Y42.1268
G01 X146.8827 Y42.1157
G01 X146.8874 Y42.0993
G01 X146.8933 Y42.0833
G01 X146.9004 Y42.0678
G01 X146.9058 Y42.0578
G01 X146.9116 Y42.0480
G01 X146.9180 Y42.0385
G01 X146.9283 Y42.0250
G01 X146.9785 Y41.9670
G01 X146.9861 Y41.9586
G01 X146.9942 Y41.9505
G01 X147.0070 Y41.9393
G01 X147.0207 Y41.9290
G01 X147.0350 Y41.9198
G01 X147.0450 Y41.9143
G01 X147.0603 Y41.9069
G01 X147.0709 Y41.9026
G01 X147.0816 Y41.8989
G01 X147.1604 Y41.8757
G01 X147.1764 Y41.8720
G01 X147.1871 Y41.8702
G01 X147.1980 Y41.8689
G01 X147.2088 Y41.8682
G01 X147.2197 Y41.8679
G01 X147.2670 Y41.8680
G01 X147.2832 Y41.8689
G01 X147.2993 Y41.8710
G01 X147.3459 Y41.8789
G01 X147.3571 Y41.8814
G01 X147.3682 Y41.8844
G01 X147.3791 Y41.8879
G01 X147.3951 Y41.8943
G01 X147.4055 Y41.8992
G01 X147.4156 Y41.9046
G01 X147.4303 Y41.9137
G01 X147.4579 Y41.9332
G01 X147.4757 Y41.9434
G01 X147.4896 Y41.9529
G01 X147.4984 Y41.9598
G01 X147.5111 Y41.9710
G01 X147.6212 Y42.0812
G01 X147.7261 Y42.1462
G01 X147.8447 Y42.1857
G01 X147.9137 Y42.1929
G01 X149.2909 Y42.1929
G01 X149.3588 Y42.1860
G01 X149.4775 Y42.1466
G01 X149.5826 Y42.0818
G01 X149.6259 Y42.0386
G01 X149.6468 Y42.0194
G01 X149.6603 Y42.0088
G01 X149.6697 Y42.0024
G01 X149.6795 Y41.9964
G01 X149.6895 Y41.9909
G01 X149.7636 Y41.9568
G01 X149.7741 Y41.9523
G01 X149.7848 Y41.9484
G01 X149.8011 Y41.9435
G01 X149.8178 Y41.9398
G01 X149.8347 Y41.9374
G01 X149.8517 Y41.9362
G01 X149.8688 Y41.9363
G01 X149.8858 Y41.9377
G01 X149.9617 Y41.9485
G01 X149.9729 Y41.9504
G01 X149.9895 Y41.9543
G01 X150.0058 Y41.9594
G01 X150.0217 Y41.9657
G01 X150.0320 Y41.9706
G01 X150.0420 Y41.9759
G01 X150.0518 Y41.9818
G01 X150.0612 Y41.9881
G01 X150.0703 Y41.9949
G01 X150.0791 Y42.0022
G01 X150.1370 Y42.0524
G01 X150.1492 Y42.0644
G01 X150.1568 Y42.0728
G01 X150.1674 Y42.0862
G01 X150.1770 Y42.1003
G01 X150.1828 Y42.1101
G01 X150.1881 Y42.1202
G01 X150.1929 Y42.1305
G01 X150.1971 Y42.1411
G01 X150.2026 Y42.1572
G01 X150.2226 Y42.2254
G01 X150.2266 Y42.2412
G01 X150.2295 Y42.2573
G01 X150.2313 Y42.2736
G01 X150.2318 Y42.2899
G01 X150.2318 Y67.8816
G01 X150.2311 Y67.9000
G01 X150.2270 Y67.9385
G01 X150.2242 Y67.9551
G01 X150.2216 Y67.9661
G01 X150.2185 Y67.9769
G01 X150.2149 Y67.9875
G01 X150.2107 Y67.9980
G01 X150.2061 Y68.0082
G01 X150.2009 Y68.0182
G01 X150.1615 Y68.0900
G01 X150.1556 Y68.0991
G01 X150.1459 Y68.1123
G01 X150.1390 Y68.1207
G01 X150.1316 Y68.1288
G01 X146.8803 Y71.3802
G01 X146.8636 Y71.3959
G01 X146.8549 Y71.4032
G01 X146.8458 Y71.4102
G01 X146.8315 Y71.4197
G01 X146.8216 Y71.4254
G01 X146.8069 Y71.4327
G01 X146.7424 Y71.4622
G01 X146.7266 Y71.4687
G01 X146.7158 Y71.4724
G01 X146.7049 Y71.4756
G01 X146.6882 Y71.4792
G01 X146.6770 Y71.4810
G01 X146.6657 Y71.4822
G01 X146.6486 Y71.4829
G01 X146.6372 Y71.4827
G01 X146.6259 Y71.4819
G01 X146.5443 Y71.4705
G01 X146.5275 Y71.4675
G01 X146.5165 Y71.4647
G01 X146.5002 Y71.4596
G01 X146.4896 Y71.4555
G01 X146.4792 Y71.4509
G01 X146.4640 Y71.4431
G01 X146.4542 Y71.4372
G01 X146.4448 Y71.4309
G01 X146.4357 Y71.4241
G01 X146.4269 Y71.4169
G01 X146.3690 Y71.3666
G01 X146.3608 Y71.3587
G01 X146.3529 Y71.3505
G01 X146.3455 Y71.3418
G01 X146.3386 Y71.3328
G01 X146.3321 Y71.3235
G01 X146.3260 Y71.3138
G01 X146.3205 Y71.3039
G01 X146.3155 Y71.2937
G01 X146.3109 Y71.2833
G01 X146.3069 Y71.2726
G01 X146.2834 Y71.1937
G01 X146.2794 Y71.1778
G01 X146.2773 Y71.1671
G01 X146.2758 Y71.1563
G01 X146.2747 Y71.1455
G01 X146.2742 Y71.1291
G01 X146.2742 Y46.8596
G01 X146.2756 Y46.8343
G01 X146.2767 Y46.8233
G01 X146.2784 Y46.8123
G01 X146.2806 Y46.8014
G01 X146.2833 Y46.7906
G01 X146.2866 Y46.7800
G01 X146.2904 Y46.7695
G01 X146.3197 Y46.6988
G01 X146.3243 Y46.6884
G01 X146.3294 Y46.6782
G01 X146.3380 Y46.6635
G01 X146.3478 Y46.6495
G01 X146.3585 Y46.6362
G01 X146.3662 Y46.6278
G01 X146.3742 Y46.6198
G01 X146.3827 Y46.6122
G01 X146.3961 Y46.6017
G01 X146.4591 Y46.5579
G01 X146.4684 Y46.5518
G01 X146.4779 Y46.5462
G01 X146.4928 Y46.5386
G01 X146.5081 Y46.5321
G01 X146.5950 Y46.5031
G01 X146.7001 Y46.4383
G01 X146.7875 Y46.3511
G01 X146.8524 Y46.2461
G01 X146.8920 Y46.1275
G01 X146.8992 Y46.0585
G01 X146.8992 Y45.3563
G01 X146.8922 Y45.2884
G01 X146.8528 Y45.1697
G01 X146.7880 Y45.0646
G01 X146.7008 Y44.9773
G01 X146.5959 Y44.9123
G01 X146.4773 Y44.8728
G01 X146.4083 Y44.8656
G01 X145.0811 Y44.8656
G01 X145.0132 Y44.8725
G01 X144.8945 Y44.9119
G01 X144.7894 Y44.9767
G01 X144.7020 Y45.0639
G01 X144.6371 Y45.1689
G01 X144.5975 Y45.2875
G01 X144.5903 Y45.3565
G01 X144.5903 Y46.0587
G01 X144.5973 Y46.1265
G01 X144.6367 Y46.2453
G01 X144.7015 Y46.3504
G01 X144.7887 Y46.4377
G01 X144.8936 Y46.5027
G01 X144.9784 Y46.5310
G01 X145.0068 Y46.5424
G01 X145.0167 Y46.5472
G01 X145.0265 Y46.5525
G01 X145.0360 Y46.5582
G01 X145.0452 Y46.5644
G01 X145.0584 Y46.5745
G01 X145.1163 Y46.6246
G01 X145.1287 Y46.6363
G01 X145.1366 Y46.6445
G01 X145.1440 Y46.6532
G01 X145.1509 Y46.6622
G01 X145.1605 Y46.6763
G01 X145.1663 Y46.6861
G01 X145.1716 Y46.6962
G01 X145.1764 Y46.7065
G01 X145.1806 Y46.7170
G01 X145.1861 Y46.7332
G01 X145.2089 Y46.8119
G01 X145.2112 Y46.8225
G01 X145.2137 Y46.8387
G01 X145.2148 Y46.8495
G01 X145.2153 Y46.8604
G01 X145.2153 Y72.9616
G01 X145.2146 Y72.9800
G01 X145.2105 Y73.0185
G01 X145.2077 Y73.0351
G01 X145.2051 Y73.0461
G01 X145.2020 Y73.0569
G01 X145.1984 Y73.0675
G01 X145.1942 Y73.0780
G01 X145.1896 Y73.0882
G01 X145.1844 Y73.0982
G01 X145.1450 Y73.1700
G01 X145.1391 Y73.1791
G01 X145.1294 Y73.1923
G01 X145.1225 Y73.2007
G01 X145.1151 Y73.2088
G01 X142.5815 Y75.7426
G01 X142.5680 Y75.7551
G01 X142.5333 Y75.7827
G01 X142.5241 Y75.7891
G01 X142.5145 Y75.7950
G01 X142.5047 Y75.8005
G01 X142.4946 Y75.8055
G01 X142.4843 Y75.8099
G01 X142.4684 Y75.8157
G01 X142.3844 Y75.8401
G01 X142.3684 Y75.8434
G01 X142.3576 Y75.8450
G01 X142.3413 Y75.8463
G01 X142.3304 Y75.8466
G01 X128.8245 Y75.8466
G01 X128.8077 Y75.8460
G01 X128.7911 Y75.8441
G01 X128.7800 Y75.8422
G01 X128.7691 Y75.8398
G01 X128.6888 Y75.8175
G01 X128.6784 Y75.8138
G01 X128.6631 Y75.8074
G01 X128.6532 Y75.8025
G01 X128.6436 Y75.7971
G01 X128.6343 Y75.7913
G01 X128.6252 Y75.7850
G01 X128.6164 Y75.7783
G01 X128.6039 Y75.7674
G01 X128.5922 Y75.7557
G01 X128.5364 Y75.6952
G01 X128.5293 Y75.6863
G01 X128.5226 Y75.6771
G01 X128.5164 Y75.6675
G01 X128.5107 Y75.6577
G01 X128.5031 Y75.6424
G01 X128.4987 Y75.6319
G01 X128.4947 Y75.6213
G01 X128.4914 Y75.6104
G01 X128.4885 Y75.5994
G01 X128.4862 Y75.5882
G01 X128.4720 Y75.5071
G01 X128.4708 Y75.4958
G01 X128.4702 Y75.4844
G01 X128.4702 Y75.4730
G01 X128.4707 Y75.4617
G01 X128.4725 Y75.4447
G01 X128.4756 Y75.4279
G01 X128.4784 Y75.4169
G01 X128.4817 Y75.4060
G01 X128.4876 Y75.3900
G01 X128.5149 Y75.3244
G01 X128.5220 Y75.3089
G01 X128.5274 Y75.2989
G01 X128.5333 Y75.2892
G01 X128.5430 Y75.2751
G01 X128.5500 Y75.2662
G01 X128.5575 Y75.2576
G01 X128.5695 Y75.2455
G01 X128.5779 Y75.2379
G01 X128.5868 Y75.2307
G01 X128.5960 Y75.2240
G01 X128.6636 Y75.1775
G01 X128.6780 Y75.1692
G01 X128.6880 Y75.1643
G01 X128.6981 Y75.1598
G01 X128.7127 Y75.1545
G01 X128.7515 Y75.1416
G01 X128.8566 Y75.0768
G01 X128.9440 Y74.9896
G01 X129.0089 Y74.8846
G01 X129.0485 Y74.7660
G01 X129.0557 Y74.6970
G01 X129.0557 Y73.9948
G01 X129.0487 Y73.9269
G01 X129.0093 Y73.8082
G01 X128.9446 Y73.7031
G01 X128.8573 Y73.6158
G01 X128.7524 Y73.5508
G01 X128.6338 Y73.5113
G01 X128.5648 Y73.5041
G01 X127.2376 Y73.5041
G01 X127.1697 Y73.5110
G01 X127.0510 Y73.5504
G01 X126.9459 Y73.6152
G01 X126.8585 Y73.7024
G01 X126.7936 Y73.8074
G01 X126.7540 Y73.9260
G01 X126.7468 Y73.9950
G01 X126.7468 Y74.6046
G01 X126.7461 Y74.6230
G01 X126.7420 Y74.6615
G01 X126.7392 Y74.6781
G01 X126.7351 Y74.6945
G01 X126.7299 Y74.7105
G01 X126.7257 Y74.7210
G01 X126.7211 Y74.7312
G01 X126.7159 Y74.7412
G01 X126.6765 Y74.8130
G01 X126.6675 Y74.8266
G01 X126.6609 Y74.8353
G01 X126.6540 Y74.8437
G01 X126.6428 Y74.8557
G01 X125.7560 Y75.7426
G01 X125.7471 Y75.7510
G01 X125.7377 Y75.7590
G01 X125.7123 Y75.7794
G01 X125.7032 Y75.7860
G01 X125.6890 Y75.7950
G01 X125.6792 Y75.8005
G01 X125.6691 Y75.8055
G01 X125.6535 Y75.8120
G01 X125.6375 Y75.8173
G01 X125.5694 Y75.8373
G01 X125.5536 Y75.8414
G01 X125.5429 Y75.8434
G01 X125.5321 Y75.8450
G01 X125.5212 Y75.8460
G01 X125.5103 Y75.8465
G01 X125.4346 Y75.8466
G01 X125.3712 Y75.8449
G01 X125.3655 Y75.8454
G01 X125.3058 Y75.8599
G01 X125.2504 Y75.8715
G01 X125.2439 Y75.8738
G01 X125.2338 Y75.8784
G01 X125.2233 Y75.8825
G01 X125.2072 Y75.8877
G01 X125.1412 Y75.9037
G01 X125.1306 Y75.9060
G01 X125.1199 Y75.9078
G01 X125.1038 Y75.9095
G01 X125.0876 Y75.9101
G01 X108.9951 Y75.9101
G01 X108.9723 Y75.9094
G01 X108.9554 Y75.9077
G01 X108.9387 Y75.9048
G01 X108.9222 Y75.9007
G01 X108.9114 Y75.8972
G01 X108.8396 Y75.8705
G01 X108.8290 Y75.8663
G01 X108.8187 Y75.8615
G01 X108.8086 Y75.8563
G01 X108.7988 Y75.8505
G01 X108.7892 Y75.8443
G01 X108.7801 Y75.8375
G01 X108.7669 Y75.8267
G01 X108.7546 Y75.8148
G01 X108.7433 Y75.8021
G01 X108.7362 Y75.7932
G01 X108.6903 Y75.7317
G01 X108.6840 Y75.7223
G01 X108.6781 Y75.7126
G01 X108.6702 Y75.6974
G01 X108.6634 Y75.6818
G01 X108.6579 Y75.6656
G01 X108.6535 Y75.6491
G01 X108.6504 Y75.6323
G01 X108.6486 Y75.6154
G01 X108.6432 Y75.5389
G01 X108.6430 Y75.5218
G01 X108.6441 Y75.5048
G01 X108.6465 Y75.4879
G01 X108.6501 Y75.4712
G01 X108.6550 Y75.4549
G01 X108.6610 Y75.4389
G01 X108.6657 Y75.4285
G01 X108.6709 Y75.4184
G01 X108.7076 Y75.3514
G01 X108.7133 Y75.3420
G01 X108.7226 Y75.3286
G01 X108.7329 Y75.3159
G01 X108.7402 Y75.3078
G01 X108.8675 Y75.1804
G01 X108.8764 Y75.1720
G01 X108.8858 Y75.1640
G01 X108.9112 Y75.1436
G01 X108.9203 Y75.1370
G01 X108.9297 Y75.1309
G01 X108.9394 Y75.1252
G01 X108.9544 Y75.1175
G01 X108.9647 Y75.1131
G01 X108.9752 Y75.1091
G01 X108.9860 Y75.1057
G01 X109.0646 Y75.0829
G01 X109.0753 Y75.0805
G01 X109.0860 Y75.0787
G01 X109.0968 Y75.0774
G01 X109.1077 Y75.0767
G01 X109.1186 Y75.0764
G01 X109.7284 Y75.0764
G01 X109.7963 Y75.0695
G01 X109.9150 Y75.0301
G01 X110.0201 Y74.9653
G01 X110.1075 Y74.8781
G01 X110.1724 Y74.7731
G01 X110.2120 Y74.6545
G01 X110.2192 Y74.5855
G01 X110.2192 Y73.8833
G01 X110.2122 Y73.8154
G01 X110.1728 Y73.6967
G01 X110.1080 Y73.5916
G01 X110.0208 Y73.5043
G01 X109.9159 Y73.4393
G01 X109.7973 Y73.3998
G01 X109.7283 Y73.3926
G01 X108.4011 Y73.3926
G01 X108.3332 Y73.3995
G01 X108.2145 Y73.4389
G01 X108.1094 Y73.5037
G01 X108.0220 Y73.5909
G01 X107.9571 Y73.6959
G01 X107.9175 Y73.8145
G01 X107.9103 Y73.8835
G01 X107.9103 Y74.4931
G01 X107.9096 Y74.5115
G01 X107.9055 Y74.5500
G01 X107.9027 Y74.5666
G01 X107.8986 Y74.5830
G01 X107.8934 Y74.5990
G01 X107.8870 Y74.6146
G01 X107.8794 Y74.6297
G01 X107.8427 Y74.6968
G01 X107.8341 Y74.7106
G01 X107.8277 Y74.7195
G01 X107.8175 Y74.7322
G01 X107.8063 Y74.7442
G01 X106.7445 Y75.8061
G01 X106.7356 Y75.8145
G01 X106.7262 Y75.8225
G01 X106.7008 Y75.8429
G01 X106.6871 Y75.8526
G01 X106.6775 Y75.8585
G01 X106.6677 Y75.8640
G01 X106.6576 Y75.8690
G01 X106.6473 Y75.8734
G01 X106.6368 Y75.8774
G01 X106.6260 Y75.8808
G01 X106.5474 Y75.9036
G01 X106.5314 Y75.9069
G01 X106.5206 Y75.9085
G01 X106.5097 Y75.9095
G01 X106.4988 Y75.9100
G01 X87.9381 Y75.9101
G01 X87.9153 Y75.9094
G01 X87.8984 Y75.9077
G01 X87.8817 Y75.9048
G01 X87.8706 Y75.9022
G01 X87.8598 Y75.8990
G01 X87.8491 Y75.8953
G01 X87.7772 Y75.8685
G01 X87.7668 Y75.8640
G01 X87.7566 Y75.8589
G01 X87.7418 Y75.8505
G01 X87.7276 Y75.8410
G01 X87.7142 Y75.8304
G01 X87.7016 Y75.8189
G01 X87.6899 Y75.8064
G01 X87.6792 Y75.7932
G01 X87.6333 Y75.7317
G01 X87.6270 Y75.7223
G01 X87.6211 Y75.7126
G01 X87.6132 Y75.6974
G01 X87.6085 Y75.6870
G01 X87.6044 Y75.6764
G01 X87.6009 Y75.6656
G01 X87.5978 Y75.6547
G01 X87.5953 Y75.6436
G01 X87.5934 Y75.6323
G01 X87.5916 Y75.6154
G01 X87.5865 Y75.5446
G01 X87.5859 Y75.5275
G01 X87.5862 Y75.5161
G01 X87.5878 Y75.4991
G01 X87.5895 Y75.4879
G01 X87.5918 Y75.4767
G01 X87.5946 Y75.4657
G01 X87.5980 Y75.4549
G01 X87.6040 Y75.4389
G01 X87.6087 Y75.4285
G01 X87.6139 Y75.4184
G01 X87.6480 Y75.3561
G01 X87.6563 Y75.3420
G01 X87.6656 Y75.3286
G01 X87.6724 Y75.3200
G01 X87.6832 Y75.3078
G01 X87.7669 Y75.2241
G01 X87.7808 Y75.2120
G01 X87.8107 Y75.1883
G01 X87.8199 Y75.1819
G01 X87.8295 Y75.1760
G01 X87.8393 Y75.1705
G01 X87.8494 Y75.1655
G01 X87.8650 Y75.1590
G01 X87.8810 Y75.1537
G01 X87.9543 Y75.1322
G01 X87.9703 Y75.1285
G01 X87.9810 Y75.1267
G01 X87.9973 Y75.1250
G01 X88.0136 Y75.1244
G01 X88.6234 Y75.1244
G01 X88.6913 Y75.1175
G01 X88.8100 Y75.0781
G01 X88.9151 Y75.0133
G01 X89.0025 Y74.9261
G01 X89.0674 Y74.8211
G01 X89.1070 Y74.7025
G01 X89.1142 Y74.6335
G01 X89.1142 Y73.9313
G01 X89.1072 Y73.8635
G01 X89.0678 Y73.7447
G01 X89.0031 Y73.6396
G01 X88.9158 Y73.5523
G01 X88.8109 Y73.4873
G01 X88.6923 Y73.4478
G01 X88.6233 Y73.4406
G01 X87.2961 Y73.4406
G01 X87.2282 Y73.4475
G01 X87.1095 Y73.4869
G01 X87.0044 Y73.5517
G01 X86.9170 Y73.6389
G01 X86.8521 Y73.7439
G01 X86.8125 Y73.8625
G01 X86.8053 Y73.9315
G01 X86.8053 Y74.5411
G01 X86.8046 Y74.5595
G01 X86.8012 Y74.5924
G01 X86.7987 Y74.6091
G01 X86.7951 Y74.6256
G01 X86.7920 Y74.6364
G01 X86.7884 Y74.6470
G01 X86.7820 Y74.6626
G01 X86.7744 Y74.6777
G01 X86.7404 Y74.7400
G01 X86.7350 Y74.7495
G01 X86.7291 Y74.7586
G01 X86.7227 Y74.7675
G01 X86.7160 Y74.7761
G01 X86.7089 Y74.7843
G01 X86.7013 Y74.7922
G01 X85.6875 Y75.8061
G01 X85.6786 Y75.8145
G01 X85.6692 Y75.8225
G01 X85.6438 Y75.8429
G01 X85.6301 Y75.8526
G01 X85.6205 Y75.8585
G01 X85.6107 Y75.8640
G01 X85.6006 Y75.8690
G01 X85.5903 Y75.8734
G01 X85.5798 Y75.8774
G01 X85.5690 Y75.8808
G01 X85.4904 Y75.9036
G01 X85.4797 Y75.9060
G01 X85.4690 Y75.9078
G01 X85.4582 Y75.9091
G01 X85.4473 Y75.9098
G01 X85.4364 Y75.9101
G01 X67.7853 Y75.9101
G01 X67.7689 Y75.9095
G01 X67.7526 Y75.9078
G01 X67.7366 Y75.9049
G01 X67.6842 Y75.8935
G01 X67.6676 Y75.8892
G01 X67.6513 Y75.8837
G01 X67.6407 Y75.8793
G01 X67.6253 Y75.8719
G01 X67.6153 Y75.8662
G01 X67.6009 Y75.8569
G01 X67.5873 Y75.8464
G01 X67.5250 Y75.7925
G01 X67.5168 Y75.7846
G01 X67.5052 Y75.7721
G01 X67.4946 Y75.7587
G01 X67.4850 Y75.7446
G01 X67.4765 Y75.7298
G01 X67.4715 Y75.7196
G01 X67.4669 Y75.7091
G01 X67.4611 Y75.6931
G01 X67.4380 Y75.6143
G01 X67.4343 Y75.5984
G01 X67.4325 Y75.5876
G01 X67.4312 Y75.5768
G01 X67.4302 Y75.5605
G01 X67.4302 Y75.4563
G01 X67.4316 Y75.4248
G01 X67.4335 Y75.4083
G01 X67.4354 Y75.3973
G01 X67.4379 Y75.3865
G01 X67.4409 Y75.3758
G01 X67.4444 Y75.3652
G01 X67.4757 Y75.2893
G01 X67.4803 Y75.2789
G01 X67.4882 Y75.2638
G01 X67.4940 Y75.2540
G01 X67.5004 Y75.2446
G01 X67.5072 Y75.2355
G01 X67.5145 Y75.2267
G01 X67.5262 Y75.2143
G01 X67.5387 Y75.2027
G01 X67.5521 Y75.1922
G01 X67.6151 Y75.1484
G01 X67.6244 Y75.1423
G01 X67.6339 Y75.1367
G01 X67.6488 Y75.1291
G01 X67.6641 Y75.1226
G01 X67.7510 Y75.0936
G01 X67.8561 Y75.0288
G01 X67.9435 Y74.9416
G01 X68.0084 Y74.8366
G01 X68.0480 Y74.7180
G01 X68.0552 Y74.6490
G01 X68.0552 Y73.9468
G01 X68.0482 Y73.8789
G01 X68.0088 Y73.7602
G01 X67.9440 Y73.6551
G01 X67.8568 Y73.5678
G01 X67.7519 Y73.5028
G01 X67.6333 Y73.4633
G01 X67.5643 Y73.4561
G01 X66.2371 Y73.4561
G01 X66.1692 Y73.4630
G01 X66.0505 Y73.5024
G01 X65.9454 Y73.5672
G01 X65.8580 Y73.6544
G01 X65.7931 Y73.7594
G01 X65.7535 Y73.8780
G01 X65.7463 Y73.9470
G01 X65.7463 Y74.6492
G01 X65.7533 Y74.7171
G01 X65.7927 Y74.8358
G01 X65.8575 Y74.9409
G01 X65.9447 Y75.0282
G01 X66.0496 Y75.0932
G01 X66.1286 Y75.1195
G01 X66.1401 Y75.1237
G01 X66.1577 Y75.1307
G01 X66.1678 Y75.1353
G01 X66.1777 Y75.1403
G01 X66.1873 Y75.1458
G01 X66.1966 Y75.1518
G01 X66.2057 Y75.1582
G01 X66.2186 Y75.1686
G01 X66.2765 Y75.2189
G01 X66.2847 Y75.2268
G01 X66.2963 Y75.2393
G01 X66.3035 Y75.2481
G01 X66.3102 Y75.2573
G01 X66.3195 Y75.2717
G01 X66.3250 Y75.2816
G01 X66.3300 Y75.2918
G01 X66.3366 Y75.3075
G01 X66.3421 Y75.3237
G01 X66.3635 Y75.3971
G01 X66.3661 Y75.4077
G01 X66.3682 Y75.4184
G01 X66.3697 Y75.4292
G01 X66.3708 Y75.4400
G01 X66.3713 Y75.4564
G01 X66.3713 Y75.5421
G01 X66.3710 Y75.5544
G01 X66.3700 Y75.5666
G01 X66.3665 Y75.5990
G01 X66.3637 Y75.6156
G01 X66.3611 Y75.6266
G01 X66.3563 Y75.6427
G01 X66.3524 Y75.6533
G01 X66.3480 Y75.6636
G01 X66.3431 Y75.6737
G01 X66.3037 Y75.7458
G01 X66.2981 Y75.7551
G01 X66.2887 Y75.7685
G01 X66.2820 Y75.7771
G01 X66.2711 Y75.7893
G01 X66.2501 Y75.8104
G01 X66.2410 Y75.8186
G01 X66.2063 Y75.8462
G01 X66.1923 Y75.8556
G01 X66.1777 Y75.8640
G01 X66.1625 Y75.8713
G01 X66.1468 Y75.8774
G01 X66.0679 Y75.9008
G01 X66.0521 Y75.9049
G01 X66.0414 Y75.9069
G01 X66.0306 Y75.9085
G01 X66.0197 Y75.9095
G01 X66.0034 Y75.9101
G01 X28.9003 Y75.9101
G01 X28.8893 Y75.9098
G01 X28.8731 Y75.9085
G01 X28.8623 Y75.9069
G01 X28.8516 Y75.9049
G01 X28.7881 Y75.8908
G01 X28.7771 Y75.8875
G01 X28.7663 Y75.8837
G01 X28.7505 Y75.8770
G01 X28.7403 Y75.8719
G01 X28.7303 Y75.8662
G01 X28.7206 Y75.8601
G01 X28.7113 Y75.8535
G01 X28.7023 Y75.8464
G01 X28.6442 Y75.7963
G01 X28.6358 Y75.7886
G01 X28.6278 Y75.7805
G01 X28.6202 Y75.7721
G01 X28.6130 Y75.7632
G01 X28.6063 Y75.7541
G01 X28.6000 Y75.7446
G01 X28.5942 Y75.7348
G01 X28.5889 Y75.7247
G01 X28.5841 Y75.7144
G01 X28.5799 Y75.7038
G01 X28.5744 Y75.6877
G01 X28.5516 Y75.6090
G01 X28.5493 Y75.5984
G01 X28.5475 Y75.5876
G01 X28.5457 Y75.5713
G01 X28.5452 Y75.5605
G01 X28.5452 Y64.3221
G01 X28.5466 Y64.2968
G01 X28.5477 Y64.2858
G01 X28.5494 Y64.2748
G01 X28.5516 Y64.2639
G01 X28.5543 Y64.2531
G01 X28.5576 Y64.2425
G01 X28.5614 Y64.2320
G01 X28.5907 Y64.1613
G01 X28.5953 Y64.1509
G01 X28.6004 Y64.1407
G01 X28.6090 Y64.1260
G01 X28.6154 Y64.1166
G01 X28.6258 Y64.1030
G01 X28.6372 Y64.0903
G01 X28.6494 Y64.0785
G01 X28.6581 Y64.0711
G01 X28.6671 Y64.0642
G01 X28.7301 Y64.0204
G01 X28.7394 Y64.0143
G01 X28.7489 Y64.0087
G01 X28.7638 Y64.0011
G01 X28.7791 Y63.9946
G01 X28.8660 Y63.9656
G01 X28.9711 Y63.9008
G01 X29.0585 Y63.8136
G01 X29.1234 Y63.7086
G01 X29.1630 Y63.5900
G01 X29.1702 Y63.5211
G01 X29.1702 Y62.8188
G01 X29.1632 Y62.7510
G01 X29.1238 Y62.6322
G01 X29.0590 Y62.5271
G01 X28.9718 Y62.4398
G01 X28.8669 Y62.3748
G01 X28.7483 Y62.3353
G01 X28.6793 Y62.3281
G01 X27.3521 Y62.3281
G01 X27.2842 Y62.3350
G01 X27.1655 Y62.3744
G01 X27.0604 Y62.4392
G01 X26.9730 Y62.5264
G01 X26.9081 Y62.6314
G01 X26.8685 Y62.7500
G01 X26.8613 Y62.8190
G01 X26.8613 Y63.5212
G01 X26.8683 Y63.5890
G01 X26.9077 Y63.7078
G01 X26.9725 Y63.8129
G01 X27.0597 Y63.9002
G01 X27.1646 Y63.9652
G01 X27.2494 Y63.9935
G01 X27.2778 Y64.0049
G01 X27.2877 Y64.0097
G01 X27.2975 Y64.0150
G01 X27.3116 Y64.0238
G01 X27.3207 Y64.0302
G01 X27.3294 Y64.0370
G01 X27.3873 Y64.0871
G01 X27.3957 Y64.0948
G01 X27.4037 Y64.1029
G01 X27.4113 Y64.1113
G01 X27.4185 Y64.1201
G01 X27.4252 Y64.1293
G01 X27.4315 Y64.1388
G01 X27.4373 Y64.1486
G01 X27.4426 Y64.1587
G01 X27.4474 Y64.1690
G01 X27.4516 Y64.1795
G01 X27.4571 Y64.1957
G01 X27.4799 Y64.2744
G01 X27.4822 Y64.2850
G01 X27.4840 Y64.2958
G01 X27.4858 Y64.3120
G01 X27.4863 Y64.3229
G01 X27.4863 Y75.5605
G01 X27.4853 Y75.5768
G01 X27.4840 Y75.5876
G01 X27.4822 Y75.5984
G01 X27.4697 Y75.6560
G01 X27.4654 Y75.6727
G01 X27.4599 Y75.6889
G01 X27.4532 Y75.7047
G01 X27.4453 Y75.7200
G01 X27.4363 Y75.7346
G01 X27.4298 Y75.7440
G01 X27.4227 Y75.7530
G01 X27.3725 Y75.8110
G01 X27.3609 Y75.8235
G01 X27.3483 Y75.8351
G01 X27.3395 Y75.8422
G01 X27.3303 Y75.8490
G01 X27.3208 Y75.8552
G01 X27.3110 Y75.8610
G01 X27.3010 Y75.8663
G01 X27.2906 Y75.8711
G01 X27.2801 Y75.8754
G01 X27.2694 Y75.8791
G01 X27.1958 Y75.9008
G01 X27.1799 Y75.9049
G01 X27.1692 Y75.9069
G01 X27.1584 Y75.9085
G01 X27.1422 Y75.9098
G01 X27.1312 Y75.9101
G01 X14.1581 Y75.9101
G01 X14.1397 Y75.9094
G01 X14.1013 Y75.9052
G01 X14.0902 Y75.9035
G01 X14.0792 Y75.9012
G01 X14.0629 Y75.8967
G01 X14.0470 Y75.8911
G01 X14.0366 Y75.8867
G01 X14.0265 Y75.8818
G01 X13.9498 Y75.8397
G01 X13.9406 Y75.8338
G01 X13.9317 Y75.8275
G01 X13.9190 Y75.8172
G01 X13.9109 Y75.8099
G01 X12.0757 Y73.9747
G01 X12.0672 Y73.9658
G01 X12.0593 Y73.9565
G01 X12.0389 Y73.9311
G01 X12.0291 Y73.9173
G01 X12.0232 Y73.9078
G01 X12.0178 Y73.8979
G01 X12.0128 Y73.8879
G01 X12.0083 Y73.8775
G01 X12.0044 Y73.8670
G01 X12.0009 Y73.8563
G01 X11.9781 Y73.7776
G01 X11.9758 Y73.7670
G01 X11.9740 Y73.7562
G01 X11.9727 Y73.7454
G01 X11.9719 Y73.7345
G01 X11.9717 Y73.7236
G01 X11.9717 Y72.1455
G01 X11.9719 Y72.1346
G01 X11.9733 Y72.1183
G01 X11.9758 Y72.1021
G01 X11.9883 Y72.0445
G01 X11.9926 Y72.0278
G01 X11.9981 Y72.0116
G01 X12.0048 Y71.9958
G01 X12.0099 Y71.9855
G01 X12.0185 Y71.9707
G01 X12.0282 Y71.9565
G01 X12.0390 Y71.9431
G01 X12.0855 Y71.8895
G01 X12.0932 Y71.8811
G01 X12.1012 Y71.8730
G01 X12.1140 Y71.8618
G01 X12.1231 Y71.8548
G01 X12.1324 Y71.8483
G01 X12.1470 Y71.8395
G01 X12.1570 Y71.8342
G01 X12.1674 Y71.8294
G01 X12.1779 Y71.8251
G01 X12.1886 Y71.8214
G01 X12.2675 Y71.7982
G01 X12.2780 Y71.7956
G01 X12.2887 Y71.7936
G01 X12.2995 Y71.7920
G01 X12.3104 Y71.7910
G01 X12.3267 Y71.7904
G01 X12.6947 Y71.7902
G01 X12.8875 Y71.7554
G01 X13.0677 Y71.6900
G01 X13.2343 Y71.5951
G01 X13.3825 Y71.4736
G01 X13.5137 Y71.3224
G01 X13.5212 Y71.3141
G01 X13.5332 Y71.3025
G01 X13.5600 Y71.2784
G01 X13.5685 Y71.2715
G01 X13.5818 Y71.2618
G01 X13.5910 Y71.2559
G01 X13.6054 Y71.2479
G01 X13.6153 Y71.2432
G01 X13.6254 Y71.2389
G01 X13.7083 Y71.2105
G01 X13.7248 Y71.2061
G01 X13.7416 Y71.2028
G01 X13.7585 Y71.2008
G01 X13.7699 Y71.2002
G01 X13.7813 Y71.2002
G01 X13.7926 Y71.2007
G01 X13.8040 Y71.2018
G01 X13.8152 Y71.2034
G01 X13.8264 Y71.2056
G01 X13.9008 Y71.2240
G01 X13.9173 Y71.2288
G01 X13.9333 Y71.2347
G01 X13.9437 Y71.2394
G01 X13.9539 Y71.2445
G01 X13.9639 Y71.2502
G01 X13.9735 Y71.2563
G01 X13.9873 Y71.2664
G01 X13.9961 Y71.2737
G01 X14.0086 Y71.2854
G01 X14.0578 Y71.3353
G01 X14.0690 Y71.3482
G01 X14.0792 Y71.3619
G01 X14.0887 Y71.3767
G01 X14.2058 Y71.5341
G01 X14.3445 Y71.6664
G01 X14.5035 Y71.7734
G01 X14.6782 Y71.8521
G01 X14.8638 Y71.9003
G01 X15.0066 Y71.9124
G01 X17.4572 Y71.9122
G01 X17.6500 Y71.8774
G01 X17.8302 Y71.8120
G01 X17.9968 Y71.7171
G01 X18.1450 Y71.5956
G01 X18.2706 Y71.4509
G01 X18.3700 Y71.2870
G01 X18.4404 Y71.1087
G01 X18.4798 Y70.9211
G01 X18.4807 Y70.8978
G01 X18.4870 Y70.7296
G01 X18.4618 Y70.5396
G01 X18.4050 Y70.3566
G01 X18.3181 Y70.1857
G01 X18.2037 Y70.0319
G01 X18.0650 Y69.8996
G01 X17.9273 Y69.8069
G01 X17.9126 Y69.7962
G01 X17.8989 Y69.7843
G01 X17.8656 Y69.7531
G01 X17.8540 Y69.7408
G01 X17.8432 Y69.7276
G01 X17.8367 Y69.7184
G01 X17.8305 Y69.7089
G01 X17.8222 Y69.6941
G01 X17.8173 Y69.6839
G01 X17.8129 Y69.6735
G01 X17.7849 Y69.6021
G01 X17.7797 Y69.5859
G01 X17.7769 Y69.5749
G01 X17.7746 Y69.5637
G01 X17.7722 Y69.5468
G01 X17.7714 Y69.5355
G01 X17.7710 Y69.5241
G01 X17.7713 Y69.5127
G01 X17.7721 Y69.5014
G01 X17.7744 Y69.4845
G01 X17.7893 Y69.4092
G01 X17.7933 Y69.3926
G01 X17.7984 Y69.3764
G01 X17.8026 Y69.3658
G01 X17.8072 Y69.3554
G01 X17.8151 Y69.3403
G01 X17.8210 Y69.3305
G01 X17.8274 Y69.3211
G01 X17.8378 Y69.3076
G01 X17.8492 Y69.2949
G01 X17.8985 Y69.2438
G01 X17.9063 Y69.2360
G01 X17.9145 Y69.2286
G01 X17.9275 Y69.2184
G01 X17.9412 Y69.2090
G01 X17.9968 Y69.1771
G01 X18.1450 Y69.0556
G01 X18.2706 Y68.9109
G01 X18.3700 Y68.7470
G01 X18.4404 Y68.5687
G01 X18.4798 Y68.3811
G01 X18.4870 Y68.1896
G01 X18.4618 Y67.9996
G01 X18.4050 Y67.8166
G01 X18.3181 Y67.6457
G01 X18.2037 Y67.4919
G01 X18.0650 Y67.3596
G01 X17.9060 Y67.2526
G01 X17.7313 Y67.1739
G01 X17.5457 Y67.1257
G01 X17.4029 Y67.1136
G01 X17.0893 Y67.1136
G01 X17.0729 Y67.1130
G01 X17.0566 Y67.1113
G01 X17.0459 Y67.1095
G01 X16.9882 Y67.0970
G01 X16.9716 Y67.0927
G01 X16.9553 Y67.0872
G01 X16.9395 Y67.0805
G01 X16.9243 Y67.0726
G01 X16.9096 Y67.0636
G01 X16.8957 Y67.0535
G01 X16.8869 Y67.0463
G01 X16.8290 Y66.9960
G01 X16.8208 Y66.9881
G01 X16.8129 Y66.9798
G01 X16.8020 Y66.9667
G01 X16.7921 Y66.9529
G01 X16.7832 Y66.9383
G01 X16.7755 Y66.9231
G01 X16.7689 Y66.9073
G01 X16.7634 Y66.8912
G01 X16.7434 Y66.8230
G01 X16.7406 Y66.8125
G01 X16.7383 Y66.8019
G01 X16.7365 Y66.7911
G01 X16.7352 Y66.7803
G01 X16.7342 Y66.7640
G01 X16.7344 Y66.6346
G01 X16.7357 Y66.6186
G01 X16.7372 Y66.6080
G01 X16.7438 Y66.5677
G01 X16.7473 Y66.5509
G01 X16.7519 Y66.5344
G01 X16.7578 Y66.5183
G01 X16.7624 Y66.5078
G01 X16.7702 Y66.4926
G01 X16.7760 Y66.4828
G01 X16.7824 Y66.4733
G01 X16.8232 Y66.4151
G01 X16.8335 Y66.4016
G01 X16.8409 Y66.3929
G01 X16.8528 Y66.3807
G01 X16.8613 Y66.3731
G01 X16.8701 Y66.3659
G01 X16.8792 Y66.3591
G01 X16.8887 Y66.3528
G01 X16.9035 Y66.3443
G01 X16.9136 Y66.3392
G01 X16.9898 Y66.3078
G01 X17.0051 Y66.3022
G01 X17.0156 Y66.2990
G01 X17.0315 Y66.2953
G01 X17.0476 Y66.2926
G01 X17.0633 Y66.2910
G01 X17.1820 Y66.2516
G01 X17.2871 Y66.1868
G01 X17.3745 Y66.0996
G01 X17.4394 Y65.9946
G01 X17.4790 Y65.8760
G01 X17.4862 Y65.8071
G01 X17.4862 Y65.1048
G01 X17.4792 Y65.0369
G01 X17.4398 Y64.9182
G01 X17.3750 Y64.8131
G01 X17.2878 Y64.7258
G01 X17.1829 Y64.6608
G01 X17.0643 Y64.6213
G01 X16.9953 Y64.6141
G01 X15.6681 Y64.6141
G01 X15.6002 Y64.6210
G01 X15.4815 Y64.6604
G01 X15.3764 Y64.7252
G01 X15.2890 Y64.8124
G01 X15.2241 Y64.9174
G01 X15.1845 Y65.0360
G01 X15.1773 Y65.1050
G01 X15.1773 Y65.8072
G01 X15.1843 Y65.8751
G01 X15.2237 Y65.9938
G01 X15.2885 Y66.0989
G01 X15.3757 Y66.1862
G01 X15.5081 Y66.2683
G01 X15.5219 Y66.2780
G01 X15.5349 Y66.2887
G01 X15.5471 Y66.3004
G01 X15.5554 Y66.3094
G01 X15.5813 Y66.3322
G01 X15.5894 Y66.3400
G01 X15.5971 Y66.3482
G01 X15.6079 Y66.3613
G01 X15.6146 Y66.3704
G01 X15.6208 Y66.3798
G01 X15.6292 Y66.3945
G01 X15.6342 Y66.4046
G01 X15.6387 Y66.4150
G01 X15.6426 Y66.4255
G01 X15.6461 Y66.4363
G01 X15.6689 Y66.5149
G01 X15.6722 Y66.5310
G01 X15.6743 Y66.5472
G01 X15.6751 Y66.5580
G01 X15.6753 Y66.5690
G01 X15.6753 Y66.7640
G01 X15.6748 Y66.7748
G01 X15.6737 Y66.7857
G01 X15.6722 Y66.7965
G01 X15.6701 Y66.8072
G01 X15.6574 Y66.8651
G01 X15.6544 Y66.8762
G01 X15.6509 Y66.8871
G01 X15.6446 Y66.9030
G01 X15.6371 Y66.9185
G01 X15.6285 Y66.9333
G01 X15.6188 Y66.9475
G01 X15.6080 Y66.9609
G01 X15.5615 Y67.0145
G01 X15.5499 Y67.0270
G01 X15.5416 Y67.0348
G01 X15.5285 Y67.0457
G01 X15.5193 Y67.0525
G01 X15.5098 Y67.0587
G01 X15.4950 Y67.0672
G01 X15.4848 Y67.0723
G01 X15.4744 Y67.0768
G01 X15.4637 Y67.0808
G01 X15.4529 Y67.0843
G01 X15.3795 Y67.1058
G01 X15.3690 Y67.1084
G01 X15.3583 Y67.1104
G01 X15.3421 Y67.1126
G01 X15.3312 Y67.1133
G01 X15.3203 Y67.1136
G01 X14.9523 Y67.1138
G01 X14.7595 Y67.1486
G01 X14.5793 Y67.2140
G01 X14.4127 Y67.3089
G01 X14.2645 Y67.4304
G01 X14.1389 Y67.5752
G01 X14.0395 Y67.7390
G01 X13.9691 Y67.9173
G01 X13.9297 Y68.1049
G01 X13.9225 Y68.2964
G01 X13.9477 Y68.4864
G01 X14.0045 Y68.6694
G01 X14.0914 Y68.8403
G01 X14.2058 Y68.9941
G01 X14.3445 Y69.1264
G01 X14.4822 Y69.2191
G01 X14.4969 Y69.2298
G01 X14.5106 Y69.2417
G01 X14.5439 Y69.2729
G01 X14.5555 Y69.2852
G01 X14.5663 Y69.2984
G01 X14.5760 Y69.3123
G01 X14.5819 Y69.3219
G01 X14.5873 Y69.3319
G01 X14.5922 Y69.3421
G01 X14.5966 Y69.3525
G01 X14.6246 Y69.4239
G01 X14.6282 Y69.4347
G01 X14.6313 Y69.4456
G01 X14.6349 Y69.4623
G01 X14.6373 Y69.4792
G01 X14.6384 Y69.4962
G01 X14.6384 Y69.5076
G01 X14.6379 Y69.5190
G01 X14.6368 Y69.5303
G01 X14.6351 Y69.5415
G01 X14.6202 Y69.6168
G01 X14.6177 Y69.6279
G01 X14.6146 Y69.6388
G01 X14.6091 Y69.6550
G01 X14.6047 Y69.6655
G01 X14.5998 Y69.6757
G01 X14.5944 Y69.6857
G01 X14.5885 Y69.6955
G01 X14.5821 Y69.7049
G01 X14.5753 Y69.7140
G01 X14.5680 Y69.7228
G01 X14.5603 Y69.7311
G01 X14.5072 Y69.7861
G01 X14.4993 Y69.7936
G01 X14.4910 Y69.8007
G01 X14.4779 Y69.8105
G01 X14.4642 Y69.8195
G01 X14.4127 Y69.8489
G01 X14.2645 Y69.9704
G01 X14.2308 Y70.0092
G01 X14.2197 Y70.0212
G01 X14.2077 Y70.0323
G01 X14.1763 Y70.0594
G01 X14.1625 Y70.0699
G01 X14.1480 Y70.0793
G01 X14.1380 Y70.0850
G01 X14.1224 Y70.0925
G01 X14.1117 Y70.0968
G01 X14.1008 Y70.1006
G01 X14.0219 Y70.1238
G01 X14.0113 Y70.1264
G01 X14.0006 Y70.1284
G01 X13.9844 Y70.1306
G01 X13.9735 Y70.1313
G01 X13.7845 Y70.1316
G01 X13.7669 Y70.1309
G01 X13.7493 Y70.1289
G01 X13.6936 Y70.1187
G01 X13.6773 Y70.1147
G01 X13.6613 Y70.1095
G01 X13.6508 Y70.1054
G01 X13.6356 Y70.0983
G01 X13.6209 Y70.0900
G01 X13.6114 Y70.0840
G01 X13.5456 Y70.0347
G01 X13.5370 Y70.0279
G01 X13.5288 Y70.0208
G01 X13.5210 Y70.0132
G01 X13.5135 Y70.0053
G01 X13.5029 Y69.9928
G01 X13.4412 Y69.9099
G01 X13.3025 Y69.7776
G01 X13.1435 Y69.6706
G01 X12.9688 Y69.5919
G01 X12.7832 Y69.5437
G01 X12.6404 Y69.5316
G01 X10.1898 Y69.5318
G01 X9.9970 Y69.5666
G01 X9.8168 Y69.6320
G01 X9.6502 Y69.7269
G01 X9.5020 Y69.8484
G01 X9.3637 Y70.0078
G01 X9.3561 Y70.0161
G01 X9.3440 Y70.0279
G01 X9.3300 Y70.0395
G01 X9.3113 Y70.0568
G01 X9.3025 Y70.0639
G01 X9.2933 Y70.0706
G01 X9.2790 Y70.0798
G01 X9.2640 Y70.0879
G01 X9.2485 Y70.0949
G01 X9.2325 Y70.1006
G01 X9.1485 Y70.1251
G01 X9.1378 Y70.1275
G01 X9.1270 Y70.1293
G01 X9.1108 Y70.1310
G01 X9.0944 Y70.1316
G01 X4.6270 Y70.1315
G01 X4.6086 Y70.1303
G01 X4.5707 Y70.1259
G01 X4.5596 Y70.1239
G01 X4.5487 Y70.1213
G01 X4.5325 Y70.1165
G01 X4.5168 Y70.1105
G01 X4.5015 Y70.1033
G01 X4.4342 Y70.0667
G01 X4.4202 Y70.0583
G01 X4.4111 Y70.0522
G01 X4.4024 Y70.0457
G01 X4.3940 Y70.0387
G01 X4.3820 Y70.0276
G01 X3.1222 Y68.7677
G01 X3.1137 Y68.7588
G01 X3.0889 Y68.7285
G01 X3.0788 Y68.7150
G01 X3.0726 Y68.7056
G01 X3.0669 Y68.6959
G01 X3.0617 Y68.6859
G01 X3.0570 Y68.6757
G01 X3.0528 Y68.6653
G01 X3.0491 Y68.6547
G01 X3.0260 Y68.5759
G01 X3.0234 Y68.5653
G01 X3.0213 Y68.5546
G01 X3.0192 Y68.5384
G01 X3.0184 Y68.5275
G01 X3.0182 Y68.5166
G01 X3.0182 Y54.3293
G01 X3.0187 Y54.3130
G01 X3.0198 Y54.3022
G01 X3.0213 Y54.2914
G01 X3.0348 Y54.2283
G01 X3.0375 Y54.2172
G01 X3.0426 Y54.2008
G01 X3.0489 Y54.1848
G01 X3.0564 Y54.1694
G01 X3.0650 Y54.1545
G01 X3.0747 Y54.1404
G01 X3.0818 Y54.1314
G01 X3.1320 Y54.0733
G01 X3.1397 Y54.0649
G01 X3.1519 Y54.0530
G01 X3.1650 Y54.0421
G01 X3.1789 Y54.0322
G01 X3.1885 Y54.0261
G01 X3.1985 Y54.0206
G01 X3.2087 Y54.0156
G01 X3.2191 Y54.0110
G01 X3.2298 Y54.0070
G01 X3.3087 Y53.9835
G01 X3.3192 Y53.9807
G01 X3.3353 Y53.9774
G01 X3.3515 Y53.9753
G01 X3.3678 Y53.9743
G01 X12.6784 Y53.9743
G01 X12.6969 Y53.9750
G01 X12.7299 Y53.9785
G01 X12.7411 Y53.9800
G01 X12.7576 Y53.9832
G01 X12.7685 Y53.9860
G01 X12.7846 Y53.9913
G01 X12.8002 Y53.9977
G01 X12.8153 Y54.0053
G01 X12.8823 Y54.0420
G01 X12.8962 Y54.0507
G01 X12.9094 Y54.0604
G01 X12.9219 Y54.0709
G01 X12.9297 Y54.0785
G01 X13.0262 Y54.1751
G01 X13.1311 Y54.2400
G01 X13.2497 Y54.2796
G01 X13.3187 Y54.2868
G01 X14.6459 Y54.2868
G01 X14.7138 Y54.2798
G01 X14.8325 Y54.2404
G01 X14.9376 Y54.1756
G01 X15.0250 Y54.0884
G01 X15.0899 Y53.9835
G01 X15.1295 Y53.8649
G01 X15.1367 Y53.7959
G01 X15.1367 Y53.0937
G01 X15.1297 Y53.0258
G01 X15.0903 Y52.9071
G01 X15.0255 Y52.8020
G01 X14.9383 Y52.7146
G01 X14.8334 Y52.6497
G01 X14.7148 Y52.6101
G01 X14.6458 Y52.6029
G01 X13.3186 Y52.6029
G01 X13.2507 Y52.6099
G01 X13.1320 Y52.6493
G01 X13.0269 Y52.7141
G01 X12.9291 Y52.8117
G01 X12.9202 Y52.8201
G01 X12.9109 Y52.8280
G01 X12.8811 Y52.8516
G01 X12.8671 Y52.8610
G01 X12.8525 Y52.8694
G01 X12.8424 Y52.8743
G01 X12.8321 Y52.8788
G01 X12.8163 Y52.8845
G01 X12.7375 Y52.9076
G01 X12.7216 Y52.9113
G01 X12.7054 Y52.9138
G01 X12.6891 Y52.9152
G01 X12.6782 Y52.9154
G01 X3.3678 Y52.9154
G01 X3.3515 Y52.9144
G01 X3.3353 Y52.9123
G01 X3.2722 Y52.8988
G01 X3.2611 Y52.8961
G01 X3.2501 Y52.8928
G01 X3.2393 Y52.8890
G01 X3.2287 Y52.8847
G01 X3.2133 Y52.8772
G01 X3.2033 Y52.8716
G01 X3.1936 Y52.8654
G01 X3.1843 Y52.8589
G01 X3.1709 Y52.8481
G01 X3.1172 Y52.8016
G01 X3.1088 Y52.7939
G01 X3.1008 Y52.7859
G01 X3.0932 Y52.7774
G01 X3.0860 Y52.7686
G01 X3.0793 Y52.7594
G01 X3.0730 Y52.7499
G01 X3.0672 Y52.7401
G01 X3.0619 Y52.7301
G01 X3.0549 Y52.7145
G01 X3.0491 Y52.6985
G01 X3.0246 Y52.6144
G01 X3.0223 Y52.6037
G01 X3.0198 Y52.5875
G01 X3.0187 Y52.5767
G01 X3.0182 Y52.5603
G01 X3.0182 Y5.6859
G01 X3.0189 Y5.6675
G01 X3.0238 Y5.6235
G01 X3.0271 Y5.6069
G01 X3.0299 Y5.5960
G01 X3.0332 Y5.5853
G01 X3.0393 Y5.5695
G01 X3.0464 Y5.5543
G01 X3.0858 Y5.4822
G01 X3.0914 Y5.4729
G01 X3.1008 Y5.4595
G01 X3.1110 Y5.4468
G01 X3.1184 Y5.4387
G01 X4.1324 Y4.4246
G01 X4.1463 Y4.4125
G01 X4.1717 Y4.3921
G01 X4.1808 Y4.3855
G01 X4.1902 Y4.3794
G01 X4.1999 Y4.3737
G01 X4.2098 Y4.3685
G01 X4.2252 Y4.3616
G01 X4.2357 Y4.3576
G01 X4.2465 Y4.3542
G01 X4.3251 Y4.3314
G01 X4.3358 Y4.3290
G01 X4.3519 Y4.3265
G01 X4.3682 Y4.3252
G01 X4.3791 Y4.3249
G01 X26.0617 Y4.3249
G01 X26.0727 Y4.3252
G01 X26.0889 Y4.3265
G01 X26.1051 Y4.3290
G01 X26.1628 Y4.3415
G01 X26.1739 Y4.3442
G01 X26.1903 Y4.3493
G01 X26.2063 Y4.3557
G01 X26.2217 Y4.3631
G01 X26.2317 Y4.3688
G01 X26.2461 Y4.3781
G01 X26.2597 Y4.3886
G01 X26.3178 Y4.4387
G01 X26.3262 Y4.4464
G01 X26.3381 Y4.4587
G01 X26.3490 Y4.4718
G01 X26.3557 Y4.4809
G01 X26.3650 Y4.4953
G01 X26.3705 Y4.5052
G01 X26.3779 Y4.5206
G01 X26.3821 Y4.5312
G01 X26.3859 Y4.5419
G01 X26.4090 Y4.6207
G01 X26.4127 Y4.6366
G01 X26.4145 Y4.6474
G01 X26.4163 Y4.6637
G01 X26.4168 Y4.6800
G01 X26.4168 Y4.9702
G01 X26.4238 Y5.0381
G01 X26.4632 Y5.1568
G01 X26.5280 Y5.2619
G01 X26.6152 Y5.3492
G01 X26.7201 Y5.4142
G01 X26.8387 Y5.4537
G01 X26.9077 Y5.4609
G01 X28.2349 Y5.4609
G01 X28.3028 Y5.4540
G01 X28.4215 Y5.4146
G01 X28.5266 Y5.3498
G01 X28.6140 Y5.2626
G01 X28.6789 Y5.1576
G01 X28.7185 Y5.0390
G01 X28.7257 Y4.9700
G01 X28.7257 Y4.2678
G01 X28.7187 Y4.1999
G01 X28.6793 Y4.0812
G01 X28.6145 Y3.9761
G01 X28.5273 Y3.8888
G01 X28.4224 Y3.8238
G01 X28.3038 Y3.7843
G01 X28.2348 Y3.7771
G01 X27.6190 Y3.7770
G01 X27.6006 Y3.7758
G01 X27.5627 Y3.7714
G01 X27.5516 Y3.7694
G01 X27.5407 Y3.7668
G01 X27.5299 Y3.7637
G01 X27.5192 Y3.7601
G01 X27.5088 Y3.7560
G01 X27.4935 Y3.7488
G01 X27.4262 Y3.7122
G01 X27.4168 Y3.7067
G01 X27.4076 Y3.7008
G01 X27.3987 Y3.6945
G01 X27.3902 Y3.6878
G01 X27.3819 Y3.6806
G01 X27.3740 Y3.6731
G01 X27.1313 Y3.4303
G01 X27.0854 Y3.3821
G01 X27.0810 Y3.3785
G01 X27.0322 Y3.3488
G01 X26.9812 Y3.3155
G01 X26.9755 Y3.3128
G01 X26.9218 Y3.2953
G01 X26.8645 Y3.2747
G01 X26.8615 Y3.2740
G01 X26.8584 Y3.2733
G01 X26.8021 Y3.2687
G01 X26.7780 Y3.2660
G01 X26.7598 Y3.2653
G01 X26.7289 Y3.2628
G01 X26.6980 Y3.2654
G01 X26.6807 Y3.2661
G01 X4.0257 Y3.2661
G01 X3.9592 Y3.2644
G01 X3.9535 Y3.2649
G01 X3.8980 Y3.2785
G01 X3.8384 Y3.2910
G01 X3.8354 Y3.2920
G01 X3.8325 Y3.2931
G01 X3.7782 Y3.3207
G01 X3.7270 Y3.3446
G01 X3.7217 Y3.3480
G01 X3.6787 Y3.3846
G01 X3.6597 Y3.3997
G01 X3.6464 Y3.4120
G01 X3.6227 Y3.4322
G01 X3.6027 Y3.4559
G01 X3.5910 Y3.4686
G01 X2.1236 Y4.9360
G01 X2.0753 Y4.9819
G01 X2.0717 Y4.9862
G01 X2.0420 Y5.0351
G01 X2.0088 Y5.0860
G01 X2.0060 Y5.0917
G01 X1.9872 Y5.1496
G01 X1.9679 Y5.2027
G01 X1.9666 Y5.2089
G01 X1.9620 Y5.2652
G01 X1.9593 Y5.2893
G01 X1.9585 Y5.3074
G01 X1.9560 Y5.3384
G01 X1.9587 Y5.3693
G01 X1.9593 Y5.3866
G01 X1.9593 Y53.4163
G01 X1.9585 Y53.4404
G01 X1.9560 Y53.4714
G01 X1.9587 Y53.5023
G01 X1.9593 Y53.5196
G01 X1.9593 Y68.8701
G01 X1.9577 Y68.9366
G01 X1.9582 Y68.9422
G01 X1.9717 Y68.9977
G01 X1.9842 Y69.0573
G01 X1.9853 Y69.0603
G01 X1.9863 Y69.0633
G01 X2.0139 Y69.1175
G01 X2.0379 Y69.1687
G01 X2.0413 Y69.1740
G01 X2.0778 Y69.2171
G01 X2.0930 Y69.2360
G01 X2.1053 Y69.2494
G01 X2.1254 Y69.2730
G01 X2.1492 Y69.2930
G01 X2.1618 Y69.3048
G01 X3.8832 Y71.0262
G01 X3.9291 Y71.0744
G01 X3.9335 Y71.0780
G01 X3.9823 Y71.1077
G01 X4.0333 Y71.1410
G01 X4.0361 Y71.1424
G01 X4.0390 Y71.1437
G01 X4.0968 Y71.1626
G01 X4.1499 Y71.1818
G01 X4.1561 Y71.1832
G01 X4.2124 Y71.1878
G01 X4.2365 Y71.1905
G01 X4.2547 Y71.1912
G01 X4.2856 Y71.1937
G01 X4.3165 Y71.1911
G01 X4.3338 Y71.1904
G01 X9.1000 Y71.1904
G01 X9.1118 Y71.1907
G01 X9.1235 Y71.1916
G01 X9.1410 Y71.1941
G01 X9.1854 Y71.2022
G01 X9.2018 Y71.2058
G01 X9.2126 Y71.2089
G01 X9.2285 Y71.2145
G01 X9.2439 Y71.2212
G01 X9.2588 Y71.2291
G01 X9.2731 Y71.2380
G01 X9.3432 Y71.2906
G01 X9.3557 Y71.3012
G01 X9.3635 Y71.3088
G01 X9.3710 Y71.3167
G01 X9.3816 Y71.3292
G01 X9.4433 Y71.4121
G01 X9.5820 Y71.5444
G01 X9.7410 Y71.6514
G01 X9.9157 Y71.7301
G01 X10.1013 Y71.7783
G01 X10.2441 Y71.7904
G01 X10.5577 Y71.7904
G01 X10.5741 Y71.7910
G01 X10.5904 Y71.7927
G01 X10.6064 Y71.7956
G01 X10.6588 Y71.8070
G01 X10.6699 Y71.8097
G01 X10.6809 Y71.8130
G01 X10.6970 Y71.8189
G01 X10.7126 Y71.8260
G01 X10.7277 Y71.8343
G01 X10.7374 Y71.8404
G01 X10.7467 Y71.8470
G01 X10.7557 Y71.8541
G01 X10.8138 Y71.9042
G01 X10.8222 Y71.9119
G01 X10.8341 Y71.9242
G01 X10.8415 Y71.9328
G01 X10.8484 Y71.9418
G01 X10.8580 Y71.9559
G01 X10.8638 Y71.9657
G01 X10.8715 Y71.9809
G01 X10.8781 Y71.9967
G01 X10.8819 Y72.0074
G01 X10.9050 Y72.0862
G01 X10.9076 Y72.0968
G01 X10.9097 Y72.1075
G01 X10.9118 Y72.1237
G01 X10.9126 Y72.1346
G01 X10.9128 Y72.1455
G01 X10.9128 Y74.0771
G01 X10.9112 Y74.1436
G01 X10.9117 Y74.1492
G01 X10.9252 Y74.2047
G01 X10.9377 Y74.2643
G01 X10.9388 Y74.2673
G01 X10.9398 Y74.2703
G01 X10.9674 Y74.3245
G01 X10.9914 Y74.3757
G01 X10.9948 Y74.3810
G01 X11.0313 Y74.4241
G01 X11.0465 Y74.4430
G01 X11.0588 Y74.4564
G01 X11.0789 Y74.4800
G01 X11.1027 Y74.5000
G01 X11.1153 Y74.5118
G01 X13.4082 Y76.8047
G01 X13.4541 Y76.8529
G01 X13.4585 Y76.8565
G01 X13.5073 Y76.8862
G01 X13.5583 Y76.9195
G01 X13.5611 Y76.9209
G01 X13.5640 Y76.9222
G01 X13.6218 Y76.9411
G01 X13.6749 Y76.9603
G01 X13.6811 Y76.9617
G01 X13.7374 Y76.9663
G01 X13.7615 Y76.9690
G01 X13.7797 Y76.9697
G01 X13.8106 Y76.9722
G01 X13.8415 Y76.9696
G01 X13.8588 Y76.9689
G01 X27.8123 Y76.9689
G01 X27.8788 Y76.9706
G01 X27.8918 Y76.9696
G01 X27.9132 Y76.9689
G01 X66.3568 Y76.9689
G01 X66.4233 Y76.9706
G01 X66.4363 Y76.9696
G01 X66.4577 Y76.9689
G01 X85.7898 Y76.9689
G01 X85.8563 Y76.9706
G01 X85.8693 Y76.9696
G01 X85.8907 Y76.9689
G01 X106.8468 Y76.9689
G01 X106.9133 Y76.9706
G01 X106.9263 Y76.9696
G01 X106.9477 Y76.9689
G01 X125.3483 Y76.9689
G01 X125.4148 Y76.9706
G01 X125.4278 Y76.9696
G01 X125.4492 Y76.9689
G01 X125.7948 Y76.9689
G01 X125.8613 Y76.9706
G01 X125.8670 Y76.9701
G01 X125.9267 Y76.9555
G01 X125.9821 Y76.9440
G01 X125.9886 Y76.9417
G01 X126.0082 Y76.9334
G01 X126.0236 Y76.9283
G01 X126.0913 Y76.9118
G01 X126.1019 Y76.9095
G01 X126.1179 Y76.9070
G01 X126.1287 Y76.9060
G01 X126.1449 Y76.9054
G01 X142.6838 Y76.9054
G01 X142.7503 Y76.9071
G01 X142.7560 Y76.9066
G01 X142.8157 Y76.8920
G01 X142.8711 Y76.8805
G01 X142.8770 Y76.8784
G01 X142.9274 Y76.8527
G01 X142.9825 Y76.8269
G01 X142.9851 Y76.8252
G01 X142.9878 Y76.8235
G01 X143.0308 Y76.7869
G01 X143.0498 Y76.7718
G01 X143.0631 Y76.7595
G01 X143.0868 Y76.7393
G01 X143.1068 Y76.7156
G01 X143.1185 Y76.7029
G01 X146.1099 Y73.7115
G01 X146.1582 Y73.6656
G01 X146.1618 Y73.6613
G01 X146.1915 Y73.6124
G01 X146.2247 Y73.5615
G01 X146.2349 Y73.5424
G01 X146.2433 Y73.5291
G01 X146.2763 Y73.4838
G01 X146.2830 Y73.4757
G01 X146.2938 Y73.4642
G01 X151.1286 Y68.6294
G01 X151.1782 Y68.5823
G01 X151.1958 Y68.5640
G01 X151.2081 Y68.5523
G01 X151.2213 Y68.5416
G01 X151.2305 Y68.5351
G01 X151.2448 Y68.5261
G01 X151.2548 Y68.5207
G01 X151.3338 Y68.4844
G01 X151.3498 Y68.4782
G01 X151.3606 Y68.4748
G01 X151.3716 Y68.4720
G01 X151.3828 Y68.4697
G01 X151.3997 Y68.4672
G01 X151.4110 Y68.4663
G01 X151.4224 Y68.4660
G01 X151.4395 Y68.4665
G01 X151.4564 Y68.4683
G01 X151.5379 Y68.4803
G01 X151.5490 Y68.4827
G01 X151.5600 Y68.4857
G01 X151.5761 Y68.4913
G01 X151.5867 Y68.4956
G01 X151.6020 Y68.5031
G01 X151.6119 Y68.5087
G01 X151.6215 Y68.5148
G01 X151.6308 Y68.5213
G01 X151.6441 Y68.5320
