(G-CODE GENERATED BY FLATCAM v8.992 - www.flatcam.org - Version Date: 2020/05/03)

(Name: Phoenix612_All_Stages_PA_Testing_v2-F_Cu.gbr_iso_cnc)
(Type: G-code from Geometry)
(Units: MM)

(Created on Friday, 27 January 2023 at 14:43)

(This preprocessor is the default preprocessor used by FlatCAM.)
(It is made to work with MACH3 compatible motion controllers.)

(TOOL DIAMETER: 0.1697 mm)
(Feedrate_XY: 50.0 mm/min)
(Feedrate_Z: 40.0 mm/min)
(Feedrate rapids 1500.0 mm/min)

(Z_Cut: -0.13 mm)
(Z_Move: 2.0 mm)
(Z Start: None mm)
(Z End: 10.0 mm)
(Steps per circle: 64)
(Preprocessor Geometry: default)

(X range:    0.2245 ...  152.2635  mm)
(Y range:    0.4272 ...   79.3573  mm)

(Spindle Speed: None RPM)
G21
G90
G94



G01 F50.00
G00 Z2.0000

M03
G00 X0.4058 Y0.7410
G01 F40.00
G01 Z-0.1300
G01 F50.00
G01 X0.4523 Y0.6874
G01 X0.4756 Y0.6618
G01 X0.5001 Y0.6375
G01 X0.5258 Y0.6144
G01 X0.5526 Y0.5925
G01 X0.5804 Y0.5721
G01 X0.5947 Y0.5624
G01 X0.6240 Y0.5441
G01 X0.6542 Y0.5272
G01 X0.6696 Y0.5194
G01 X0.7009 Y0.5048
G01 X0.7330 Y0.4919
G01 X0.7492 Y0.4860
G01 X0.7821 Y0.4754
G01 X0.8502 Y0.4554
G01 X0.8822 Y0.4468
G01 X0.8984 Y0.4431
G01 X0.9309 Y0.4369
G01 X0.9636 Y0.4322
G01 X0.9966 Y0.4290
G01 X1.0297 Y0.4274
G01 X1.0463 Y0.4272
G01 X151.4417 Y0.4272
G01 X151.4749 Y0.4280
G01 X151.4914 Y0.4290
G01 X151.5243 Y0.4322
G01 X151.5408 Y0.4343
G01 X151.5734 Y0.4398
G01 X151.6589 Y0.4584
G01 X151.6925 Y0.4675
G01 X151.7256 Y0.4782
G01 X151.7581 Y0.4906
G01 X151.7741 Y0.4974
G01 X151.8055 Y0.5122
G01 X151.8362 Y0.5285
G01 X151.8661 Y0.5464
G01 X151.8806 Y0.5559
G01 X151.9091 Y0.5759
G01 X151.9229 Y0.5865
G01 X151.9497 Y0.6086
G01 X152.0163 Y0.6665
G01 X152.0413 Y0.6904
G01 X152.0533 Y0.7028
G01 X152.0650 Y0.7155
G01 X152.0875 Y0.7418
G01 X152.1086 Y0.7691
G01 X152.1284 Y0.7975
G01 X152.1377 Y0.8120
G01 X152.1467 Y0.8268
G01 X152.1635 Y0.8570
G01 X152.1788 Y0.8879
G01 X152.1926 Y0.9196
G01 X152.2048 Y0.9520
G01 X152.2103 Y0.9683
G01 X152.2353 Y1.0530
G01 X152.2439 Y1.0850
G01 X152.2476 Y1.1011
G01 X152.2509 Y1.1173
G01 X152.2564 Y1.1500
G01 X152.2586 Y1.1664
G01 X152.2617 Y1.1994
G01 X152.2627 Y1.2159
G01 X152.2635 Y1.2490
G01 X152.2635 Y16.1205
G01 X152.2628 Y16.1531
G01 X152.2605 Y16.1857
G01 X152.2564 Y16.2266
G01 X152.2541 Y16.2441
G01 X152.2481 Y16.2788
G01 X152.2445 Y16.2960
G01 X152.2360 Y16.3301
G01 X152.2310 Y16.3470
G01 X152.2199 Y16.3804
G01 X152.2071 Y16.4132
G01 X152.1927 Y16.4453
G01 X152.1445 Y16.5395
G01 X152.1361 Y16.5546
G01 X152.1181 Y16.5841
G01 X152.0986 Y16.6126
G01 X152.0884 Y16.6266
G01 X152.0669 Y16.6536
G01 X152.0556 Y16.6667
G01 X152.0322 Y16.6921
G01 X152.0200 Y16.7043
G01 X151.9947 Y16.7279
G01 X151.9816 Y16.7392
G01 X151.9683 Y16.7502
G01 X151.9408 Y16.7711
G01 X151.9267 Y16.7810
G01 X151.8977 Y16.7999
G01 X151.8064 Y16.8529
G01 X151.7757 Y16.8688
G01 X151.7601 Y16.8761
G01 X151.7283 Y16.8897
G01 X151.7071 Y16.8976
G01 X151.7071 Y68.0428
G01 X151.7271 Y68.0496
G01 X151.7594 Y68.0619
G01 X151.7910 Y68.0759
G01 X151.8065 Y68.0835
G01 X151.8218 Y68.0914
G01 X151.8519 Y68.1084
G01 X151.8811 Y68.1269
G01 X151.9093 Y68.1469
G01 X151.9231 Y68.1574
G01 X151.9497 Y68.1793
G01 X152.0034 Y68.2258
G01 X152.0289 Y68.2491
G01 X152.0533 Y68.2736
G01 X152.0650 Y68.2863
G01 X152.0875 Y68.3126
G01 X152.1086 Y68.3399
G01 X152.1284 Y68.3682
G01 X152.1377 Y68.3828
G01 X152.1467 Y68.3975
G01 X152.1635 Y68.4277
G01 X152.1788 Y68.4587
G01 X152.1859 Y68.4745
G01 X152.1926 Y68.4904
G01 X152.2048 Y68.5227
G01 X152.2153 Y68.5556
G01 X152.2353 Y68.6237
G01 X152.2439 Y68.6557
G01 X152.2476 Y68.6719
G01 X152.2539 Y68.7044
G01 X152.2586 Y68.7372
G01 X152.2604 Y68.7536
G01 X152.2627 Y68.7867
G01 X152.2635 Y68.8198
G01 X152.2635 Y78.5355
G01 X152.2627 Y78.5686
G01 X152.2617 Y78.5851
G01 X152.2604 Y78.6016
G01 X152.2564 Y78.6345
G01 X152.2509 Y78.6672
G01 X152.2323 Y78.7527
G01 X152.2232 Y78.7862
G01 X152.2181 Y78.8028
G01 X152.2065 Y78.8356
G01 X152.1933 Y78.8678
G01 X152.1785 Y78.8993
G01 X152.1622 Y78.9300
G01 X152.1444 Y78.9598
G01 X152.1250 Y78.9887
G01 X152.1148 Y79.0028
G01 X152.1043 Y79.0166
G01 X152.0822 Y79.0435
G01 X152.0242 Y79.1100
G01 X152.0003 Y79.1350
G01 X151.9879 Y79.1470
G01 X151.9752 Y79.1587
G01 X151.9490 Y79.1812
G01 X151.9216 Y79.2023
G01 X151.9076 Y79.2124
G01 X151.8787 Y79.2314
G01 X151.8490 Y79.2490
G01 X151.8338 Y79.2573
G01 X151.8028 Y79.2726
G01 X151.7711 Y79.2864
G01 X151.7388 Y79.2985
G01 X151.7224 Y79.3040
G01 X151.6378 Y79.3291
G01 X151.6058 Y79.3377
G01 X151.5896 Y79.3414
G01 X151.5571 Y79.3476
G01 X151.5408 Y79.3502
G01 X151.5079 Y79.3541
G01 X151.4914 Y79.3555
G01 X151.4749 Y79.3565
G01 X151.4417 Y79.3573
G01 X1.0463 Y79.3573
G01 X1.0131 Y79.3565
G01 X0.9966 Y79.3555
G01 X0.9637 Y79.3523
G01 X0.9472 Y79.3502
G01 X0.9146 Y79.3447
G01 X0.8291 Y79.3261
G01 X0.7955 Y79.3170
G01 X0.7789 Y79.3118
G01 X0.7461 Y79.3003
G01 X0.7139 Y79.2871
G01 X0.6825 Y79.2723
G01 X0.6670 Y79.2643
G01 X0.6367 Y79.2472
G01 X0.6074 Y79.2286
G01 X0.5789 Y79.2086
G01 X0.5651 Y79.1980
G01 X0.5383 Y79.1759
G01 X0.4717 Y79.1180
G01 X0.4467 Y79.0941
G01 X0.4347 Y79.0817
G01 X0.4116 Y79.0560
G01 X0.3898 Y79.0292
G01 X0.3794 Y79.0154
G01 X0.3693 Y79.0013
G01 X0.3503 Y78.9725
G01 X0.3327 Y78.9427
G01 X0.3166 Y78.9122
G01 X0.3021 Y78.8808
G01 X0.2954 Y78.8649
G01 X0.2832 Y78.8325
G01 X0.2777 Y78.8162
G01 X0.2527 Y78.7315
G01 X0.2441 Y78.6995
G01 X0.2404 Y78.6834
G01 X0.2341 Y78.6509
G01 X0.2316 Y78.6345
G01 X0.2294 Y78.6181
G01 X0.2263 Y78.5851
G01 X0.2247 Y78.5521
G01 X0.2245 Y78.5355
G01 X0.2245 Y1.2490
G01 X0.2253 Y1.2159
G01 X0.2263 Y1.1994
G01 X0.2294 Y1.1664
G01 X0.2341 Y1.1336
G01 X0.2404 Y1.1011
G01 X0.2557 Y1.0318
G01 X0.2648 Y0.9983
G01 X0.2755 Y0.9652
G01 X0.2879 Y0.9327
G01 X0.2947 Y0.9167
G01 X0.3095 Y0.8852
G01 X0.3258 Y0.8545
G01 X0.3436 Y0.8247
G01 X0.3630 Y0.7958
G01 X0.3837 Y0.7679
G01 X0.4058 Y0.7410
G00 Z2.0000
G00 X0.4828 Y0.8077
G01 F40.00
G01 Z-0.1300
G01 F50.00
G01 X0.5293 Y0.7540
G01 X0.5491 Y0.7322
G01 X0.5700 Y0.7114
G01 X0.5920 Y0.6917
G01 X0.6033 Y0.6823
G01 X0.6266 Y0.6642
G01 X0.6508 Y0.6474
G01 X0.6758 Y0.6317
G01 X0.7016 Y0.6173
G01 X0.7147 Y0.6106
G01 X0.7415 Y0.5982
G01 X0.7688 Y0.5871
G01 X0.7827 Y0.5821
G01 X0.8108 Y0.5731
G01 X0.8789 Y0.5531
G01 X0.9062 Y0.5458
G01 X0.9200 Y0.5426
G01 X0.9478 Y0.5373
G01 X0.9757 Y0.5333
G01 X0.9898 Y0.5317
G01 X1.0180 Y0.5297
G01 X1.0463 Y0.5291
G01 X151.4417 Y0.5291
G01 X151.4700 Y0.5297
G01 X151.4841 Y0.5306
G01 X151.4982 Y0.5317
G01 X151.5263 Y0.5351
G01 X151.5542 Y0.5398
G01 X151.6348 Y0.5573
G01 X151.6635 Y0.5651
G01 X151.6776 Y0.5695
G01 X151.7056 Y0.5794
G01 X151.7331 Y0.5906
G01 X151.7600 Y0.6033
G01 X151.7862 Y0.6172
G01 X151.8116 Y0.6324
G01 X151.8363 Y0.6489
G01 X151.8483 Y0.6576
G01 X151.8601 Y0.6666
G01 X151.8830 Y0.6855
G01 X151.9477 Y0.7418
G01 X151.9690 Y0.7622
G01 X151.9893 Y0.7836
G01 X151.9990 Y0.7947
G01 X152.0176 Y0.8176
G01 X152.0265 Y0.8294
G01 X152.0434 Y0.8536
G01 X152.0514 Y0.8660
G01 X152.0664 Y0.8914
G01 X152.0734 Y0.9044
G01 X152.0865 Y0.9308
G01 X152.0982 Y0.9579
G01 X152.1036 Y0.9716
G01 X152.1133 Y0.9994
G01 X152.1176 Y1.0135
G01 X152.1415 Y1.0953
G01 X152.1450 Y1.1090
G01 X152.1510 Y1.1366
G01 X152.1557 Y1.1645
G01 X152.1575 Y1.1785
G01 X152.1602 Y1.2066
G01 X152.1615 Y1.2349
G01 X152.1617 Y16.1205
G01 X152.1610 Y16.1484
G01 X152.1591 Y16.1761
G01 X152.1553 Y16.2145
G01 X152.1510 Y16.2443
G01 X152.1452 Y16.2737
G01 X152.1417 Y16.2884
G01 X152.1337 Y16.3173
G01 X152.1242 Y16.3458
G01 X152.1133 Y16.3738
G01 X152.1009 Y16.4012
G01 X152.0550 Y16.4909
G01 X152.0403 Y16.5164
G01 X152.0243 Y16.5412
G01 X152.0159 Y16.5533
G01 X151.9981 Y16.5769
G01 X151.9792 Y16.5995
G01 X151.9592 Y16.6211
G01 X151.9487 Y16.6316
G01 X151.9272 Y16.6517
G01 X151.9046 Y16.6707
G01 X151.8811 Y16.6886
G01 X151.8568 Y16.7053
G01 X151.8443 Y16.7131
G01 X151.7575 Y16.7636
G01 X151.7444 Y16.7706
G01 X151.7179 Y16.7835
G01 X151.6908 Y16.7950
G01 X151.6631 Y16.8052
G01 X151.6349 Y16.8140
G01 X151.6053 Y16.8216
G01 X151.6053 Y68.1217
G01 X151.6221 Y68.1252
G01 X151.6508 Y68.1322
G01 X151.6790 Y68.1407
G01 X151.7068 Y68.1506
G01 X151.7341 Y68.1619
G01 X151.7608 Y68.1744
G01 X151.7868 Y68.1883
G01 X151.8121 Y68.2035
G01 X151.8366 Y68.2199
G01 X151.8603 Y68.2375
G01 X151.8830 Y68.2563
G01 X151.9367 Y68.3028
G01 X151.9585 Y68.3226
G01 X151.9793 Y68.3436
G01 X151.9990 Y68.3655
G01 X152.0085 Y68.3768
G01 X152.0176 Y68.3884
G01 X152.0351 Y68.4121
G01 X152.0514 Y68.4368
G01 X152.0590 Y68.4494
G01 X152.0734 Y68.4751
G01 X152.0865 Y68.5016
G01 X152.0925 Y68.5150
G01 X152.1036 Y68.5424
G01 X152.1133 Y68.5702
G01 X152.1176 Y68.5843
G01 X152.1376 Y68.6524
G01 X152.1450 Y68.6797
G01 X152.1510 Y68.7074
G01 X152.1557 Y68.7352
G01 X152.1590 Y68.7633
G01 X152.1610 Y68.7915
G01 X152.1617 Y68.8198
G01 X152.1617 Y78.5355
G01 X152.1610 Y78.5638
G01 X152.1602 Y78.5779
G01 X152.1590 Y78.5920
G01 X152.1557 Y78.6200
G01 X152.1510 Y78.6479
G01 X152.1334 Y78.7286
G01 X152.1257 Y78.7572
G01 X152.1165 Y78.7854
G01 X152.1114 Y78.7994
G01 X152.1001 Y78.8268
G01 X152.0875 Y78.8537
G01 X152.0735 Y78.8799
G01 X152.0583 Y78.9054
G01 X152.0418 Y78.9301
G01 X152.0331 Y78.9421
G01 X152.0148 Y78.9655
G01 X152.0052 Y78.9768
G01 X151.9490 Y79.0415
G01 X151.9286 Y79.0628
G01 X151.9180 Y79.0731
G01 X151.8960 Y79.0928
G01 X151.8731 Y79.1114
G01 X151.8614 Y79.1203
G01 X151.8372 Y79.1371
G01 X151.8248 Y79.1451
G01 X151.8122 Y79.1528
G01 X151.7864 Y79.1672
G01 X151.7600 Y79.1802
G01 X151.7329 Y79.1920
G01 X151.7053 Y79.2024
G01 X151.6913 Y79.2071
G01 X151.6091 Y79.2314
G01 X151.5818 Y79.2387
G01 X151.5680 Y79.2419
G01 X151.5402 Y79.2472
G01 X151.5263 Y79.2494
G01 X151.4982 Y79.2528
G01 X151.4841 Y79.2539
G01 X151.4700 Y79.2548
G01 X151.4417 Y79.2554
G01 X1.0463 Y79.2554
G01 X1.0180 Y79.2548
G01 X1.0039 Y79.2539
G01 X0.9757 Y79.2512
G01 X0.9617 Y79.2494
G01 X0.9338 Y79.2447
G01 X0.8532 Y79.2272
G01 X0.8388 Y79.2235
G01 X0.8104 Y79.2150
G01 X0.7824 Y79.2051
G01 X0.7549 Y79.1939
G01 X0.7280 Y79.1812
G01 X0.7018 Y79.1673
G01 X0.6890 Y79.1598
G01 X0.6639 Y79.1440
G01 X0.6397 Y79.1269
G01 X0.6279 Y79.1179
G01 X0.6050 Y79.0990
G01 X0.5403 Y79.0427
G01 X0.5295 Y79.0326
G01 X0.5087 Y79.0117
G01 X0.4890 Y78.9898
G01 X0.4795 Y78.9785
G01 X0.4615 Y78.9551
G01 X0.4529 Y78.9431
G01 X0.4366 Y78.9185
G01 X0.4290 Y78.9059
G01 X0.4146 Y78.8801
G01 X0.4015 Y78.8537
G01 X0.3898 Y78.8266
G01 X0.3844 Y78.8129
G01 X0.3747 Y78.7851
G01 X0.3504 Y78.7028
G01 X0.3430 Y78.6755
G01 X0.3399 Y78.6618
G01 X0.3370 Y78.6479
G01 X0.3323 Y78.6200
G01 X0.3290 Y78.5920
G01 X0.3278 Y78.5779
G01 X0.3265 Y78.5496
G01 X0.3263 Y78.5355
G01 X0.3263 Y1.2490
G01 X0.3270 Y1.2207
G01 X0.3290 Y1.1925
G01 X0.3323 Y1.1645
G01 X0.3370 Y1.1366
G01 X0.3546 Y1.0559
G01 X0.3623 Y1.0273
G01 X0.3715 Y0.9991
G01 X0.3821 Y0.9713
G01 X0.3879 Y0.9577
G01 X0.4005 Y0.9308
G01 X0.4145 Y0.9046
G01 X0.4297 Y0.8791
G01 X0.4462 Y0.8544
G01 X0.4639 Y0.8306
G01 X0.4828 Y0.8077
G00 Z2.0000
G00 X0.5597 Y0.8744
G01 F40.00
G01 Z-0.1300
G01 F50.00
G01 X0.6062 Y0.8207
G01 X0.6227 Y0.8027
G01 X0.6400 Y0.7854
G01 X0.6582 Y0.7691
G01 X0.6771 Y0.7537
G01 X0.6968 Y0.7392
G01 X0.7069 Y0.7323
G01 X0.7172 Y0.7257
G01 X0.7383 Y0.7133
G01 X0.7599 Y0.7019
G01 X0.7821 Y0.6916
G01 X0.7933 Y0.6869
G01 X0.8162 Y0.6783
G01 X0.8395 Y0.6708
G01 X0.9076 Y0.6508
G01 X0.9302 Y0.6447
G01 X0.9531 Y0.6398
G01 X0.9762 Y0.6359
G01 X0.9878 Y0.6344
G01 X1.0111 Y0.6321
G01 X1.0228 Y0.6314
G01 X1.0463 Y0.6309
G01 X151.4417 Y0.6309
G01 X151.4652 Y0.6314
G01 X151.4769 Y0.6321
G01 X151.5002 Y0.6344
G01 X151.5118 Y0.6359
G01 X151.5234 Y0.6377
G01 X151.5464 Y0.6421
G01 X151.6107 Y0.6563
G01 X151.6344 Y0.6627
G01 X151.6462 Y0.6663
G01 X151.6694 Y0.6745
G01 X151.6921 Y0.6839
G01 X151.7144 Y0.6943
G01 X151.7253 Y0.7000
G01 X151.7467 Y0.7120
G01 X151.7675 Y0.7252
G01 X151.7876 Y0.7394
G01 X151.7974 Y0.7468
G01 X151.8164 Y0.7625
G01 X151.8792 Y0.8171
G01 X151.8968 Y0.8340
G01 X151.9053 Y0.8427
G01 X151.9217 Y0.8609
G01 X151.9295 Y0.8703
G01 X151.9444 Y0.8896
G01 X151.9584 Y0.9097
G01 X151.9650 Y0.9200
G01 X151.9714 Y0.9304
G01 X151.9833 Y0.9518
G01 X151.9941 Y0.9737
G01 X152.0039 Y0.9961
G01 X152.0083 Y1.0075
G01 X152.0164 Y1.0305
G01 X152.0199 Y1.0422
G01 X152.0431 Y1.1216
G01 X152.0460 Y1.1330
G01 X152.0510 Y1.1559
G01 X152.0549 Y1.1790
G01 X152.0577 Y1.2022
G01 X152.0586 Y1.2139
G01 X152.0597 Y1.2373
G01 X152.0599 Y16.1205
G01 X152.0593 Y16.1436
G01 X152.0577 Y16.1666
G01 X152.0542 Y16.2025
G01 X152.0506 Y16.2271
G01 X152.0458 Y16.2515
G01 X152.0397 Y16.2756
G01 X152.0325 Y16.2994
G01 X152.0240 Y16.3229
G01 X152.0194 Y16.3344
G01 X152.0092 Y16.3571
G01 X151.9713 Y16.4314
G01 X151.9596 Y16.4529
G01 X151.9469 Y16.4738
G01 X151.9331 Y16.4940
G01 X151.9259 Y16.5038
G01 X151.9107 Y16.5230
G01 X151.8945 Y16.5413
G01 X151.8861 Y16.5502
G01 X151.8687 Y16.5673
G01 X151.8504 Y16.5835
G01 X151.8313 Y16.5988
G01 X151.8115 Y16.6131
G01 X151.7910 Y16.6264
G01 X151.7191 Y16.6684
G01 X151.6977 Y16.6801
G01 X151.6868 Y16.6856
G01 X151.6645 Y16.6957
G01 X151.6418 Y16.7047
G01 X151.6187 Y16.7126
G01 X151.5952 Y16.7193
G01 X151.5714 Y16.7248
G01 X151.5473 Y16.7292
G01 X151.5231 Y16.7323
G01 X151.5035 Y16.7340
G01 X151.5035 Y68.2093
G01 X151.5762 Y68.2199
G01 X151.6002 Y68.2246
G01 X151.6239 Y68.2305
G01 X151.6473 Y68.2375
G01 X151.6704 Y68.2457
G01 X151.6930 Y68.2550
G01 X151.7151 Y68.2654
G01 X151.7366 Y68.2769
G01 X151.7576 Y68.2895
G01 X151.7779 Y68.3031
G01 X151.7975 Y68.3177
G01 X151.8164 Y68.3332
G01 X151.8792 Y68.3878
G01 X151.8881 Y68.3962
G01 X151.9053 Y68.4135
G01 X151.9217 Y68.4317
G01 X151.9371 Y68.4506
G01 X151.9516 Y68.4703
G01 X151.9650 Y68.4907
G01 X151.9775 Y68.5118
G01 X151.9888 Y68.5334
G01 X151.9991 Y68.5556
G01 X152.0039 Y68.5669
G01 X152.0083 Y68.5782
G01 X152.0164 Y68.6013
G01 X152.0399 Y68.6811
G01 X152.0460 Y68.7037
G01 X152.0510 Y68.7266
G01 X152.0549 Y68.7497
G01 X152.0577 Y68.7730
G01 X152.0593 Y68.7964
G01 X152.0599 Y68.8198
G01 X152.0599 Y78.5355
G01 X152.0593 Y78.5589
G01 X152.0586 Y78.5706
G01 X152.0577 Y78.5823
G01 X152.0549 Y78.6055
G01 X152.0510 Y78.6286
G01 X152.0486 Y78.6401
G01 X152.0345 Y78.7044
G01 X152.0281 Y78.7282
G01 X152.0205 Y78.7516
G01 X152.0162 Y78.7631
G01 X152.0069 Y78.7859
G01 X151.9964 Y78.8081
G01 X151.9849 Y78.8298
G01 X151.9723 Y78.8509
G01 X151.9586 Y78.8714
G01 X151.9514 Y78.8814
G01 X151.9362 Y78.9007
G01 X151.9283 Y78.9101
G01 X151.8737 Y78.9729
G01 X151.8568 Y78.9906
G01 X151.8480 Y78.9991
G01 X151.8298 Y79.0154
G01 X151.8204 Y79.0232
G01 X151.8011 Y79.0382
G01 X151.7811 Y79.0522
G01 X151.7708 Y79.0588
G01 X151.7497 Y79.0712
G01 X151.7390 Y79.0770
G01 X151.7171 Y79.0879
G01 X151.6947 Y79.0976
G01 X151.6833 Y79.1021
G01 X151.6602 Y79.1101
G01 X151.5804 Y79.1337
G01 X151.5578 Y79.1398
G01 X151.5464 Y79.1424
G01 X151.5234 Y79.1468
G01 X151.5118 Y79.1486
G01 X151.5002 Y79.1501
G01 X151.4769 Y79.1524
G01 X151.4535 Y79.1535
G01 X151.4417 Y79.1536
G01 X1.0463 Y79.1536
G01 X1.0228 Y79.1531
G01 X1.0111 Y79.1524
G01 X0.9878 Y79.1501
G01 X0.9762 Y79.1486
G01 X0.9646 Y79.1468
G01 X0.9416 Y79.1424
G01 X0.8773 Y79.1282
G01 X0.8536 Y79.1218
G01 X0.8302 Y79.1142
G01 X0.8186 Y79.1100
G01 X0.7959 Y79.1006
G01 X0.7736 Y79.0902
G01 X0.7519 Y79.0786
G01 X0.7308 Y79.0660
G01 X0.7104 Y79.0523
G01 X0.7004 Y79.0451
G01 X0.6906 Y79.0377
G01 X0.6716 Y79.0220
G01 X0.6088 Y78.9674
G01 X0.5999 Y78.9591
G01 X0.5827 Y78.9418
G01 X0.5744 Y78.9328
G01 X0.5585 Y78.9142
G01 X0.5436 Y78.8949
G01 X0.5364 Y78.8849
G01 X0.5230 Y78.8645
G01 X0.5105 Y78.8435
G01 X0.4992 Y78.8219
G01 X0.4889 Y78.7997
G01 X0.4841 Y78.7884
G01 X0.4797 Y78.7770
G01 X0.4716 Y78.7540
G01 X0.4481 Y78.6741
G01 X0.4420 Y78.6515
G01 X0.4394 Y78.6401
G01 X0.4349 Y78.6171
G01 X0.4331 Y78.6055
G01 X0.4303 Y78.5823
G01 X0.4294 Y78.5706
G01 X0.4287 Y78.5589
G01 X0.4281 Y78.5355
G01 X0.4281 Y1.2490
G01 X0.4287 Y1.2256
G01 X0.4303 Y1.2022
G01 X0.4331 Y1.1790
G01 X0.4370 Y1.1559
G01 X0.4535 Y1.0801
G01 X0.4599 Y1.0563
G01 X0.4675 Y1.0329
G01 X0.4763 Y1.0100
G01 X0.4862 Y0.9874
G01 X0.4972 Y0.9654
G01 X0.5093 Y0.9440
G01 X0.5224 Y0.9232
G01 X0.5294 Y0.9131
G01 X0.5441 Y0.8934
G01 X0.5597 Y0.8744
G00 Z2.0000
G00 X0.6367 Y0.9411
G01 F40.00
G01 Z-0.1300
G01 F50.00
G01 X0.6896 Y0.8802
G01 X0.7030 Y0.8662
G01 X0.7171 Y0.8528
G01 X0.7394 Y0.8342
G01 X0.7550 Y0.8227
G01 X0.7795 Y0.8070
G01 X0.8050 Y0.7932
G01 X0.8316 Y0.7813
G01 X0.8589 Y0.7713
G01 X0.9363 Y0.7485
G01 X0.9542 Y0.7437
G01 X0.9815 Y0.7381
G01 X0.9999 Y0.7355
G01 X1.0184 Y0.7337
G01 X1.0463 Y0.7327
G01 X151.4417 Y0.7327
G01 X151.4696 Y0.7337
G01 X151.4973 Y0.7367
G01 X151.5247 Y0.7416
G01 X151.5866 Y0.7552
G01 X151.6054 Y0.7603
G01 X151.6331 Y0.7697
G01 X151.6511 Y0.7771
G01 X151.6688 Y0.7854
G01 X151.6945 Y0.7994
G01 X151.7109 Y0.8099
G01 X151.7269 Y0.8211
G01 X151.7497 Y0.8394
G01 X151.8106 Y0.8923
G01 X151.8313 Y0.9127
G01 X151.8505 Y0.9346
G01 X151.8624 Y0.9499
G01 X151.8787 Y0.9740
G01 X151.8932 Y0.9992
G01 X151.9057 Y1.0254
G01 X151.9163 Y1.0525
G01 X151.9222 Y1.0709
G01 X151.9422 Y1.1390
G01 X151.9491 Y1.1660
G01 X151.9527 Y1.1843
G01 X151.9553 Y1.2027
G01 X151.9571 Y1.2212
G01 X151.9579 Y1.2397
G01 X151.9581 Y16.1205
G01 X151.9571 Y16.1480
G01 X151.9541 Y16.1805
G01 X151.9518 Y16.2001
G01 X151.9485 Y16.2196
G01 X151.9442 Y16.2389
G01 X151.9389 Y16.2579
G01 X151.9326 Y16.2766
G01 X151.9255 Y16.2950
G01 X151.9130 Y16.3218
G01 X151.8806 Y16.3850
G01 X151.8714 Y16.4021
G01 X151.8613 Y16.4186
G01 X151.8504 Y16.4347
G01 X151.8326 Y16.4576
G01 X151.8131 Y16.4792
G01 X151.7993 Y16.4928
G01 X151.7848 Y16.5056
G01 X151.7696 Y16.5178
G01 X151.7459 Y16.5345
G01 X151.7293 Y16.5447
G01 X151.6680 Y16.5803
G01 X151.6510 Y16.5897
G01 X151.6247 Y16.6020
G01 X151.5975 Y16.6124
G01 X151.5696 Y16.6207
G01 X151.5508 Y16.6251
G01 X151.5317 Y16.6286
G01 X151.5028 Y16.6320
G01 X151.4835 Y16.6330
G01 X151.4641 Y16.6331
G01 X151.3992 Y16.6303
G01 X151.4012 Y16.6668
G01 X151.4017 Y16.6860
G01 X151.4017 Y68.2480
G01 X151.4012 Y68.2672
G01 X151.3991 Y68.3056
G01 X151.4117 Y68.3049
G01 X151.4311 Y68.3048
G01 X151.4601 Y68.3064
G01 X151.4794 Y68.3087
G01 X151.5496 Y68.3188
G01 X151.5782 Y68.3240
G01 X151.5971 Y68.3287
G01 X151.6156 Y68.3342
G01 X151.6339 Y68.3407
G01 X151.6518 Y68.3481
G01 X151.6779 Y68.3609
G01 X151.6948 Y68.3704
G01 X151.7112 Y68.3808
G01 X151.7270 Y68.3920
G01 X151.7423 Y68.4039
G01 X151.8033 Y68.4567
G01 X151.8177 Y68.4697
G01 X151.8313 Y68.4835
G01 X151.8505 Y68.5053
G01 X151.8624 Y68.5207
G01 X151.8735 Y68.5366
G01 X151.8837 Y68.5530
G01 X151.8932 Y68.5699
G01 X151.9057 Y68.5961
G01 X151.9130 Y68.6141
G01 X151.9194 Y68.6324
G01 X151.9422 Y68.7098
G01 X151.9471 Y68.7277
G01 X151.9510 Y68.7459
G01 X151.9541 Y68.7642
G01 X151.9563 Y68.7827
G01 X151.9576 Y68.8012
G01 X151.9581 Y68.8198
G01 X151.9581 Y78.5355
G01 X151.9571 Y78.5633
G01 X151.9541 Y78.5910
G01 X151.9491 Y78.6185
G01 X151.9356 Y78.6803
G01 X151.9305 Y78.6991
G01 X151.9244 Y78.7177
G01 X151.9137 Y78.7449
G01 X151.9054 Y78.7626
G01 X151.8962 Y78.7798
G01 X151.8862 Y78.7965
G01 X151.8697 Y78.8206
G01 X151.8513 Y78.8434
G01 X151.7984 Y78.9043
G01 X151.7850 Y78.9183
G01 X151.7636 Y78.9381
G01 X151.7409 Y78.9561
G01 X151.7168 Y78.9724
G01 X151.7001 Y78.9823
G01 X151.6830 Y78.9913
G01 X151.6654 Y78.9995
G01 X151.6474 Y79.0068
G01 X151.6198 Y79.0160
G01 X151.5517 Y79.0360
G01 X151.5247 Y79.0429
G01 X151.4973 Y79.0478
G01 X151.4696 Y79.0508
G01 X151.4417 Y79.0518
G01 X1.0463 Y79.0518
G01 X1.0184 Y79.0508
G01 X0.9907 Y79.0478
G01 X0.9633 Y79.0429
G01 X0.9014 Y79.0293
G01 X0.8733 Y79.0213
G01 X0.8549 Y79.0148
G01 X0.8369 Y79.0074
G01 X0.8192 Y78.9991
G01 X0.7935 Y78.9851
G01 X0.7771 Y78.9746
G01 X0.7611 Y78.9634
G01 X0.7383 Y78.9451
G01 X0.6774 Y78.8922
G01 X0.6567 Y78.8718
G01 X0.6437 Y78.8574
G01 X0.6256 Y78.8346
G01 X0.6093 Y78.8105
G01 X0.5994 Y78.7939
G01 X0.5904 Y78.7767
G01 X0.5823 Y78.7591
G01 X0.5750 Y78.7412
G01 X0.5658 Y78.7136
G01 X0.5458 Y78.6455
G01 X0.5389 Y78.6185
G01 X0.5339 Y78.5910
G01 X0.5309 Y78.5633
G01 X0.5299 Y78.5355
G01 X0.5299 Y1.2490
G01 X0.5304 Y1.2304
G01 X0.5317 Y1.2119
G01 X0.5339 Y1.1935
G01 X0.5370 Y1.1751
G01 X0.5524 Y1.1042
G01 X0.5575 Y1.0854
G01 X0.5636 Y1.0668
G01 X0.5743 Y1.0396
G01 X0.5826 Y1.0219
G01 X0.5918 Y1.0047
G01 X0.6018 Y0.9880
G01 X0.6126 Y0.9718
G01 X0.6243 Y0.9561
G01 X0.6367 Y0.9411
G00 Z2.0000
G00 X0.7136 Y1.0077
G01 F40.00
G01 Z-0.1300
G01 F50.00
G01 X0.7649 Y0.9487
G01 X0.7748 Y0.9384
G01 X0.7852 Y0.9285
G01 X0.8017 Y0.9148
G01 X0.8132 Y0.9063
G01 X0.8313 Y0.8947
G01 X0.8438 Y0.8877
G01 X0.8632 Y0.8784
G01 X0.8832 Y0.8706
G01 X0.8969 Y0.8662
G01 X0.9716 Y0.8443
G01 X0.9917 Y0.8397
G01 X1.0052 Y0.8374
G01 X1.0257 Y0.8352
G01 X1.0463 Y0.8345
G01 X151.4417 Y0.8345
G01 X151.4555 Y0.8348
G01 X151.4692 Y0.8358
G01 X151.4896 Y0.8385
G01 X151.5031 Y0.8411
G01 X151.5624 Y0.8541
G01 X151.5764 Y0.8579
G01 X151.5901 Y0.8623
G01 X151.6102 Y0.8703
G01 X151.6232 Y0.8764
G01 X151.6360 Y0.8832
G01 X151.6483 Y0.8906
G01 X151.6603 Y0.8986
G01 X151.6719 Y0.9072
G01 X151.6830 Y0.9164
G01 X151.7420 Y0.9676
G01 X151.7524 Y0.9775
G01 X151.7669 Y0.9933
G01 X151.7803 Y1.0102
G01 X151.7924 Y1.0279
G01 X151.8031 Y1.0466
G01 X151.8094 Y1.0594
G01 X151.8177 Y1.0792
G01 X151.8246 Y1.0996
G01 X151.8446 Y1.1677
G01 X151.8496 Y1.1877
G01 X151.8522 Y1.2012
G01 X151.8542 Y1.2148
G01 X151.8555 Y1.2284
G01 X151.8562 Y1.2421
G01 X151.8562 Y16.1205
G01 X151.8555 Y16.1408
G01 X151.8528 Y16.1710
G01 X151.8510 Y16.1855
G01 X151.8471 Y16.2070
G01 X151.8415 Y16.2282
G01 X151.8343 Y16.2488
G01 X151.8256 Y16.2689
G01 X151.7900 Y16.3387
G01 X151.7795 Y16.3574
G01 X151.7676 Y16.3753
G01 X151.7545 Y16.3923
G01 X151.7450 Y16.4031
G01 X151.7299 Y16.4183
G01 X151.7136 Y16.4323
G01 X151.6963 Y16.4451
G01 X151.6843 Y16.4529
G01 X151.6106 Y16.4958
G01 X151.5978 Y16.5024
G01 X151.5848 Y16.5083
G01 X151.5647 Y16.5160
G01 X151.5441 Y16.5222
G01 X151.5231 Y16.5268
G01 X151.5019 Y16.5298
G01 X151.4804 Y16.5313
G01 X151.4661 Y16.5313
G01 X151.3809 Y16.5275
G01 X151.3595 Y16.5252
G01 X151.3454 Y16.5228
G01 X151.3314 Y16.5197
G01 X151.3107 Y16.5138
G01 X151.2972 Y16.5089
G01 X151.2840 Y16.5035
G01 X151.2642 Y16.4938
G01 X151.2746 Y16.5232
G01 X151.2789 Y16.5374
G01 X151.2880 Y16.5740
G01 X151.2908 Y16.5879
G01 X151.2955 Y16.6192
G01 X151.2973 Y16.6332
G01 X151.2995 Y16.6718
G01 X151.2999 Y16.6860
G01 X151.2999 Y68.2480
G01 X151.2995 Y68.2622
G01 X151.2973 Y68.3008
G01 X151.2919 Y68.3391
G01 X151.2895 Y68.3531
G01 X151.2864 Y68.3669
G01 X151.2767 Y68.4044
G01 X151.2722 Y68.4178
G01 X151.2593 Y68.4530
G01 X151.3040 Y68.4326
G01 X151.3171 Y68.4270
G01 X151.3374 Y68.4198
G01 X151.3512 Y68.4159
G01 X151.3722 Y68.4112
G01 X151.3934 Y68.4082
G01 X151.4149 Y68.4067
G01 X151.4292 Y68.4066
G01 X151.4435 Y68.4072
G01 X151.4649 Y68.4095
G01 X151.5422 Y68.4207
G01 X151.5633 Y68.4251
G01 X151.5839 Y68.4310
G01 X151.6041 Y68.4385
G01 X151.6236 Y68.4474
G01 X151.6425 Y68.4577
G01 X151.6605 Y68.4695
G01 X151.6775 Y68.4825
G01 X151.7367 Y68.5336
G01 X151.7473 Y68.5433
G01 X151.7574 Y68.5534
G01 X151.7715 Y68.5696
G01 X151.7845 Y68.5867
G01 X151.7924 Y68.5987
G01 X151.8031 Y68.6173
G01 X151.8094 Y68.6302
G01 X151.8177 Y68.6500
G01 X151.8246 Y68.6704
G01 X151.8446 Y68.7385
G01 X151.8481 Y68.7518
G01 X151.8510 Y68.7652
G01 X151.8533 Y68.7787
G01 X151.8549 Y68.7923
G01 X151.8559 Y68.8060
G01 X151.8562 Y68.8198
G01 X151.8562 Y78.5355
G01 X151.8555 Y78.5561
G01 X151.8542 Y78.5697
G01 X151.8522 Y78.5833
G01 X151.8496 Y78.5968
G01 X151.8366 Y78.6562
G01 X151.8329 Y78.6701
G01 X151.8284 Y78.6838
G01 X151.8205 Y78.7039
G01 X151.8143 Y78.7170
G01 X151.8076 Y78.7297
G01 X151.8002 Y78.7421
G01 X151.7922 Y78.7541
G01 X151.7836 Y78.7656
G01 X151.7744 Y78.7768
G01 X151.7231 Y78.8358
G01 X151.7132 Y78.8461
G01 X151.6974 Y78.8607
G01 X151.6806 Y78.8740
G01 X151.6628 Y78.8861
G01 X151.6505 Y78.8934
G01 X151.6378 Y78.9001
G01 X151.6248 Y78.9061
G01 X151.6115 Y78.9115
G01 X151.5911 Y78.9183
G01 X151.5230 Y78.9383
G01 X151.5031 Y78.9434
G01 X151.4828 Y78.9471
G01 X151.4623 Y78.9493
G01 X151.4417 Y78.9500
G01 X1.0463 Y78.9500
G01 X1.0325 Y78.9497
G01 X1.0188 Y78.9487
G01 X0.9984 Y78.9460
G01 X0.9849 Y78.9434
G01 X0.9256 Y78.9304
G01 X0.9048 Y78.9245
G01 X0.8912 Y78.9197
G01 X0.8778 Y78.9142
G01 X0.8648 Y78.9081
G01 X0.8520 Y78.9013
G01 X0.8397 Y78.8939
G01 X0.8277 Y78.8859
G01 X0.8161 Y78.8773
G01 X0.8050 Y78.8681
G01 X0.7460 Y78.8169
G01 X0.7306 Y78.8018
G01 X0.7165 Y78.7857
G01 X0.7035 Y78.7685
G01 X0.6956 Y78.7566
G01 X0.6883 Y78.7442
G01 X0.6817 Y78.7316
G01 X0.6756 Y78.7186
G01 X0.6703 Y78.7053
G01 X0.6634 Y78.6849
G01 X0.6434 Y78.6168
G01 X0.6384 Y78.5968
G01 X0.6347 Y78.5766
G01 X0.6325 Y78.5561
G01 X0.6318 Y78.5355
G01 X0.6318 Y1.2490
G01 X0.6321 Y1.2353
G01 X0.6331 Y1.2216
G01 X0.6347 Y1.2079
G01 X0.6370 Y1.1944
G01 X0.6514 Y1.1283
G01 X0.6551 Y1.1144
G01 X0.6596 Y1.1007
G01 X0.6647 Y1.0872
G01 X0.6705 Y1.0740
G01 X0.6770 Y1.0611
G01 X0.6841 Y1.0486
G01 X0.6958 Y1.0304
G01 X0.7044 Y1.0189
G01 X0.7136 Y1.0077
G00 Z2.0000
G00 X0.7906 Y1.0744
G01 F40.00
G01 Z-0.1300
G01 F50.00
G01 X0.8371 Y1.0208
G01 X0.8499 Y1.0074
G01 X0.8603 Y0.9982
G01 X0.8714 Y0.9898
G01 X0.8831 Y0.9823
G01 X0.8912 Y0.9778
G01 X0.9080 Y0.9700
G01 X0.9211 Y0.9653
G01 X0.9979 Y0.9427
G01 X1.0066 Y0.9406
G01 X1.0197 Y0.9382
G01 X1.0329 Y0.9368
G01 X1.0463 Y0.9363
G01 X151.4417 Y0.9363
G01 X151.4595 Y0.9372
G01 X151.4727 Y0.9389
G01 X151.5338 Y0.9520
G01 X151.5473 Y0.9555
G01 X151.5562 Y0.9583
G01 X151.5649 Y0.9617
G01 X151.5776 Y0.9675
G01 X151.5939 Y0.9766
G01 X151.6091 Y0.9874
G01 X151.6735 Y1.0429
G01 X151.6834 Y1.0526
G01 X151.6925 Y1.0631
G01 X151.7009 Y1.0742
G01 X151.7060 Y1.0819
G01 X151.7107 Y1.0899
G01 X151.7171 Y1.1023
G01 X151.7240 Y1.1195
G01 X151.7469 Y1.1964
G01 X151.7502 Y1.2093
G01 X151.7525 Y1.2224
G01 X151.7539 Y1.2357
G01 X151.7544 Y1.2490
G01 X151.7544 Y16.1205
G01 X151.7536 Y16.1380
G01 X151.7509 Y16.1662
G01 X151.7495 Y16.1755
G01 X151.7454 Y16.1939
G01 X151.7394 Y16.2118
G01 X151.7317 Y16.2291
G01 X151.6972 Y16.2964
G01 X151.6876 Y16.3122
G01 X151.6793 Y16.3234
G01 X151.6734 Y16.3305
G01 X151.6638 Y16.3406
G01 X151.6570 Y16.3469
G01 X151.6499 Y16.3529
G01 X151.6388 Y16.3612
G01 X151.6270 Y16.3686
G01 X151.5575 Y16.4087
G01 X151.5492 Y16.4128
G01 X151.5363 Y16.4181
G01 X151.5186 Y16.4236
G01 X151.5096 Y16.4257
G01 X151.4959 Y16.4280
G01 X151.4774 Y16.4295
G01 X151.4635 Y16.4294
G01 X151.3833 Y16.4256
G01 X151.3695 Y16.4237
G01 X151.3604 Y16.4219
G01 X151.3470 Y16.4184
G01 X151.3382 Y16.4155
G01 X151.3295 Y16.4122
G01 X151.3169 Y16.4064
G01 X151.3047 Y16.3997
G01 X151.2969 Y16.3947
G01 X151.2315 Y16.3485
G01 X151.2211 Y16.3401
G01 X151.2145 Y16.3342
G01 X151.2022 Y16.3214
G01 X151.1891 Y16.3051
G01 X151.1765 Y16.2915
G01 X151.1539 Y16.2649
G01 X151.1465 Y16.2592
G01 X151.1285 Y16.2438
G01 X151.1182 Y16.2342
G01 X147.5318 Y12.6478
G01 X147.4848 Y12.5985
G01 X147.4765 Y12.5915
G01 X147.4253 Y12.5604
G01 X147.3727 Y12.5261
G01 X147.3672 Y12.5233
G01 X147.3617 Y12.5207
G01 X147.3061 Y12.5027
G01 X147.2470 Y12.4814
G01 X147.2410 Y12.4800
G01 X147.2350 Y12.4787
G01 X147.1767 Y12.4740
G01 X147.1514 Y12.4711
G01 X147.1329 Y12.4704
G01 X147.0982 Y12.4676
G01 X147.0889 Y12.4688
G01 X147.0653 Y12.4706
G01 X147.0512 Y12.4712
G01 X144.7215 Y12.4712
G01 X144.7071 Y12.4706
G01 X144.6928 Y12.4690
G01 X144.6348 Y12.4582
G01 X144.6172 Y12.4532
G01 X144.6002 Y12.4465
G01 X144.5839 Y12.4381
G01 X144.5723 Y12.4309
G01 X144.5081 Y12.3828
G01 X144.4978 Y12.3744
G01 X144.4912 Y12.3684
G01 X144.4819 Y12.3589
G01 X144.4761 Y12.3521
G01 X144.4101 Y12.2637
G01 X144.2662 Y12.1264
G01 X144.1012 Y12.0154
G01 X143.9199 Y11.9337
G01 X143.7274 Y11.8837
G01 X143.5792 Y11.8712
G01 X141.1280 Y11.8712
G01 X141.1220 Y11.8715
G01 X140.9229 Y11.9075
G01 X140.7359 Y11.9754
G01 X140.5631 Y12.0738
G01 X140.4093 Y12.1999
G01 X140.2656 Y12.3654
G01 X140.2526 Y12.3784
G01 X140.2396 Y12.3890
G01 X140.2242 Y12.4035
G01 X140.2172 Y12.4095
G01 X140.2061 Y12.4178
G01 X140.1944 Y12.4253
G01 X140.1822 Y12.4319
G01 X140.1696 Y12.4375
G01 X140.1566 Y12.4423
G01 X140.0755 Y12.4659
G01 X140.0580 Y12.4693
G01 X140.0403 Y12.4710
G01 X136.7810 Y12.4712
G01 X136.7624 Y12.4702
G01 X136.7487 Y12.4684
G01 X136.7396 Y12.4665
G01 X136.6851 Y12.4541
G01 X136.6677 Y12.4493
G01 X136.6549 Y12.4445
G01 X136.6426 Y12.4389
G01 X136.6268 Y12.4300
G01 X136.6156 Y12.4223
G01 X136.6016 Y12.4109
G01 X136.5488 Y12.3634
G01 X136.5393 Y12.3541
G01 X136.5276 Y12.3407
G01 X136.5196 Y12.3300
G01 X136.4961 Y12.2922
G01 X136.4019 Y12.1978
G01 X136.2885 Y12.1276
G01 X136.1608 Y12.0850
G01 X136.0850 Y12.0772
G01 X134.7034 Y12.0772
G01 X134.6288 Y12.0848
G01 X134.5009 Y12.1272
G01 X134.3874 Y12.1972
G01 X134.2744 Y12.3100
G01 X134.2676 Y12.3161
G01 X134.2586 Y12.3233
G01 X134.2399 Y12.3400
G01 X134.2249 Y12.3510
G01 X134.2170 Y12.3560
G01 X134.2047 Y12.3627
G01 X134.1962 Y12.3666
G01 X134.1832 Y12.3718
G01 X134.0976 Y12.3969
G01 X134.0845 Y12.3996
G01 X134.0757 Y12.4008
G01 X134.0669 Y12.4017
G01 X134.0536 Y12.4022
G01 X133.5041 Y12.4021
G01 X133.4941 Y12.4016
G01 X133.4624 Y12.3982
G01 X133.4443 Y12.3954
G01 X133.4354 Y12.3933
G01 X133.4222 Y12.3893
G01 X133.4136 Y12.3862
G01 X133.4010 Y12.3806
G01 X133.3229 Y12.3380
G01 X133.3154 Y12.3332
G01 X133.3046 Y12.3253
G01 X133.2978 Y12.3197
G01 X133.2880 Y12.3106
G01 X131.1384 Y10.1609
G01 X131.1289 Y10.1507
G01 X131.1202 Y10.1398
G01 X131.0875 Y10.0929
G01 X131.0786 Y10.0772
G01 X131.0581 Y10.0335
G01 X130.9962 Y9.9553
G01 X124.0603 Y3.0193
G01 X124.0133 Y2.9700
G01 X124.0050 Y2.9630
G01 X123.9538 Y2.9319
G01 X123.9012 Y2.8976
G01 X123.8957 Y2.8948
G01 X123.8902 Y2.8922
G01 X123.8305 Y2.8728
G01 X123.7755 Y2.8529
G01 X123.7635 Y2.8502
G01 X123.7052 Y2.8455
G01 X123.6799 Y2.8426
G01 X123.6614 Y2.8419
G01 X123.6267 Y2.8391
G01 X123.6174 Y2.8403
G01 X123.5938 Y2.8421
G01 X123.5797 Y2.8427
G01 X98.0692 Y2.8427
G01 X98.0011 Y2.8409
G01 X97.9903 Y2.8419
G01 X97.9322 Y2.8561
G01 X97.8707 Y2.8690
G01 X97.8591 Y2.8731
G01 X97.8070 Y2.8997
G01 X97.7502 Y2.9263
G01 X97.7398 Y2.9330
G01 X97.6953 Y2.9708
G01 X97.6753 Y2.9867
G01 X97.6617 Y2.9992
G01 X97.6352 Y3.0219
G01 X97.6295 Y3.0292
G01 X97.6141 Y3.0473
G01 X97.6045 Y3.0576
G01 X92.0096 Y8.6525
G01 X91.9602 Y8.6994
G01 X91.9532 Y8.7078
G01 X91.9221 Y8.7589
G01 X91.8878 Y8.8115
G01 X91.8825 Y8.8226
G01 X91.8630 Y8.8823
G01 X91.8431 Y8.9373
G01 X91.8405 Y8.9493
G01 X91.8357 Y9.0075
G01 X91.8329 Y9.0328
G01 X91.8322 Y9.0513
G01 X91.8294 Y9.0861
G01 X91.8305 Y9.0954
G01 X91.8324 Y9.1190
G01 X91.8329 Y9.1331
G01 X91.8329 Y27.3051
G01 X91.8323 Y27.3201
G01 X91.8290 Y27.3519
G01 X91.8278 Y27.3609
G01 X91.8251 Y27.3744
G01 X91.8215 Y27.3877
G01 X91.8169 Y27.4006
G01 X91.8114 Y27.4132
G01 X91.8072 Y27.4214
G01 X91.7687 Y27.4914
G01 X91.7639 Y27.4989
G01 X91.7561 Y27.5096
G01 X91.7444 Y27.5230
G01 X90.4926 Y28.7750
G01 X90.4432 Y28.8219
G01 X90.4342 Y28.8327
G01 X90.4265 Y28.8430
G01 X90.4092 Y28.8642
G01 X90.3971 Y28.8774
G01 X89.5720 Y29.7025
G01 X89.5580 Y29.7152
G01 X89.5506 Y29.7210
G01 X89.5389 Y29.7289
G01 X89.5266 Y29.7359
G01 X89.4558 Y29.7729
G01 X89.4432 Y29.7785
G01 X89.4346 Y29.7817
G01 X89.4171 Y29.7869
G01 X89.3991 Y29.7903
G01 X89.3808 Y29.7919
G01 X89.3625 Y29.7918
G01 X89.2784 Y29.7829
G01 X89.2696 Y29.7815
G01 X89.2566 Y29.7787
G01 X89.2438 Y29.7750
G01 X89.2354 Y29.7719
G01 X89.1842 Y29.7508
G01 X88.9439 Y29.6878
G01 X88.6973 Y29.6579
G01 X88.4489 Y29.6618
G01 X88.2034 Y29.6994
G01 X87.9652 Y29.7699
G01 X87.7388 Y29.8722
G01 X87.5284 Y30.0042
G01 X87.3378 Y30.1635
G01 X87.1707 Y30.3472
G01 X87.0300 Y30.5519
G01 X86.9180 Y30.7749
G01 X86.8379 Y31.0089
G01 X86.7901 Y31.2526
G01 X86.7758 Y31.5006
G01 X86.7953 Y31.7483
G01 X86.8482 Y31.9910
G01 X86.9335 Y32.2242
G01 X87.0498 Y32.4438
G01 X87.1947 Y32.6455
G01 X87.3657 Y32.8257
G01 X87.5596 Y32.9810
G01 X87.7727 Y33.1086
G01 X88.0012 Y33.2060
G01 X88.2408 Y33.2716
G01 X88.4871 Y33.3040
G01 X88.7355 Y33.3027
G01 X88.9814 Y33.2677
G01 X89.2203 Y33.1996
G01 X89.4478 Y33.0998
G01 X89.6596 Y32.9700
G01 X89.8518 Y32.8127
G01 X90.0209 Y32.6307
G01 X90.1611 Y32.4312
G01 X90.1637 Y32.4275
G01 X90.2777 Y32.2067
G01 X90.3606 Y31.9726
G01 X90.4109 Y31.7293
G01 X90.4282 Y31.4761
G01 X90.4279 Y31.4486
G01 X90.4054 Y31.1958
G01 X90.3499 Y30.9537
G01 X90.3054 Y30.8353
G01 X90.3029 Y30.8268
G01 X90.2998 Y30.8137
G01 X90.2983 Y30.8049
G01 X90.2968 Y30.7915
G01 X90.2916 Y30.7202
G01 X90.2911 Y30.7063
G01 X90.2920 Y30.6877
G01 X90.2932 Y30.6784
G01 X90.2958 Y30.6647
G01 X90.2981 Y30.6557
G01 X90.3024 Y30.6424
G01 X90.3096 Y30.6253
G01 X90.3479 Y30.5547
G01 X90.3572 Y30.5395
G01 X90.3678 Y30.5253
G01 X90.3798 Y30.5122
G01 X91.2829 Y29.6090
G01 X91.3323 Y29.5621
G01 X91.3414 Y29.5513
G01 X91.3490 Y29.5410
G01 X91.3663 Y29.5198
G01 X91.3784 Y29.5066
G01 X92.7999 Y28.0850
G01 X92.8493 Y28.0381
G01 X92.8563 Y28.0297
G01 X92.8874 Y27.9786
G01 X92.9217 Y27.9260
G01 X92.9270 Y27.9149
G01 X92.9465 Y27.8552
G01 X92.9664 Y27.8002
G01 X92.9690 Y27.7882
G01 X92.9738 Y27.7300
G01 X92.9766 Y27.7047
G01 X92.9773 Y27.6862
G01 X92.9801 Y27.6514
G01 X92.9790 Y27.6421
G01 X92.9771 Y27.6185
G01 X92.9766 Y27.6044
G01 X92.9766 Y9.4324
G01 X92.9772 Y9.4174
G01 X92.9805 Y9.3856
G01 X92.9817 Y9.3766
G01 X92.9844 Y9.3631
G01 X92.9894 Y9.3455
G01 X92.9943 Y9.3326
G01 X92.9981 Y9.3243
G01 X93.0363 Y9.2538
G01 X93.0431 Y9.2424
G01 X93.0507 Y9.2314
G01 X93.0591 Y9.2210
G01 X93.0682 Y9.2113
G01 X98.2015 Y4.0779
G01 X98.2125 Y4.0677
G01 X98.2446 Y4.0421
G01 X98.2600 Y4.0320
G01 X98.2721 Y4.0255
G01 X98.2846 Y4.0199
G01 X98.2975 Y4.0152
G01 X98.3700 Y3.9939
G01 X98.3829 Y3.9906
G01 X98.3961 Y3.9882
G01 X98.4093 Y3.9868
G01 X98.4226 Y3.9863
G01 X123.2804 Y3.9863
G01 X123.2904 Y3.9866
G01 X123.3003 Y3.9874
G01 X123.3317 Y3.9908
G01 X123.3452 Y3.9931
G01 X123.3586 Y3.9964
G01 X123.3716 Y4.0007
G01 X123.3843 Y4.0059
G01 X123.3966 Y4.0120
G01 X123.4589 Y4.0461
G01 X123.4704 Y4.0529
G01 X123.4778 Y4.0578
G01 X123.4883 Y4.0660
G01 X123.5015 Y4.0779
G01 X128.6540 Y9.2304
G01 X128.6679 Y9.2452
G01 X128.6795 Y9.2598
G01 X128.6897 Y9.2755
G01 X128.6962 Y9.2878
G01 X128.7274 Y9.3560
G01 X128.7327 Y9.3689
G01 X128.7370 Y9.3821
G01 X128.7394 Y9.3911
G01 X128.7420 Y9.4047
G01 X128.7432 Y9.4139
G01 X128.7443 Y9.4324
G01 X128.7438 Y9.4463
G01 X128.7430 Y9.4555
G01 X128.7323 Y9.5304
G01 X128.7287 Y9.5486
G01 X128.7234 Y9.5664
G01 X128.7201 Y9.5750
G01 X128.7143 Y9.5877
G01 X128.7076 Y9.5998
G01 X128.7026 Y9.6077
G01 X128.6916 Y9.6225
G01 X128.6421 Y9.6797
G01 X128.6326 Y9.6899
G01 X128.6188 Y9.7023
G01 X128.6077 Y9.7107
G01 X128.6000 Y9.7158
G01 X128.5838 Y9.7248
G01 X128.5754 Y9.7287
G01 X128.5624 Y9.7338
G01 X128.4855 Y9.7566
G01 X128.4726 Y9.7599
G01 X128.4638 Y9.7616
G01 X128.4506 Y9.7633
G01 X128.4329 Y9.7642
G01 X126.6807 Y9.7642
G01 X126.6674 Y9.7637
G01 X126.6542 Y9.7623
G01 X126.6411 Y9.7599
G01 X126.6282 Y9.7566
G01 X126.5558 Y9.7353
G01 X126.5384 Y9.7288
G01 X126.5218 Y9.7206
G01 X126.5061 Y9.7108
G01 X126.4986 Y9.7053
G01 X126.4880 Y9.6964
G01 X126.4748 Y9.6834
G01 X126.4223 Y9.6229
G01 X126.4140 Y9.6121
G01 X126.4066 Y9.6008
G01 X126.3999 Y9.5889
G01 X126.3947 Y9.5779
G01 X126.2751 Y9.3575
G01 X126.1280 Y9.1573
G01 X125.9551 Y8.9790
G01 X125.7597 Y8.8257
G01 X125.5452 Y8.7003
G01 X125.3157 Y8.6053
G01 X125.0754 Y8.5423
G01 X124.8288 Y8.5124
G01 X124.5804 Y8.5163
G01 X124.3349 Y8.5539
G01 X124.0967 Y8.6244
G01 X123.8703 Y8.7267
G01 X123.6599 Y8.8587
G01 X123.4693 Y9.0180
G01 X123.3022 Y9.2017
G01 X123.1615 Y9.4064
G01 X123.0498 Y9.6284
G01 X122.9694 Y9.8634
G01 X122.9216 Y10.1071
G01 X122.9073 Y10.3551
G01 X122.9268 Y10.6028
G01 X122.9797 Y10.8455
G01 X123.0650 Y11.0787
G01 X123.1813 Y11.2983
G01 X123.3262 Y11.5000
G01 X123.4972 Y11.6802
G01 X123.6911 Y11.8355
G01 X123.9042 Y11.9631
G01 X124.1327 Y12.0605
G01 X124.3723 Y12.1261
G01 X124.6186 Y12.1585
G01 X124.8670 Y12.1572
G01 X125.1129 Y12.1222
G01 X125.3518 Y12.0541
G01 X125.5793 Y11.9543
G01 X125.7911 Y11.8245
G01 X125.9833 Y11.6672
G01 X126.1524 Y11.4852
G01 X126.2952 Y11.2820
G01 X126.4030 Y11.0732
G01 X126.4098 Y11.0617
G01 X126.4148 Y11.0544
G01 X126.4258 Y11.0404
G01 X126.4726 Y10.9889
G01 X126.4823 Y10.9790
G01 X126.4964 Y10.9669
G01 X126.5039 Y10.9614
G01 X126.5156 Y10.9538
G01 X126.5237 Y10.9493
G01 X126.5363 Y10.9433
G01 X126.5537 Y10.9368
G01 X126.6262 Y10.9154
G01 X126.6435 Y10.9112
G01 X126.6611 Y10.9087
G01 X126.6788 Y10.9078
G01 X130.1384 Y10.9078
G01 X130.1484 Y10.9081
G01 X130.1583 Y10.9089
G01 X130.1897 Y10.9123
G01 X130.1987 Y10.9137
G01 X130.2121 Y10.9167
G01 X130.2253 Y10.9207
G01 X130.2381 Y10.9256
G01 X130.2506 Y10.9314
G01 X130.3246 Y10.9720
G01 X130.3321 Y10.9768
G01 X130.3429 Y10.9847
G01 X130.3563 Y10.9963
G01 X132.7292 Y13.3692
G01 X132.7762 Y13.4185
G01 X132.7845 Y13.4255
G01 X132.8357 Y13.4566
G01 X132.8883 Y13.4909
G01 X132.8938 Y13.4937
G01 X132.8993 Y13.4963
G01 X132.9590 Y13.5157
G01 X133.0140 Y13.5356
G01 X133.0260 Y13.5383
G01 X133.0843 Y13.5430
G01 X133.1096 Y13.5459
G01 X133.1281 Y13.5466
G01 X133.1628 Y13.5494
G01 X133.1723 Y13.5482
G01 X133.1957 Y13.5464
G01 X133.2098 Y13.5458
G01 X134.0535 Y13.5458
G01 X134.0668 Y13.5463
G01 X134.0799 Y13.5477
G01 X134.1299 Y13.5561
G01 X134.1435 Y13.5592
G01 X134.1569 Y13.5634
G01 X134.1700 Y13.5686
G01 X134.1826 Y13.5748
G01 X134.1986 Y13.5844
G01 X134.2279 Y13.6051
G01 X134.2410 Y13.6123
G01 X134.2526 Y13.6198
G01 X134.2635 Y13.6281
G01 X134.2738 Y13.6372
G01 X134.3866 Y13.7502
G01 X134.5000 Y13.8204
G01 X134.6277 Y13.8630
G01 X134.7035 Y13.8708
G01 X136.0851 Y13.8708
G01 X136.1597 Y13.8632
G01 X136.2876 Y13.8208
G01 X136.4011 Y13.7508
G01 X136.4458 Y13.7062
G01 X136.4567 Y13.6961
G01 X136.4815 Y13.6761
G01 X136.4925 Y13.6679
G01 X136.5040 Y13.6605
G01 X136.5161 Y13.6540
G01 X136.5287 Y13.6484
G01 X136.5416 Y13.6437
G01 X136.6183 Y13.6212
G01 X136.6357 Y13.6174
G01 X136.6489 Y13.6157
G01 X136.6578 Y13.6150
G01 X140.0370 Y13.6148
G01 X140.0514 Y13.6154
G01 X140.0657 Y13.6170
G01 X140.1193 Y13.6268
G01 X140.1370 Y13.6314
G01 X140.1541 Y13.6377
G01 X140.1666 Y13.6435
G01 X140.1746 Y13.6479
G01 X140.1900 Y13.6578
G01 X140.2539 Y13.7059
G01 X140.2673 Y13.7176
G01 X140.2766 Y13.7271
G01 X140.2851 Y13.7373
G01 X140.3484 Y13.8223
G01 X140.4923 Y13.9596
G01 X140.6093 Y14.0386
G01 X140.6170 Y14.0448
G01 X140.6244 Y14.0513
G01 X140.6536 Y14.0786
G01 X140.6633 Y14.0884
G01 X140.6694 Y14.0953
G01 X140.6779 Y14.1063
G01 X140.6855 Y14.1178
G01 X140.6923 Y14.1299
G01 X140.6999 Y14.1467
G01 X140.7258 Y14.2127
G01 X140.7318 Y14.2303
G01 X140.7359 Y14.2484
G01 X140.7383 Y14.2668
G01 X140.7388 Y14.2806
G01 X140.7383 Y14.2945
G01 X140.7361 Y14.3129
G01 X140.7213 Y14.3871
G01 X140.7181 Y14.4007
G01 X140.7123 Y14.4182
G01 X140.7068 Y14.4310
G01 X140.7003 Y14.4433
G01 X140.6903 Y14.4589
G01 X140.6819 Y14.4700
G01 X140.6726 Y14.4803
G01 X140.6233 Y14.5314
G01 X140.6103 Y14.5436
G01 X140.6035 Y14.5492
G01 X140.5926 Y14.5570
G01 X140.5851 Y14.5617
G01 X140.5634 Y14.5742
G01 X140.4097 Y14.7002
G01 X140.2794 Y14.8504
G01 X140.1763 Y15.0203
G01 X140.1439 Y15.1023
G01 X140.2920 Y15.1023
G01 X140.3109 Y15.0625
G01 X140.3172 Y15.0503
G01 X140.3648 Y14.9709
G01 X140.3726 Y14.9596
G01 X140.4250 Y14.8889
G01 X140.4339 Y14.8784
G01 X140.4962 Y14.8100
G01 X140.5647 Y14.7476
G01 X140.5752 Y14.7388
G01 X140.6458 Y14.6863
G01 X140.6610 Y14.6761
G01 X140.7406 Y14.6287
G01 X140.8242 Y14.5890
G01 X140.8411 Y14.5819
G01 X140.9283 Y14.5510
G01 X141.0181 Y14.5283
G01 X141.0308 Y14.5255
G01 X141.1276 Y14.5113
G01 X141.2293 Y14.5063
G01 X143.5292 Y14.5063
G01 X143.6309 Y14.5113
G01 X143.7225 Y14.5247
G01 X143.7404 Y14.5283
G01 X143.8302 Y14.5510
G01 X143.9174 Y14.5819
G01 X143.9343 Y14.5890
G01 X144.0179 Y14.6287
G01 X144.1052 Y14.6810
G01 X144.1797 Y14.7360
G01 X144.1938 Y14.7476
G01 X144.2557 Y14.8036
G01 X144.2655 Y14.8132
G01 X144.3306 Y14.8853
G01 X144.3886 Y14.9633
G01 X144.3961 Y14.9748
G01 X144.4413 Y15.0503
G01 X144.4476 Y15.0625
G01 X144.4665 Y15.1023
G01 X144.6189 Y15.1023
G01 X144.6184 Y15.1007
G01 X144.5284 Y14.9235
G01 X144.4097 Y14.7640
G01 X144.2659 Y14.6268
G01 X144.1572 Y14.5537
G01 X144.1453 Y14.5449
G01 X144.1340 Y14.5352
G01 X144.1016 Y14.5048
G01 X144.0921 Y14.4948
G01 X144.0833 Y14.4840
G01 X144.0754 Y14.4727
G01 X144.0706 Y14.4648
G01 X144.0622 Y14.4484
G01 X144.0310 Y14.3695
G01 X144.0267 Y14.3563
G01 X144.0234 Y14.3428
G01 X144.0206 Y14.3245
G01 X144.0197 Y14.3106
G01 X144.0202 Y14.2921
G01 X144.0224 Y14.2737
G01 X144.0371 Y14.1995
G01 X144.0416 Y14.1815
G01 X144.0479 Y14.1640
G01 X144.0559 Y14.1473
G01 X144.0655 Y14.1315
G01 X144.0766 Y14.1166
G01 X144.0859 Y14.1063
G01 X144.1352 Y14.0552
G01 X144.1483 Y14.0429
G01 X144.1589 Y14.0345
G01 X144.1662 Y14.0293
G01 X144.1739 Y14.0245
G01 X144.1954 Y14.0122
G01 X144.3492 Y13.8861
G01 X144.4961 Y13.7172
G01 X144.5059 Y13.7076
G01 X144.5189 Y13.6970
G01 X144.5343 Y13.6825
G01 X144.5413 Y13.6765
G01 X144.5524 Y13.6682
G01 X144.5641 Y13.6607
G01 X144.5804 Y13.6521
G01 X144.5975 Y13.6452
G01 X144.6745 Y13.6224
G01 X144.6874 Y13.6191
G01 X144.7005 Y13.6167
G01 X144.7137 Y13.6153
G01 X144.7226 Y13.6149
G01 X146.7519 Y13.6148
G01 X146.7669 Y13.6154
G01 X146.8077 Y13.6200
G01 X146.8256 Y13.6237
G01 X146.8431 Y13.6292
G01 X146.8516 Y13.6326
G01 X146.8641 Y13.6384
G01 X146.9304 Y13.6746
G01 X146.9419 Y13.6814
G01 X146.9564 Y13.6917
G01 X146.9632 Y13.6973
G01 X146.9730 Y13.7064
G01 X150.1013 Y16.8349
G01 X150.1112 Y16.8461
G01 X150.1309 Y16.8707
G01 X150.1363 Y16.8781
G01 X150.1460 Y16.8937
G01 X150.1541 Y16.9101
G01 X150.1605 Y16.9273
G01 X150.1819 Y16.9998
G01 X150.1860 Y17.0170
G01 X150.1881 Y17.0302
G01 X150.1889 Y17.0391
G01 X150.1894 Y17.0524
G01 X150.1894 Y37.4378
G01 X150.1887 Y37.4583
G01 X150.1874 Y37.4720
G01 X150.1859 Y37.4812
G01 X150.1829 Y37.4947
G01 X150.1803 Y37.5036
G01 X150.1524 Y37.5788
G01 X150.1470 Y37.5916
G01 X150.1385 Y37.6080
G01 X150.1283 Y37.6235
G01 X150.1166 Y37.6379
G01 X150.1069 Y37.6479
G01 X150.1001 Y37.6542
G01 X150.0893 Y37.6629
G01 X150.0249 Y37.7108
G01 X150.0090 Y37.7204
G01 X150.0007 Y37.7245
G01 X149.9879 Y37.7300
G01 X149.9792 Y37.7332
G01 X149.9658 Y37.7370
G01 X149.9522 Y37.7399
G01 X149.9431 Y37.7412
G01 X149.8538 Y37.7475
G01 X149.8445 Y37.7475
G01 X149.8306 Y37.7466
G01 X149.8168 Y37.7446
G01 X149.8078 Y37.7428
G01 X149.7943 Y37.7391
G01 X149.7856 Y37.7361
G01 X149.7769 Y37.7327
G01 X149.7643 Y37.7268
G01 X149.6980 Y37.6906
G01 X149.6828 Y37.6813
G01 X149.6721 Y37.6734
G01 X149.6586 Y37.6618
G01 X149.6095 Y37.6127
G01 X149.4963 Y37.5426
G01 X149.3687 Y37.5000
G01 X149.2930 Y37.4922
G01 X149.0429 Y37.4922
G01 X149.0429 Y37.6268
G01 X149.2522 Y37.6268
G01 X149.2905 Y37.6285
G01 X149.2996 Y37.6294
G01 X149.3284 Y37.6337
G01 X149.3464 Y37.6372
G01 X149.3790 Y37.6456
G01 X149.4151 Y37.6584
G01 X149.4277 Y37.6638
G01 X149.4540 Y37.6763
G01 X149.4621 Y37.6806
G01 X149.4871 Y37.6955
G01 X149.4986 Y37.7030
G01 X149.5220 Y37.7203
G01 X149.5362 Y37.7319
G01 X149.5610 Y37.7547
G01 X149.5898 Y37.7865
G01 X149.6153 Y37.8209
G01 X149.6374 Y37.8577
G01 X149.6557 Y37.8964
G01 X149.6701 Y37.9367
G01 X149.6805 Y37.9783
G01 X149.6857 Y38.0116
G01 X149.6873 Y38.0262
G01 X149.6889 Y38.0635
G01 X149.6889 Y38.7135
G01 X149.6868 Y38.7563
G01 X149.6805 Y38.7987
G01 X149.6701 Y38.8403
G01 X149.6574 Y38.8764
G01 X149.6520 Y38.8890
G01 X149.6395 Y38.9153
G01 X149.6328 Y38.9273
G01 X149.6153 Y38.9561
G01 X149.5954 Y38.9833
G01 X149.5869 Y38.9940
G01 X149.5642 Y39.0190
G01 X149.5577 Y39.0255
G01 X149.5362 Y39.0451
G01 X149.5257 Y39.0539
G01 X149.4949 Y39.0766
G01 X149.4661 Y39.0941
G01 X149.4540 Y39.1007
G01 X149.4236 Y39.1151
G01 X149.4108 Y39.1202
G01 X149.3790 Y39.1314
G01 X149.3419 Y39.1408
G01 X149.3284 Y39.1433
G01 X149.2951 Y39.1481
G01 X149.2568 Y39.1501
G01 X149.0429 Y39.1502
G01 X149.0429 Y39.2848
G01 X149.2931 Y39.2848
G01 X149.3676 Y39.2772
G01 X149.4953 Y39.2348
G01 X149.6088 Y39.1649
G01 X149.6559 Y39.1179
G01 X149.6671 Y39.1073
G01 X149.6814 Y39.0953
G01 X149.6967 Y39.0848
G01 X149.7131 Y39.0759
G01 X149.7898 Y39.0410
G01 X149.8029 Y39.0364
G01 X149.8118 Y39.0338
G01 X149.8254 Y39.0308
G01 X149.8345 Y39.0294
G01 X149.8484 Y39.0281
G01 X149.8577 Y39.0278
G01 X149.8669 Y39.0280
G01 X149.8808 Y39.0291
G01 X149.9648 Y39.0414
G01 X149.9828 Y39.0458
G01 X149.9960 Y39.0503
G01 X150.0087 Y39.0558
G01 X150.0211 Y39.0622
G01 X150.0329 Y39.0695
G01 X150.0405 Y39.0748
G01 X150.0513 Y39.0835
G01 X150.1050 Y39.1300
G01 X150.1152 Y39.1395
G01 X150.1275 Y39.1533
G01 X150.1332 Y39.1606
G01 X150.1410 Y39.1721
G01 X150.1501 Y39.1883
G01 X150.1574 Y39.2053
G01 X150.1619 Y39.2185
G01 X150.1842 Y39.2952
G01 X150.1875 Y39.3126
G01 X150.1892 Y39.3303
G01 X150.1894 Y40.3871
G01 X150.1887 Y40.4075
G01 X150.1880 Y40.4168
G01 X150.1859 Y40.4305
G01 X150.1840 Y40.4395
G01 X150.1788 Y40.4572
G01 X150.1524 Y40.5281
G01 X150.1470 Y40.5409
G01 X150.1430 Y40.5492
G01 X150.1336 Y40.5652
G01 X150.1226 Y40.5802
G01 X150.1166 Y40.5872
G01 X150.1070 Y40.5972
G01 X150.0930 Y40.6094
G01 X150.0324 Y40.6547
G01 X150.0210 Y40.6626
G01 X150.0049 Y40.6718
G01 X149.9922 Y40.6776
G01 X149.9836 Y40.6809
G01 X149.9658 Y40.6863
G01 X149.9522 Y40.6892
G01 X149.9431 Y40.6905
G01 X149.8630 Y40.6964
G01 X149.8491 Y40.6969
G01 X149.8306 Y40.6959
G01 X149.8168 Y40.6939
G01 X149.7988 Y40.6897
G01 X149.7812 Y40.6838
G01 X149.7644 Y40.6761
G01 X149.6941 Y40.6377
G01 X149.6865 Y40.6331
G01 X149.6756 Y40.6254
G01 X149.6619 Y40.6141
G01 X149.6099 Y40.5623
G01 X149.4965 Y40.4921
G01 X149.3688 Y40.4495
G01 X149.2930 Y40.4417
G01 X147.9114 Y40.4417
G01 X147.8368 Y40.4493
G01 X147.7089 Y40.4917
G01 X147.6029 Y40.5570
G01 X147.5948 Y40.5615
G01 X147.5823 Y40.5674
G01 X147.5738 Y40.5708
G01 X147.5243 Y40.5887
G01 X147.5112 Y40.5929
G01 X147.4979 Y40.5961
G01 X147.4843 Y40.5984
G01 X147.4706 Y40.5996
G01 X147.4615 Y40.5999
G01 X147.4478 Y40.5994
G01 X147.4387 Y40.5986
G01 X147.3547 Y40.5863
G01 X147.3412 Y40.5832
G01 X147.3279 Y40.5790
G01 X147.3150 Y40.5739
G01 X147.3066 Y40.5699
G01 X147.2905 Y40.5608
G01 X147.2753 Y40.5501
G01 X147.2145 Y40.4977
G01 X147.2043 Y40.4882
G01 X147.1980 Y40.4815
G01 X147.1891 Y40.4708
G01 X147.1836 Y40.4633
G01 X147.1761 Y40.4516
G01 X147.1694 Y40.4394
G01 X147.1637 Y40.4267
G01 X147.1590 Y40.4136
G01 X147.1353 Y40.3325
G01 X147.1320 Y40.3151
G01 X147.1303 Y40.2974
G01 X147.1301 Y39.4378
G01 X147.1306 Y39.4234
G01 X147.1331 Y39.4044
G01 X147.1445 Y39.3493
G01 X147.1491 Y39.3316
G01 X147.1555 Y39.3144
G01 X147.1635 Y39.2979
G01 X147.1731 Y39.2822
G01 X147.1841 Y39.2676
G01 X147.2297 Y39.2132
G01 X147.2423 Y39.1996
G01 X147.2526 Y39.1902
G01 X147.2635 Y39.1817
G01 X147.2712 Y39.1764
G01 X147.2831 Y39.1693
G01 X147.2998 Y39.1612
G01 X147.3128 Y39.1562
G01 X147.3894 Y39.1323
G01 X147.4029 Y39.1290
G01 X147.4166 Y39.1267
G01 X147.4305 Y39.1254
G01 X147.4444 Y39.1252
G01 X147.4536 Y39.1256
G01 X147.4675 Y39.1271
G01 X147.4856 Y39.1307
G01 X147.5586 Y39.1507
G01 X147.5755 Y39.1562
G01 X147.5917 Y39.1633
G01 X147.6035 Y39.1696
G01 X147.7082 Y39.2344
G01 X147.8358 Y39.2770
G01 X147.9115 Y39.2848
G01 X148.1616 Y39.2848
G01 X148.1616 Y39.1502
G01 X147.9523 Y39.1502
G01 X147.9140 Y39.1485
G01 X147.9049 Y39.1476
G01 X147.8761 Y39.1433
G01 X147.8581 Y39.1398
G01 X147.8255 Y39.1314
G01 X147.7894 Y39.1186
G01 X147.7768 Y39.1132
G01 X147.7505 Y39.1007
G01 X147.7424 Y39.0964
G01 X147.7174 Y39.0815
G01 X147.7059 Y39.0740
G01 X147.6825 Y39.0567
G01 X147.6683 Y39.0451
G01 X147.6435 Y39.0223
G01 X147.6147 Y38.9905
G01 X147.5892 Y38.9561
G01 X147.5671 Y38.9193
G01 X147.5488 Y38.8806
G01 X147.5344 Y38.8403
G01 X147.5240 Y38.7987
G01 X147.5182 Y38.7609
G01 X147.5170 Y38.7472
G01 X147.5156 Y38.7135
G01 X147.5156 Y38.0635
G01 X147.5177 Y38.0207
G01 X147.5240 Y37.9783
G01 X147.5344 Y37.9367
G01 X147.5471 Y37.9006
G01 X147.5525 Y37.8880
G01 X147.5650 Y37.8617
G01 X147.5717 Y37.8497
G01 X147.5892 Y37.8209
G01 X147.6091 Y37.7937
G01 X147.6176 Y37.7830
G01 X147.6403 Y37.7580
G01 X147.6468 Y37.7515
G01 X147.6683 Y37.7319
G01 X147.6788 Y37.7231
G01 X147.7096 Y37.7004
G01 X147.7384 Y37.6829
G01 X147.7505 Y37.6763
G01 X147.7851 Y37.6601
G01 X147.8168 Y37.6485
G01 X147.8299 Y37.6444
G01 X147.8626 Y37.6362
G01 X147.8761 Y37.6337
G01 X147.9094 Y37.6289
G01 X147.9477 Y37.6269
G01 X148.1616 Y37.6268
G01 X148.1616 Y37.4922
G01 X147.9114 Y37.4922
G01 X147.8369 Y37.4998
G01 X147.7092 Y37.5422
G01 X147.5957 Y37.6121
G01 X147.5015 Y37.7062
G01 X147.4577 Y37.7767
G01 X147.4473 Y37.7912
G01 X147.4386 Y37.8013
G01 X147.4030 Y37.8398
G01 X147.3929 Y37.8495
G01 X147.3783 Y37.8612
G01 X147.3705 Y37.8665
G01 X147.3585 Y37.8737
G01 X147.3416 Y37.8818
G01 X147.2574 Y37.9125
G01 X147.2394 Y37.9171
G01 X147.2211 Y37.9199
G01 X147.2026 Y37.9208
G01 X147.1841 Y37.9200
G01 X147.1749 Y37.9188
G01 X147.1612 Y37.9163
G01 X147.0920 Y37.9007
G01 X147.0788 Y37.8972
G01 X147.0659 Y37.8927
G01 X147.0493 Y37.8854
G01 X147.0335 Y37.8765
G01 X147.0222 Y37.8688
G01 X147.0116 Y37.8603
G01 X147.0015 Y37.8511
G01 X146.9540 Y37.8039
G01 X146.9416 Y37.7902
G01 X146.9331 Y37.7792
G01 X146.9243 Y37.7658
G01 X146.7938 Y37.5951
G01 X146.6392 Y37.4490
G01 X146.4633 Y37.3294
G01 X146.2705 Y37.2395
G01 X146.0658 Y37.1816
G01 X145.8545 Y37.1572
G01 X145.6420 Y37.1668
G01 X145.4338 Y37.2103
G01 X145.2352 Y37.2865
G01 X145.0514 Y37.3935
G01 X144.8870 Y37.5286
G01 X144.7464 Y37.6881
G01 X144.6330 Y37.8681
G01 X144.5499 Y38.0639
G01 X144.4992 Y38.2705
G01 X144.4864 Y38.4290
G01 X144.4864 Y38.5980
G01 X144.4856 Y38.6157
G01 X144.4830 Y38.6333
G01 X144.4697 Y38.6946
G01 X144.4644 Y38.7124
G01 X144.4573 Y38.7297
G01 X144.4509 Y38.7421
G01 X144.4436 Y38.7540
G01 X144.4354 Y38.7654
G01 X144.4294 Y38.7726
G01 X144.3767 Y38.8331
G01 X144.3632 Y38.8458
G01 X144.3560 Y38.8517
G01 X144.3447 Y38.8598
G01 X144.3329 Y38.8670
G01 X144.3205 Y38.8733
G01 X144.3076 Y38.8787
G01 X144.2945 Y38.8831
G01 X144.2178 Y38.9054
G01 X144.2003 Y38.9088
G01 X144.1871 Y38.9102
G01 X144.1782 Y38.9106
G01 X142.1106 Y38.9107
G01 X142.0956 Y38.9101
G01 X142.0548 Y38.9055
G01 X142.0413 Y38.9029
G01 X142.0237 Y38.8978
G01 X142.0109 Y38.8929
G01 X141.9984 Y38.8871
G01 X141.9282 Y38.8488
G01 X141.9206 Y38.8441
G01 X141.9097 Y38.8365
G01 X141.9027 Y38.8310
G01 X141.8927 Y38.8222
G01 X140.8937 Y37.8232
G01 X140.8835 Y37.8122
G01 X140.8578 Y37.7801
G01 X140.8478 Y37.7648
G01 X140.8393 Y37.7486
G01 X140.8340 Y37.7359
G01 X140.8310 Y37.7272
G01 X140.8084 Y37.6504
G01 X140.8063 Y37.6418
G01 X140.8040 Y37.6287
G01 X140.8026 Y37.6154
G01 X140.8021 Y37.6066
G01 X140.8021 Y36.4908
G01 X140.8026 Y36.4764
G01 X140.8043 Y36.4621
G01 X140.8132 Y36.4130
G01 X140.8173 Y36.3952
G01 X140.8216 Y36.3821
G01 X140.8268 Y36.3694
G01 X140.8329 Y36.3571
G01 X140.8399 Y36.3453
G01 X140.8477 Y36.3341
G01 X140.8959 Y36.2704
G01 X140.9079 Y36.2573
G01 X140.9211 Y36.2454
G01 X141.0095 Y36.1793
G01 X141.1468 Y36.0354
G01 X141.2443 Y35.8907
G01 X141.2503 Y35.8828
G01 X141.2566 Y35.8752
G01 X141.2904 Y35.8391
G01 X141.3004 Y35.8296
G01 X141.3112 Y35.8209
G01 X141.3264 Y35.8105
G01 X141.3385 Y35.8037
G01 X141.3553 Y35.7962
G01 X141.4301 Y35.7670
G01 X141.4434 Y35.7630
G01 X141.4524 Y35.7610
G01 X141.4661 Y35.7587
G01 X141.4754 Y35.7578
G01 X141.4893 Y35.7572
G01 X141.4985 Y35.7574
G01 X141.5078 Y35.7581
G01 X141.5216 Y35.7600
G01 X141.5957 Y35.7747
G01 X141.6137 Y35.7792
G01 X141.6269 Y35.7837
G01 X141.6396 Y35.7892
G01 X141.6519 Y35.7957
G01 X141.6676 Y35.8057
G01 X141.6786 Y35.8142
G01 X141.6889 Y35.8234
G01 X141.7432 Y35.8759
G01 X141.7552 Y35.8893
G01 X141.7633 Y35.9001
G01 X141.7707 Y35.9114
G01 X141.8010 Y35.9646
G01 X141.9271 Y36.1184
G01 X142.0773 Y36.2488
G01 X142.2473 Y36.3519
G01 X142.4323 Y36.4250
G01 X142.6269 Y36.4658
G01 X142.8257 Y36.4733
G01 X143.0228 Y36.4471
G01 X143.2127 Y36.3882
G01 X143.3900 Y36.2980
G01 X143.5495 Y36.1793
G01 X143.6868 Y36.0354
G01 X143.7876 Y35.8863
G01 X143.7969 Y35.8748
G01 X143.8275 Y35.8420
G01 X143.8373 Y35.8322
G01 X143.8478 Y35.8232
G01 X143.8628 Y35.8125
G01 X143.8747 Y35.8054
G01 X143.8829 Y35.8012
G01 X143.8956 Y35.7957
G01 X143.9660 Y35.7681
G01 X143.9792 Y35.7638
G01 X143.9927 Y35.7605
G01 X144.0065 Y35.7582
G01 X144.0249 Y35.7568
G01 X144.0435 Y35.7572
G01 X144.0619 Y35.7595
G01 X144.1361 Y35.7742
G01 X144.1496 Y35.7774
G01 X144.1672 Y35.7833
G01 X144.1799 Y35.7888
G01 X144.1962 Y35.7976
G01 X144.2116 Y35.8080
G01 X144.2224 Y35.8167
G01 X144.2292 Y35.8230
G01 X144.2835 Y35.8754
G01 X144.2955 Y35.8888
G01 X144.3037 Y35.8996
G01 X144.3110 Y35.9109
G01 X144.3414 Y35.9644
G01 X144.4675 Y36.1181
G01 X144.6176 Y36.2483
G01 X144.7875 Y36.3515
G01 X144.8696 Y36.3839
G01 X144.8696 Y36.2357
G01 X144.8298 Y36.2169
G01 X144.8176 Y36.2106
G01 X144.7381 Y36.1630
G01 X144.7268 Y36.1552
G01 X144.6562 Y36.1027
G01 X144.6457 Y36.0939
G01 X144.5772 Y36.0315
G01 X144.5149 Y35.9631
G01 X144.5060 Y35.9526
G01 X144.4536 Y35.8819
G01 X144.4434 Y35.8667
G01 X144.3960 Y35.7872
G01 X144.3562 Y35.7036
G01 X144.3492 Y35.6867
G01 X144.3182 Y35.5994
G01 X144.2955 Y35.5097
G01 X144.2927 Y35.4962
G01 X144.2786 Y35.4001
G01 X144.2736 Y35.2985
G01 X144.2736 Y32.9985
G01 X144.2786 Y32.8969
G01 X144.2919 Y32.8053
G01 X144.2955 Y32.7873
G01 X144.3182 Y32.6976
G01 X144.3492 Y32.6103
G01 X144.3562 Y32.5934
G01 X144.3960 Y32.5098
G01 X144.4483 Y32.4226
G01 X144.5033 Y32.3481
G01 X144.5149 Y32.3339
G01 X144.5709 Y32.2721
G01 X144.5805 Y32.2623
G01 X144.6526 Y32.1971
G01 X144.7305 Y32.1391
G01 X144.7420 Y32.1316
G01 X144.8176 Y32.0864
G01 X144.8298 Y32.0801
G01 X144.8696 Y32.0613
G01 X144.8696 Y31.9088
G01 X144.8680 Y31.9093
G01 X144.6908 Y31.9994
G01 X144.5313 Y32.1181
G01 X144.3941 Y32.2619
G01 X144.2993 Y32.4027
G01 X144.2905 Y32.4147
G01 X144.2808 Y32.4259
G01 X144.2471 Y32.4616
G01 X144.2333 Y32.4738
G01 X144.2183 Y32.4845
G01 X144.2064 Y32.4916
G01 X144.1898 Y32.4996
G01 X144.1151 Y32.5290
G01 X144.1019 Y32.5332
G01 X144.0929 Y32.5355
G01 X144.0792 Y32.5381
G01 X144.0700 Y32.5393
G01 X144.0608 Y32.5400
G01 X144.0469 Y32.5402
G01 X144.0330 Y32.5394
G01 X144.0238 Y32.5383
G01 X143.9405 Y32.5218
G01 X143.9315 Y32.5196
G01 X143.9183 Y32.5154
G01 X143.9054 Y32.5102
G01 X143.8929 Y32.5040
G01 X143.8770 Y32.4944
G01 X143.8658 Y32.4862
G01 X143.8518 Y32.4740
G01 X143.7976 Y32.4216
G01 X143.7856 Y32.4082
G01 X143.7749 Y32.3937
G01 X143.7682 Y32.3828
G01 X143.7395 Y32.3324
G01 X143.6134 Y32.1786
G01 X143.4632 Y32.0482
G01 X143.2932 Y31.9451
G01 X143.1062 Y31.8712
G01 X143.0888 Y31.8633
G01 X143.0723 Y31.8537
G01 X143.0256 Y31.8229
G01 X143.0141 Y31.8143
G01 X143.0034 Y31.8048
G01 X142.4077 Y31.2092
G01 X142.3975 Y31.1982
G01 X142.3774 Y31.1734
G01 X142.3692 Y31.1624
G01 X142.3595 Y31.1468
G01 X142.3514 Y31.1304
G01 X142.3450 Y31.1132
G01 X142.3236 Y31.0407
G01 X142.3203 Y31.0278
G01 X142.3180 Y31.0147
G01 X142.3166 Y31.0014
G01 X142.3161 Y30.9881
G01 X142.3161 Y30.8649
G01 X142.3166 Y30.8510
G01 X142.3175 Y30.8417
G01 X142.3207 Y30.8235
G01 X142.3331 Y30.7690
G01 X142.3366 Y30.7559
G01 X142.3410 Y30.7430
G01 X142.3464 Y30.7306
G01 X142.3526 Y30.7185
G01 X142.3573 Y30.7107
G01 X142.3649 Y30.6995
G01 X142.3734 Y30.6889
G01 X142.4302 Y30.6260
G01 X142.4403 Y30.6166
G01 X142.4511 Y30.6079
G01 X142.4625 Y30.6001
G01 X142.4791 Y30.5898
G01 X142.5762 Y30.4928
G01 X142.5857 Y30.4809
G01 X142.5917 Y30.4740
G01 X142.6048 Y30.4612
G01 X142.6190 Y30.4496
G01 X142.6309 Y30.4417
G01 X142.6725 Y30.4106
G01 X142.6839 Y30.4027
G01 X142.6919 Y30.3979
G01 X142.7042 Y30.3915
G01 X142.7127 Y30.3877
G01 X142.7257 Y30.3829
G01 X142.7436 Y30.3779
G01 X142.7618 Y30.3748
G01 X142.8419 Y30.3689
G01 X142.8558 Y30.3685
G01 X142.8743 Y30.3694
G01 X142.8926 Y30.3723
G01 X142.9105 Y30.3769
G01 X142.9280 Y30.3833
G01 X142.9446 Y30.3914
G01 X143.0069 Y30.4254
G01 X143.0184 Y30.4323
G01 X143.0257 Y30.4372
G01 X143.0363 Y30.4454
G01 X143.0462 Y30.4542
G01 X143.1426 Y30.5507
G01 X143.2560 Y30.6209
G01 X143.3837 Y30.6635
G01 X143.4595 Y30.6713
G01 X144.1911 Y30.6713
G01 X144.2657 Y30.6637
G01 X144.3936 Y30.6213
G01 X144.5071 Y30.5513
G01 X144.6014 Y30.4571
G01 X144.6716 Y30.3437
G01 X144.7142 Y30.2160
G01 X144.7221 Y30.1402
G01 X144.7221 Y28.7586
G01 X144.7144 Y28.6840
G01 X144.6720 Y28.5562
G01 X144.6021 Y28.4427
G01 X144.4862 Y28.3263
G01 X144.4759 Y28.3139
G01 X144.4623 Y28.2987
G01 X144.4564 Y28.2915
G01 X144.4482 Y28.2801
G01 X144.4409 Y28.2682
G01 X144.4326 Y28.2515
G01 X144.4275 Y28.2384
G01 X144.4046 Y28.1614
G01 X144.4023 Y28.1528
G01 X144.3997 Y28.1398
G01 X144.3979 Y28.1266
G01 X144.3971 Y28.1133
G01 X144.3971 Y27.5524
G01 X144.3977 Y27.5374
G01 X144.4011 Y27.5055
G01 X144.4030 Y27.4919
G01 X144.4049 Y27.4829
G01 X144.4100 Y27.4653
G01 X144.4149 Y27.4524
G01 X144.4187 Y27.4441
G01 X144.4570 Y27.3736
G01 X144.4638 Y27.3622
G01 X144.4741 Y27.3477
G01 X144.4827 Y27.3375
G01 X144.5379 Y27.2821
G01 X144.6081 Y27.1687
G01 X144.6507 Y27.0410
G01 X144.6586 Y26.9652
G01 X144.6586 Y25.5836
G01 X144.6509 Y25.5090
G01 X144.6085 Y25.3812
G01 X144.5386 Y25.2677
G01 X144.4444 Y25.1733
G01 X144.3310 Y25.1031
G01 X144.2033 Y25.0605
G01 X144.1275 Y25.0527
G01 X143.3959 Y25.0527
G01 X143.3213 Y25.0603
G01 X143.1934 Y25.1027
G01 X143.0799 Y25.1727
G01 X142.9856 Y25.2669
G01 X142.9154 Y25.3803
G01 X142.8728 Y25.5080
G01 X142.8649 Y25.5838
G01 X142.8649 Y26.9654
G01 X142.8726 Y27.0400
G01 X142.9150 Y27.1678
G01 X142.9849 Y27.2813
G01 X143.0791 Y27.3757
G01 X143.1130 Y27.3969
G01 X143.1241 Y27.4052
G01 X143.1312 Y27.4112
G01 X143.1808 Y27.4597
G01 X143.1869 Y27.4664
G01 X143.1955 Y27.4769
G01 X143.2008 Y27.4842
G01 X143.2080 Y27.4956
G01 X143.2144 Y27.5076
G01 X143.2199 Y27.5200
G01 X143.2259 Y27.5370
G01 X143.2459 Y27.6052
G01 X143.2482 Y27.6137
G01 X143.2508 Y27.6268
G01 X143.2526 Y27.6400
G01 X143.2534 Y27.6533
G01 X143.2534 Y28.1132
G01 X143.2526 Y28.1264
G01 X143.2515 Y28.1352
G01 X143.2432 Y28.1851
G01 X143.2387 Y28.2033
G01 X143.2325 Y28.2209
G01 X143.2245 Y28.2378
G01 X143.2174 Y28.2500
G01 X143.1942 Y28.2831
G01 X143.1893 Y28.2923
G01 X143.1821 Y28.3040
G01 X143.1711 Y28.3187
G01 X143.1588 Y28.3323
G01 X143.0491 Y28.4419
G01 X143.0389 Y28.4582
G01 X143.0247 Y28.4787
G01 X143.0157 Y28.4896
G01 X143.0058 Y28.4999
G01 X142.9989 Y28.5063
G01 X142.9878 Y28.5153
G01 X142.9309 Y28.5578
G01 X142.9155 Y28.5681
G01 X142.8992 Y28.5769
G01 X142.8864 Y28.5824
G01 X142.8688 Y28.5882
G01 X142.8553 Y28.5914
G01 X142.8416 Y28.5936
G01 X142.8323 Y28.5944
G01 X142.7615 Y28.5995
G01 X142.7430 Y28.5998
G01 X142.7245 Y28.5984
G01 X142.7108 Y28.5961
G01 X142.6928 Y28.5915
G01 X142.6754 Y28.5851
G01 X142.6588 Y28.5770
G01 X142.5965 Y28.5429
G01 X142.5888 Y28.5385
G01 X142.5777 Y28.5311
G01 X142.5671 Y28.5230
G01 X142.5572 Y28.5142
G01 X142.4799 Y28.4368
G01 X142.3665 Y28.3666
G01 X142.2388 Y28.3240
G01 X142.1630 Y28.3162
G01 X141.4564 Y28.3162
G01 X141.3818 Y28.3238
G01 X141.2539 Y28.3662
G01 X141.1404 Y28.4362
G01 X141.0461 Y28.5304
G01 X140.9759 Y28.6438
G01 X140.9333 Y28.7715
G01 X140.9254 Y28.8473
G01 X140.9254 Y30.1789
G01 X140.9331 Y30.2535
G01 X140.9755 Y30.3813
G01 X141.0454 Y30.4948
G01 X141.0810 Y30.5305
G01 X141.0911 Y30.5415
G01 X141.1140 Y30.5698
G01 X141.1219 Y30.5810
G01 X141.1267 Y30.5888
G01 X141.1352 Y30.6050
G01 X141.1388 Y30.6134
G01 X141.1435 Y30.6263
G01 X141.1661 Y30.7031
G01 X141.1698 Y30.7204
G01 X141.1719 Y30.7381
G01 X141.1724 Y30.7514
G01 X141.1724 Y31.3416
G01 X141.1707 Y31.4096
G01 X141.1717 Y31.4205
G01 X141.1859 Y31.4786
G01 X141.1988 Y31.5401
G01 X141.2109 Y31.5733
G01 X141.2136 Y31.5820
G01 X141.2172 Y31.5964
G01 X141.2205 Y31.6072
G01 X141.2228 Y31.6160
G01 X141.2253 Y31.6294
G01 X141.2264 Y31.6384
G01 X141.2274 Y31.6565
G01 X141.2266 Y31.6746
G01 X141.2172 Y31.7542
G01 X141.2157 Y31.7634
G01 X141.2125 Y31.7769
G01 X141.2084 Y31.7902
G01 X141.2013 Y31.8073
G01 X141.1926 Y31.8237
G01 X141.1850 Y31.8353
G01 X141.1766 Y31.8464
G01 X141.1285 Y31.9048
G01 X141.1157 Y31.9182
G01 X141.1016 Y31.9302
G01 X141.0903 Y31.9383
G01 X141.0744 Y31.9478
G01 X141.0619 Y31.9538
G01 X141.0489 Y31.9589
G01 X140.9680 Y31.9847
G01 X140.9545 Y31.9878
G01 X140.9361 Y31.9904
G01 X140.9222 Y31.9911
G01 X140.9130 Y31.9910
G01 X140.8991 Y31.9899
G01 X140.8854 Y31.9879
G01 X140.8718 Y31.9848
G01 X140.7946 Y31.9641
G01 X140.7821 Y31.9596
G01 X140.7739 Y31.9561
G01 X140.7620 Y31.9502
G01 X140.7532 Y31.9451
G01 X140.5682 Y31.8720
G01 X140.3736 Y31.8312
G01 X140.1748 Y31.8237
G01 X139.9777 Y31.8499
G01 X139.7878 Y31.9088
G01 X139.6105 Y31.9990
G01 X139.4510 Y32.1177
G01 X139.3137 Y32.2616
G01 X139.2026 Y32.4265
G01 X139.1210 Y32.6079
G01 X139.0710 Y32.8003
G01 X139.0584 Y32.9485
G01 X139.0584 Y35.3983
G01 X139.0588 Y35.4057
G01 X139.0948 Y35.6049
G01 X139.1626 Y35.7918
G01 X139.2610 Y35.9646
G01 X139.3871 Y36.1184
G01 X139.5527 Y36.2622
G01 X139.5656 Y36.2752
G01 X139.5763 Y36.2882
G01 X139.5937 Y36.3070
G01 X139.6023 Y36.3179
G01 X139.6076 Y36.3255
G01 X139.6148 Y36.3373
G01 X139.6211 Y36.3497
G01 X139.6265 Y36.3625
G01 X139.6309 Y36.3756
G01 X139.6532 Y36.4523
G01 X139.6550 Y36.4610
G01 X139.6571 Y36.4741
G01 X139.6579 Y36.4830
G01 X139.6584 Y36.4963
G01 X139.6582 Y37.5406
G01 X139.6575 Y37.5500
G01 X139.6555 Y37.5639
G01 X139.6453 Y37.6144
G01 X139.6424 Y37.6266
G01 X139.6343 Y37.6515
G01 X139.6217 Y37.6815
G01 X139.6088 Y37.7302
G01 X139.5914 Y37.7847
G01 X139.5870 Y37.8103
G01 X139.5855 Y37.8607
G01 X139.5812 Y37.9177
G01 X139.5828 Y37.9436
G01 X139.5942 Y37.9997
G01 X139.6018 Y38.0495
G01 X139.6094 Y38.0744
G01 X139.6333 Y38.1262
G01 X139.6522 Y38.1730
G01 X139.6653 Y38.1955
G01 X139.6965 Y38.2350
G01 X139.7282 Y38.2795
G01 X139.7580 Y38.3058
G01 X139.7721 Y38.3190
G01 X141.3307 Y39.8777
G01 X141.3777 Y39.9270
G01 X141.3860 Y39.9340
G01 X141.4372 Y39.9651
G01 X141.4898 Y39.9995
G01 X141.5008 Y40.0048
G01 X141.5605 Y40.0242
G01 X141.6155 Y40.0441
G01 X141.6275 Y40.0468
G01 X141.6858 Y40.0515
G01 X141.7111 Y40.0544
G01 X141.7296 Y40.0551
G01 X141.7643 Y40.0579
G01 X141.7736 Y40.0567
G01 X141.7972 Y40.0549
G01 X141.8113 Y40.0543
G01 X144.1782 Y40.0544
G01 X144.1915 Y40.0552
G01 X144.2091 Y40.0577
G01 X144.2748 Y40.0722
G01 X144.2882 Y40.0763
G01 X144.3055 Y40.0834
G01 X144.3179 Y40.0898
G01 X144.3298 Y40.0972
G01 X144.3448 Y40.1083
G01 X144.4055 Y40.1609
G01 X144.4122 Y40.1673
G01 X144.4216 Y40.1775
G01 X144.4329 Y40.1922
G01 X144.4380 Y40.1999
G01 X144.4450 Y40.2120
G01 X144.4510 Y40.2245
G01 X144.4544 Y40.2331
G01 X144.4589 Y40.2463
G01 X144.4789 Y40.3144
G01 X144.4822 Y40.3273
G01 X144.4845 Y40.3404
G01 X144.4856 Y40.3493
G01 X144.4864 Y40.3626
G01 X144.4864 Y40.5863
G01 X144.4870 Y40.5995
G01 X144.5238 Y40.8123
G01 X144.5930 Y41.0134
G01 X144.6935 Y41.2009
G01 X144.8227 Y41.3699
G01 X144.9184 Y41.4603
G01 X144.9262 Y41.4681
G01 X144.9395 Y41.4823
G01 X144.9483 Y41.4930
G01 X144.9588 Y41.5082
G01 X144.9657 Y41.5202
G01 X144.9715 Y41.5324
G01 X145.0033 Y41.6062
G01 X145.0090 Y41.6238
G01 X145.0120 Y41.6374
G01 X145.0135 Y41.6465
G01 X145.0151 Y41.6650
G01 X145.0151 Y41.6789
G01 X145.0145 Y41.6881
G01 X145.0128 Y41.7019
G01 X145.0006 Y41.7766
G01 X144.9963 Y41.7946
G01 X144.9902 Y41.8121
G01 X144.9823 Y41.8289
G01 X144.9729 Y41.8449
G01 X144.9676 Y41.8525
G01 X144.9590 Y41.8634
G01 X144.9084 Y41.9196
G01 X144.8992 Y41.9292
G01 X144.8858 Y41.9409
G01 X144.8714 Y41.9513
G01 X144.7629 Y42.0182
G01 X144.6544 Y42.1261
G01 X144.6223 Y42.1522
G01 X144.6111 Y42.1602
G01 X144.5994 Y42.1673
G01 X144.5830 Y42.1753
G01 X144.5658 Y42.1818
G01 X144.4891 Y42.2043
G01 X144.4717 Y42.2081
G01 X144.4541 Y42.2102
G01 X144.4407 Y42.2107
G01 X144.3602 Y42.2107
G01 X144.2946 Y42.2089
G01 X144.2838 Y42.2099
G01 X144.2257 Y42.2241
G01 X144.1642 Y42.2370
G01 X144.1526 Y42.2411
G01 X144.1005 Y42.2677
G01 X144.0437 Y42.2943
G01 X144.0333 Y42.3010
G01 X143.9888 Y42.3388
G01 X143.9688 Y42.3547
G01 X143.9552 Y42.3672
G01 X143.9287 Y42.3899
G01 X143.9230 Y42.3972
G01 X143.9076 Y42.4153
G01 X143.8980 Y42.4256
G01 X141.6858 Y44.6377
G01 X141.6728 Y44.6496
G01 X141.6509 Y44.6676
G01 X141.6433 Y44.6733
G01 X141.6273 Y44.6834
G01 X141.6104 Y44.6919
G01 X141.5928 Y44.6985
G01 X141.5252 Y44.7203
G01 X141.5118 Y44.7241
G01 X141.4982 Y44.7268
G01 X141.4797 Y44.7289
G01 X141.4612 Y44.7292
G01 X141.4427 Y44.7276
G01 X141.4336 Y44.7261
G01 X141.4200 Y44.7230
G01 X141.3471 Y44.7036
G01 X141.3345 Y44.6994
G01 X141.3222 Y44.6943
G01 X141.3102 Y44.6884
G01 X141.3025 Y44.6840
G01 X141.1338 Y44.5816
G01 X140.9489 Y44.5085
G01 X140.7542 Y44.4677
G01 X140.5555 Y44.4602
G01 X140.3584 Y44.4864
G01 X140.1684 Y44.5453
G01 X139.9912 Y44.6355
G01 X139.8316 Y44.7542
G01 X139.6943 Y44.8981
G01 X139.6153 Y45.0151
G01 X139.6059 Y45.0265
G01 X139.5753 Y45.0593
G01 X139.5655 Y45.0691
G01 X139.5550 Y45.0781
G01 X139.5476 Y45.0836
G01 X139.5361 Y45.0913
G01 X139.5240 Y45.0980
G01 X139.5157 Y45.1020
G01 X139.4325 Y45.1348
G01 X139.4146 Y45.1398
G01 X139.4010 Y45.1424
G01 X139.3825 Y45.1443
G01 X139.3640 Y45.1443
G01 X139.3501 Y45.1432
G01 X139.3364 Y45.1410
G01 X139.2668 Y45.1271
G01 X139.2488 Y45.1226
G01 X139.2357 Y45.1180
G01 X139.2187 Y45.1105
G01 X139.2026 Y45.1013
G01 X139.1912 Y45.0933
G01 X139.1804 Y45.0846
G01 X139.1736 Y45.0783
G01 X139.1225 Y45.0290
G01 X139.1103 Y45.0161
G01 X139.1047 Y45.0092
G01 X139.0969 Y44.9984
G01 X139.0922 Y44.9909
G01 X139.0797 Y44.9691
G01 X138.9537 Y44.8154
G01 X138.8035 Y44.6852
G01 X138.6336 Y44.5820
G01 X138.5516 Y44.5496
G01 X138.5516 Y44.6978
G01 X138.5914 Y44.7166
G01 X138.6036 Y44.7229
G01 X138.6830 Y44.7705
G01 X138.6943 Y44.7783
G01 X138.7650 Y44.8308
G01 X138.7755 Y44.8396
G01 X138.8439 Y44.9020
G01 X138.9063 Y44.9704
G01 X138.9151 Y44.9809
G01 X138.9676 Y45.0516
G01 X138.9778 Y45.0668
G01 X139.0252 Y45.1463
G01 X139.0649 Y45.2299
G01 X139.0720 Y45.2468
G01 X139.1029 Y45.3341
G01 X139.1256 Y45.4238
G01 X139.1284 Y45.4366
G01 X139.1426 Y45.5334
G01 X139.1476 Y45.6350
G01 X139.1476 Y47.9350
G01 X139.1433 Y48.0275
G01 X139.1415 Y48.0457
G01 X139.1277 Y48.1372
G01 X139.1054 Y48.2271
G01 X139.1003 Y48.2439
G01 X139.0687 Y48.3317
G01 X139.0252 Y48.4237
G01 X138.9729 Y48.5109
G01 X138.9179 Y48.5854
G01 X138.9063 Y48.5996
G01 X138.8503 Y48.6614
G01 X138.8407 Y48.6712
G01 X138.7686 Y48.7364
G01 X138.6906 Y48.7944
G01 X138.6791 Y48.8019
G01 X138.6036 Y48.8471
G01 X138.5914 Y48.8534
G01 X138.5516 Y48.8722
G01 X138.5516 Y49.0247
G01 X138.5532 Y49.0242
G01 X138.7304 Y48.9341
G01 X138.8899 Y48.8154
G01 X139.0271 Y48.6716
G01 X139.1002 Y48.5630
G01 X139.1090 Y48.5510
G01 X139.1187 Y48.5398
G01 X139.1491 Y48.5073
G01 X139.1591 Y48.4978
G01 X139.1699 Y48.4891
G01 X139.1851 Y48.4787
G01 X139.1931 Y48.4741
G01 X139.2055 Y48.4679
G01 X139.2800 Y48.4384
G01 X139.2932 Y48.4338
G01 X139.3066 Y48.4302
G01 X139.3202 Y48.4276
G01 X139.3341 Y48.4260
G01 X139.3526 Y48.4255
G01 X139.3665 Y48.4263
G01 X139.3757 Y48.4274
G01 X139.4635 Y48.4449
G01 X139.4812 Y48.4503
G01 X139.4983 Y48.4575
G01 X139.5146 Y48.4663
G01 X139.5300 Y48.4766
G01 X139.5408 Y48.4854
G01 X139.5476 Y48.4916
G01 X139.5987 Y48.5410
G01 X139.6110 Y48.5541
G01 X139.6167 Y48.5610
G01 X139.6246 Y48.5720
G01 X139.6294 Y48.5796
G01 X139.6417 Y48.6011
G01 X139.7678 Y48.7549
G01 X139.9180 Y48.8853
G01 X140.0880 Y48.9884
G01 X140.2729 Y49.0615
G01 X140.4676 Y49.1023
G01 X140.6663 Y49.1098
G01 X140.8634 Y49.0836
G01 X141.0534 Y49.0247
G01 X141.2306 Y48.9345
G01 X141.3902 Y48.8158
G01 X141.5275 Y48.6719
G01 X141.6385 Y48.5070
G01 X141.7202 Y48.3256
G01 X141.7702 Y48.1332
G01 X141.7827 Y47.9850
G01 X141.7827 Y46.2877
G01 X141.7830 Y46.2777
G01 X141.7867 Y46.2410
G01 X141.7887 Y46.2274
G01 X141.7928 Y46.2095
G01 X141.7987 Y46.1922
G01 X141.8063 Y46.1755
G01 X141.8446 Y46.1053
G01 X141.8543 Y46.0903
G01 X141.8624 Y46.0798
G01 X141.8743 Y46.0666
G01 X144.3601 Y43.5808
G01 X144.3702 Y43.5714
G01 X144.4000 Y43.5472
G01 X144.4110 Y43.5396
G01 X144.4266 Y43.5307
G01 X144.4388 Y43.5251
G01 X144.4514 Y43.5203
G01 X144.5234 Y43.4978
G01 X144.5414 Y43.4931
G01 X144.5597 Y43.4903
G01 X144.5782 Y43.4893
G01 X144.5967 Y43.4901
G01 X144.6150 Y43.4928
G01 X144.6286 Y43.4960
G01 X144.7013 Y43.5160
G01 X144.7139 Y43.5203
G01 X144.7262 Y43.5255
G01 X144.7381 Y43.5315
G01 X144.7457 Y43.5360
G01 X144.8755 Y43.6164
G01 X145.0032 Y43.6590
G01 X145.0790 Y43.6668
G01 X146.4106 Y43.6668
G01 X146.4852 Y43.6592
G01 X146.6131 Y43.6168
G01 X146.7266 Y43.5468
G01 X146.8209 Y43.4526
G01 X146.8911 Y43.3392
G01 X146.9337 Y43.2115
G01 X146.9416 Y43.1357
G01 X146.9416 Y42.4291
G01 X146.9339 Y42.3545
G01 X146.9205 Y42.3135
G01 X146.9133 Y42.2838
G01 X146.9106 Y42.2701
G01 X146.9090 Y42.2562
G01 X146.9084 Y42.2469
G01 X146.9084 Y42.2376
G01 X146.9092 Y42.2236
G01 X146.9204 Y42.1441
G01 X146.9228 Y42.1304
G01 X146.9263 Y42.1170
G01 X146.9308 Y42.1038
G01 X146.9363 Y42.0910
G01 X146.9427 Y42.0787
G01 X146.9526 Y42.0630
G01 X146.9611 Y42.0520
G01 X147.0136 Y41.9913
G01 X147.0234 Y41.9814
G01 X147.0338 Y41.9722
G01 X147.0449 Y41.9638
G01 X147.0566 Y41.9563
G01 X147.0688 Y41.9497
G01 X147.0772 Y41.9458
G01 X147.0946 Y41.9393
G01 X147.1714 Y41.9167
G01 X147.1888 Y41.9129
G01 X147.2020 Y41.9112
G01 X147.2197 Y41.9103
G01 X147.2660 Y41.9104
G01 X147.2792 Y41.9112
G01 X147.2923 Y41.9129
G01 X147.3379 Y41.9206
G01 X147.3515 Y41.9237
G01 X147.3605 Y41.9264
G01 X147.3780 Y41.9331
G01 X147.3947 Y41.9415
G01 X147.4066 Y41.9489
G01 X147.4359 Y41.9696
G01 X147.4490 Y41.9768
G01 X147.4643 Y41.9870
G01 X147.4750 Y41.9956
G01 X147.4851 Y42.0049
G01 X147.5946 Y42.1147
G01 X147.7080 Y42.1849
G01 X147.8357 Y42.2275
G01 X147.9115 Y42.2353
G01 X149.2931 Y42.2353
G01 X149.3677 Y42.2277
G01 X149.4956 Y42.1853
G01 X149.6091 Y42.1153
G01 X149.6558 Y42.0686
G01 X149.6706 Y42.0549
G01 X149.6851 Y42.0432
G01 X149.7007 Y42.0331
G01 X149.7167 Y42.0249
G01 X149.7813 Y41.9954
G01 X149.7941 Y41.9901
G01 X149.8073 Y41.9858
G01 X149.8208 Y41.9824
G01 X149.8345 Y41.9801
G01 X149.8484 Y41.9788
G01 X149.8669 Y41.9787
G01 X149.8808 Y41.9798
G01 X149.9602 Y41.9912
G01 X149.9739 Y41.9941
G01 X149.9872 Y41.9979
G01 X150.0003 Y42.0027
G01 X150.0129 Y42.0085
G01 X150.0290 Y42.0176
G01 X150.0442 Y42.0283
G01 X150.1085 Y42.0838
G01 X150.1184 Y42.0935
G01 X150.1275 Y42.1040
G01 X150.1332 Y42.1113
G01 X150.1410 Y42.1228
G01 X150.1501 Y42.1390
G01 X150.1558 Y42.1517
G01 X150.1590 Y42.1604
G01 X150.1819 Y42.2373
G01 X150.1852 Y42.2502
G01 X150.1875 Y42.2633
G01 X150.1889 Y42.2766
G01 X150.1894 Y42.2899
G01 X150.1894 Y67.8816
G01 X150.1888 Y67.8966
G01 X150.1849 Y67.9329
G01 X150.1826 Y67.9465
G01 X150.1780 Y67.9642
G01 X150.1717 Y67.9814
G01 X150.1637 Y67.9979
G01 X150.1252 Y68.0679
G01 X150.1204 Y68.0754
G01 X150.1126 Y68.0861
G01 X150.1009 Y68.0995
G01 X146.8503 Y71.3502
G01 X146.8355 Y71.3641
G01 X146.8284 Y71.3701
G01 X146.8171 Y71.3784
G01 X146.8053 Y71.3859
G01 X146.7971 Y71.3904
G01 X146.7247 Y71.4236
G01 X146.7119 Y71.4289
G01 X146.6942 Y71.4345
G01 X146.6806 Y71.4375
G01 X146.6715 Y71.4389
G01 X146.6622 Y71.4399
G01 X146.6483 Y71.4405
G01 X146.6298 Y71.4397
G01 X146.5412 Y71.4270
G01 X146.5277 Y71.4238
G01 X146.5188 Y71.4211
G01 X146.5057 Y71.4163
G01 X146.4973 Y71.4126
G01 X146.4849 Y71.4062
G01 X146.4770 Y71.4014
G01 X146.4618 Y71.3907
G01 X146.4010 Y71.3383
G01 X146.3942 Y71.3321
G01 X146.3845 Y71.3221
G01 X146.3728 Y71.3077
G01 X146.3626 Y71.2923
G01 X146.3539 Y71.2758
G01 X146.3470 Y71.2587
G01 X146.3218 Y71.1731
G01 X146.3192 Y71.1601
G01 X146.3179 Y71.1513
G01 X146.3171 Y71.1424
G01 X146.3166 Y71.1291
G01 X146.3166 Y46.8608
G01 X146.3179 Y46.8376
G01 X146.3202 Y46.8197
G01 X146.3242 Y46.8020
G01 X146.3299 Y46.7848
G01 X146.3588 Y46.7151
G01 X146.3668 Y46.6983
G01 X146.3714 Y46.6903
G01 X146.3790 Y46.6786
G01 X146.3875 Y46.6676
G01 X146.3967 Y46.6572
G01 X146.4102 Y46.6445
G01 X146.4211 Y46.6359
G01 X146.4833 Y46.5928
G01 X146.4986 Y46.5832
G01 X146.5148 Y46.5752
G01 X146.5274 Y46.5702
G01 X146.6131 Y46.5418
G01 X146.7266 Y46.4718
G01 X146.8209 Y46.3776
G01 X146.8911 Y46.2642
G01 X146.9337 Y46.1365
G01 X146.9416 Y46.0607
G01 X146.9416 Y45.3541
G01 X146.9339 Y45.2795
G01 X146.8915 Y45.1517
G01 X146.8216 Y45.0382
G01 X146.7274 Y44.9438
G01 X146.6140 Y44.8736
G01 X146.4863 Y44.8310
G01 X146.4105 Y44.8232
G01 X145.0789 Y44.8232
G01 X145.0043 Y44.8308
G01 X144.8764 Y44.8732
G01 X144.7629 Y44.9432
G01 X144.6686 Y45.0374
G01 X144.5984 Y45.1508
G01 X144.5558 Y45.2785
G01 X144.5479 Y45.3543
G01 X144.5479 Y46.0609
G01 X144.5556 Y46.1355
G01 X144.5980 Y46.2633
G01 X144.6679 Y46.3768
G01 X144.7621 Y46.4712
G01 X144.8755 Y46.5414
G01 X144.9639 Y46.5709
G01 X144.9893 Y46.5811
G01 X145.0054 Y46.5893
G01 X145.0206 Y46.5990
G01 X145.0314 Y46.6073
G01 X145.0953 Y46.6629
G01 X145.1019 Y46.6695
G01 X145.1110 Y46.6800
G01 X145.1220 Y46.6949
G01 X145.1292 Y46.7068
G01 X145.1336 Y46.7150
G01 X145.1409 Y46.7320
G01 X145.1454 Y46.7452
G01 X145.1677 Y46.8219
G01 X145.1710 Y46.8393
G01 X145.1724 Y46.8526
G01 X145.1729 Y46.8614
G01 X145.1729 Y72.9616
G01 X145.1723 Y72.9766
G01 X145.1684 Y73.0129
G01 X145.1661 Y73.0265
G01 X145.1615 Y73.0442
G01 X145.1552 Y73.0614
G01 X145.1472 Y73.0779
G01 X145.1087 Y73.1479
G01 X145.1039 Y73.1554
G01 X145.0961 Y73.1661
G01 X145.0844 Y73.1795
G01 X142.5515 Y75.7126
G01 X142.5405 Y75.7228
G01 X142.5084 Y75.7484
G01 X142.4930 Y75.7585
G01 X142.4768 Y75.7670
G01 X142.4641 Y75.7723
G01 X142.4555 Y75.7753
G01 X142.3744 Y75.7989
G01 X142.3613 Y75.8016
G01 X142.3525 Y75.8028
G01 X142.3393 Y75.8040
G01 X142.3304 Y75.8042
G01 X128.8245 Y75.8042
G01 X128.8108 Y75.8037
G01 X128.7972 Y75.8022
G01 X128.7838 Y75.7997
G01 X128.7750 Y75.7975
G01 X128.7020 Y75.7772
G01 X128.6935 Y75.7742
G01 X128.6811 Y75.7689
G01 X128.6652 Y75.7606
G01 X128.6538 Y75.7533
G01 X128.6466 Y75.7480
G01 X128.6396 Y75.7424
G01 X128.6296 Y75.7333
G01 X128.5688 Y75.6679
G01 X128.5630 Y75.6607
G01 X128.5551 Y75.6493
G01 X128.5458 Y75.6332
G01 X128.5399 Y75.6206
G01 X128.5365 Y75.6120
G01 X128.5310 Y75.5943
G01 X128.5280 Y75.5807
G01 X128.5140 Y75.5017
G01 X128.5131 Y75.4925
G01 X128.5125 Y75.4786
G01 X128.5134 Y75.4601
G01 X128.5152 Y75.4463
G01 X128.5170 Y75.4372
G01 X128.5193 Y75.4282
G01 X128.5235 Y75.4149
G01 X128.5578 Y75.3323
G01 X128.5666 Y75.3159
G01 X128.5769 Y75.3005
G01 X128.5857 Y75.2897
G01 X128.5985 Y75.2764
G01 X128.6090 Y75.2672
G01 X128.6164 Y75.2616
G01 X128.6785 Y75.2185
G01 X128.6899 Y75.2112
G01 X128.7059 Y75.2027
G01 X128.7184 Y75.1975
G01 X128.7696 Y75.1803
G01 X128.8831 Y75.1103
G01 X128.9774 Y75.0161
G01 X129.0476 Y74.9027
G01 X129.0902 Y74.7750
G01 X129.0981 Y74.6992
G01 X129.0981 Y73.9926
G01 X129.0904 Y73.9180
G01 X129.0480 Y73.7902
G01 X128.9781 Y73.6767
G01 X128.8839 Y73.5823
G01 X128.7705 Y73.5121
G01 X128.6428 Y73.4695
G01 X128.5670 Y73.4617
G01 X127.2354 Y73.4617
G01 X127.1608 Y73.4693
G01 X127.0329 Y73.5117
G01 X126.9194 Y73.5817
G01 X126.8251 Y73.6759
G01 X126.7549 Y73.7893
G01 X126.7123 Y73.9170
G01 X126.7044 Y73.9928
G01 X126.7044 Y74.6046
G01 X126.7038 Y74.6196
G01 X126.6999 Y74.6559
G01 X126.6976 Y74.6695
G01 X126.6930 Y74.6872
G01 X126.6884 Y74.7001
G01 X126.6829 Y74.7127
G01 X126.6425 Y74.7871
G01 X126.6329 Y74.8020
G01 X126.6219 Y74.8160
G01 X126.6128 Y74.8257
G01 X125.7260 Y75.7126
G01 X125.7187 Y75.7195
G01 X125.7111 Y75.7259
G01 X125.6865 Y75.7457
G01 X125.6791 Y75.7511
G01 X125.6715 Y75.7561
G01 X125.6595 Y75.7629
G01 X125.6471 Y75.7688
G01 X125.6343 Y75.7738
G01 X125.5575 Y75.7966
G01 X125.5402 Y75.8008
G01 X125.5270 Y75.8028
G01 X125.5093 Y75.8041
G01 X125.4352 Y75.8042
G01 X125.3696 Y75.8024
G01 X125.3588 Y75.8034
G01 X125.3007 Y75.8176
G01 X125.2392 Y75.8305
G01 X125.2273 Y75.8347
G01 X125.2173 Y75.8393
G01 X125.2087 Y75.8426
G01 X125.1956 Y75.8469
G01 X125.1312 Y75.8625
G01 X125.1139 Y75.8658
G01 X125.1008 Y75.8672
G01 X125.0876 Y75.8677
G01 X108.9951 Y75.8677
G01 X108.9749 Y75.8670
G01 X108.9565 Y75.8650
G01 X108.9475 Y75.8633
G01 X108.9340 Y75.8599
G01 X108.9209 Y75.8556
G01 X108.8501 Y75.8291
G01 X108.8332 Y75.8213
G01 X108.8211 Y75.8145
G01 X108.8096 Y75.8067
G01 X108.7952 Y75.7950
G01 X108.7820 Y75.7820
G01 X108.7730 Y75.7714
G01 X108.7249 Y75.7072
G01 X108.7149 Y75.6915
G01 X108.7065 Y75.6750
G01 X108.7030 Y75.6664
G01 X108.6985 Y75.6533
G01 X108.6940 Y75.6353
G01 X108.6913 Y75.6170
G01 X108.6855 Y75.5369
G01 X108.6853 Y75.5276
G01 X108.6859 Y75.5137
G01 X108.6882 Y75.4954
G01 X108.6924 Y75.4773
G01 X108.6983 Y75.4597
G01 X108.7060 Y75.4428
G01 X108.7444 Y75.3726
G01 X108.7540 Y75.3576
G01 X108.7621 Y75.3471
G01 X108.7740 Y75.3339
G01 X108.8975 Y75.2104
G01 X108.9048 Y75.2035
G01 X108.9124 Y75.1971
G01 X108.9370 Y75.1773
G01 X108.9482 Y75.1694
G01 X108.9640 Y75.1601
G01 X108.9806 Y75.1524
G01 X108.9979 Y75.1464
G01 X109.0703 Y75.1252
G01 X109.0833 Y75.1222
G01 X109.1009 Y75.1197
G01 X109.1186 Y75.1188
G01 X109.7306 Y75.1188
G01 X109.8052 Y75.1112
G01 X109.9331 Y75.0688
G01 X110.0466 Y74.9988
G01 X110.1409 Y74.9046
G01 X110.2111 Y74.7912
G01 X110.2537 Y74.6635
G01 X110.2616 Y74.5877
G01 X110.2616 Y73.8811
G01 X110.2539 Y73.8065
G01 X110.2115 Y73.6787
G01 X110.1416 Y73.5652
G01 X110.0474 Y73.4708
G01 X109.9340 Y73.4006
G01 X109.8063 Y73.3580
G01 X109.7305 Y73.3502
G01 X108.3989 Y73.3502
G01 X108.3243 Y73.3578
G01 X108.1964 Y73.4002
G01 X108.0829 Y73.4702
G01 X107.9886 Y73.5644
G01 X107.9184 Y73.6778
G01 X107.8758 Y73.8055
G01 X107.8679 Y73.8813
G01 X107.8679 Y74.4931
G01 X107.8673 Y74.5081
G01 X107.8634 Y74.5444
G01 X107.8611 Y74.5580
G01 X107.8578 Y74.5713
G01 X107.8536 Y74.5844
G01 X107.8483 Y74.5971
G01 X107.8422 Y74.6094
G01 X107.8060 Y74.6756
G01 X107.8014 Y74.6831
G01 X107.7938 Y74.6941
G01 X107.7854 Y74.7045
G01 X107.7763 Y74.7142
G01 X106.7145 Y75.7761
G01 X106.7072 Y75.7830
G01 X106.6786 Y75.8063
G01 X106.6676 Y75.8146
G01 X106.6521 Y75.8242
G01 X106.6439 Y75.8285
G01 X106.6314 Y75.8341
G01 X106.6141 Y75.8401
G01 X106.5374 Y75.8624
G01 X106.5199 Y75.8658
G01 X106.5067 Y75.8672
G01 X106.4978 Y75.8676
G01 X87.9381 Y75.8677
G01 X87.9179 Y75.8670
G01 X87.9041 Y75.8657
G01 X87.8905 Y75.8633
G01 X87.8726 Y75.8586
G01 X87.7974 Y75.8308
G01 X87.7804 Y75.8234
G01 X87.7681 Y75.8168
G01 X87.7564 Y75.8094
G01 X87.7453 Y75.8010
G01 X87.7314 Y75.7887
G01 X87.7219 Y75.7785
G01 X87.7132 Y75.7677
G01 X87.6679 Y75.7072
G01 X87.6579 Y75.6915
G01 X87.6495 Y75.6750
G01 X87.6429 Y75.6577
G01 X87.6379 Y75.6398
G01 X87.6348 Y75.6216
G01 X87.6288 Y75.5415
G01 X87.6283 Y75.5276
G01 X87.6286 Y75.5184
G01 X87.6305 Y75.4999
G01 X87.6342 Y75.4818
G01 X87.6382 Y75.4684
G01 X87.6450 Y75.4512
G01 X87.6512 Y75.4388
G01 X87.6874 Y75.3726
G01 X87.6944 Y75.3613
G01 X87.7023 Y75.3505
G01 X87.7109 Y75.3403
G01 X87.7170 Y75.3339
G01 X87.7998 Y75.2515
G01 X87.8284 Y75.2282
G01 X87.8394 Y75.2199
G01 X87.8549 Y75.2103
G01 X87.8714 Y75.2022
G01 X87.8885 Y75.1957
G01 X87.9610 Y75.1744
G01 X87.9783 Y75.1702
G01 X87.9915 Y75.1682
G01 X88.0003 Y75.1673
G01 X88.0136 Y75.1668
G01 X88.6256 Y75.1668
G01 X88.7002 Y75.1592
G01 X88.8281 Y75.1168
G01 X88.9416 Y75.0468
G01 X89.0359 Y74.9526
G01 X89.1061 Y74.8392
G01 X89.1487 Y74.7115
G01 X89.1566 Y74.6357
G01 X89.1566 Y73.9291
G01 X89.1489 Y73.8545
G01 X89.1065 Y73.7267
G01 X89.0366 Y73.6132
G01 X88.9424 Y73.5188
G01 X88.8290 Y73.4486
G01 X88.7013 Y73.4060
G01 X88.6255 Y73.3982
G01 X87.2939 Y73.3982
G01 X87.2193 Y73.4058
G01 X87.0914 Y73.4482
G01 X86.9779 Y73.5182
G01 X86.8836 Y73.6124
G01 X86.8134 Y73.7258
G01 X86.7708 Y73.8535
G01 X86.7629 Y73.9293
G01 X86.7629 Y74.5411
G01 X86.7623 Y74.5561
G01 X86.7590 Y74.5879
G01 X86.7570 Y74.6015
G01 X86.7528 Y74.6193
G01 X86.7486 Y74.6324
G01 X86.7452 Y74.6409
G01 X86.7394 Y74.6533
G01 X86.7032 Y74.7197
G01 X86.6964 Y74.7311
G01 X86.6914 Y74.7385
G01 X86.6833 Y74.7491
G01 X86.6713 Y74.7622
G01 X85.6575 Y75.7761
G01 X85.6502 Y75.7830
G01 X85.6216 Y75.8063
G01 X85.6106 Y75.8146
G01 X85.5951 Y75.8242
G01 X85.5869 Y75.8285
G01 X85.5744 Y75.8341
G01 X85.5571 Y75.8401
G01 X85.4847 Y75.8613
G01 X85.4673 Y75.8651
G01 X85.4585 Y75.8663
G01 X85.4453 Y75.8675
G01 X67.7853 Y75.8677
G01 X67.7719 Y75.8672
G01 X67.7587 Y75.8658
G01 X67.7456 Y75.8634
G01 X67.6932 Y75.8520
G01 X67.6797 Y75.8485
G01 X67.6664 Y75.8440
G01 X67.6578 Y75.8405
G01 X67.6452 Y75.8344
G01 X67.6371 Y75.8298
G01 X67.6254 Y75.8222
G01 X67.6142 Y75.8137
G01 X67.5535 Y75.7611
G01 X67.5436 Y75.7514
G01 X67.5345 Y75.7409
G01 X67.5261 Y75.7298
G01 X67.5210 Y75.7221
G01 X67.5140 Y75.7100
G01 X67.5099 Y75.7017
G01 X67.5046 Y75.6889
G01 X67.5015 Y75.6801
G01 X67.4789 Y75.6033
G01 X67.4768 Y75.5947
G01 X67.4745 Y75.5816
G01 X67.4731 Y75.5683
G01 X67.4726 Y75.5594
G01 X67.4726 Y75.4563
G01 X67.4739 Y75.4281
G01 X67.4762 Y75.4102
G01 X67.4802 Y75.3925
G01 X67.4859 Y75.3753
G01 X67.5186 Y75.2971
G01 X67.5250 Y75.2848
G01 X67.5350 Y75.2691
G01 X67.5435 Y75.2581
G01 X67.5560 Y75.2444
G01 X67.5662 Y75.2350
G01 X67.5771 Y75.2264
G01 X67.6393 Y75.1833
G01 X67.6546 Y75.1737
G01 X67.6667 Y75.1676
G01 X67.6834 Y75.1607
G01 X67.7691 Y75.1323
G01 X67.8826 Y75.0623
G01 X67.9769 Y74.9681
G01 X68.0471 Y74.8547
G01 X68.0897 Y74.7270
G01 X68.0976 Y74.6512
G01 X68.0976 Y73.9446
G01 X68.0899 Y73.8700
G01 X68.0475 Y73.7422
G01 X67.9776 Y73.6287
G01 X67.8834 Y73.5343
G01 X67.7700 Y73.4641
G01 X67.6423 Y73.4215
G01 X67.5665 Y73.4137
G01 X66.2349 Y73.4137
G01 X66.1603 Y73.4213
G01 X66.0324 Y73.4637
G01 X65.9189 Y73.5337
G01 X65.8246 Y73.6279
G01 X65.7544 Y73.7413
G01 X65.7118 Y73.8690
G01 X65.7039 Y73.9448
G01 X65.7039 Y74.6514
G01 X65.7116 Y74.7260
G01 X65.7540 Y74.8538
G01 X65.8239 Y74.9673
G01 X65.9181 Y75.0617
G01 X66.0315 Y75.1319
G01 X66.1199 Y75.1614
G01 X66.1453 Y75.1716
G01 X66.1614 Y75.1798
G01 X66.1729 Y75.1870
G01 X66.1874 Y75.1978
G01 X66.2513 Y75.2534
G01 X66.2641 Y75.2669
G01 X66.2754 Y75.2816
G01 X66.2829 Y75.2933
G01 X66.2875 Y75.3014
G01 X66.2953 Y75.3182
G01 X66.3014 Y75.3357
G01 X66.3226 Y75.4081
G01 X66.3263 Y75.4254
G01 X66.3281 Y75.4386
G01 X66.3289 Y75.4564
G01 X66.3289 Y75.5471
G01 X66.3279 Y75.5621
G01 X66.3244 Y75.5934
G01 X66.3211 Y75.6114
G01 X66.3188 Y75.6203
G01 X66.3146 Y75.6334
G01 X66.3074 Y75.6502
G01 X66.2692 Y75.7207
G01 X66.2624 Y75.7321
G01 X66.2574 Y75.7395
G01 X66.2521 Y75.7466
G01 X66.2435 Y75.7568
G01 X66.2245 Y75.7761
G01 X66.2172 Y75.7830
G01 X66.2096 Y75.7894
G01 X66.1814 Y75.8119
G01 X66.1700 Y75.8196
G01 X66.1580 Y75.8264
G01 X66.1414 Y75.8341
G01 X66.1285 Y75.8388
G01 X66.0560 Y75.8601
G01 X66.0387 Y75.8643
G01 X66.0255 Y75.8663
G01 X66.0167 Y75.8672
G01 X66.0034 Y75.8677
G01 X28.9003 Y75.8677
G01 X28.8869 Y75.8672
G01 X28.8781 Y75.8663
G01 X28.8606 Y75.8634
G01 X28.7992 Y75.8498
G01 X28.7858 Y75.8457
G01 X28.7771 Y75.8423
G01 X28.7602 Y75.8344
G01 X28.7442 Y75.8248
G01 X28.7292 Y75.8137
G01 X28.6720 Y75.7642
G01 X28.6586 Y75.7514
G01 X28.6466 Y75.7373
G01 X28.6360 Y75.7221
G01 X28.6269 Y75.7059
G01 X28.6196 Y75.6889
G01 X28.6151 Y75.6757
G01 X28.5928 Y75.5990
G01 X28.5902 Y75.5860
G01 X28.5889 Y75.5772
G01 X28.5876 Y75.5594
G01 X28.5876 Y64.3233
G01 X28.5889 Y64.3001
G01 X28.5912 Y64.2822
G01 X28.5952 Y64.2645
G01 X28.6009 Y64.2473
G01 X28.6298 Y64.1776
G01 X28.6378 Y64.1608
G01 X28.6448 Y64.1488
G01 X28.6527 Y64.1374
G01 X28.6615 Y64.1266
G01 X28.6677 Y64.1197
G01 X28.6777 Y64.1101
G01 X28.6921 Y64.0984
G01 X28.7543 Y64.0553
G01 X28.7696 Y64.0457
G01 X28.7817 Y64.0396
G01 X28.7984 Y64.0327
G01 X28.8841 Y64.0043
G01 X28.9976 Y63.9343
G01 X29.0919 Y63.8401
G01 X29.1621 Y63.7267
G01 X29.2047 Y63.5990
G01 X29.2126 Y63.5232
G01 X29.2126 Y62.8166
G01 X29.2049 Y62.7420
G01 X29.1625 Y62.6142
G01 X29.0926 Y62.5007
G01 X28.9984 Y62.4063
G01 X28.8850 Y62.3361
G01 X28.7573 Y62.2935
G01 X28.6815 Y62.2857
G01 X27.3499 Y62.2857
G01 X27.2753 Y62.2933
G01 X27.1474 Y62.3357
G01 X27.0339 Y62.4057
G01 X26.9396 Y62.4999
G01 X26.8694 Y62.6133
G01 X26.8268 Y62.7410
G01 X26.8189 Y62.8168
G01 X26.8189 Y63.5234
G01 X26.8266 Y63.5980
G01 X26.8690 Y63.7258
G01 X26.9389 Y63.8393
G01 X27.0331 Y63.9337
G01 X27.1465 Y64.0039
G01 X27.2349 Y64.0334
G01 X27.2603 Y64.0436
G01 X27.2764 Y64.0518
G01 X27.2879 Y64.0590
G01 X27.3024 Y64.0698
G01 X27.3595 Y64.1192
G01 X27.3729 Y64.1320
G01 X27.3849 Y64.1461
G01 X27.3955 Y64.1613
G01 X27.4046 Y64.1775
G01 X27.4119 Y64.1945
G01 X27.4164 Y64.2077
G01 X27.4387 Y64.2844
G01 X27.4413 Y64.2974
G01 X27.4426 Y64.3062
G01 X27.4439 Y64.3239
G01 X27.4439 Y75.5594
G01 X27.4426 Y75.5772
G01 X27.4405 Y75.5903
G01 X27.4261 Y75.6561
G01 X27.4219 Y75.6694
G01 X27.4168 Y75.6825
G01 X27.4084 Y75.6991
G01 X27.4011 Y75.7110
G01 X27.3957 Y75.7187
G01 X27.3869 Y75.7296
G01 X27.3374 Y75.7867
G01 X27.3242 Y75.7998
G01 X27.3172 Y75.8058
G01 X27.3061 Y75.8142
G01 X27.2904 Y75.8240
G01 X27.2737 Y75.8322
G01 X27.2564 Y75.8387
G01 X27.1753 Y75.8624
G01 X27.1666 Y75.8643
G01 X27.1534 Y75.8663
G01 X27.1401 Y75.8675
G01 X27.1312 Y75.8677
G01 X14.1581 Y75.8677
G01 X14.1431 Y75.8671
G01 X14.1068 Y75.8632
G01 X14.0888 Y75.8599
G01 X14.0756 Y75.8563
G01 X14.0626 Y75.8517
G01 X14.0459 Y75.8441
G01 X13.9719 Y75.8035
G01 X13.9644 Y75.7987
G01 X13.9536 Y75.7908
G01 X13.9402 Y75.7792
G01 X12.1057 Y73.9447
G01 X12.0988 Y73.9375
G01 X12.0754 Y73.9089
G01 X12.0672 Y73.8979
G01 X12.0575 Y73.8823
G01 X12.0513 Y73.8701
G01 X12.0477 Y73.8616
G01 X12.0416 Y73.8443
G01 X12.0204 Y73.7719
G01 X12.0183 Y73.7633
G01 X12.0160 Y73.7502
G01 X12.0143 Y73.7325
G01 X12.0143 Y72.1366
G01 X12.0154 Y72.1233
G01 X12.0175 Y72.1102
G01 X12.0319 Y72.0444
G01 X12.0361 Y72.0311
G01 X12.0412 Y72.0180
G01 X12.0474 Y72.0055
G01 X12.0544 Y71.9934
G01 X12.0623 Y71.9818
G01 X12.0711 Y71.9709
G01 X12.1176 Y71.9173
G01 X12.1304 Y71.9039
G01 X12.1408 Y71.8947
G01 X12.1558 Y71.8837
G01 X12.1717 Y71.8743
G01 X12.1885 Y71.8665
G01 X12.2060 Y71.8604
G01 X12.2784 Y71.8392
G01 X12.2958 Y71.8354
G01 X12.3134 Y71.8333
G01 X12.3267 Y71.8328
G01 X12.6935 Y71.8328
G01 X12.6995 Y71.8325
G01 X12.8986 Y71.7965
G01 X13.0856 Y71.7286
G01 X13.2584 Y71.6302
G01 X13.4122 Y71.5041
G01 X13.5488 Y71.3468
G01 X13.5583 Y71.3371
G01 X13.5843 Y71.3135
G01 X13.5911 Y71.3077
G01 X13.6017 Y71.2996
G01 X13.6130 Y71.2922
G01 X13.6207 Y71.2878
G01 X13.6327 Y71.2819
G01 X13.6410 Y71.2784
G01 X13.7210 Y71.2510
G01 X13.7344 Y71.2474
G01 X13.7481 Y71.2447
G01 X13.7619 Y71.2431
G01 X13.7804 Y71.2426
G01 X13.7989 Y71.2439
G01 X13.8172 Y71.2470
G01 X13.8906 Y71.2652
G01 X13.9040 Y71.2691
G01 X13.9171 Y71.2739
G01 X13.9339 Y71.2819
G01 X13.9498 Y71.2915
G01 X13.9647 Y71.3026
G01 X13.9784 Y71.3152
G01 X14.0236 Y71.3610
G01 X14.0360 Y71.3749
G01 X14.0443 Y71.3860
G01 X14.0534 Y71.4003
G01 X14.1739 Y71.5623
G01 X14.3178 Y71.6996
G01 X14.4828 Y71.8106
G01 X14.6641 Y71.8923
G01 X14.8566 Y71.9423
G01 X15.0048 Y71.9548
G01 X17.4560 Y71.9548
G01 X17.4620 Y71.9545
G01 X17.6611 Y71.9185
G01 X17.8481 Y71.8506
G01 X18.0209 Y71.7522
G01 X18.1747 Y71.6261
G01 X18.3050 Y71.4759
G01 X18.4082 Y71.3059
G01 X18.4812 Y71.1210
G01 X18.5221 Y70.9263
G01 X18.5231 Y70.8994
G01 X18.5295 Y70.7276
G01 X18.5034 Y70.5305
G01 X18.4444 Y70.3405
G01 X18.3543 Y70.1633
G01 X18.2356 Y70.0037
G01 X18.0917 Y69.8664
G01 X17.9430 Y69.7660
G01 X17.9315 Y69.7566
G01 X17.8953 Y69.7229
G01 X17.8858 Y69.7128
G01 X17.8771 Y69.7021
G01 X17.8667 Y69.6868
G01 X17.8600 Y69.6748
G01 X17.8560 Y69.6665
G01 X17.8232 Y69.5832
G01 X17.8193 Y69.5699
G01 X17.8156 Y69.5517
G01 X17.8137 Y69.5333
G01 X17.8135 Y69.5194
G01 X17.8143 Y69.5055
G01 X17.8162 Y69.4917
G01 X17.8309 Y69.4175
G01 X17.8354 Y69.3995
G01 X17.8417 Y69.3821
G01 X17.8497 Y69.3654
G01 X17.8593 Y69.3495
G01 X17.8675 Y69.3383
G01 X17.8797 Y69.3243
G01 X17.9290 Y69.2732
G01 X17.9354 Y69.2669
G01 X17.9456 Y69.2580
G01 X17.9563 Y69.2499
G01 X17.9676 Y69.2426
G01 X18.0209 Y69.2122
G01 X18.1747 Y69.0861
G01 X18.3050 Y68.9359
G01 X18.4082 Y68.7659
G01 X18.4812 Y68.5810
G01 X18.5221 Y68.3863
G01 X18.5295 Y68.1876
G01 X18.5034 Y67.9905
G01 X18.4444 Y67.8005
G01 X18.3543 Y67.6233
G01 X18.2356 Y67.4637
G01 X18.0917 Y67.3264
G01 X17.9267 Y67.2154
G01 X17.7454 Y67.1337
G01 X17.5529 Y67.0837
G01 X17.4047 Y67.0712
G01 X17.0804 Y67.0710
G01 X17.0671 Y67.0698
G01 X17.0539 Y67.0678
G01 X16.9972 Y67.0555
G01 X16.9837 Y67.0520
G01 X16.9704 Y67.0475
G01 X16.9575 Y67.0421
G01 X16.9411 Y67.0333
G01 X16.9294 Y67.0257
G01 X16.9147 Y67.0142
G01 X16.8575 Y66.9646
G01 X16.8445 Y66.9515
G01 X16.8385 Y66.9444
G01 X16.8301 Y66.9333
G01 X16.8250 Y66.9256
G01 X16.8180 Y66.9135
G01 X16.8102 Y66.8967
G01 X16.8041 Y66.8792
G01 X16.7829 Y66.8068
G01 X16.7800 Y66.7938
G01 X16.7779 Y66.7807
G01 X16.7768 Y66.7674
G01 X16.7766 Y66.7585
G01 X16.7766 Y66.6452
G01 X16.7774 Y66.6279
G01 X16.7791 Y66.6149
G01 X16.7874 Y66.5654
G01 X16.7923 Y66.5474
G01 X16.7989 Y66.5300
G01 X16.8050 Y66.5175
G01 X16.8145 Y66.5015
G01 X16.8579 Y66.4395
G01 X16.8663 Y66.4284
G01 X16.8723 Y66.4214
G01 X16.8820 Y66.4115
G01 X16.8925 Y66.4023
G01 X16.8998 Y66.3966
G01 X16.9113 Y66.3887
G01 X16.9233 Y66.3818
G01 X16.9316 Y66.3776
G01 X17.0058 Y66.3471
G01 X17.0183 Y66.3425
G01 X17.0311 Y66.3388
G01 X17.0442 Y66.3360
G01 X17.0530 Y66.3347
G01 X17.0722 Y66.3327
G01 X17.2001 Y66.2903
G01 X17.3136 Y66.2203
G01 X17.4079 Y66.1261
G01 X17.4781 Y66.0127
G01 X17.5207 Y65.8850
G01 X17.5286 Y65.8092
G01 X17.5286 Y65.1026
G01 X17.5209 Y65.0280
G01 X17.4785 Y64.9002
G01 X17.4086 Y64.7867
G01 X17.3144 Y64.6923
G01 X17.2010 Y64.6221
G01 X17.0733 Y64.5795
G01 X16.9975 Y64.5717
G01 X15.6659 Y64.5717
G01 X15.5913 Y64.5793
G01 X15.4634 Y64.6217
G01 X15.3499 Y64.6917
G01 X15.2556 Y64.7859
G01 X15.1854 Y64.8993
G01 X15.1428 Y65.0270
G01 X15.1349 Y65.1028
G01 X15.1349 Y65.8094
G01 X15.1426 Y65.8840
G01 X15.1850 Y66.0118
G01 X15.2549 Y66.1253
G01 X15.3491 Y66.2197
G01 X15.4810 Y66.3013
G01 X15.4924 Y66.3090
G01 X15.5033 Y66.3174
G01 X15.5134 Y66.3267
G01 X15.5252 Y66.3394
G01 X15.5526 Y66.3634
G01 X15.5655 Y66.3765
G01 X15.5743 Y66.3871
G01 X15.5797 Y66.3945
G01 X15.5871 Y66.4062
G01 X15.5916 Y66.4142
G01 X15.5993 Y66.4309
G01 X15.6054 Y66.4482
G01 X15.6266 Y66.5206
G01 X15.6303 Y66.5380
G01 X15.6321 Y66.5512
G01 X15.6329 Y66.5690
G01 X15.6329 Y66.7629
G01 X15.6316 Y66.7807
G01 X15.6287 Y66.7982
G01 X15.6162 Y66.8551
G01 X15.6109 Y66.8729
G01 X15.6058 Y66.8860
G01 X15.5996 Y66.8985
G01 X15.5926 Y66.9106
G01 X15.5847 Y66.9222
G01 X15.5759 Y66.9331
G01 X15.5294 Y66.9867
G01 X15.5232 Y66.9936
G01 X15.5132 Y67.0033
G01 X15.4988 Y67.0150
G01 X15.4834 Y67.0252
G01 X15.4670 Y67.0338
G01 X15.4498 Y67.0408
G01 X15.3686 Y67.0648
G01 X15.3512 Y67.0686
G01 X15.3336 Y67.0707
G01 X15.3203 Y67.0712
G01 X14.9535 Y67.0712
G01 X14.9475 Y67.0715
G01 X14.7484 Y67.1075
G01 X14.5614 Y67.1754
G01 X14.3886 Y67.2738
G01 X14.2348 Y67.3999
G01 X14.1045 Y67.5501
G01 X14.0013 Y67.7201
G01 X13.9283 Y67.9050
G01 X13.8874 Y68.0997
G01 X13.8800 Y68.2984
G01 X13.9061 Y68.4955
G01 X13.9651 Y68.6855
G01 X14.0552 Y68.8627
G01 X14.1739 Y69.0223
G01 X14.3178 Y69.1596
G01 X14.4665 Y69.2600
G01 X14.4780 Y69.2694
G01 X14.5108 Y69.2999
G01 X14.5206 Y69.3098
G01 X14.5296 Y69.3203
G01 X14.5378 Y69.3314
G01 X14.5428 Y69.3392
G01 X14.5516 Y69.3554
G01 X14.5571 Y69.3680
G01 X14.5831 Y69.4341
G01 X14.5877 Y69.4472
G01 X14.5923 Y69.4652
G01 X14.5945 Y69.4789
G01 X14.5958 Y69.4927
G01 X14.5958 Y69.5113
G01 X14.5952 Y69.5205
G01 X14.5933 Y69.5343
G01 X14.5786 Y69.6085
G01 X14.5741 Y69.6265
G01 X14.5678 Y69.6439
G01 X14.5598 Y69.6606
G01 X14.5552 Y69.6687
G01 X14.5476 Y69.6803
G01 X14.5361 Y69.6949
G01 X14.4805 Y69.7528
G01 X14.4742 Y69.7590
G01 X14.4642 Y69.7678
G01 X14.4535 Y69.7758
G01 X14.4424 Y69.7831
G01 X14.3886 Y69.8138
G01 X14.2348 Y69.9399
G01 X14.1988 Y69.9814
G01 X14.1897 Y69.9911
G01 X14.1800 Y70.0002
G01 X14.1529 Y70.0236
G01 X14.1419 Y70.0324
G01 X14.1303 Y70.0404
G01 X14.1181 Y70.0475
G01 X14.1054 Y70.0536
G01 X14.0878 Y70.0602
G01 X14.0109 Y70.0828
G01 X14.0023 Y70.0849
G01 X13.9892 Y70.0873
G01 X13.9759 Y70.0887
G01 X13.9671 Y70.0891
G01 X13.7845 Y70.0892
G01 X13.7701 Y70.0886
G01 X13.7558 Y70.0870
G01 X13.7022 Y70.0772
G01 X13.6845 Y70.0726
G01 X13.6716 Y70.0681
G01 X13.6590 Y70.0626
G01 X13.6509 Y70.0584
G01 X13.6353 Y70.0489
G01 X13.5711 Y70.0008
G01 X13.5608 Y69.9924
G01 X13.5542 Y69.9864
G01 X13.5449 Y69.9769
G01 X13.5364 Y69.9667
G01 X13.4731 Y69.8817
G01 X13.3292 Y69.7444
G01 X13.1642 Y69.6334
G01 X12.9829 Y69.5517
G01 X12.7904 Y69.5017
G01 X12.6422 Y69.4892
G01 X10.1910 Y69.4892
G01 X10.1850 Y69.4895
G01 X9.9859 Y69.5255
G01 X9.7989 Y69.5934
G01 X9.6261 Y69.6918
G01 X9.4723 Y69.8179
G01 X9.3286 Y69.9834
G01 X9.3156 Y69.9964
G01 X9.3026 Y70.0070
G01 X9.2837 Y70.0245
G01 X9.2729 Y70.0331
G01 X9.2614 Y70.0409
G01 X9.2494 Y70.0478
G01 X9.2369 Y70.0537
G01 X9.2240 Y70.0588
G01 X9.1428 Y70.0828
G01 X9.1254 Y70.0866
G01 X9.1078 Y70.0887
G01 X9.0944 Y70.0892
G01 X4.6281 Y70.0891
G01 X4.6132 Y70.0881
G01 X4.5773 Y70.0840
G01 X4.5594 Y70.0803
G01 X4.5419 Y70.0748
G01 X4.5334 Y70.0714
G01 X4.5209 Y70.0656
G01 X4.4546 Y70.0294
G01 X4.4431 Y70.0226
G01 X4.4286 Y70.0123
G01 X4.4218 Y70.0067
G01 X4.4120 Y69.9976
G01 X3.1487 Y68.7341
G01 X3.1388 Y68.7229
G01 X3.1191 Y68.6983
G01 X3.1137 Y68.6909
G01 X3.1040 Y68.6753
G01 X3.0959 Y68.6589
G01 X3.0895 Y68.6417
G01 X3.0669 Y68.5649
G01 X3.0640 Y68.5520
G01 X3.0614 Y68.5344
G01 X3.0606 Y68.5166
G01 X3.0606 Y54.3293
G01 X3.0614 Y54.3116
G01 X3.0632 Y54.2984
G01 X3.0784 Y54.2283
G01 X3.0826 Y54.2149
G01 X3.0877 Y54.2019
G01 X3.0939 Y54.1893
G01 X3.1009 Y54.1772
G01 X3.1088 Y54.1657
G01 X3.1145 Y54.1583
G01 X3.1703 Y54.0943
G01 X3.1803 Y54.0846
G01 X3.1873 Y54.0785
G01 X3.1984 Y54.0702
G01 X3.2101 Y54.0627
G01 X3.2265 Y54.0540
G01 X3.2437 Y54.0471
G01 X3.3207 Y54.0242
G01 X3.3336 Y54.0209
G01 X3.3423 Y54.0193
G01 X3.3555 Y54.0175
G01 X3.3688 Y54.0167
G01 X12.6784 Y54.0167
G01 X12.6885 Y54.0169
G01 X12.6985 Y54.0178
G01 X12.7299 Y54.0212
G01 X12.7435 Y54.0235
G01 X12.7568 Y54.0268
G01 X12.7699 Y54.0311
G01 X12.7826 Y54.0363
G01 X12.7949 Y54.0425
G01 X12.8611 Y54.0788
G01 X12.8760 Y54.0884
G01 X12.8866 Y54.0965
G01 X12.8997 Y54.1085
G01 X12.9996 Y54.2085
G01 X13.1130 Y54.2787
G01 X13.2407 Y54.3213
G01 X13.3165 Y54.3292
G01 X14.6481 Y54.3292
G01 X14.7227 Y54.3215
G01 X14.8506 Y54.2791
G01 X14.9641 Y54.2092
G01 X15.0584 Y54.1150
G01 X15.1286 Y54.0016
G01 X15.1712 Y53.8739
G01 X15.1791 Y53.7981
G01 X15.1791 Y53.0915
G01 X15.1714 Y53.0169
G01 X15.1290 Y52.8890
G01 X15.0591 Y52.7755
G01 X14.9649 Y52.6812
G01 X14.8515 Y52.6110
G01 X14.7238 Y52.5684
G01 X14.6480 Y52.5605
G01 X13.3164 Y52.5605
G01 X13.2418 Y52.5682
G01 X13.1139 Y52.6106
G01 X13.0004 Y52.6805
G01 X12.8919 Y52.7885
G01 X12.8598 Y52.8146
G01 X12.8486 Y52.8225
G01 X12.8369 Y52.8296
G01 X12.8205 Y52.8377
G01 X12.8077 Y52.8427
G01 X12.7266 Y52.8667
G01 X12.7136 Y52.8696
G01 X12.7048 Y52.8711
G01 X12.6916 Y52.8725
G01 X12.6782 Y52.8730
G01 X3.3688 Y52.8730
G01 X3.3555 Y52.8722
G01 X3.3423 Y52.8704
G01 X3.2812 Y52.8574
G01 X3.2677 Y52.8539
G01 X3.2588 Y52.8510
G01 X3.2415 Y52.8439
G01 X3.2251 Y52.8352
G01 X3.2172 Y52.8302
G01 X3.2059 Y52.8220
G01 X3.1450 Y52.7695
G01 X3.1316 Y52.7567
G01 X3.1196 Y52.7426
G01 X3.1141 Y52.7352
G01 X3.1066 Y52.7235
G01 X3.0979 Y52.7071
G01 X3.0942 Y52.6986
G01 X3.0895 Y52.6855
G01 X3.0658 Y52.6044
G01 X3.0632 Y52.5913
G01 X3.0619 Y52.5825
G01 X3.0611 Y52.5737
G01 X3.0606 Y52.5603
G01 X3.0606 Y5.6859
G01 X3.0612 Y5.6709
G01 X3.0657 Y5.6301
G01 X3.0695 Y5.6121
G01 X3.0734 Y5.5990
G01 X3.0783 Y5.5861
G01 X3.0841 Y5.5737
G01 X3.1225 Y5.5034
G01 X3.1296 Y5.4921
G01 X3.1347 Y5.4849
G01 X3.1402 Y5.4779
G01 X3.1491 Y5.4680
G01 X4.1616 Y4.4554
G01 X4.1729 Y4.4456
G01 X4.1975 Y4.4258
G01 X4.2049 Y4.4204
G01 X4.2204 Y4.4108
G01 X4.2286 Y4.4065
G01 X4.2411 Y4.4009
G01 X4.2584 Y4.3949
G01 X4.3351 Y4.3726
G01 X4.3482 Y4.3699
G01 X4.3570 Y4.3687
G01 X4.3702 Y4.3675
G01 X4.3791 Y4.3673
G01 X26.0706 Y4.3675
G01 X26.0839 Y4.3687
G01 X26.0971 Y4.3707
G01 X26.1628 Y4.3852
G01 X26.1718 Y4.3879
G01 X26.1849 Y4.3927
G01 X26.1976 Y4.3985
G01 X26.2059 Y4.4028
G01 X26.2178 Y4.4102
G01 X26.2328 Y4.4213
G01 X26.2935 Y4.4739
G01 X26.3034 Y4.4836
G01 X26.3125 Y4.4941
G01 X26.3209 Y4.5052
G01 X26.3284 Y4.5169
G01 X26.3351 Y4.5291
G01 X26.3390 Y4.5375
G01 X26.3455 Y4.5549
G01 X26.3681 Y4.6317
G01 X26.3710 Y4.6447
G01 X26.3725 Y4.6534
G01 X26.3739 Y4.6667
G01 X26.3744 Y4.6800
G01 X26.3744 Y4.9724
G01 X26.3821 Y5.0470
G01 X26.4245 Y5.1748
G01 X26.4944 Y5.2883
G01 X26.5886 Y5.3827
G01 X26.7020 Y5.4529
G01 X26.8297 Y5.4955
G01 X26.9055 Y5.5033
G01 X28.2371 Y5.5033
G01 X28.3117 Y5.4957
G01 X28.4396 Y5.4533
G01 X28.5531 Y5.3833
G01 X28.6474 Y5.2891
G01 X28.7176 Y5.1757
G01 X28.7602 Y5.0480
G01 X28.7681 Y4.9722
G01 X28.7681 Y4.2656
G01 X28.7604 Y4.1910
G01 X28.7180 Y4.0632
G01 X28.6481 Y3.9497
G01 X28.5539 Y3.8553
G01 X28.4405 Y3.7851
G01 X28.3128 Y3.7425
G01 X28.2370 Y3.7347
G01 X27.6201 Y3.7346
G01 X27.6052 Y3.7336
G01 X27.5693 Y3.7295
G01 X27.5514 Y3.7258
G01 X27.5339 Y3.7203
G01 X27.5212 Y3.7151
G01 X27.5129 Y3.7111
G01 X27.4466 Y3.6749
G01 X27.4314 Y3.6657
G01 X27.4172 Y3.6550
G01 X27.4040 Y3.6431
G01 X27.1613 Y3.4003
G01 X27.1143 Y3.3510
G01 X27.1060 Y3.3440
G01 X27.0548 Y3.3129
G01 X27.0022 Y3.2786
G01 X26.9912 Y3.2732
G01 X26.9356 Y3.2552
G01 X26.8765 Y3.2339
G01 X26.8705 Y3.2325
G01 X26.8645 Y3.2312
G01 X26.8062 Y3.2265
G01 X26.7809 Y3.2236
G01 X26.7624 Y3.2229
G01 X26.7277 Y3.2201
G01 X26.7184 Y3.2213
G01 X26.6948 Y3.2231
G01 X26.6807 Y3.2237
G01 X4.0257 Y3.2237
G01 X3.9576 Y3.2219
G01 X3.9468 Y3.2229
G01 X3.8887 Y3.2371
G01 X3.8272 Y3.2500
G01 X3.8213 Y3.2520
G01 X3.8156 Y3.2541
G01 X3.7596 Y3.2826
G01 X3.7066 Y3.3073
G01 X3.6963 Y3.3140
G01 X3.6518 Y3.3518
G01 X3.6318 Y3.3677
G01 X3.6182 Y3.3802
G01 X3.5917 Y3.4029
G01 X3.5860 Y3.4102
G01 X3.5706 Y3.4283
G01 X3.5610 Y3.4386
G01 X2.0936 Y4.9060
G01 X2.0442 Y4.9529
G01 X2.0372 Y4.9613
G01 X2.0061 Y5.0124
G01 X1.9718 Y5.0650
G01 X1.9665 Y5.0761
G01 X1.9470 Y5.1358
G01 X1.9271 Y5.1908
G01 X1.9245 Y5.2028
G01 X1.9197 Y5.2610
G01 X1.9169 Y5.2863
G01 X1.9162 Y5.3048
G01 X1.9134 Y5.3396
G01 X1.9145 Y5.3489
G01 X1.9164 Y5.3725
G01 X1.9169 Y5.3866
G01 X1.9169 Y53.4163
G01 X1.9162 Y53.4378
G01 X1.9134 Y53.4726
G01 X1.9145 Y53.4819
G01 X1.9164 Y53.5055
G01 X1.9169 Y53.5196
G01 X1.9169 Y68.8701
G01 X1.9152 Y68.9381
G01 X1.9162 Y68.9490
G01 X1.9304 Y69.0071
G01 X1.9433 Y69.0686
G01 X1.9452 Y69.0744
G01 X1.9473 Y69.0802
G01 X1.9758 Y69.1362
G01 X2.0006 Y69.1891
G01 X2.0072 Y69.1994
G01 X2.0450 Y69.2440
G01 X2.0609 Y69.2639
G01 X2.0735 Y69.2775
G01 X2.0961 Y69.3041
G01 X2.1035 Y69.3098
G01 X2.1215 Y69.3252
G01 X2.1318 Y69.3348
G01 X3.8532 Y71.0562
G01 X3.9002 Y71.1055
G01 X3.9085 Y71.1125
G01 X3.9597 Y71.1436
G01 X4.0123 Y71.1780
G01 X4.0178 Y71.1807
G01 X4.0233 Y71.1833
G01 X4.0830 Y71.2027
G01 X4.1380 Y71.2226
G01 X4.1500 Y71.2252
G01 X4.2083 Y71.2300
G01 X4.2336 Y71.2329
G01 X4.2521 Y71.2336
G01 X4.2868 Y71.2364
G01 X4.2961 Y71.2352
G01 X4.3197 Y71.2334
G01 X4.3338 Y71.2328
G01 X9.1000 Y71.2328
G01 X9.1191 Y71.2338
G01 X9.1334 Y71.2358
G01 X9.1778 Y71.2439
G01 X9.1867 Y71.2458
G01 X9.2000 Y71.2494
G01 X9.2129 Y71.2539
G01 X9.2255 Y71.2594
G01 X9.2376 Y71.2659
G01 X9.2492 Y71.2731
G01 X9.3169 Y71.3239
G01 X9.3237 Y71.3296
G01 X9.3335 Y71.3387
G01 X9.3425 Y71.3485
G01 X9.3481 Y71.3553
G01 X9.4114 Y71.4403
G01 X9.5553 Y71.5776
G01 X9.7203 Y71.6886
G01 X9.9016 Y71.7703
G01 X10.0941 Y71.8203
G01 X10.2423 Y71.8328
G01 X10.5577 Y71.8328
G01 X10.5755 Y71.8337
G01 X10.5887 Y71.8354
G01 X10.5974 Y71.8371
G01 X10.6498 Y71.8485
G01 X10.6633 Y71.8520
G01 X10.6766 Y71.8565
G01 X10.6895 Y71.8619
G01 X10.7019 Y71.8683
G01 X10.7138 Y71.8757
G01 X10.7214 Y71.8811
G01 X10.7323 Y71.8898
G01 X10.7928 Y71.9425
G01 X10.8025 Y71.9525
G01 X10.8085 Y71.9596
G01 X10.8169 Y71.9707
G01 X10.8220 Y71.9784
G01 X10.8267 Y71.9864
G01 X10.8331 Y71.9988
G01 X10.8368 Y72.0073
G01 X10.8415 Y72.0204
G01 X10.8641 Y72.0972
G01 X10.8678 Y72.1145
G01 X10.8696 Y72.1278
G01 X10.8704 Y72.1455
G01 X10.8704 Y74.0771
G01 X10.8687 Y74.1451
G01 X10.8697 Y74.1560
G01 X10.8839 Y74.2141
G01 X10.8968 Y74.2756
G01 X10.8987 Y74.2814
G01 X10.9008 Y74.2872
G01 X10.9293 Y74.3432
G01 X10.9541 Y74.3961
G01 X10.9607 Y74.4064
G01 X10.9985 Y74.4510
G01 X11.0144 Y74.4709
G01 X11.0270 Y74.4845
G01 X11.0496 Y74.5111
G01 X11.0570 Y74.5168
G01 X11.0750 Y74.5322
G01 X11.0853 Y74.5418
G01 X13.3782 Y76.8347
G01 X13.4252 Y76.8840
G01 X13.4335 Y76.8910
G01 X13.4847 Y76.9221
G01 X13.5373 Y76.9565
G01 X13.5428 Y76.9592
G01 X13.5483 Y76.9618
G01 X13.6080 Y76.9812
G01 X13.6630 Y77.0011
G01 X13.6750 Y77.0037
G01 X13.7333 Y77.0085
G01 X13.7586 Y77.0114
G01 X13.7771 Y77.0121
G01 X13.8118 Y77.0149
G01 X13.8211 Y77.0137
G01 X13.8447 Y77.0119
G01 X13.8588 Y77.0113
G01 X27.8123 Y77.0113
G01 X27.8804 Y77.0131
G01 X27.8937 Y77.0120
G01 X27.9132 Y77.0113
G01 X66.3568 Y77.0113
G01 X66.4249 Y77.0131
G01 X66.4382 Y77.0120
G01 X66.4577 Y77.0113
G01 X85.7898 Y77.0113
G01 X85.8579 Y77.0131
G01 X85.8712 Y77.0120
G01 X85.8907 Y77.0113
G01 X106.8468 Y77.0113
G01 X106.9149 Y77.0131
G01 X106.9282 Y77.0120
G01 X106.9477 Y77.0113
G01 X125.3483 Y77.0113
G01 X125.4164 Y77.0131
G01 X125.4297 Y77.0120
G01 X125.4492 Y77.0113
G01 X125.7948 Y77.0113
G01 X125.8629 Y77.0131
G01 X125.8737 Y77.0121
G01 X125.9318 Y76.9979
G01 X125.9933 Y76.9850
G01 X126.0052 Y76.9808
G01 X126.0147 Y76.9764
G01 X126.0229 Y76.9732
G01 X126.0354 Y76.9691
G01 X126.1013 Y76.9530
G01 X126.1099 Y76.9511
G01 X126.1229 Y76.9491
G01 X126.1317 Y76.9483
G01 X126.1449 Y76.9478
