(G-CODE GENERATED BY FLATCAM v8.992 - www.flatcam.org - Version Date: 2020/05/03)

(Name: Phoenix612_Stage_2_PA_Testing_v2.kicad_pro.drl_cnc)
(Type: G-code from Excellon)
(Units: MM)

(Created on Monday, 23 January 2023 at 16:24)

(This preprocessor is the default preprocessor used by FlatCAM.)
(It is made to work with MACH3 compatible motion controllers.)


(TOOLS DIAMETER: )
(Tool: 1 -> Dia: 1.0)

(FEEDRATE Z: )
(Tool: 1 -> Feedrate: 40.0)

(FEEDRATE RAPIDS: )
(Tool: 1 -> Feedrate Rapids: 1500)

(Z_CUT: )
(Tool: 1 -> Z_Cut: -1.7)

(Tools Offset: )
(Tool: 1 -> Offset Z: -0.0)

(DEPTH_PER_CUT: )
(Tool: 1 -> DeptPerCut: 0.7)

(Z_MOVE: )
(Tool: 1 -> Z_Move: 2)

(Z Start: None mm)
(Z End: 2.0 mm)
(Steps per circle: 64)
(Preprocessor Excellon: default)

(X range:    5.7060 ...   45.3780  mm)
(Y range:    4.4590 ...   80.6720  mm)

(Spindle Speed: None RPM)
G21
G90
G94



G00 Z2.0000

G01 F40.00
M03
G00 X6.2060 Y18.3810
G01 Z-0.7000
G01 Z0
G00 Z2.0000
G01 Z-1.4000
G01 Z0
G00 Z2.0000
G01 Z-1.7000
G01 Z0
G00 Z2.0000
G00 X6.2060 Y8.2210
G01 Z-0.7000
G01 Z0
G00 Z2.0000
G01 Z-1.4000
G01 Z0
G00 Z2.0000
G01 Z-1.7000
G01 Z0
G00 Z2.0000
G00 X13.5720 Y7.4590
G01 Z-0.7000
G01 Z0
G00 Z2.0000
G01 Z-1.4000
G01 Z0
G00 Z2.0000
G01 Z-1.7000
G01 Z0
G00 Z2.0000
G00 X13.5720 Y4.9590
G01 Z-0.7000
G01 Z0
G00 Z2.0000
G01 Z-1.4000
G01 Z0
G00 Z2.0000
G01 Z-1.7000
G01 Z0
G00 Z2.0000
G00 X20.5670 Y9.8090
G01 Z-0.7000
G01 Z0
G00 Z2.0000
G01 Z-1.4000
G01 Z0
G00 Z2.0000
G01 Z-1.7000
G01 Z0
G00 Z2.0000
G00 X23.1070 Y9.8090
G01 Z-0.7000
G01 Z0
G00 Z2.0000
G01 Z-1.4000
G01 Z0
G00 Z2.0000
G01 Z-1.7000
G01 Z0
G00 Z2.0000
G00 X25.6470 Y9.8090
G01 Z-0.7000
G01 Z0
G00 Z2.0000
G01 Z-1.4000
G01 Z0
G00 Z2.0000
G01 Z-1.7000
G01 Z0
G00 Z2.0000
G00 X31.5660 Y20.3340
G01 Z-0.7000
G01 Z0
G00 Z2.0000
G01 Z-1.4000
G01 Z0
G00 Z2.0000
G01 Z-1.7000
G01 Z0
G00 Z2.0000
G00 X31.5660 Y26.3340
G01 Z-0.7000
G01 Z0
G00 Z2.0000
G01 Z-1.4000
G01 Z0
G00 Z2.0000
G01 Z-1.7000
G01 Z0
G00 Z2.0000
G00 X44.2430 Y22.6990
G01 Z-0.7000
G01 Z0
G00 Z2.0000
G01 Z-1.4000
G01 Z0
G00 Z2.0000
G01 Z-1.7000
G01 Z0
G00 Z2.0000
G00 X44.8780 Y29.8950
G01 Z-0.7000
G01 Z0
G00 Z2.0000
G01 Z-1.4000
G01 Z0
G00 Z2.0000
G01 Z-1.7000
G01 Z0
G00 Z2.0000
G00 X42.3380 Y29.8950
G01 Z-0.7000
G01 Z0
G00 Z2.0000
G01 Z-1.4000
G01 Z0
G00 Z2.0000
G01 Z-1.7000
G01 Z0
G00 Z2.0000
G00 X39.7980 Y29.8950
G01 Z-0.7000
G01 Z0
G00 Z2.0000
G01 Z-1.4000
G01 Z0
G00 Z2.0000
G01 Z-1.7000
G01 Z0
G00 Z2.0000
G00 X30.8490 Y38.7640
G01 Z-0.7000
G01 Z0
G00 Z2.0000
G01 Z-1.4000
G01 Z0
G00 Z2.0000
G01 Z-1.7000
G01 Z0
G00 Z2.0000
G00 X28.3090 Y38.7640
G01 Z-0.7000
G01 Z0
G00 Z2.0000
G01 Z-1.4000
G01 Z0
G00 Z2.0000
G01 Z-1.7000
G01 Z0
G00 Z2.0000
G00 X43.9890 Y49.6870
G01 Z-0.7000
G01 Z0
G00 Z2.0000
G01 Z-1.4000
G01 Z0
G00 Z2.0000
G01 Z-1.7000
G01 Z0
G00 Z2.0000
G00 X44.4970 Y56.3750
G01 Z-0.7000
G01 Z0
G00 Z2.0000
G01 Z-1.4000
G01 Z0
G00 Z2.0000
G01 Z-1.7000
G01 Z0
G00 Z2.0000
G00 X41.9570 Y56.3750
G01 Z-0.7000
G01 Z0
G00 Z2.0000
G01 Z-1.4000
G01 Z0
G00 Z2.0000
G01 Z-1.7000
G01 Z0
G00 Z2.0000
G00 X39.4170 Y56.3750
G01 Z-0.7000
G01 Z0
G00 Z2.0000
G01 Z-1.4000
G01 Z0
G00 Z2.0000
G01 Z-1.7000
G01 Z0
G00 Z2.0000
G00 X34.7410 Y56.0210
G01 Z-0.7000
G01 Z0
G00 Z2.0000
G01 Z-1.4000
G01 Z0
G00 Z2.0000
G01 Z-1.7000
G01 Z0
G00 Z2.0000
G00 X34.7410 Y62.0210
G01 Z-0.7000
G01 Z0
G00 Z2.0000
G01 Z-1.4000
G01 Z0
G00 Z2.0000
G01 Z-1.7000
G01 Z0
G00 Z2.0000
G00 X21.7410 Y62.0210
G01 Z-0.7000
G01 Z0
G00 Z2.0000
G01 Z-1.4000
G01 Z0
G00 Z2.0000
G01 Z-1.7000
G01 Z0
G00 Z2.0000
G00 X21.7410 Y56.0210
G01 Z-0.7000
G01 Z0
G00 Z2.0000
G01 Z-1.4000
G01 Z0
G00 Z2.0000
G01 Z-1.7000
G01 Z0
G00 Z2.0000
G00 X17.1280 Y59.2120
G01 Z-0.7000
G01 Z0
G00 Z2.0000
G01 Z-1.4000
G01 Z0
G00 Z2.0000
G01 Z-1.7000
G01 Z0
G00 Z2.0000
G00 X17.1280 Y61.7520
G01 Z-0.7000
G01 Z0
G00 Z2.0000
G01 Z-1.4000
G01 Z0
G00 Z2.0000
G01 Z-1.7000
G01 Z0
G00 Z2.0000
G00 X16.7470 Y71.0860
G01 Z-0.7000
G01 Z0
G00 Z2.0000
G01 Z-1.4000
G01 Z0
G00 Z2.0000
G01 Z-1.7000
G01 Z0
G00 Z2.0000
G00 X19.3020 Y75.2130
G01 Z-0.7000
G01 Z0
G00 Z2.0000
G01 Z-1.4000
G01 Z0
G00 Z2.0000
G01 Z-1.7000
G01 Z0
G00 Z2.0000
G00 X16.7620 Y75.2130
G01 Z-0.7000
G01 Z0
G00 Z2.0000
G01 Z-1.4000
G01 Z0
G00 Z2.0000
G01 Z-1.7000
G01 Z0
G00 Z2.0000
G00 X14.2220 Y75.2130
G01 Z-0.7000
G01 Z0
G00 Z2.0000
G01 Z-1.4000
G01 Z0
G00 Z2.0000
G01 Z-1.7000
G01 Z0
G00 Z2.0000
G00 X7.1590 Y80.1720
G01 Z-0.7000
G01 Z0
G00 Z2.0000
G01 Z-1.4000
G01 Z0
G00 Z2.0000
G01 Z-1.7000
G01 Z0
G00 Z2.0000
G00 X7.1590 Y77.6320
G01 Z-0.7000
G01 Z0
G00 Z2.0000
G01 Z-1.4000
G01 Z0
G00 Z2.0000
G01 Z-1.7000
G01 Z0
G00 Z2.0000
G00 X6.5870 Y71.0860
G01 Z-0.7000
G01 Z0
G00 Z2.0000
G01 Z-1.4000
G01 Z0
G00 Z2.0000
G01 Z-1.7000
G01 Z0
G00 Z2.0000
G00 X8.4920 Y52.2270
G01 Z-0.7000
G01 Z0
G00 Z2.0000
G01 Z-1.4000
G01 Z0
G00 Z2.0000
G01 Z-1.7000
G01 Z0
G00 Z2.0000
G00 X20.4940 Y46.2580
G01 Z-0.7000
G01 Z0
G00 Z2.0000
G01 Z-1.4000
G01 Z0
G00 Z2.0000
G01 Z-1.7000
G01 Z0
G00 Z2.0000
G00 X17.9540 Y46.2580
G01 Z-0.7000
G01 Z0
G00 Z2.0000
G01 Z-1.4000
G01 Z0
G00 Z2.0000
G01 Z-1.7000
G01 Z0
G00 Z2.0000
G00 X15.4140 Y46.2580
G01 Z-0.7000
G01 Z0
G00 Z2.0000
G01 Z-1.4000
G01 Z0
G00 Z2.0000
G01 Z-1.7000
G01 Z0
G00 Z2.0000
G00 X8.4920 Y42.0670
G01 Z-0.7000
G01 Z0
G00 Z2.0000
G01 Z-1.4000
G01 Z0
G00 Z2.0000
G01 Z-1.7000
G01 Z0
G00 Z2.0000
G00 X13.4450 Y35.5900
G01 Z-0.7000
G01 Z0
G00 Z2.0000
G01 Z-1.4000
G01 Z0
G00 Z2.0000
G01 Z-1.7000
G01 Z0
G00 Z2.0000
G00 X15.9450 Y35.5900
G01 Z-0.7000
G01 Z0
G00 Z2.0000
G01 Z-1.4000
G01 Z0
G00 Z2.0000
G01 Z-1.7000
G01 Z0
G00 Z2.0000
G00 X14.1440 Y26.9490
G01 Z-0.7000
G01 Z0
G00 Z2.0000
G01 Z-1.4000
G01 Z0
G00 Z2.0000
G01 Z-1.7000
G01 Z0
G00 Z2.0000
G00 X14.1440 Y24.4090
G01 Z-0.7000
G01 Z0
G00 Z2.0000
G01 Z-1.4000
G01 Z0
G00 Z2.0000
G01 Z-1.7000
G01 Z0
G00 Z2.0000
G00 X18.5660 Y26.3340
G01 Z-0.7000
G01 Z0
G00 Z2.0000
G01 Z-1.4000
G01 Z0
G00 Z2.0000
G01 Z-1.7000
G01 Z0
G00 Z2.0000
G00 X18.5660 Y20.3340
G01 Z-0.7000
G01 Z0
G00 Z2.0000
G01 Z-1.4000
G01 Z0
G00 Z2.0000
G01 Z-1.7000
G01 Z0
G00 Z2.0000
M05
G00 Z2.00
G00 X0.0 Y0.0

