(G-CODE GENERATED BY FLATCAM v8.992 - www.flatcam.org - Version Date: 2020/05/03)

(Name: Phoenix612_Stage_2_PA_Testing_v2.kicad_pro-Edge_Cuts.gbr_cutout_cnc)
(Type: G-code from Geometry)
(Units: MM)

(Created on Monday, 23 January 2023 at 16:22)

(This preprocessor is the default preprocessor used by FlatCAM.)
(It is made to work with MACH3 compatible motion controllers.)

(TOOL DIAMETER: 1.0 mm)
(Feedrate_XY: 50.0 mm/min)
(Feedrate_Z: 40.0 mm/min)
(Feedrate rapids 1500.0 mm/min)

(Z_Cut: -1.8 mm)
(DepthPerCut: 0.6 mm <=>3 passes)
(Z_Move: 2.0 mm)
(Z Start: None mm)
(Z End: 10.0 mm)
(Steps per circle: 64)
(Preprocessor Geometry: default)

(X range:   -0.7937 ...   48.5759  mm)
(Y range:   -0.7475 ...   85.1345  mm)

(Spindle Speed: None RPM)
G21
G90
G94



G01 F50.00
G00 Z2.0000

M03
G00 X47.9759 Y-0.7475
G01 F40.00
G01 Z-0.6000
G01 F50.00
G01 X-0.1937 Y-0.7475
G01 X-0.2525 Y-0.7446
G01 X-0.3107 Y-0.7360
G01 X-0.3678 Y-0.7217
G01 X-0.4233 Y-0.7019
G01 X-0.4765 Y-0.6767
G01 X-0.5270 Y-0.6464
G01 X-0.5743 Y-0.6113
G01 X-0.6179 Y-0.5718
G01 X-0.6575 Y-0.5282
G01 X-0.6926 Y-0.4809
G01 X-0.7228 Y-0.4304
G01 X-0.7480 Y-0.3771
G01 X-0.7678 Y-0.3217
G01 X-0.7821 Y-0.2646
G01 X-0.7908 Y-0.2063
G01 X-0.7937 Y-0.1475
G01 X-0.7937 Y84.5345
G01 X-0.7908 Y84.5933
G01 X-0.7821 Y84.6516
G01 X-0.7678 Y84.7087
G01 X-0.7480 Y84.7641
G01 X-0.7228 Y84.8174
G01 X-0.6926 Y84.8679
G01 X-0.6575 Y84.9152
G01 X-0.6179 Y84.9588
G01 X-0.5743 Y84.9983
G01 X-0.5270 Y85.0334
G01 X-0.4765 Y85.0637
G01 X-0.4233 Y85.0889
G01 X-0.3678 Y85.1087
G01 X-0.3107 Y85.1230
G01 X-0.2525 Y85.1316
G01 X-0.1937 Y85.1345
G01 X47.9759 Y85.1345
G01 X48.0347 Y85.1316
G01 X48.0929 Y85.1230
G01 X48.1500 Y85.1087
G01 X48.2055 Y85.0889
G01 X48.2587 Y85.0637
G01 X48.3092 Y85.0334
G01 X48.3565 Y84.9983
G01 X48.4001 Y84.9588
G01 X48.4397 Y84.9152
G01 X48.4748 Y84.8679
G01 X48.5050 Y84.8174
G01 X48.5302 Y84.7641
G01 X48.5500 Y84.7087
G01 X48.5643 Y84.6516
G01 X48.5730 Y84.5933
G01 X48.5759 Y84.5345
G01 X48.5759 Y-0.1475
G01 X48.5730 Y-0.2063
G01 X48.5643 Y-0.2646
G01 X48.5500 Y-0.3217
G01 X48.5302 Y-0.3771
G01 X48.5050 Y-0.4304
G01 X48.4748 Y-0.4809
G01 X48.4397 Y-0.5282
G01 X48.4001 Y-0.5718
G01 X48.3565 Y-0.6113
G01 X48.3092 Y-0.6464
G01 X48.2587 Y-0.6767
G01 X48.2055 Y-0.7019
G01 X48.1500 Y-0.7217
G01 X48.0929 Y-0.7360
G01 X48.0347 Y-0.7446
G01 X47.9759 Y-0.7475
G00 X47.9759 Y-0.7475
G01 F40.00
G01 Z-1.2000
G01 F50.00
G01 X-0.1937 Y-0.7475
G01 X-0.2525 Y-0.7446
G01 X-0.3107 Y-0.7360
G01 X-0.3678 Y-0.7217
G01 X-0.4233 Y-0.7019
G01 X-0.4765 Y-0.6767
G01 X-0.5270 Y-0.6464
G01 X-0.5743 Y-0.6113
G01 X-0.6179 Y-0.5718
G01 X-0.6575 Y-0.5282
G01 X-0.6926 Y-0.4809
G01 X-0.7228 Y-0.4304
G01 X-0.7480 Y-0.3771
G01 X-0.7678 Y-0.3217
G01 X-0.7821 Y-0.2646
G01 X-0.7908 Y-0.2063
G01 X-0.7937 Y-0.1475
G01 X-0.7937 Y84.5345
G01 X-0.7908 Y84.5933
G01 X-0.7821 Y84.6516
G01 X-0.7678 Y84.7087
G01 X-0.7480 Y84.7641
G01 X-0.7228 Y84.8174
G01 X-0.6926 Y84.8679
G01 X-0.6575 Y84.9152
G01 X-0.6179 Y84.9588
G01 X-0.5743 Y84.9983
G01 X-0.5270 Y85.0334
G01 X-0.4765 Y85.0637
G01 X-0.4233 Y85.0889
G01 X-0.3678 Y85.1087
G01 X-0.3107 Y85.1230
G01 X-0.2525 Y85.1316
G01 X-0.1937 Y85.1345
G01 X47.9759 Y85.1345
G01 X48.0347 Y85.1316
G01 X48.0929 Y85.1230
G01 X48.1500 Y85.1087
G01 X48.2055 Y85.0889
G01 X48.2587 Y85.0637
G01 X48.3092 Y85.0334
G01 X48.3565 Y84.9983
G01 X48.4001 Y84.9588
G01 X48.4397 Y84.9152
G01 X48.4748 Y84.8679
G01 X48.5050 Y84.8174
G01 X48.5302 Y84.7641
G01 X48.5500 Y84.7087
G01 X48.5643 Y84.6516
G01 X48.5730 Y84.5933
G01 X48.5759 Y84.5345
G01 X48.5759 Y-0.1475
G01 X48.5730 Y-0.2063
G01 X48.5643 Y-0.2646
G01 X48.5500 Y-0.3217
G01 X48.5302 Y-0.3771
G01 X48.5050 Y-0.4304
G01 X48.4748 Y-0.4809
G01 X48.4397 Y-0.5282
G01 X48.4001 Y-0.5718
G01 X48.3565 Y-0.6113
G01 X48.3092 Y-0.6464
G01 X48.2587 Y-0.6767
G01 X48.2055 Y-0.7019
G01 X48.1500 Y-0.7217
G01 X48.0929 Y-0.7360
G01 X48.0347 Y-0.7446
G01 X47.9759 Y-0.7475
G00 X47.9759 Y-0.7475
G01 F40.00
G01 Z-1.8000
G01 F50.00
G01 X-0.1937 Y-0.7475
G01 X-0.2525 Y-0.7446
G01 X-0.3107 Y-0.7360
G01 X-0.3678 Y-0.7217
G01 X-0.4233 Y-0.7019
G01 X-0.4765 Y-0.6767
G01 X-0.5270 Y-0.6464
G01 X-0.5743 Y-0.6113
G01 X-0.6179 Y-0.5718
G01 X-0.6575 Y-0.5282
G01 X-0.6926 Y-0.4809
G01 X-0.7228 Y-0.4304
G01 X-0.7480 Y-0.3771
G01 X-0.7678 Y-0.3217
G01 X-0.7821 Y-0.2646
G01 X-0.7908 Y-0.2063
G01 X-0.7937 Y-0.1475
G01 X-0.7937 Y84.5345
G01 X-0.7908 Y84.5933
G01 X-0.7821 Y84.6516
G01 X-0.7678 Y84.7087
G01 X-0.7480 Y84.7641
G01 X-0.7228 Y84.8174
G01 X-0.6926 Y84.8679
G01 X-0.6575 Y84.9152
G01 X-0.6179 Y84.9588
G01 X-0.5743 Y84.9983
G01 X-0.5270 Y85.0334
G01 X-0.4765 Y85.0637
G01 X-0.4233 Y85.0889
G01 X-0.3678 Y85.1087
G01 X-0.3107 Y85.1230
G01 X-0.2525 Y85.1316
G01 X-0.1937 Y85.1345
G01 X47.9759 Y85.1345
G01 X48.0347 Y85.1316
G01 X48.0929 Y85.1230
G01 X48.1500 Y85.1087
G01 X48.2055 Y85.0889
G01 X48.2587 Y85.0637
G01 X48.3092 Y85.0334
G01 X48.3565 Y84.9983
G01 X48.4001 Y84.9588
G01 X48.4397 Y84.9152
G01 X48.4748 Y84.8679
G01 X48.5050 Y84.8174
G01 X48.5302 Y84.7641
G01 X48.5500 Y84.7087
G01 X48.5643 Y84.6516
G01 X48.5730 Y84.5933
G01 X48.5759 Y84.5345
G01 X48.5759 Y-0.1475
G01 X48.5730 Y-0.2063
G01 X48.5643 Y-0.2646
G01 X48.5500 Y-0.3217
G01 X48.5302 Y-0.3771
G01 X48.5050 Y-0.4304
G01 X48.4748 Y-0.4809
G01 X48.4397 Y-0.5282
G01 X48.4001 Y-0.5718
G01 X48.3565 Y-0.6113
G01 X48.3092 Y-0.6464
G01 X48.2587 Y-0.6767
G01 X48.2055 Y-0.7019
G01 X48.1500 Y-0.7217
G01 X48.0929 Y-0.7360
G01 X48.0347 Y-0.7446
G01 X47.9759 Y-0.7475
G00 Z2.0000
M05
G00 Z2.0000
G00 Z10.00
G00 X0.0 Y0.0

