(G-CODE GENERATED BY FLATCAM v8.992 - www.flatcam.org - Version Date: 2020/05/03)

(Name: Phoenix612_Stage_2_PA_Testing_v2.kicad_pro-F_Cu.gbr_iso_fast_cnc)
(Type: G-code from Geometry)
(Units: MM)

(Created on Monday, 23 January 2023 at 16:20)

(This preprocessor is the default preprocessor used by FlatCAM.)
(It is made to work with MACH3 compatible motion controllers.)

(TOOL DIAMETER: 0.2458 mm)
(Feedrate_XY: 120.0 mm/min)
(Feedrate_Z: 60.0 mm/min)
(Feedrate rapids 1500.0 mm/min)

(Z_Cut: -0.13 mm)
(Z_Move: 2.0 mm)
(Z Start: None mm)
(Z End: 10.0 mm)
(Steps per circle: 64)
(Preprocessor Geometry: default)

(X range:   -0.1513 ...   47.9335  mm)
(Y range:   -0.1052 ...   84.4922  mm)

(Spindle Speed: None RPM)
G21
G90
G94



G01 F120.00
G00 Z2.0000

M03
G00 X2.7797 Y3.4880
G01 F60.00
G01 Z-0.1300
G01 F120.00
G01 X2.7887 Y3.4019
G01 X2.8358 Y3.2605
G01 X2.9138 Y3.1345
G01 X3.0187 Y3.0298
G01 X3.1449 Y2.9520
G01 X3.2864 Y2.9051
G01 X3.3712 Y2.8964
G01 X4.0844 Y2.8964
G01 X4.1704 Y2.9053
G01 X4.3118 Y2.9525
G01 X4.4378 Y3.0305
G01 X4.5426 Y3.1354
G01 X4.6203 Y3.2616
G01 X4.6673 Y3.4031
G01 X4.6759 Y3.4879
G01 X4.6759 Y4.8260
G01 X4.6670 Y4.9121
G01 X4.6199 Y5.0535
G01 X4.5419 Y5.1795
G01 X4.4595 Y5.2618
G01 X4.4500 Y5.2729
G01 X4.4434 Y5.2826
G01 X4.4050 Y5.3526
G01 X4.3989 Y5.3665
G01 X4.3953 Y5.3780
G01 X4.3929 Y5.3898
G01 X4.3892 Y5.4227
G01 X4.3885 Y5.4326
G01 X4.3884 Y6.7564
G01 X4.3890 Y6.7681
G01 X4.3907 Y6.7797
G01 X4.3926 Y6.7882
G01 X4.4153 Y6.8650
G01 X4.4186 Y6.8735
G01 X4.4226 Y6.8817
G01 X4.4271 Y6.8897
G01 X4.4323 Y6.8972
G01 X4.4400 Y6.9067
G01 X4.4486 Y6.9154
G01 X4.5045 Y6.9639
G01 X4.5117 Y6.9696
G01 X4.5218 Y6.9764
G01 X4.5326 Y6.9822
G01 X4.5439 Y6.9868
G01 X4.5555 Y6.9903
G01 X4.5675 Y6.9927
G01 X4.6439 Y7.0035
G01 X4.6591 Y7.0040
G01 X4.6682 Y7.0033
G01 X4.6773 Y7.0020
G01 X4.6921 Y6.9984
G01 X4.7035 Y6.9941
G01 X4.7709 Y6.9634
G01 X4.7791 Y6.9593
G01 X4.7869 Y6.9546
G01 X4.7943 Y6.9494
G01 X4.8014 Y6.9436
G01 X4.8121 Y6.9328
G01 X4.8179 Y6.9258
G01 X4.8231 Y6.9183
G01 X4.8646 Y6.8506
G01 X4.8714 Y6.8377
G01 X4.8748 Y6.8297
G01 X4.8775 Y6.8214
G01 X4.8873 Y6.7822
G01 X4.9744 Y6.5770
G01 X5.0932 Y6.3883
G01 X5.2407 Y6.2210
G01 X5.4130 Y6.0795
G01 X5.6057 Y5.9674
G01 X5.8306 Y5.8809
G01 X5.8439 Y5.8739
G01 X5.9077 Y5.8329
G01 X5.9174 Y5.8255
G01 X5.9264 Y5.8172
G01 X5.9364 Y5.8057
G01 X5.9433 Y5.7956
G01 X5.9505 Y5.7822
G01 X5.9799 Y5.7176
G01 X5.9852 Y5.7040
G01 X5.9875 Y5.6955
G01 X5.9897 Y5.6840
G01 X5.9907 Y5.6753
G01 X5.9922 Y5.6517
G01 X5.9921 Y5.4301
G01 X5.9910 Y5.4185
G01 X5.9881 Y5.4042
G01 X5.9664 Y5.3303
G01 X5.9609 Y5.3163
G01 X5.9568 Y5.3082
G01 X5.9522 Y5.3005
G01 X5.9469 Y5.2931
G01 X5.9262 Y5.2673
G01 X5.9195 Y5.2601
G01 X5.8381 Y5.1786
G01 X5.7604 Y5.0524
G01 X5.7134 Y4.9109
G01 X5.7047 Y4.8261
G01 X5.7047 Y3.4880
G01 X5.7137 Y3.4019
G01 X5.7608 Y3.2605
G01 X5.8388 Y3.1345
G01 X5.9437 Y3.0298
G01 X6.0699 Y2.9520
G01 X6.2114 Y2.9051
G01 X6.2962 Y2.8964
G01 X7.0094 Y2.8964
G01 X7.0954 Y2.9053
G01 X7.2368 Y2.9525
G01 X7.3628 Y3.0305
G01 X7.4676 Y3.1354
G01 X7.5453 Y3.2616
G01 X7.5923 Y3.4031
G01 X7.6009 Y3.4879
G01 X7.6009 Y4.8260
G01 X7.5920 Y4.9121
G01 X7.5449 Y5.0535
G01 X7.4669 Y5.1795
G01 X7.3845 Y5.2618
G01 X7.3768 Y5.2706
G01 X7.3716 Y5.2777
G01 X7.3655 Y5.2877
G01 X7.3287 Y5.3553
G01 X7.3229 Y5.3693
G01 X7.3203 Y5.3780
G01 X7.3184 Y5.3868
G01 X7.3171 Y5.3958
G01 X7.3142 Y5.4227
G01 X7.3134 Y5.4359
G01 X7.3136 Y6.3093
G01 X7.3147 Y6.3209
G01 X7.3176 Y6.3352
G01 X7.3385 Y6.4064
G01 X7.3426 Y6.4180
G01 X7.3478 Y6.4291
G01 X7.3524 Y6.4371
G01 X7.3631 Y6.4526
G01 X7.3748 Y6.4680
G01 X7.4802 Y6.6645
G01 X7.5528 Y6.8753
G01 X7.5911 Y7.0971
G01 X7.5919 Y7.1157
G01 X7.5919 Y7.3115
G01 X7.5928 Y7.3261
G01 X7.5942 Y7.3348
G01 X7.5961 Y7.3433
G01 X7.6188 Y7.4201
G01 X7.6247 Y7.4341
G01 X7.6306 Y7.4448
G01 X7.6395 Y7.4572
G01 X7.6499 Y7.4684
G01 X7.7128 Y7.5229
G01 X7.7202 Y7.5283
G01 X7.7281 Y7.5331
G01 X7.7363 Y7.5374
G01 X7.7447 Y7.5410
G01 X7.7594 Y7.5455
G01 X7.8176 Y7.5582
G01 X7.8292 Y7.5598
G01 X7.8408 Y7.5604
G01 X10.9440 Y7.5604
G01 X10.9527 Y7.5601
G01 X10.9615 Y7.5591
G01 X10.9701 Y7.5576
G01 X10.9786 Y7.5554
G01 X11.0525 Y7.5336
G01 X11.0666 Y7.5277
G01 X11.0773 Y7.5217
G01 X11.0897 Y7.5128
G01 X11.1009 Y7.5025
G01 X11.1515 Y7.4443
G01 X11.1589 Y7.4348
G01 X11.1639 Y7.4272
G01 X11.1696 Y7.4166
G01 X11.1732 Y7.4083
G01 X11.1770 Y7.3968
G01 X11.1875 Y7.3590
G01 X11.1903 Y7.3465
G01 X11.2087 Y7.1890
G01 X11.2694 Y6.9744
G01 X11.3637 Y6.7724
G01 X11.4890 Y6.5880
G01 X11.6422 Y6.4259
G01 X11.6758 Y6.3999
G01 X11.6842 Y6.3917
G01 X11.6917 Y6.3828
G01 X11.7372 Y6.3207
G01 X11.7451 Y6.3077
G01 X11.7503 Y6.2966
G01 X11.7543 Y6.2851
G01 X11.7571 Y6.2732
G01 X11.7590 Y6.2581
G01 X11.7635 Y6.1841
G01 X11.7631 Y6.1689
G01 X11.7614 Y6.1567
G01 X11.7576 Y6.1419
G01 X11.7533 Y6.1305
G01 X11.7479 Y6.1195
G01 X11.7055 Y6.0482
G01 X11.7005 Y6.0408
G01 X11.6950 Y6.0338
G01 X11.6889 Y6.0272
G01 X11.6824 Y6.0210
G01 X11.5727 Y5.9242
G01 X11.4312 Y5.7520
G01 X11.3191 Y5.5593
G01 X11.2393 Y5.3515
G01 X11.2361 Y5.3359
G01 X11.5159 Y5.3359
G01 X11.5328 Y5.3831
G01 X11.5361 Y5.3915
G01 X11.5793 Y5.4829
G01 X11.5835 Y5.4910
G01 X11.6387 Y5.5828
G01 X11.7006 Y5.6666
G01 X11.7063 Y5.6737
G01 X11.7783 Y5.7530
G01 X11.8600 Y5.8270
G01 X11.9485 Y5.8927
G01 X12.0404 Y5.9479
G01 X12.0484 Y5.9520
G01 X12.1426 Y5.9964
G01 X12.2407 Y6.0317
G01 X12.2522 Y6.0352
G01 X12.3533 Y6.0603
G01 X12.4563 Y6.0758
G01 X12.4683 Y6.0769
G01 X12.5723 Y6.0819
G01 X14.5723 Y6.0819
G01 X14.6824 Y6.0765
G01 X14.7855 Y6.0614
G01 X14.7944 Y6.0597
G01 X14.8925 Y6.0352
G01 X14.9040 Y6.0317
G01 X15.0021 Y5.9964
G01 X15.0963 Y5.9520
G01 X15.1069 Y5.9463
G01 X15.1962 Y5.8927
G01 X15.2800 Y5.8307
G01 X15.2870 Y5.8251
G01 X15.3620 Y5.7572
G01 X15.3705 Y5.7486
G01 X15.4404 Y5.6714
G01 X15.5043 Y5.5853
G01 X15.5092 Y5.5778
G01 X15.5597 Y5.4936
G01 X15.5640 Y5.4857
G01 X15.6086 Y5.3915
G01 X15.6119 Y5.3831
G01 X15.6288 Y5.3359
G01 X15.9052 Y5.3359
G01 X15.8748 Y5.4435
G01 X15.7805 Y5.6455
G01 X15.6552 Y5.8298
G01 X15.5023 Y5.9916
G01 X15.4689 Y6.0175
G01 X15.4606 Y6.0256
G01 X15.4530 Y6.0346
G01 X15.4075 Y6.0967
G01 X15.3996 Y6.1097
G01 X15.3944 Y6.1208
G01 X15.3904 Y6.1323
G01 X15.3876 Y6.1442
G01 X15.3857 Y6.1593
G01 X15.3812 Y6.2363
G01 X15.3819 Y6.2515
G01 X15.3833 Y6.2606
G01 X15.3854 Y6.2696
G01 X15.3902 Y6.2841
G01 X15.3969 Y6.2978
G01 X15.4379 Y6.3670
G01 X15.4427 Y6.3744
G01 X15.4518 Y6.3860
G01 X15.4601 Y6.3944
G01 X15.5723 Y6.4933
G01 X15.7138 Y6.6656
G01 X15.7232 Y6.6813
G01 X15.7324 Y6.6934
G01 X15.7408 Y6.7021
G01 X15.7924 Y6.7509
G01 X15.8017 Y6.7589
G01 X15.8091 Y6.7642
G01 X15.8196 Y6.7704
G01 X15.8279 Y6.7744
G01 X15.8364 Y6.7777
G01 X15.8452 Y6.7804
G01 X15.9083 Y6.7956
G01 X15.9197 Y6.7975
G01 X15.9313 Y6.7984
G01 X18.2088 Y6.7984
G01 X18.2850 Y6.7976
G01 X18.3155 Y6.8042
G01 X18.3311 Y6.8068
G01 X18.3651 Y6.8107
G01 X18.3861 Y6.8180
G01 X18.4045 Y6.8232
G01 X18.4299 Y6.8289
G01 X18.4581 Y6.8421
G01 X18.4728 Y6.8481
G01 X18.5051 Y6.8595
G01 X18.5272 Y6.8730
G01 X18.5441 Y6.8821
G01 X18.5642 Y6.8916
G01 X18.5914 Y6.9124
G01 X18.6044 Y6.9215
G01 X18.6308 Y6.9380
G01 X18.7409 Y7.0474
G01 X18.7471 Y7.0540
G01 X19.3914 Y7.6981
G01 X19.4004 Y7.7056
G01 X19.4126 Y7.7136
G01 X19.4775 Y7.7491
G01 X19.4857 Y7.7532
G01 X19.4999 Y7.7586
G01 X19.5117 Y7.7616
G01 X19.5238 Y7.7635
G01 X19.5360 Y7.7641
G01 X19.5451 Y7.7638
G01 X19.6160 Y7.7587
G01 X19.6251 Y7.7577
G01 X19.6342 Y7.7560
G01 X19.6431 Y7.7537
G01 X19.6519 Y7.7506
G01 X19.6603 Y7.7470
G01 X19.6685 Y7.7427
G01 X19.7045 Y7.7220
G01 X19.7142 Y7.7157
G01 X19.7211 Y7.7104
G01 X19.7740 Y7.6670
G01 X19.9491 Y7.5651
G01 X19.9612 Y7.5570
G01 X19.9680 Y7.5515
G01 X19.9744 Y7.5455
G01 X20.0274 Y7.4896
G01 X20.0351 Y7.4801
G01 X20.0433 Y7.4673
G01 X20.0499 Y7.4535
G01 X20.0548 Y7.4391
G01 X20.0700 Y7.3759
G01 X20.0715 Y7.3674
G01 X20.0724 Y7.3587
G01 X20.0727 Y7.3500
G01 X20.0727 Y6.1720
G01 X20.0722 Y6.1603
G01 X20.0710 Y6.1516
G01 X20.0678 Y6.1374
G01 X20.0469 Y6.0664
G01 X20.0414 Y6.0523
G01 X20.0373 Y6.0443
G01 X20.0327 Y6.0365
G01 X20.0256 Y6.0268
G01 X20.0088 Y6.0059
G01 X20.0023 Y5.9985
G01 X19.9061 Y5.9021
G01 X19.8284 Y5.7759
G01 X19.7814 Y5.6344
G01 X19.7727 Y5.5496
G01 X19.7727 Y4.1615
G01 X19.7817 Y4.0754
G01 X19.8288 Y3.9340
G01 X19.9068 Y3.8080
G01 X20.0117 Y3.7033
G01 X20.1379 Y3.6255
G01 X20.2794 Y3.5786
G01 X20.3642 Y3.5699
G01 X21.1024 Y3.5699
G01 X21.1884 Y3.5788
G01 X21.3298 Y3.6260
G01 X21.4558 Y3.7040
G01 X21.5606 Y3.8089
G01 X21.6383 Y3.9351
G01 X21.6853 Y4.0766
G01 X21.6939 Y4.1614
G01 X21.6939 Y5.5495
G01 X21.6850 Y5.6356
G01 X21.6379 Y5.7770
G01 X21.5599 Y5.9030
G01 X21.4650 Y5.9978
G01 X21.4555 Y6.0089
G01 X21.4489 Y6.0186
G01 X21.4105 Y6.0886
G01 X21.4044 Y6.1024
G01 X21.4008 Y6.1140
G01 X21.3984 Y6.1258
G01 X21.3947 Y6.1586
G01 X21.3939 Y6.1718
G01 X21.3939 Y7.5759
G01 X21.3943 Y7.5847
G01 X21.3952 Y7.5934
G01 X21.3968 Y7.6020
G01 X21.3989 Y7.6105
G01 X21.4207 Y7.6843
G01 X21.4239 Y7.6925
G01 X21.4277 Y7.7005
G01 X21.4320 Y7.7081
G01 X21.4369 Y7.7155
G01 X21.4617 Y7.7459
G01 X21.4697 Y7.7547
G01 X21.6004 Y7.8783
G01 X21.6410 Y7.9314
G01 X21.6508 Y7.9422
G01 X21.6573 Y7.9481
G01 X21.6642 Y7.9535
G01 X21.7264 Y7.9990
G01 X21.7343 Y8.0037
G01 X21.7424 Y8.0079
G01 X21.7509 Y8.0114
G01 X21.7596 Y8.0143
G01 X21.7714 Y8.0172
G01 X21.7835 Y8.0188
G01 X21.8635 Y8.0236
G01 X21.8727 Y8.0234
G01 X21.8849 Y8.0220
G01 X21.8968 Y8.0194
G01 X21.9056 Y8.0167
G01 X21.9169 Y8.0121
G01 X21.9277 Y8.0064
G01 X21.9967 Y7.9653
G01 X22.0041 Y7.9603
G01 X22.0110 Y7.9549
G01 X22.0175 Y7.9489
G01 X22.0236 Y7.9425
G01 X22.1417 Y7.8085
G01 X22.3140 Y7.6670
G01 X22.5067 Y7.5549
G01 X22.7149 Y7.4749
G01 X22.9331 Y7.4294
G01 X23.1559 Y7.4192
G01 X23.3774 Y7.4449
G01 X23.5919 Y7.5056
G01 X23.7940 Y7.5998
G01 X23.9784 Y7.7251
G01 X24.1404 Y7.8783
G01 X24.1813 Y7.9318
G01 X24.1870 Y7.9384
G01 X24.1932 Y7.9446
G01 X24.2045 Y7.9539
G01 X24.2668 Y7.9994
G01 X24.2773 Y8.0056
G01 X24.2883 Y8.0107
G01 X24.3028 Y8.0156
G01 X24.3147 Y8.0181
G01 X24.3269 Y8.0195
G01 X24.4008 Y8.0239
G01 X24.4130 Y8.0238
G01 X24.4222 Y8.0229
G01 X24.4342 Y8.0206
G01 X24.4430 Y8.0181
G01 X24.4544 Y8.0138
G01 X24.4627 Y8.0098
G01 X24.5345 Y7.9673
G01 X24.5420 Y7.9625
G01 X24.5490 Y7.9572
G01 X24.5557 Y7.9513
G01 X24.5639 Y7.9429
G01 X24.6821 Y7.8088
G01 X24.8544 Y7.6674
G01 X25.0470 Y7.5553
G01 X25.2549 Y7.4755
G01 X25.2704 Y7.4722
G01 X25.2704 Y7.7520
G01 X25.2233 Y7.7689
G01 X25.2149 Y7.7723
G01 X25.1234 Y7.8155
G01 X25.1154 Y7.8196
G01 X25.0235 Y7.8748
G01 X24.9397 Y7.9368
G01 X24.9327 Y7.9424
G01 X24.8533 Y8.0145
G01 X24.7793 Y8.0961
G01 X24.7137 Y8.1847
G01 X24.6585 Y8.2765
G01 X24.6543 Y8.2846
G01 X24.6099 Y8.3788
G01 X24.5745 Y8.4773
G01 X24.5712 Y8.4884
G01 X24.5460 Y8.5894
G01 X24.5306 Y8.6924
G01 X24.5294 Y8.7045
G01 X24.5244 Y8.8085
G01 X24.5244 Y10.8085
G01 X24.5299 Y10.9186
G01 X24.5450 Y11.0216
G01 X24.5467 Y11.0305
G01 X24.5712 Y11.1286
G01 X24.5747 Y11.1402
G01 X24.6099 Y11.2382
G01 X24.6543 Y11.3324
G01 X24.6600 Y11.3431
G01 X24.7137 Y11.4323
G01 X24.7756 Y11.5161
G01 X24.7813 Y11.5232
G01 X24.8492 Y11.5981
G01 X24.8577 Y11.6067
G01 X24.9350 Y11.6765
G01 X25.0210 Y11.7405
G01 X25.0286 Y11.7454
G01 X25.1128 Y11.7958
G01 X25.1207 Y11.8002
G01 X25.2149 Y11.8447
G01 X25.2233 Y11.8481
G01 X25.2704 Y11.8650
G01 X25.2704 Y12.1414
G01 X25.1629 Y12.1109
G01 X24.9609 Y12.0167
G01 X24.7765 Y11.8914
G01 X24.6148 Y11.7384
G01 X24.5741 Y11.6853
G01 X24.5683 Y11.6786
G01 X24.5621 Y11.6724
G01 X24.5509 Y11.6631
G01 X24.4936 Y11.6211
G01 X24.4834 Y11.6144
G01 X24.4726 Y11.6087
G01 X24.4613 Y11.6042
G01 X24.4496 Y11.6007
G01 X24.4376 Y11.5985
G01 X24.4285 Y11.5976
G01 X24.3546 Y11.5931
G01 X24.3454 Y11.5931
G01 X24.3362 Y11.5938
G01 X24.3242 Y11.5958
G01 X24.3153 Y11.5980
G01 X24.3037 Y11.6021
G01 X24.2926 Y11.6073
G01 X24.2187 Y11.6511
G01 X24.2112 Y11.6561
G01 X24.2042 Y11.6616
G01 X24.1976 Y11.6676
G01 X24.1914 Y11.6741
G01 X24.0730 Y11.8085
G01 X23.9007 Y11.9500
G01 X23.8850 Y11.9594
G01 X23.8730 Y11.9686
G01 X23.8642 Y11.9770
G01 X23.8154 Y12.0285
G01 X23.8094 Y12.0354
G01 X23.8021 Y12.0453
G01 X23.7974 Y12.0531
G01 X23.7920 Y12.0640
G01 X23.7886 Y12.0725
G01 X23.7852 Y12.0843
G01 X23.7714 Y12.1416
G01 X23.7696 Y12.1501
G01 X23.7683 Y12.1617
G01 X23.7679 Y12.1704
G01 X23.7679 Y12.2993
G01 X23.7688 Y12.3139
G01 X23.7714 Y12.3282
G01 X23.7929 Y12.4020
G01 X23.7969 Y12.4134
G01 X23.8020 Y12.4244
G01 X23.8097 Y12.4373
G01 X23.8321 Y12.4655
G01 X23.8386 Y12.4729
G01 X25.2666 Y13.9010
G01 X25.2730 Y13.9070
G01 X25.2798 Y13.9125
G01 X25.2920 Y13.9205
G01 X25.3569 Y13.9560
G01 X25.3650 Y13.9600
G01 X25.3734 Y13.9635
G01 X25.3849 Y13.9671
G01 X25.3967 Y13.9695
G01 X25.4294 Y13.9732
G01 X25.4426 Y13.9739
G01 X36.4868 Y13.9739
G01 X36.5630 Y13.9731
G01 X36.5935 Y13.9797
G01 X36.6091 Y13.9823
G01 X36.6431 Y13.9862
G01 X36.6641 Y13.9935
G01 X36.6825 Y13.9987
G01 X36.7079 Y14.0044
G01 X36.7361 Y14.0176
G01 X36.7508 Y14.0236
G01 X36.7831 Y14.0350
G01 X36.8052 Y14.0485
G01 X36.8221 Y14.0576
G01 X36.8422 Y14.0671
G01 X36.8694 Y14.0879
G01 X36.8824 Y14.0970
G01 X36.9088 Y14.1135
G01 X37.0189 Y14.2229
G01 X37.0251 Y14.2295
G01 X39.7486 Y16.9530
G01 X39.8030 Y17.0063
G01 X39.8199 Y17.0325
G01 X39.8291 Y17.0454
G01 X39.8504 Y17.0722
G01 X39.8605 Y17.0930
G01 X39.8694 Y17.1089
G01 X39.8833 Y17.1309
G01 X39.8952 Y17.1630
G01 X39.9014 Y17.1776
G01 X39.9149 Y17.2057
G01 X39.9210 Y17.2309
G01 X39.9264 Y17.2493
G01 X39.9340 Y17.2702
G01 X39.9379 Y17.3011
G01 X39.9407 Y17.3167
G01 X39.9482 Y17.3501
G01 X39.9488 Y17.5053
G01 X39.9484 Y17.5144
G01 X39.9484 Y18.3085
G01 X39.9490 Y18.3202
G01 X39.9507 Y18.3318
G01 X39.9534 Y18.3432
G01 X39.9743 Y18.4142
G01 X39.9798 Y18.4282
G01 X39.9869 Y18.4415
G01 X39.9956 Y18.4537
G01 X40.0124 Y18.4746
G01 X40.0189 Y18.4820
G01 X40.1026 Y18.5659
G01 X40.1803 Y18.6921
G01 X40.2273 Y18.8336
G01 X40.2359 Y18.9184
G01 X40.2359 Y20.2565
G01 X40.2270 Y20.3426
G01 X40.1753 Y20.4976
G01 X40.1714 Y20.5123
G01 X40.1597 Y20.5906
G01 X40.1591 Y20.6057
G01 X40.1604 Y20.6208
G01 X40.1628 Y20.6327
G01 X40.1674 Y20.6471
G01 X40.2012 Y20.7231
G01 X40.2072 Y20.7337
G01 X40.2143 Y20.7436
G01 X40.2202 Y20.7506
G01 X40.2289 Y20.7592
G01 X40.2409 Y20.7686
G01 X40.3028 Y20.8093
G01 X40.3104 Y20.8139
G01 X40.3210 Y20.8191
G01 X40.3320 Y20.8234
G01 X40.3463 Y20.8271
G01 X40.3888 Y20.8336
G01 X40.3978 Y20.8346
G01 X40.4069 Y20.8349
G01 X41.0938 Y20.8349
G01 X41.1084 Y20.8340
G01 X41.1171 Y20.8327
G01 X41.1256 Y20.8307
G01 X41.2024 Y20.8081
G01 X41.2164 Y20.8022
G01 X41.2271 Y20.7962
G01 X41.2395 Y20.7873
G01 X41.2507 Y20.7770
G01 X41.3013 Y20.7188
G01 X41.3088 Y20.7092
G01 X41.3154 Y20.6989
G01 X41.3220 Y20.6852
G01 X41.3261 Y20.6737
G01 X41.3296 Y20.6588
G01 X41.3406 Y20.5826
G01 X41.3414 Y20.5709
G01 X41.3411 Y20.5591
G01 X41.3397 Y20.5473
G01 X41.3371 Y20.5358
G01 X41.3261 Y20.4990
G01 X41.3222 Y20.4885
G01 X41.2734 Y20.3414
G01 X41.2647 Y20.2566
G01 X41.2647 Y18.9185
G01 X41.2737 Y18.8324
G01 X41.3208 Y18.6910
G01 X41.3988 Y18.5650
G01 X41.5046 Y18.4594
G01 X41.5175 Y18.4494
G01 X41.5264 Y18.4412
G01 X41.5363 Y18.4299
G01 X41.5436 Y18.4193
G01 X41.5718 Y18.3880
G01 X41.5791 Y18.3786
G01 X41.5840 Y18.3711
G01 X41.5883 Y18.3632
G01 X41.5920 Y18.3551
G01 X41.5951 Y18.3467
G01 X41.5983 Y18.3353
G01 X41.6107 Y18.2808
G01 X41.6128 Y18.2687
G01 X41.6137 Y18.2535
G01 X41.6136 Y17.3525
G01 X41.6120 Y17.3380
G01 X41.6096 Y17.3266
G01 X41.5888 Y17.2556
G01 X41.5848 Y17.2441
G01 X41.5782 Y17.2304
G01 X41.5717 Y17.2200
G01 X41.5642 Y17.2104
G01 X41.5536 Y17.1994
G01 X41.4954 Y17.1490
G01 X41.4883 Y17.1435
G01 X41.4783 Y17.1371
G01 X41.4650 Y17.1305
G01 X41.4467 Y17.1233
G01 X41.3529 Y17.0920
G01 X41.2269 Y17.0140
G01 X41.1221 Y16.9091
G01 X41.0444 Y16.7829
G01 X40.9974 Y16.6414
G01 X40.9887 Y16.5566
G01 X40.9887 Y15.8185
G01 X40.9977 Y15.7324
G01 X41.0448 Y15.5910
G01 X41.1228 Y15.4650
G01 X41.2277 Y15.3603
G01 X41.3539 Y15.2825
G01 X41.4954 Y15.2356
G01 X41.5802 Y15.2269
G01 X42.9684 Y15.2269
G01 X43.0544 Y15.2358
G01 X43.1958 Y15.2830
G01 X43.3218 Y15.3610
G01 X43.4266 Y15.4659
G01 X43.5043 Y15.5921
G01 X43.5513 Y15.7336
G01 X43.5599 Y15.8184
G01 X43.5599 Y16.5565
G01 X43.5510 Y16.6426
G01 X43.5039 Y16.7840
G01 X43.4259 Y16.9100
G01 X43.3210 Y17.0147
G01 X43.1948 Y17.0925
G01 X43.1033 Y17.1229
G01 X43.0922 Y17.1274
G01 X43.0843 Y17.1314
G01 X43.0742 Y17.1377
G01 X43.0158 Y17.1782
G01 X43.0062 Y17.1856
G01 X42.9952 Y17.1962
G01 X42.9874 Y17.2056
G01 X42.9806 Y17.2157
G01 X42.9748 Y17.2265
G01 X42.9429 Y17.3032
G01 X42.9388 Y17.3175
G01 X42.9363 Y17.3322
G01 X42.9349 Y17.3583
G01 X42.9349 Y18.3701
G01 X42.9353 Y18.3789
G01 X42.9362 Y18.3876
G01 X42.9391 Y18.4020
G01 X42.9608 Y18.4758
G01 X42.9650 Y18.4871
G01 X42.9704 Y18.4979
G01 X42.9750 Y18.5056
G01 X42.9803 Y18.5130
G01 X43.0010 Y18.5388
G01 X43.0077 Y18.5460
G01 X43.0276 Y18.5659
G01 X43.1053 Y18.6921
G01 X43.1523 Y18.8336
G01 X43.1609 Y18.9184
G01 X43.1609 Y20.2565
G01 X43.1595 Y20.2713
G01 X43.1591 Y20.2830
G01 X43.1595 Y20.2918
G01 X43.1606 Y20.3005
G01 X43.1740 Y20.3732
G01 X43.1768 Y20.3850
G01 X43.1807 Y20.3966
G01 X43.1858 Y20.4077
G01 X43.1904 Y20.4156
G01 X43.1973 Y20.4257
G01 X43.2031 Y20.4327
G01 X43.2580 Y20.4911
G01 X43.2696 Y20.5010
G01 X43.2798 Y20.5078
G01 X43.2933 Y20.5149
G01 X43.3076 Y20.5202
G01 X43.3823 Y20.5392
G01 X43.3910 Y20.5410
G01 X43.4027 Y20.5425
G01 X43.4116 Y20.5429
G01 X43.4204 Y20.5426
G01 X43.4322 Y20.5413
G01 X43.4437 Y20.5388
G01 X43.5052 Y20.5209
G01 X43.5164 Y20.5170
G01 X43.5246 Y20.5134
G01 X43.5325 Y20.5092
G01 X43.6422 Y20.4454
G01 X43.8504 Y20.3654
G01 X44.0686 Y20.3199
G01 X44.2914 Y20.3097
G01 X44.5129 Y20.3354
G01 X44.7274 Y20.3961
G01 X44.9295 Y20.4903
G01 X45.1139 Y20.6156
G01 X45.2759 Y20.7688
G01 X45.4113 Y20.9460
G01 X45.5167 Y21.1425
G01 X45.5893 Y21.3533
G01 X45.6276 Y21.5751
G01 X45.6284 Y21.5937
G01 X45.6284 Y23.7551
G01 X45.6151 Y23.9213
G01 X45.5619 Y24.1378
G01 X45.4748 Y24.3430
G01 X45.3560 Y24.5317
G01 X45.2085 Y24.6990
G01 X45.0362 Y24.8405
G01 X45.0205 Y24.8499
G01 X45.0132 Y24.8552
G01 X45.0062 Y24.8611
G01 X44.9997 Y24.8675
G01 X44.9468 Y24.9236
G01 X44.9376 Y24.9358
G01 X44.9329 Y24.9436
G01 X44.9287 Y24.9517
G01 X44.9241 Y24.9630
G01 X44.9207 Y24.9748
G01 X44.9062 Y25.0349
G01 X44.9047 Y25.0435
G01 X44.9038 Y25.0522
G01 X44.9034 Y25.0609
G01 X44.9034 Y25.4205
G01 X44.9042 Y25.4967
G01 X44.8977 Y25.5271
G01 X44.8951 Y25.5428
G01 X44.8911 Y25.5768
G01 X44.8839 Y25.5978
G01 X44.8786 Y25.6162
G01 X44.8729 Y25.6415
G01 X44.8598 Y25.6698
G01 X44.8538 Y25.6845
G01 X44.8424 Y25.7167
G01 X44.8306 Y25.7356
G01 X44.8215 Y25.7524
G01 X44.8103 Y25.7759
G01 X44.7912 Y25.8005
G01 X44.7821 Y25.8135
G01 X44.7638 Y25.8424
G01 X44.6545 Y25.9526
G01 X44.6478 Y25.9588
G01 X43.1728 Y27.4338
G01 X43.1652 Y27.4426
G01 X43.1568 Y27.4546
G01 X43.1185 Y27.5247
G01 X43.1134 Y27.5358
G01 X43.1095 Y27.5474
G01 X43.1068 Y27.5593
G01 X43.1055 Y27.5683
G01 X43.1049 Y27.5775
G01 X43.1050 Y27.5866
G01 X43.1105 Y27.6635
G01 X43.1129 Y27.6785
G01 X43.1171 Y27.6931
G01 X43.1205 Y27.7016
G01 X43.1245 Y27.7098
G01 X43.1325 Y27.7227
G01 X43.1753 Y27.7775
G01 X43.1819 Y27.7866
G01 X43.1899 Y27.7957
G01 X43.1994 Y27.8046
G01 X43.2087 Y27.8120
G01 X43.3709 Y27.9653
G01 X43.4118 Y28.0188
G01 X43.4175 Y28.0254
G01 X43.4237 Y28.0316
G01 X43.4350 Y28.0409
G01 X43.4947 Y28.0847
G01 X43.5051 Y28.0911
G01 X43.5188 Y28.0977
G01 X43.5304 Y28.1017
G01 X43.5422 Y28.1046
G01 X43.5574 Y28.1065
G01 X43.6282 Y28.1108
G01 X43.6374 Y28.1110
G01 X43.6496 Y28.1102
G01 X43.6617 Y28.1083
G01 X43.6764 Y28.1041
G01 X43.6877 Y28.0995
G01 X43.6985 Y28.0938
G01 X43.7650 Y28.0543
G01 X43.7725 Y28.0495
G01 X43.7795 Y28.0442
G01 X43.7883 Y28.0363
G01 X43.7944 Y28.0299
G01 X43.9126 Y27.8958
G01 X44.0849 Y27.7544
G01 X44.2775 Y27.6423
G01 X44.4854 Y27.5625
G01 X44.5009 Y27.5592
G01 X44.5009 Y27.8390
G01 X44.4538 Y27.8559
G01 X44.4454 Y27.8593
G01 X44.3539 Y27.9025
G01 X44.3459 Y27.9066
G01 X44.2540 Y27.9618
G01 X44.1702 Y28.0238
G01 X44.1632 Y28.0294
G01 X44.0838 Y28.1015
G01 X44.0098 Y28.1831
G01 X43.9442 Y28.2717
G01 X43.8890 Y28.3635
G01 X43.8848 Y28.3716
G01 X43.8404 Y28.4658
G01 X43.8050 Y28.5643
G01 X43.8017 Y28.5754
G01 X43.7765 Y28.6764
G01 X43.7611 Y28.7794
G01 X43.7599 Y28.7915
G01 X43.7549 Y28.8955
G01 X43.7549 Y30.8955
G01 X43.7604 Y31.0056
G01 X43.7755 Y31.1086
G01 X43.7772 Y31.1175
G01 X43.8017 Y31.2156
G01 X43.8052 Y31.2272
G01 X43.8404 Y31.3252
G01 X43.8848 Y31.4194
G01 X43.8905 Y31.4301
G01 X43.9442 Y31.5193
G01 X44.0061 Y31.6031
G01 X44.0118 Y31.6102
G01 X44.0797 Y31.6851
G01 X44.0882 Y31.6937
G01 X44.1655 Y31.7635
G01 X44.2515 Y31.8275
G01 X44.2591 Y31.8324
G01 X44.3433 Y31.8828
G01 X44.3512 Y31.8872
G01 X44.4454 Y31.9317
G01 X44.4538 Y31.9351
G01 X44.5009 Y31.9520
G01 X44.5009 Y32.2284
G01 X44.3934 Y32.1979
G01 X44.1914 Y32.1037
G01 X44.0070 Y31.9784
G01 X43.8453 Y31.8254
G01 X43.8046 Y31.7723
G01 X43.7988 Y31.7656
G01 X43.7926 Y31.7594
G01 X43.7814 Y31.7501
G01 X43.7216 Y31.7063
G01 X43.7113 Y31.6999
G01 X43.6975 Y31.6933
G01 X43.6860 Y31.6893
G01 X43.6741 Y31.6864
G01 X43.6590 Y31.6846
G01 X43.5820 Y31.6800
G01 X43.5698 Y31.6805
G01 X43.5547 Y31.6828
G01 X43.5428 Y31.6859
G01 X43.5314 Y31.6903
G01 X43.5178 Y31.6973
G01 X43.4513 Y31.7368
G01 X43.4417 Y31.7431
G01 X43.4324 Y31.7506
G01 X43.4239 Y31.7589
G01 X43.3035 Y31.8955
G01 X43.1312 Y32.0370
G01 X42.9385 Y32.1491
G01 X42.7303 Y32.2291
G01 X42.5121 Y32.2746
G01 X42.2893 Y32.2848
G01 X42.0678 Y32.2591
G01 X41.8533 Y32.1984
G01 X41.6512 Y32.1042
G01 X41.4668 Y31.9789
G01 X41.3048 Y31.8257
G01 X41.2642 Y31.7726
G01 X41.2585 Y31.7660
G01 X41.2523 Y31.7598
G01 X41.2410 Y31.7505
G01 X41.1838 Y31.7085
G01 X41.1762 Y31.7034
G01 X41.1655 Y31.6974
G01 X41.1543 Y31.6926
G01 X41.1427 Y31.6889
G01 X41.1308 Y31.6863
G01 X41.1186 Y31.6850
G01 X41.0417 Y31.6804
G01 X41.0294 Y31.6809
G01 X41.0143 Y31.6831
G01 X40.9996 Y31.6873
G01 X40.9883 Y31.6919
G01 X40.9775 Y31.6976
G01 X40.9110 Y31.7372
G01 X40.9038 Y31.7417
G01 X40.8967 Y31.7471
G01 X40.8899 Y31.7530
G01 X40.8816 Y31.7615
G01 X40.7635 Y31.8955
G01 X40.5912 Y32.0370
G01 X40.3985 Y32.1491
G01 X40.1903 Y32.2291
G01 X39.9721 Y32.2746
G01 X39.7493 Y32.2848
G01 X39.5278 Y32.2591
G01 X39.3133 Y32.1984
G01 X39.1112 Y32.1042
G01 X38.9268 Y31.9789
G01 X38.7648 Y31.8257
G01 X38.6294 Y31.6485
G01 X38.5240 Y31.4520
G01 X38.4514 Y31.2412
G01 X38.4131 Y31.0194
G01 X38.4122 Y31.0008
G01 X38.4122 Y30.8050
G01 X38.4119 Y30.7962
G01 X38.4110 Y30.7875
G01 X38.4094 Y30.7789
G01 X38.4073 Y30.7704
G01 X38.3873 Y30.7023
G01 X38.3844 Y30.6936
G01 X38.3808 Y30.6851
G01 X38.3751 Y30.6743
G01 X38.3684 Y30.6641
G01 X38.3627 Y30.6570
G01 X38.3565 Y30.6502
G01 X38.3498 Y30.6440
G01 X38.2962 Y30.5975
G01 X38.2890 Y30.5917
G01 X38.2814 Y30.5865
G01 X38.2707 Y30.5805
G01 X38.2595 Y30.5755
G01 X38.2478 Y30.5717
G01 X38.1866 Y30.5583
G01 X38.1721 Y30.5564
G01 X38.1633 Y30.5561
G01 X37.9864 Y30.5561
G01 X37.9102 Y30.5569
G01 X37.8797 Y30.5503
G01 X37.8641 Y30.5477
G01 X37.8301 Y30.5438
G01 X37.8091 Y30.5365
G01 X37.7907 Y30.5313
G01 X37.7653 Y30.5256
G01 X37.7342 Y30.5112
G01 X37.7195 Y30.5053
G01 X37.6901 Y30.4950
G01 X37.6712 Y30.4833
G01 X37.6544 Y30.4741
G01 X37.6310 Y30.4629
G01 X37.6064 Y30.4439
G01 X37.5934 Y30.4348
G01 X37.5644 Y30.4165
G01 X37.4543 Y30.3071
G01 X37.4481 Y30.3005
G01 X36.7971 Y29.6495
G01 X36.7427 Y29.5962
G01 X36.7257 Y29.5699
G01 X36.7166 Y29.5571
G01 X36.6953 Y29.5302
G01 X36.6856 Y29.5103
G01 X36.6763 Y29.4936
G01 X36.6624 Y29.4716
G01 X36.6505 Y29.4395
G01 X36.6443 Y29.4249
G01 X36.6308 Y29.3968
G01 X36.6247 Y29.3715
G01 X36.6193 Y29.3532
G01 X36.6117 Y29.3323
G01 X36.6078 Y29.3014
G01 X36.6050 Y29.2858
G01 X36.5975 Y29.2524
G01 X36.5969 Y29.0972
G01 X36.5972 Y29.0881
G01 X36.5972 Y28.7907
G01 X36.5967 Y28.7790
G01 X36.5955 Y28.7703
G01 X36.5931 Y28.7589
G01 X36.5704 Y28.6822
G01 X36.5671 Y28.6738
G01 X36.5618 Y28.6630
G01 X36.5571 Y28.6552
G01 X36.5519 Y28.6479
G01 X36.5310 Y28.6220
G01 X36.5243 Y28.6147
G01 X34.1936 Y26.2840
G01 X34.1392 Y26.2307
G01 X34.1222 Y26.2044
G01 X34.1131 Y26.1916
G01 X34.0918 Y26.1647
G01 X34.0821 Y26.1448
G01 X34.0728 Y26.1281
G01 X34.0589 Y26.1061
G01 X34.0470 Y26.0740
G01 X34.0408 Y26.0594
G01 X34.0273 Y26.0313
G01 X34.0212 Y26.0060
G01 X34.0158 Y25.9877
G01 X34.0082 Y25.9668
G01 X34.0043 Y25.9359
G01 X34.0015 Y25.9203
G01 X33.9940 Y25.8869
G01 X33.9934 Y25.7317
G01 X33.9937 Y25.7226
G01 X33.9937 Y23.7963
G01 X33.9925 Y23.7817
G01 X33.9896 Y23.7674
G01 X33.9688 Y23.6965
G01 X33.9648 Y23.6851
G01 X33.9583 Y23.6715
G01 X33.9520 Y23.6612
G01 X33.9465 Y23.6540
G01 X33.9275 Y23.6305
G01 X33.9208 Y23.6232
G01 X32.4676 Y22.1700
G01 X32.4567 Y22.1603
G01 X32.4447 Y22.1520
G01 X32.3746 Y22.1136
G01 X32.3636 Y22.1086
G01 X32.3522 Y22.1047
G01 X32.3375 Y22.1015
G01 X32.3254 Y22.1002
G01 X32.3103 Y22.1002
G01 X32.2415 Y22.1048
G01 X32.2293 Y22.1062
G01 X32.2174 Y22.1088
G01 X31.9588 Y22.1827
G01 X31.7043 Y22.2189
G01 X31.4472 Y22.2203
G01 X31.1923 Y22.1867
G01 X30.9443 Y22.1189
G01 X30.7078 Y22.0180
G01 X30.4872 Y21.8860
G01 X30.2865 Y21.7252
G01 X30.1096 Y21.5387
G01 X29.9595 Y21.3300
G01 X29.8392 Y21.1027
G01 X29.7709 Y20.9159
G01 X29.7509 Y20.8613
G01 X29.6961 Y20.6101
G01 X29.6759 Y20.3538
G01 X29.6907 Y20.0971
G01 X29.7402 Y19.8448
G01 X29.8235 Y19.6016
G01 X29.9390 Y19.3719
G01 X30.0847 Y19.1600
G01 X30.2577 Y18.9699
G01 X30.4549 Y18.8050
G01 X30.6727 Y18.6683
G01 X30.9070 Y18.5625
G01 X31.1536 Y18.4895
G01 X31.4077 Y18.4506
G01 X31.6648 Y18.4466
G01 X31.9200 Y18.4775
G01 X32.1687 Y18.5427
G01 X32.4062 Y18.6411
G01 X32.6282 Y18.7708
G01 X32.8305 Y18.9295
G01 X33.0094 Y19.1141
G01 X33.1616 Y19.3213
G01 X33.2843 Y19.5472
G01 X33.3752 Y19.7877
G01 X33.4326 Y20.0383
G01 X33.4558 Y20.2980
G01 X33.4561 Y20.3305
G01 X33.4384 Y20.5905
G01 X33.3862 Y20.8423
G01 X33.3389 Y20.9761
G01 X33.3352 Y20.9902
G01 X33.3332 Y21.0047
G01 X33.3289 Y21.0845
G01 X33.3294 Y21.0965
G01 X33.3317 Y21.1114
G01 X33.3358 Y21.1258
G01 X33.3416 Y21.1397
G01 X33.3795 Y21.2080
G01 X33.3882 Y21.2208
G01 X33.3985 Y21.2324
G01 X35.1151 Y22.9490
G01 X35.1695 Y23.0023
G01 X35.1864 Y23.0285
G01 X35.1956 Y23.0414
G01 X35.2169 Y23.0683
G01 X35.2270 Y23.0890
G01 X35.2359 Y23.1049
G01 X35.2498 Y23.1269
G01 X35.2617 Y23.1590
G01 X35.2679 Y23.1736
G01 X35.2814 Y23.2017
G01 X35.2875 Y23.2270
G01 X35.2929 Y23.2453
G01 X35.3005 Y23.2662
G01 X35.3049 Y23.3001
G01 X35.3078 Y23.3158
G01 X35.3147 Y23.3461
G01 X35.3153 Y23.5013
G01 X35.3149 Y23.5104
G01 X35.3150 Y25.4367
G01 X35.3162 Y25.4513
G01 X35.3191 Y25.4656
G01 X35.3408 Y25.5394
G01 X35.3439 Y25.5479
G01 X35.3490 Y25.5589
G01 X35.3551 Y25.5693
G01 X35.3603 Y25.5766
G01 X35.3812 Y25.6025
G01 X35.3879 Y25.6098
G01 X37.7186 Y27.9405
G01 X37.7730 Y27.9938
G01 X37.7899 Y28.0200
G01 X37.7991 Y28.0329
G01 X37.8204 Y28.0598
G01 X37.8305 Y28.0805
G01 X37.8394 Y28.0964
G01 X37.8533 Y28.1184
G01 X37.8652 Y28.1505
G01 X37.8714 Y28.1651
G01 X37.8849 Y28.1932
G01 X37.8910 Y28.2185
G01 X37.8964 Y28.2368
G01 X37.9040 Y28.2577
G01 X37.9079 Y28.2886
G01 X37.9107 Y28.3042
G01 X37.9182 Y28.3376
G01 X37.9188 Y28.4928
G01 X37.9184 Y28.5019
G01 X37.9184 Y28.7797
G01 X37.9190 Y28.7914
G01 X37.9202 Y28.8001
G01 X37.9226 Y28.8115
G01 X37.9434 Y28.8825
G01 X37.9463 Y28.8912
G01 X37.9512 Y28.9023
G01 X37.9571 Y28.9130
G01 X37.9641 Y28.9230
G01 X37.9721 Y28.9323
G01 X37.9809 Y28.9407
G01 X38.0369 Y28.9892
G01 X38.0492 Y28.9981
G01 X38.0626 Y29.0055
G01 X38.0767 Y29.0111
G01 X38.0915 Y29.0150
G01 X38.1739 Y29.0268
G01 X38.1860 Y29.0273
G01 X38.2013 Y29.0263
G01 X38.2162 Y29.0234
G01 X38.2307 Y29.0186
G01 X38.3064 Y28.9841
G01 X38.3195 Y28.9762
G01 X38.3268 Y28.9708
G01 X38.3337 Y28.9648
G01 X38.3442 Y28.9537
G01 X38.3516 Y28.9439
G01 X38.3916 Y28.8817
G01 X38.3962 Y28.8740
G01 X38.4002 Y28.8660
G01 X38.4036 Y28.8577
G01 X38.4064 Y28.8492
G01 X38.4091 Y28.8376
G01 X38.4138 Y28.8122
G01 X38.4152 Y28.8028
G01 X38.4256 Y28.6733
G01 X38.4788 Y28.4567
G01 X38.5659 Y28.2515
G01 X38.6847 Y28.0628
G01 X38.8322 Y27.8955
G01 X39.0045 Y27.7540
G01 X39.1972 Y27.6419
G01 X39.4054 Y27.5619
G01 X39.6236 Y27.5164
G01 X39.8464 Y27.5062
G01 X40.0679 Y27.5319
G01 X40.2824 Y27.5926
G01 X40.4845 Y27.6868
G01 X40.6689 Y27.8121
G01 X40.8309 Y27.9653
G01 X40.8715 Y28.0184
G01 X40.8772 Y28.0250
G01 X40.8834 Y28.0312
G01 X40.8947 Y28.0405
G01 X40.9544 Y28.0843
G01 X40.9648 Y28.0907
G01 X40.9757 Y28.0961
G01 X40.9842 Y28.0995
G01 X40.9930 Y28.1021
G01 X41.0049 Y28.1047
G01 X41.0140 Y28.1058
G01 X41.0910 Y28.1105
G01 X41.1063 Y28.1101
G01 X41.1184 Y28.1085
G01 X41.1273 Y28.1064
G01 X41.1361 Y28.1037
G01 X41.1446 Y28.1003
G01 X41.1529 Y28.0964
G01 X41.2247 Y28.0538
G01 X41.2322 Y28.0491
G01 X41.2392 Y28.0437
G01 X41.2459 Y28.0379
G01 X41.2541 Y28.0295
G01 X41.3722 Y27.8955
G01 X41.5445 Y27.7540
G01 X41.5610 Y27.7441
G01 X41.5725 Y27.7351
G01 X41.5810 Y27.7270
G01 X41.6319 Y27.6732
G01 X41.6413 Y27.6613
G01 X41.6493 Y27.6482
G01 X41.6544 Y27.6372
G01 X41.6593 Y27.6227
G01 X41.6745 Y27.5596
G01 X41.6767 Y27.5452
G01 X41.6772 Y27.5336
G01 X41.6772 Y27.3435
G01 X41.6765 Y27.2673
G01 X41.6830 Y27.2369
G01 X41.6856 Y27.2212
G01 X41.6896 Y27.1872
G01 X41.6968 Y27.1662
G01 X41.7021 Y27.1478
G01 X41.7078 Y27.1225
G01 X41.7209 Y27.0942
G01 X41.7269 Y27.0796
G01 X41.7383 Y27.0473
G01 X41.7519 Y27.0251
G01 X41.7610 Y27.0083
G01 X41.7704 Y26.9881
G01 X41.7895 Y26.9635
G01 X41.7986 Y26.9505
G01 X41.8169 Y26.9216
G01 X41.9262 Y26.8114
G01 X41.9329 Y26.8052
G01 X43.5088 Y25.2293
G01 X43.5146 Y25.2227
G01 X43.5199 Y25.2158
G01 X43.5277 Y25.2034
G01 X43.5631 Y25.1384
G01 X43.5682 Y25.1273
G01 X43.5721 Y25.1157
G01 X43.5743 Y25.1068
G01 X43.5758 Y25.0978
G01 X43.5766 Y25.0887
G01 X43.5767 Y25.0795
G01 X43.5708 Y24.9965
G01 X43.5687 Y24.9846
G01 X43.5645 Y24.9700
G01 X43.5598 Y24.9587
G01 X43.5525 Y24.9454
G01 X43.5455 Y24.9355
G01 X43.4982 Y24.8753
G01 X43.4906 Y24.8665
G01 X43.4844 Y24.8604
G01 X43.4777 Y24.8547
G01 X43.4706 Y24.8495
G01 X43.3718 Y24.7824
G01 X43.2098 Y24.6292
G01 X43.0744 Y24.4520
G01 X42.9690 Y24.2555
G01 X42.8964 Y24.0447
G01 X42.8581 Y23.8229
G01 X42.8572 Y23.8043
G01 X42.8572 Y22.3478
G01 X42.8560 Y22.3332
G01 X42.8531 Y22.3189
G01 X42.8323 Y22.2480
G01 X42.8283 Y22.2366
G01 X42.8218 Y22.2230
G01 X42.8137 Y22.2103
G01 X42.7931 Y22.1845
G01 X42.7843 Y22.1747
G01 X42.1391 Y21.5297
G01 X42.1277 Y21.5205
G01 X42.1179 Y21.5142
G01 X42.0530 Y21.4787
G01 X42.0448 Y21.4747
G01 X42.0335 Y21.4702
G01 X42.0188 Y21.4662
G01 X42.0067 Y21.4644
G01 X41.9915 Y21.4637
G01 X41.9145 Y21.4691
G01 X41.8994 Y21.4711
G01 X41.8876 Y21.4741
G01 X41.8733 Y21.4794
G01 X41.8598 Y21.4865
G01 X41.8497 Y21.4933
G01 X41.7880 Y21.5396
G01 X41.7769 Y21.5501
G01 X41.7672 Y21.5618
G01 X41.7590 Y21.5746
G01 X41.7536 Y21.5856
G01 X41.7255 Y21.6606
G01 X41.7221 Y21.6723
G01 X41.7199 Y21.6843
G01 X41.7190 Y21.6933
G01 X41.7184 Y21.7097
G01 X41.7184 Y22.1645
G01 X41.7095 Y22.2506
G01 X41.6624 Y22.3920
G01 X41.5844 Y22.5180
G01 X41.4795 Y22.6227
G01 X41.3533 Y22.7005
G01 X41.2118 Y22.7474
G01 X41.1270 Y22.7561
G01 X39.7388 Y22.7561
G01 X39.6528 Y22.7472
G01 X39.5114 Y22.7000
G01 X39.3854 Y22.6220
G01 X39.2806 Y22.5171
G01 X39.2707 Y22.5020
G01 X39.2650 Y22.4949
G01 X39.2588 Y22.4882
G01 X39.2016 Y22.4365
G01 X39.1900 Y22.4273
G01 X39.1825 Y22.4224
G01 X39.1720 Y22.4168
G01 X39.1638 Y22.4133
G01 X39.1524 Y22.4095
G01 X39.0892 Y22.3950
G01 X39.0802 Y22.3935
G01 X39.0710 Y22.3928
G01 X38.8283 Y22.3926
G01 X38.8196 Y22.3929
G01 X38.8079 Y22.3943
G01 X38.7965 Y22.3968
G01 X38.7198 Y22.4194
G01 X38.7060 Y22.4252
G01 X38.6929 Y22.4327
G01 X38.6855 Y22.4379
G01 X38.6597 Y22.4587
G01 X38.6525 Y22.4653
G01 X38.5585 Y22.5592
G01 X38.4323 Y22.6370
G01 X38.2908 Y22.6839
G01 X38.2060 Y22.6926
G01 X36.8178 Y22.6926
G01 X36.7318 Y22.6837
G01 X36.5904 Y22.6365
G01 X36.4644 Y22.5585
G01 X36.3596 Y22.4536
G01 X36.2819 Y22.3274
G01 X36.2349 Y22.1859
G01 X36.2262 Y22.1011
G01 X36.2262 Y21.3630
G01 X36.2352 Y21.2769
G01 X36.2823 Y21.1355
G01 X36.3603 Y21.0095
G01 X36.4652 Y20.9048
G01 X36.5914 Y20.8270
G01 X36.7329 Y20.7801
G01 X36.8177 Y20.7714
G01 X37.4410 Y20.7713
G01 X37.4555 Y20.7697
G01 X37.4697 Y20.7664
G01 X37.5408 Y20.7455
G01 X37.5520 Y20.7413
G01 X37.5629 Y20.7360
G01 X37.5706 Y20.7313
G01 X37.5780 Y20.7261
G01 X37.6039 Y20.7052
G01 X37.6111 Y20.6985
G01 X38.2689 Y20.0407
G01 X38.2783 Y20.0295
G01 X38.2849 Y20.0198
G01 X38.3246 Y19.9471
G01 X38.3303 Y19.9331
G01 X38.3343 Y19.9186
G01 X38.3362 Y19.9067
G01 X38.3390 Y19.8799
G01 X38.3397 Y19.8701
G01 X38.3397 Y18.9185
G01 X38.3487 Y18.8324
G01 X38.3958 Y18.6910
G01 X38.4738 Y18.5650
G01 X38.5562 Y18.4827
G01 X38.5639 Y18.4739
G01 X38.5691 Y18.4668
G01 X38.5752 Y18.4568
G01 X38.6107 Y18.3919
G01 X38.6168 Y18.3780
G01 X38.6204 Y18.3665
G01 X38.6223 Y18.3577
G01 X38.6236 Y18.3487
G01 X38.6268 Y18.3185
G01 X38.6272 Y18.3086
G01 X38.6272 Y17.8003
G01 X38.6260 Y17.7857
G01 X38.6231 Y17.7714
G01 X38.6023 Y17.7005
G01 X38.5983 Y17.6891
G01 X38.5918 Y17.6755
G01 X38.5855 Y17.6652
G01 X38.5631 Y17.6370
G01 X38.5566 Y17.6296
G01 X36.2951 Y15.3680
G01 X36.2865 Y15.3601
G01 X36.2747 Y15.3515
G01 X36.2671 Y15.3470
G01 X36.2048 Y15.3130
G01 X36.1967 Y15.3090
G01 X36.1883 Y15.3055
G01 X36.1768 Y15.3019
G01 X36.1650 Y15.2995
G01 X36.1323 Y15.2958
G01 X36.1191 Y15.2951
G01 X25.0748 Y15.2951
G01 X24.9987 Y15.2959
G01 X24.9682 Y15.2893
G01 X24.9526 Y15.2867
G01 X24.9186 Y15.2828
G01 X24.8976 Y15.2755
G01 X24.8792 Y15.2703
G01 X24.8538 Y15.2646
G01 X24.8256 Y15.2514
G01 X24.8109 Y15.2454
G01 X24.7786 Y15.2340
G01 X24.7565 Y15.2205
G01 X24.7396 Y15.2114
G01 X24.7195 Y15.2019
G01 X24.6949 Y15.1829
G01 X24.6819 Y15.1738
G01 X24.6529 Y15.1555
G01 X24.5428 Y15.0461
G01 X24.5366 Y15.0395
G01 X22.6466 Y13.1495
G01 X22.5922 Y13.0962
G01 X22.5752 Y13.0699
G01 X22.5661 Y13.0571
G01 X22.5448 Y13.0302
G01 X22.5351 Y13.0103
G01 X22.5258 Y12.9936
G01 X22.5119 Y12.9716
G01 X22.5000 Y12.9395
G01 X22.4938 Y12.9249
G01 X22.4803 Y12.8968
G01 X22.4742 Y12.8715
G01 X22.4688 Y12.8532
G01 X22.4612 Y12.8323
G01 X22.4573 Y12.8014
G01 X22.4545 Y12.7858
G01 X22.4470 Y12.7524
G01 X22.4464 Y12.5972
G01 X22.4467 Y12.5881
G01 X22.4466 Y12.1608
G01 X22.4455 Y12.1492
G01 X22.4426 Y12.1349
G01 X22.4218 Y12.0639
G01 X22.4167 Y12.0499
G01 X22.4128 Y12.0418
G01 X22.4084 Y12.0340
G01 X22.4034 Y12.0265
G01 X22.3979 Y12.0194
G01 X22.3919 Y12.0128
G01 X22.3523 Y11.9724
G01 X22.3452 Y11.9663
G01 X22.3378 Y11.9608
G01 X22.2363 Y11.8919
G01 X22.0743 Y11.7387
G01 X22.0337 Y11.6856
G01 X22.0280 Y11.6790
G01 X22.0218 Y11.6728
G01 X22.0105 Y11.6635
G01 X21.9483 Y11.6180
G01 X21.9350 Y11.6104
G01 X21.9210 Y11.6045
G01 X21.9122 Y11.6019
G01 X21.9033 Y11.5998
G01 X21.8881 Y11.5980
G01 X21.8173 Y11.5936
G01 X21.8020 Y11.5936
G01 X21.7898 Y11.5950
G01 X21.7779 Y11.5976
G01 X21.7691 Y11.6003
G01 X21.7578 Y11.6049
G01 X21.7470 Y11.6106
G01 X21.6783 Y11.6515
G01 X21.6685 Y11.6583
G01 X21.6616 Y11.6640
G01 X21.6511 Y11.6745
G01 X21.5330 Y11.8085
G01 X21.3607 Y11.9500
G01 X21.1680 Y12.0621
G01 X20.9598 Y12.1421
G01 X20.7416 Y12.1876
G01 X20.5188 Y12.1978
G01 X20.2973 Y12.1721
G01 X20.0828 Y12.1114
G01 X19.8807 Y12.0172
G01 X19.6963 Y11.8919
G01 X19.5343 Y11.7387
G01 X19.3989 Y11.5615
G01 X19.2935 Y11.3650
G01 X19.2209 Y11.1542
G01 X19.1826 Y10.9324
G01 X19.1817 Y10.9138
G01 X19.1817 Y9.4573
G01 X19.1805 Y9.4427
G01 X19.1776 Y9.4284
G01 X19.1559 Y9.3546
G01 X19.1504 Y9.3406
G01 X19.1448 Y9.3299
G01 X19.1382 Y9.3198
G01 X19.1176 Y9.2940
G01 X19.1088 Y9.2842
G01 X18.0150 Y8.1905
G01 X18.0039 Y8.1810
G01 X17.9942 Y8.1745
G01 X17.9241 Y8.1361
G01 X17.9159 Y8.1323
G01 X17.9075 Y8.1290
G01 X17.8988 Y8.1264
G01 X17.8900 Y8.1245
G01 X17.8543 Y8.1203
G01 X17.8411 Y8.1196
G01 X15.9305 Y8.1196
G01 X15.9159 Y8.1205
G01 X15.9044 Y8.1224
G01 X15.8959 Y8.1246
G01 X15.8278 Y8.1446
G01 X15.8165 Y8.1485
G01 X15.8056 Y8.1535
G01 X15.7978 Y8.1579
G01 X15.7879 Y8.1647
G01 X15.7810 Y8.1704
G01 X15.7405 Y8.2097
G01 X15.7302 Y8.2211
G01 X15.7247 Y8.2286
G01 X15.6557 Y8.3300
G01 X15.5025 Y8.4921
G01 X15.3254 Y8.6275
G01 X15.1289 Y8.7328
G01 X14.9181 Y8.8054
G01 X14.6962 Y8.8438
G01 X14.6776 Y8.8446
G01 X13.0716 Y8.8446
G01 X13.0633 Y8.8451
G01 X13.0322 Y8.8486
G01 X13.0212 Y8.8504
G01 X13.0095 Y8.8531
G01 X12.9912 Y8.8585
G01 X12.9667 Y8.8671
G01 X12.9358 Y8.8711
G01 X12.9202 Y8.8738
G01 X12.8868 Y8.8814
G01 X12.7316 Y8.8819
G01 X12.7225 Y8.8816
G01 X7.8408 Y8.8816
G01 X7.8292 Y8.8822
G01 X7.8147 Y8.8844
G01 X7.8062 Y8.8866
G01 X7.7323 Y8.9084
G01 X7.7238 Y8.9118
G01 X7.7155 Y8.9157
G01 X7.7076 Y8.9203
G01 X7.7000 Y8.9254
G01 X7.6905 Y8.9331
G01 X7.6819 Y8.9417
G01 X7.6314 Y9.0000
G01 X7.6258 Y9.0073
G01 X7.6208 Y9.0151
G01 X7.6163 Y9.0231
G01 X7.6125 Y9.0315
G01 X7.6094 Y9.0402
G01 X7.6061 Y9.0520
G01 X7.5942 Y9.1072
G01 X7.5923 Y9.1217
G01 X7.5919 Y9.1305
G01 X7.5919 Y9.2771
G01 X7.5786 Y9.4433
G01 X7.5254 Y9.6598
G01 X7.4383 Y9.8650
G01 X7.3195 Y10.0537
G01 X7.1720 Y10.2210
G01 X6.9997 Y10.3625
G01 X6.8070 Y10.4746
G01 X6.5988 Y10.5546
G01 X6.3806 Y10.6001
G01 X6.1578 Y10.6103
G01 X5.9363 Y10.5846
G01 X5.7218 Y10.5239
G01 X5.5197 Y10.4297
G01 X5.3353 Y10.3044
G01 X5.1733 Y10.1512
G01 X5.0379 Y9.9740
G01 X4.9325 Y9.7775
G01 X4.8727 Y9.6038
G01 X4.8698 Y9.5962
G01 X4.8660 Y9.5880
G01 X4.8584 Y9.5752
G01 X4.8138 Y9.5123
G01 X4.8039 Y9.5007
G01 X4.7927 Y9.4904
G01 X4.7854 Y9.4849
G01 X4.7777 Y9.4800
G01 X4.7641 Y9.4731
G01 X4.6925 Y9.4443
G01 X4.6809 Y9.4406
G01 X4.6690 Y9.4381
G01 X4.6538 Y9.4366
G01 X4.6446 Y9.4366
G01 X4.6355 Y9.4373
G01 X4.6265 Y9.4387
G01 X4.5567 Y9.4520
G01 X4.5419 Y9.4558
G01 X4.5278 Y9.4614
G01 X4.5144 Y9.4687
G01 X4.5020 Y9.4776
G01 X4.4951 Y9.4837
G01 X4.4393 Y9.5369
G01 X4.4295 Y9.5486
G01 X4.4212 Y9.5615
G01 X4.4157 Y9.5725
G01 X4.4114 Y9.5839
G01 X4.3927 Y9.6529
G01 X4.3907 Y9.6615
G01 X4.3893 Y9.6702
G01 X4.3884 Y9.6849
G01 X4.3884 Y16.9185
G01 X4.3893 Y16.9331
G01 X4.3919 Y16.9475
G01 X4.4143 Y17.0242
G01 X4.4174 Y17.0328
G01 X4.4212 Y17.0411
G01 X4.4256 Y17.0492
G01 X4.4323 Y17.0593
G01 X4.4400 Y17.0688
G01 X4.4486 Y17.0775
G01 X4.5045 Y17.1260
G01 X4.5141 Y17.1335
G01 X4.5271 Y17.1415
G01 X4.5410 Y17.1479
G01 X4.5555 Y17.1524
G01 X4.5675 Y17.1548
G01 X4.6439 Y17.1656
G01 X4.6530 Y17.1661
G01 X4.6621 Y17.1659
G01 X4.6773 Y17.1641
G01 X4.6921 Y17.1605
G01 X4.7063 Y17.1550
G01 X4.7737 Y17.1242
G01 X4.7817 Y17.1199
G01 X4.7919 Y17.1133
G01 X4.7991 Y17.1077
G01 X4.8080 Y17.0994
G01 X4.8141 Y17.0926
G01 X4.8197 Y17.0854
G01 X4.8247 Y17.0778
G01 X4.8646 Y17.0127
G01 X4.8702 Y17.0025
G01 X4.8748 Y16.9918
G01 X4.8775 Y16.9835
G01 X4.8878 Y16.9423
G01 X4.9749 Y16.7371
G01 X5.0936 Y16.5487
G01 X5.2410 Y16.3815
G01 X5.4132 Y16.2400
G01 X5.6058 Y16.1279
G01 X5.8139 Y16.0480
G01 X5.8294 Y16.0447
G01 X5.8294 Y16.3245
G01 X5.7823 Y16.3414
G01 X5.7739 Y16.3448
G01 X5.6824 Y16.3880
G01 X5.6744 Y16.3921
G01 X5.5825 Y16.4473
G01 X5.4987 Y16.5093
G01 X5.4917 Y16.5149
G01 X5.4123 Y16.5870
G01 X5.3383 Y16.6686
G01 X5.2727 Y16.7572
G01 X5.2175 Y16.8490
G01 X5.2133 Y16.8571
G01 X5.1689 Y16.9513
G01 X5.1335 Y17.0498
G01 X5.1302 Y17.0609
G01 X5.1050 Y17.1619
G01 X5.0896 Y17.2649
G01 X5.0884 Y17.2770
G01 X5.0834 Y17.3810
G01 X5.0834 Y19.3810
G01 X5.0889 Y19.4911
G01 X5.1040 Y19.5941
G01 X5.1057 Y19.6030
G01 X5.1302 Y19.7011
G01 X5.1337 Y19.7127
G01 X5.1689 Y19.8107
G01 X5.2133 Y19.9049
G01 X5.2190 Y19.9156
G01 X5.2727 Y20.0048
G01 X5.3346 Y20.0886
G01 X5.3403 Y20.0957
G01 X5.4082 Y20.1706
G01 X5.4167 Y20.1792
G01 X5.4940 Y20.2490
G01 X5.5800 Y20.3130
G01 X5.5876 Y20.3179
G01 X5.6718 Y20.3683
G01 X5.6797 Y20.3727
G01 X5.7739 Y20.4172
G01 X5.7823 Y20.4206
G01 X5.8294 Y20.4375
G01 X5.8294 Y20.7139
G01 X5.7219 Y20.6834
G01 X5.5199 Y20.5892
G01 X5.3357 Y20.4640
G01 X5.1738 Y20.3109
G01 X5.0382 Y20.1337
G01 X4.9330 Y19.9374
G01 X4.8727 Y19.7623
G01 X4.8698 Y19.7546
G01 X4.8660 Y19.7465
G01 X4.8584 Y19.7336
G01 X4.8120 Y19.6684
G01 X4.8060 Y19.6614
G01 X4.7974 Y19.6528
G01 X4.7903 Y19.6470
G01 X4.7803 Y19.6400
G01 X4.7723 Y19.6355
G01 X4.7641 Y19.6315
G01 X4.6925 Y19.6028
G01 X4.6779 Y19.5983
G01 X4.6690 Y19.5965
G01 X4.6599 Y19.5954
G01 X4.6446 Y19.5951
G01 X4.6355 Y19.5958
G01 X4.6265 Y19.5972
G01 X4.5537 Y19.6111
G01 X4.5391 Y19.6153
G01 X4.5278 Y19.6199
G01 X4.5196 Y19.6241
G01 X4.5118 Y19.6288
G01 X4.5044 Y19.6342
G01 X4.4974 Y19.6401
G01 X4.4415 Y19.6932
G01 X4.4332 Y19.7023
G01 X4.4260 Y19.7121
G01 X4.4183 Y19.7254
G01 X4.4145 Y19.7337
G01 X4.4114 Y19.7424
G01 X4.3927 Y19.8114
G01 X4.3902 Y19.8229
G01 X4.3890 Y19.8316
G01 X4.3884 Y19.8433
G01 X4.3884 Y24.1883
G01 X4.3893 Y24.2029
G01 X4.3919 Y24.2172
G01 X4.4143 Y24.2939
G01 X4.4174 Y24.3025
G01 X4.4226 Y24.3136
G01 X4.4288 Y24.3241
G01 X4.4360 Y24.3340
G01 X4.4421 Y24.3408
G01 X4.4486 Y24.3472
G01 X4.5069 Y24.3977
G01 X4.5192 Y24.4067
G01 X4.5298 Y24.4127
G01 X4.5439 Y24.4187
G01 X4.5526 Y24.4214
G01 X4.5615 Y24.4235
G01 X4.6408 Y24.4350
G01 X4.6560 Y24.4359
G01 X4.6682 Y24.4352
G01 X4.6833 Y24.4327
G01 X4.6979 Y24.4283
G01 X4.7063 Y24.4248
G01 X4.7760 Y24.3928
G01 X4.7892 Y24.3849
G01 X4.7966 Y24.3795
G01 X4.8036 Y24.3734
G01 X4.8133 Y24.3643
G01 X9.3524 Y19.8252
G01 X9.4057 Y19.7708
G01 X9.4319 Y19.7539
G01 X9.4447 Y19.7447
G01 X9.4716 Y19.7235
G01 X9.4923 Y19.7133
G01 X9.5083 Y19.7044
G01 X9.5303 Y19.6905
G01 X9.5624 Y19.6787
G01 X9.5770 Y19.6725
G01 X9.6050 Y19.6590
G01 X9.6303 Y19.6529
G01 X9.6486 Y19.6474
G01 X9.6695 Y19.6399
G01 X9.7004 Y19.6359
G01 X9.7160 Y19.6332
G01 X9.7494 Y19.6256
G01 X9.9046 Y19.6251
G01 X9.9137 Y19.6254
G01 X10.2672 Y19.6253
G01 X10.2788 Y19.6241
G01 X10.2931 Y19.6212
G01 X10.3641 Y19.6004
G01 X10.3784 Y19.5952
G01 X10.3893 Y19.5898
G01 X10.3997 Y19.5833
G01 X10.4070 Y19.5778
G01 X10.4161 Y19.5697
G01 X10.4223 Y19.5630
G01 X10.4688 Y19.5093
G01 X10.4778 Y19.4975
G01 X10.4826 Y19.4900
G01 X10.4867 Y19.4821
G01 X10.4952 Y19.4614
G01 X10.5193 Y19.3895
G01 X10.5973 Y19.2635
G01 X10.7022 Y19.1588
G01 X10.8284 Y19.0810
G01 X10.9699 Y19.0341
G01 X11.0547 Y19.0254
G01 X11.7679 Y19.0254
G01 X11.8539 Y19.0343
G01 X11.9953 Y19.0815
G01 X12.1213 Y19.1595
G01 X12.2261 Y19.2644
G01 X12.3038 Y19.3906
G01 X12.3508 Y19.5321
G01 X12.3594 Y19.6169
G01 X12.3594 Y20.9550
G01 X12.3505 Y21.0411
G01 X12.3034 Y21.1825
G01 X12.2254 Y21.3085
G01 X12.1205 Y21.4132
G01 X11.9943 Y21.4910
G01 X11.8528 Y21.5379
G01 X11.7680 Y21.5466
G01 X11.0548 Y21.5466
G01 X10.9688 Y21.5377
G01 X10.8274 Y21.4905
G01 X10.7014 Y21.4125
G01 X10.5966 Y21.3076
G01 X10.5189 Y21.1814
G01 X10.4958 Y21.1121
G01 X10.4910 Y21.1012
G01 X10.4852 Y21.0908
G01 X10.4415 Y21.0275
G01 X10.4360 Y21.0202
G01 X10.4300 Y21.0133
G01 X10.4212 Y21.0048
G01 X10.4141 Y20.9990
G01 X10.4039 Y20.9922
G01 X10.3959 Y20.9878
G01 X10.3876 Y20.9840
G01 X10.3220 Y20.9567
G01 X10.3137 Y20.9536
G01 X10.3022 Y20.9504
G01 X10.2904 Y20.9483
G01 X10.2815 Y20.9475
G01 X10.2613 Y20.9466
G01 X10.1997 Y20.9466
G01 X10.1880 Y20.9475
G01 X10.1765 Y20.9494
G01 X10.1680 Y20.9516
G01 X10.0941 Y20.9734
G01 X10.0802 Y20.9792
G01 X10.0722 Y20.9835
G01 X10.0646 Y20.9884
G01 X10.0364 Y21.0107
G01 X10.0266 Y21.0195
G01 X4.4614 Y26.5847
G01 X4.4516 Y26.5957
G01 X4.4433 Y26.6077
G01 X4.4064 Y26.6750
G01 X4.4011 Y26.6859
G01 X4.3961 Y26.7001
G01 X4.3928 Y26.7148
G01 X4.3892 Y26.7476
G01 X4.3884 Y26.7607
G01 X4.3884 Y36.4935
G01 X4.3890 Y36.5052
G01 X4.3907 Y36.5168
G01 X4.3934 Y36.5282
G01 X4.4143 Y36.5992
G01 X4.4199 Y36.6134
G01 X4.4271 Y36.6268
G01 X4.4360 Y36.6392
G01 X4.4464 Y36.6504
G01 X4.5045 Y36.7010
G01 X4.5166 Y36.7103
G01 X4.5271 Y36.7166
G01 X4.5382 Y36.7218
G01 X4.5526 Y36.7267
G01 X4.5675 Y36.7298
G01 X4.6378 Y36.7399
G01 X4.6530 Y36.7411
G01 X4.6622 Y36.7410
G01 X4.6744 Y36.7396
G01 X4.6834 Y36.7379
G01 X4.6923 Y36.7354
G01 X4.7038 Y36.7312
G01 X4.7694 Y36.7028
G01 X4.7828 Y36.6951
G01 X4.7904 Y36.6897
G01 X4.7955 Y36.6855
G01 X4.9229 Y36.6070
G01 X5.0644 Y36.5601
G01 X5.1492 Y36.5514
G01 X5.8624 Y36.5514
G01 X5.9484 Y36.5603
G01 X6.0898 Y36.6075
G01 X6.2158 Y36.6855
G01 X6.3206 Y36.7904
G01 X6.3983 Y36.9166
G01 X6.4453 Y37.0581
G01 X6.4539 Y37.1429
G01 X6.4539 Y38.4810
G01 X6.4450 Y38.5671
G01 X6.3979 Y38.7085
G01 X6.3199 Y38.8345
G01 X6.2375 Y38.9168
G01 X6.2280 Y38.9279
G01 X6.2214 Y38.9376
G01 X6.1830 Y39.0076
G01 X6.1769 Y39.0215
G01 X6.1733 Y39.0330
G01 X6.1709 Y39.0448
G01 X6.1672 Y39.0777
G01 X6.1665 Y39.0876
G01 X6.1665 Y45.3622
G01 X6.1673 Y45.4406
G01 X6.1687 Y45.4551
G01 X6.1703 Y45.4637
G01 X6.1726 Y45.4722
G01 X6.1952 Y45.5458
G01 X6.2010 Y45.5594
G01 X6.2053 Y45.5673
G01 X6.2102 Y45.5748
G01 X6.2317 Y45.6018
G01 X6.2401 Y45.6110
G01 X7.4252 Y46.7960
G01 X7.4317 Y46.8019
G01 X7.4387 Y46.8072
G01 X7.4511 Y46.8150
G01 X7.5161 Y46.8504
G01 X7.5299 Y46.8565
G01 X7.5414 Y46.8601
G01 X7.5502 Y46.8620
G01 X7.5592 Y46.8633
G01 X7.5892 Y46.8665
G01 X7.5991 Y46.8669
G01 X11.3408 Y46.8669
G01 X11.4170 Y46.8661
G01 X11.4475 Y46.8727
G01 X11.4631 Y46.8753
G01 X11.4971 Y46.8792
G01 X11.5181 Y46.8865
G01 X11.5365 Y46.8917
G01 X11.5619 Y46.8974
G01 X11.5901 Y46.9106
G01 X11.6048 Y46.9166
G01 X11.6371 Y46.9280
G01 X11.6592 Y46.9415
G01 X11.6761 Y46.9506
G01 X11.6962 Y46.9601
G01 X11.7234 Y46.9809
G01 X11.7364 Y46.9900
G01 X11.7628 Y47.0065
G01 X11.8729 Y47.1159
G01 X11.8791 Y47.1225
G01 X12.2551 Y47.4985
G01 X12.3095 Y47.5518
G01 X12.3264 Y47.5780
G01 X12.3356 Y47.5909
G01 X12.3569 Y47.6178
G01 X12.3670 Y47.6385
G01 X12.3759 Y47.6544
G01 X12.3898 Y47.6764
G01 X12.4017 Y47.7085
G01 X12.4079 Y47.7231
G01 X12.4214 Y47.7512
G01 X12.4275 Y47.7765
G01 X12.4329 Y47.7948
G01 X12.4405 Y47.8157
G01 X12.4449 Y47.8496
G01 X12.4478 Y47.8653
G01 X12.4547 Y47.8956
G01 X12.4553 Y48.0508
G01 X12.4549 Y48.0599
G01 X12.4549 Y52.4619
G01 X12.4558 Y52.4765
G01 X12.4584 Y52.4908
G01 X12.4799 Y52.5646
G01 X12.4839 Y52.5761
G01 X12.4891 Y52.5872
G01 X12.4953 Y52.5977
G01 X12.5025 Y52.6075
G01 X12.5107 Y52.6166
G01 X12.5174 Y52.6229
G01 X12.5734 Y52.6713
G01 X12.5806 Y52.6769
G01 X12.5883 Y52.6819
G01 X12.5963 Y52.6863
G01 X12.6047 Y52.6901
G01 X12.6162 Y52.6942
G01 X12.6250 Y52.6965
G01 X12.6340 Y52.6981
G01 X12.7073 Y52.7086
G01 X12.7226 Y52.7095
G01 X12.7318 Y52.7091
G01 X12.7410 Y52.7080
G01 X12.7500 Y52.7062
G01 X12.7770 Y52.6997
G01 X12.8094 Y52.6891
G01 X12.8942 Y52.6804
G01 X13.6074 Y52.6804
G01 X13.6934 Y52.6893
G01 X13.8348 Y52.7365
G01 X13.9608 Y52.8145
G01 X14.0656 Y52.9194
G01 X14.1433 Y53.0456
G01 X14.1903 Y53.1871
G01 X14.1989 Y53.2719
G01 X14.1989 Y54.6100
G01 X14.1900 Y54.6961
G01 X14.1429 Y54.8375
G01 X14.0649 Y54.9635
G01 X13.9600 Y55.0682
G01 X13.8338 Y55.1460
G01 X13.6923 Y55.1929
G01 X13.6075 Y55.2016
G01 X12.8943 Y55.2016
G01 X12.8083 Y55.1927
G01 X12.6669 Y55.1455
G01 X12.5409 Y55.0675
G01 X12.4361 Y54.9626
G01 X12.3584 Y54.8364
G01 X12.3135 Y54.7012
G01 X12.3102 Y54.6929
G01 X12.3063 Y54.6848
G01 X12.2986 Y54.6721
G01 X12.2582 Y54.6137
G01 X12.2490 Y54.6021
G01 X12.2429 Y54.5957
G01 X12.2340 Y54.5879
G01 X12.2269 Y54.5826
G01 X12.2194 Y54.5778
G01 X12.1738 Y54.5525
G01 X12.1627 Y54.5477
G01 X12.1421 Y54.5405
G01 X12.1232 Y54.5288
G01 X12.1064 Y54.5196
G01 X12.0830 Y54.5084
G01 X12.0584 Y54.4894
G01 X12.0454 Y54.4803
G01 X12.0164 Y54.4620
G01 X11.9063 Y54.3526
G01 X11.9001 Y54.3460
G01 X11.3336 Y53.7795
G01 X11.2792 Y53.7262
G01 X11.2622 Y53.6999
G01 X11.2531 Y53.6871
G01 X11.2318 Y53.6602
G01 X11.2221 Y53.6403
G01 X11.2128 Y53.6236
G01 X11.1989 Y53.6016
G01 X11.1870 Y53.5695
G01 X11.1808 Y53.5549
G01 X11.1673 Y53.5268
G01 X11.1612 Y53.5015
G01 X11.1558 Y53.4832
G01 X11.1482 Y53.4623
G01 X11.1443 Y53.4314
G01 X11.1415 Y53.4158
G01 X11.1340 Y53.3824
G01 X11.1334 Y53.2272
G01 X11.1337 Y53.2181
G01 X11.1337 Y48.4341
G01 X11.1325 Y48.4195
G01 X11.1303 Y48.4080
G01 X11.1069 Y48.3284
G01 X11.1023 Y48.3171
G01 X11.0966 Y48.3063
G01 X11.0899 Y48.2961
G01 X11.0822 Y48.2867
G01 X11.0713 Y48.2760
G01 X11.0153 Y48.2275
G01 X11.0055 Y48.2202
G01 X10.9922 Y48.2125
G01 X10.9781 Y48.2065
G01 X10.9663 Y48.2030
G01 X10.9081 Y48.1903
G01 X10.8965 Y48.1887
G01 X10.8878 Y48.1881
G01 X7.2314 Y48.1881
G01 X7.1552 Y48.1889
G01 X7.1247 Y48.1823
G01 X7.1091 Y48.1797
G01 X7.0751 Y48.1758
G01 X7.0541 Y48.1685
G01 X7.0357 Y48.1633
G01 X7.0103 Y48.1576
G01 X6.9792 Y48.1432
G01 X6.9645 Y48.1373
G01 X6.9351 Y48.1270
G01 X6.9162 Y48.1153
G01 X6.8994 Y48.1061
G01 X6.8760 Y48.0949
G01 X6.8514 Y48.0759
G01 X6.8384 Y48.0668
G01 X6.8094 Y48.0485
G01 X6.6993 Y47.9391
G01 X6.6931 Y47.9325
G01 X6.4663 Y47.7057
G01 X6.4599 Y47.6997
G01 X6.4507 Y47.6925
G01 X6.4409 Y47.6862
G01 X6.3760 Y47.6507
G01 X6.3650 Y47.6454
G01 X6.3536 Y47.6412
G01 X6.3418 Y47.6382
G01 X6.3267 Y47.6361
G01 X6.3145 Y47.6357
G01 X6.2345 Y47.6413
G01 X6.2194 Y47.6437
G01 X6.2077 Y47.6470
G01 X6.1991 Y47.6502
G01 X6.1908 Y47.6540
G01 X6.1776 Y47.6617
G01 X6.1158 Y47.7078
G01 X6.1064 Y47.7156
G01 X6.0999 Y47.7221
G01 X6.0920 Y47.7313
G01 X6.0867 Y47.7388
G01 X6.0805 Y47.7493
G01 X6.0754 Y47.7604
G01 X6.0475 Y47.8355
G01 X6.0444 Y47.8473
G01 X6.0429 Y47.8562
G01 X6.0420 Y47.8653
G01 X6.0414 Y47.8817
G01 X6.0414 Y66.0738
G01 X6.0423 Y66.0884
G01 X6.0437 Y66.0970
G01 X6.0464 Y66.1084
G01 X6.0664 Y66.1765
G01 X6.0716 Y66.1907
G01 X6.0769 Y66.2015
G01 X6.0832 Y66.2118
G01 X6.0887 Y66.2190
G01 X6.1077 Y66.2425
G01 X6.1144 Y66.2498
G01 X7.0481 Y67.1835
G01 X7.1025 Y67.2368
G01 X7.1194 Y67.2630
G01 X7.1286 Y67.2759
G01 X7.1499 Y67.3028
G01 X7.1600 Y67.3235
G01 X7.1689 Y67.3394
G01 X7.1828 Y67.3614
G01 X7.1947 Y67.3935
G01 X7.2009 Y67.4081
G01 X7.2144 Y67.4362
G01 X7.2205 Y67.4615
G01 X7.2259 Y67.4798
G01 X7.2335 Y67.5007
G01 X7.2379 Y67.5346
G01 X7.2408 Y67.5503
G01 X7.2477 Y67.5806
G01 X7.2483 Y67.7358
G01 X7.2479 Y67.7449
G01 X7.2480 Y69.4544
G01 X7.2485 Y69.4632
G01 X7.2497 Y69.4719
G01 X7.2529 Y69.4861
G01 X7.2738 Y69.5572
G01 X7.2781 Y69.5686
G01 X7.2851 Y69.5822
G01 X7.2936 Y69.5948
G01 X7.2995 Y69.6018
G01 X7.3059 Y69.6084
G01 X7.3688 Y69.6629
G01 X7.3788 Y69.6700
G01 X7.3895 Y69.6760
G01 X7.4036 Y69.6820
G01 X7.4154 Y69.6855
G01 X7.4736 Y69.6982
G01 X7.4881 Y69.7001
G01 X7.4968 Y69.7004
G01 X7.6434 Y69.7004
G01 X7.8096 Y69.7138
G01 X8.0261 Y69.7670
G01 X8.2314 Y69.8541
G01 X8.4201 Y69.9729
G01 X8.5873 Y70.1203
G01 X8.7288 Y70.2926
G01 X8.8410 Y70.4854
G01 X8.9209 Y70.6935
G01 X8.9665 Y70.9118
G01 X8.9766 Y71.1345
G01 X8.9510 Y71.3560
G01 X8.9146 Y71.4846
G01 X8.8903 Y71.5706
G01 X8.7960 Y71.7726
G01 X8.6707 Y71.9570
G01 X8.5175 Y72.1191
G01 X8.3404 Y72.2545
G01 X8.1439 Y72.3598
G01 X7.9331 Y72.4324
G01 X7.7112 Y72.4708
G01 X7.6926 Y72.4716
G01 X7.4968 Y72.4716
G01 X7.4823 Y72.4725
G01 X7.4736 Y72.4738
G01 X7.4650 Y72.4758
G01 X7.3941 Y72.4966
G01 X7.3798 Y72.5018
G01 X7.3662 Y72.5087
G01 X7.3585 Y72.5137
G01 X7.3512 Y72.5192
G01 X7.3400 Y72.5295
G01 X7.2894 Y72.5877
G01 X7.2836 Y72.5949
G01 X7.2784 Y72.6025
G01 X7.2737 Y72.6104
G01 X7.2697 Y72.6187
G01 X7.2663 Y72.6273
G01 X7.2628 Y72.6390
G01 X7.2502 Y72.6972
G01 X7.2485 Y72.7088
G01 X7.2479 Y72.7205
G01 X7.2479 Y75.9970
G01 X7.2485 Y76.0087
G01 X7.2502 Y76.0203
G01 X7.2529 Y76.0316
G01 X7.2729 Y76.0997
G01 X7.2769 Y76.1113
G01 X7.2821 Y76.1223
G01 X7.2883 Y76.1328
G01 X7.2955 Y76.1427
G01 X7.3037 Y76.1518
G01 X7.3104 Y76.1580
G01 X7.3664 Y76.2065
G01 X7.3762 Y76.2138
G01 X7.3868 Y76.2201
G01 X7.3979 Y76.2253
G01 X7.4124 Y76.2303
G01 X7.4707 Y76.2431
G01 X7.4852 Y76.2453
G01 X7.4968 Y76.2459
G01 X8.2149 Y76.2459
G01 X8.3811 Y76.2593
G01 X8.5976 Y76.3125
G01 X8.8029 Y76.3996
G01 X8.9916 Y76.5184
G01 X9.1588 Y76.6658
G01 X9.3003 Y76.8381
G01 X9.4125 Y77.0309
G01 X9.4924 Y77.2390
G01 X9.4932 Y77.2430
G01 X9.5380 Y77.4573
G01 X9.5481 Y77.6800
G01 X9.5225 Y77.9015
G01 X9.4618 Y78.1161
G01 X9.3675 Y78.3181
G01 X9.2422 Y78.5025
G01 X9.0890 Y78.6646
G01 X9.0360 Y78.7051
G01 X9.0294 Y78.7109
G01 X9.0231 Y78.7171
G01 X9.0138 Y78.7283
G01 X8.9701 Y78.7881
G01 X8.9636 Y78.7984
G01 X8.9570 Y78.8122
G01 X8.9530 Y78.8237
G01 X8.9502 Y78.8356
G01 X8.9483 Y78.8507
G01 X8.9440 Y78.9216
G01 X8.9438 Y78.9338
G01 X8.9449 Y78.9460
G01 X8.9472 Y78.9580
G01 X8.9517 Y78.9726
G01 X8.9566 Y78.9838
G01 X8.9610 Y78.9919
G01 X9.0020 Y79.0609
G01 X9.0070 Y79.0682
G01 X9.0125 Y79.0751
G01 X9.0185 Y79.0817
G01 X9.0249 Y79.0878
G01 X9.1588 Y79.2058
G01 X9.3003 Y79.3781
G01 X9.3097 Y79.3938
G01 X9.3189 Y79.4059
G01 X9.3273 Y79.4146
G01 X9.3811 Y79.4655
G01 X9.3906 Y79.4732
G01 X9.4008 Y79.4800
G01 X9.4088 Y79.4843
G01 X9.4172 Y79.4881
G01 X9.4317 Y79.4929
G01 X9.4976 Y79.5087
G01 X9.5091 Y79.5104
G01 X9.5207 Y79.5109
G01 X10.5801 Y79.5109
G01 X10.5917 Y79.5100
G01 X10.6061 Y79.5074
G01 X10.6799 Y79.4859
G01 X10.6942 Y79.4807
G01 X10.7052 Y79.4753
G01 X10.7155 Y79.4688
G01 X10.7275 Y79.4594
G01 X10.7381 Y79.4485
G01 X10.7846 Y79.3948
G01 X10.7902 Y79.3879
G01 X10.7984 Y79.3755
G01 X10.8025 Y79.3676
G01 X10.8061 Y79.3594
G01 X10.8132 Y79.3408
G01 X10.8368 Y79.2700
G01 X10.9148 Y79.1440
G01 X11.0197 Y79.0393
G01 X11.1459 Y78.9615
G01 X11.2874 Y78.9146
G01 X11.3722 Y78.9059
G01 X12.0854 Y78.9059
G01 X12.1714 Y78.9148
G01 X12.3128 Y78.9620
G01 X12.4388 Y79.0400
G01 X12.5436 Y79.1449
G01 X12.6213 Y79.2711
G01 X12.6683 Y79.4126
G01 X12.6769 Y79.4974
G01 X12.6769 Y80.8355
G01 X12.6680 Y80.9216
G01 X12.6209 Y81.0630
G01 X12.5429 Y81.1890
G01 X12.4380 Y81.2937
G01 X12.3118 Y81.3715
G01 X12.1703 Y81.4184
G01 X12.0855 Y81.4271
G01 X11.3723 Y81.4271
G01 X11.2863 Y81.4182
G01 X11.1449 Y81.3710
G01 X11.0189 Y81.2930
G01 X10.9141 Y81.1881
G01 X10.8364 Y81.0619
G01 X10.8159 Y81.0004
G01 X10.8127 Y80.9921
G01 X10.8074 Y80.9814
G01 X10.8011 Y80.9713
G01 X10.7606 Y80.9130
G01 X10.7532 Y80.9033
G01 X10.7470 Y80.8966
G01 X10.7403 Y80.8903
G01 X10.7308 Y80.8827
G01 X10.7231 Y80.8777
G01 X10.7123 Y80.8720
G01 X10.6384 Y80.8411
G01 X10.6300 Y80.8382
G01 X10.6213 Y80.8359
G01 X10.6066 Y80.8335
G01 X10.5805 Y80.8321
G01 X9.5141 Y80.8321
G01 X9.4995 Y80.8334
G01 X9.4880 Y80.8356
G01 X9.4086 Y80.8589
G01 X9.3975 Y80.8634
G01 X9.3869 Y80.8689
G01 X9.3768 Y80.8754
G01 X9.3698 Y80.8810
G01 X9.3631 Y80.8870
G01 X9.3270 Y80.9222
G01 X9.3167 Y80.9336
G01 X9.3112 Y80.9411
G01 X9.2422 Y81.0425
G01 X9.0890 Y81.2046
G01 X8.9119 Y81.3400
G01 X8.7154 Y81.4453
G01 X8.5046 Y81.5179
G01 X8.2827 Y81.5563
G01 X8.2641 Y81.5571
G01 X6.1028 Y81.5571
G01 X5.9366 Y81.5437
G01 X5.7201 Y81.4905
G01 X5.5148 Y81.4034
G01 X5.3261 Y81.2846
G01 X5.1589 Y81.1372
G01 X5.0174 Y80.9649
G01 X4.9052 Y80.7721
G01 X4.8253 Y80.5640
G01 X4.7797 Y80.3457
G01 X4.7696 Y80.1230
G01 X4.7952 Y79.9015
G01 X4.8559 Y79.6869
G01 X4.9502 Y79.4849
G01 X5.0755 Y79.3005
G01 X5.2287 Y79.1384
G01 X5.2817 Y79.0979
G01 X5.2883 Y79.0921
G01 X5.2946 Y79.0859
G01 X5.3039 Y79.0747
G01 X5.3459 Y79.0174
G01 X5.3510 Y79.0098
G01 X5.3569 Y78.9992
G01 X5.3618 Y78.9880
G01 X5.3655 Y78.9764
G01 X5.3680 Y78.9644
G01 X5.3694 Y78.9523
G01 X5.3740 Y78.8753
G01 X5.3732 Y78.8600
G01 X5.3712 Y78.8480
G01 X5.3671 Y78.8333
G01 X5.3624 Y78.8219
G01 X5.3567 Y78.8111
G01 X5.3172 Y78.7446
G01 X5.3126 Y78.7375
G01 X5.3072 Y78.7303
G01 X5.3014 Y78.7235
G01 X5.2928 Y78.7152
G01 X5.1589 Y78.5972
G01 X5.0174 Y78.4249
G01 X4.9052 Y78.2321
G01 X4.8253 Y78.0240
G01 X4.7797 Y77.8057
G01 X4.7696 Y77.5830
G01 X4.7952 Y77.3615
G01 X4.8559 Y77.1469
G01 X4.9502 Y76.9449
G01 X5.0755 Y76.7605
G01 X5.2287 Y76.5984
G01 X5.4058 Y76.4630
G01 X5.6023 Y76.3577
G01 X5.7589 Y76.3037
G01 X5.7720 Y76.2984
G01 X5.7799 Y76.2942
G01 X5.7875 Y76.2895
G01 X5.8528 Y76.2430
G01 X5.8620 Y76.2350
G01 X5.8723 Y76.2238
G01 X5.8811 Y76.2113
G01 X5.8871 Y76.2007
G01 X5.8908 Y76.1923
G01 X5.9183 Y76.1237
G01 X5.9227 Y76.1097
G01 X5.9249 Y76.0982
G01 X5.9258 Y76.0895
G01 X5.9267 Y76.0684
G01 X5.9267 Y72.7205
G01 X5.9264 Y72.7117
G01 X5.9250 Y72.7001
G01 X5.9226 Y72.6887
G01 X5.9009 Y72.6148
G01 X5.8978 Y72.6062
G01 X5.8940 Y72.5979
G01 X5.8864 Y72.5847
G01 X5.8772 Y72.5725
G01 X5.8710 Y72.5657
G01 X5.8643 Y72.5595
G01 X5.8059 Y72.5091
G01 X5.7959 Y72.5020
G01 X5.7852 Y72.4960
G01 X5.7711 Y72.4900
G01 X5.7593 Y72.4865
G01 X5.7040 Y72.4744
G01 X5.6895 Y72.4722
G01 X5.6778 Y72.4716
G01 X5.5313 Y72.4716
G01 X5.3651 Y72.4582
G01 X5.1486 Y72.4050
G01 X4.9433 Y72.3179
G01 X4.7546 Y72.1991
G01 X4.5874 Y72.0517
G01 X4.4459 Y71.8794
G01 X4.3337 Y71.6866
G01 X4.2538 Y71.4785
G01 X4.2082 Y71.2602
G01 X4.1981 Y71.0375
G01 X4.2237 Y70.8160
G01 X4.2844 Y70.6014
G01 X4.3787 Y70.3994
G01 X4.5040 Y70.2150
G01 X4.6572 Y70.0529
G01 X4.8343 Y69.9175
G01 X5.0308 Y69.8122
G01 X5.2416 Y69.7396
G01 X5.4635 Y69.7012
G01 X5.4821 Y69.7004
G01 X5.6808 Y69.7004
G01 X5.6953 Y69.6991
G01 X5.7040 Y69.6976
G01 X5.7125 Y69.6954
G01 X5.7864 Y69.6736
G01 X5.8005 Y69.6677
G01 X5.8085 Y69.6633
G01 X5.8162 Y69.6583
G01 X5.8282 Y69.6489
G01 X5.8389 Y69.6380
G01 X5.8873 Y69.5820
G01 X5.8929 Y69.5747
G01 X5.8995 Y69.5643
G01 X5.9062 Y69.5505
G01 X5.9093 Y69.5418
G01 X5.9119 Y69.5330
G01 X5.9245 Y69.4748
G01 X5.9262 Y69.4632
G01 X5.9267 Y69.4544
G01 X5.9267 Y68.0308
G01 X5.9255 Y68.0162
G01 X5.9226 Y68.0019
G01 X5.9018 Y67.9310
G01 X5.8978 Y67.9196
G01 X5.8913 Y67.9060
G01 X5.8850 Y67.8957
G01 X5.8795 Y67.8885
G01 X5.8584 Y67.8625
G01 X4.9201 Y66.9240
G01 X4.8657 Y66.8707
G01 X4.8487 Y66.8444
G01 X4.8396 Y66.8316
G01 X4.8183 Y66.8047
G01 X4.8086 Y66.7848
G01 X4.7993 Y66.7681
G01 X4.7854 Y66.7461
G01 X4.7735 Y66.7140
G01 X4.7673 Y66.6994
G01 X4.7538 Y66.6713
G01 X4.7477 Y66.6460
G01 X4.7423 Y66.6277
G01 X4.7347 Y66.6068
G01 X4.7308 Y66.5759
G01 X4.7280 Y66.5603
G01 X4.7205 Y66.5269
G01 X4.7199 Y66.3717
G01 X4.7202 Y66.3626
G01 X4.7202 Y46.0627
G01 X4.7194 Y46.0481
G01 X4.7174 Y46.0366
G01 X4.7153 Y46.0281
G01 X4.6953 Y45.9600
G01 X4.6901 Y45.9458
G01 X4.6848 Y45.9350
G01 X4.6767 Y45.9223
G01 X4.6561 Y45.8965
G01 X4.6496 Y45.8891
G01 X3.2671 Y44.5065
G01 X3.2127 Y44.4532
G01 X3.1957 Y44.4269
G01 X3.1866 Y44.4141
G01 X3.1653 Y44.3872
G01 X3.1556 Y44.3673
G01 X3.1463 Y44.3506
G01 X3.1324 Y44.3286
G01 X3.1205 Y44.2965
G01 X3.1143 Y44.2819
G01 X3.1008 Y44.2538
G01 X3.0947 Y44.2285
G01 X3.0893 Y44.2102
G01 X3.0817 Y44.1893
G01 X3.0778 Y44.1584
G01 X3.0750 Y44.1428
G01 X3.0675 Y44.1094
G01 X3.0669 Y43.9542
G01 X3.0672 Y43.9451
G01 X3.0672 Y26.3930
G01 X3.0664 Y26.3132
G01 X3.0672 Y26.2966
G01 X3.0672 Y5.4360
G01 X3.0669 Y5.4272
G01 X3.0660 Y5.4185
G01 X3.0631 Y5.4042
G01 X3.0414 Y5.3303
G01 X3.0371 Y5.3191
G01 X3.0333 Y5.3109
G01 X3.0288 Y5.3030
G01 X3.0237 Y5.2955
G01 X2.9990 Y5.2649
G01 X2.9131 Y5.1786
G01 X2.8354 Y5.0524
G01 X2.7884 Y4.9109
G01 X2.7797 Y4.8261
G01 X2.7797 Y3.4880
G00 Z2.0000
G00 X3.0424 Y4.7820
G01 F60.00
G01 Z-0.1300
G01 F120.00
G01 X3.0424 Y3.5320
G01 X3.0438 Y3.5015
G01 X3.0446 Y3.4925
G01 X3.0486 Y3.4652
G01 X3.0509 Y3.4534
G01 X3.0585 Y3.4238
G01 X3.0708 Y3.3893
G01 X3.0838 Y3.3616
G01 X3.0895 Y3.3510
G01 X3.1053 Y3.3248
G01 X3.1271 Y3.2954
G01 X3.1517 Y3.2683
G01 X3.1788 Y3.2437
G01 X3.2082 Y3.2219
G01 X3.2343 Y3.2061
G01 X3.2450 Y3.2004
G01 X3.2699 Y3.1887
G01 X3.2783 Y3.1853
G01 X3.3071 Y3.1752
G01 X3.3367 Y3.1676
G01 X3.3456 Y3.1657
G01 X3.3760 Y3.1612
G01 X3.4093 Y3.1592
G01 X4.0403 Y3.1591
G01 X4.0769 Y3.1609
G01 X4.1072 Y3.1652
G01 X4.1190 Y3.1676
G01 X4.1486 Y3.1752
G01 X4.1831 Y3.1875
G01 X4.2107 Y3.2004
G01 X4.2214 Y3.2061
G01 X4.2475 Y3.2219
G01 X4.2769 Y3.2437
G01 X4.3040 Y3.2683
G01 X4.3286 Y3.2954
G01 X4.3504 Y3.3248
G01 X4.3692 Y3.3562
G01 X4.3849 Y3.3893
G01 X4.3972 Y3.4238
G01 X4.4061 Y3.4593
G01 X4.4115 Y3.4959
G01 X4.4132 Y3.5320
G01 X4.4132 Y4.7820
G01 X4.4115 Y4.8186
G01 X4.4071 Y4.8488
G01 X4.4048 Y4.8606
G01 X4.3980 Y4.8874
G01 X4.3953 Y4.8960
G01 X4.3849 Y4.9247
G01 X4.3692 Y4.9578
G01 X4.3504 Y4.9892
G01 X4.3305 Y5.0162
G01 X4.3247 Y5.0231
G01 X4.3040 Y5.0457
G01 X4.2815 Y5.0663
G01 X4.2722 Y5.0740
G01 X4.2450 Y5.0937
G01 X4.2161 Y5.1109
G01 X4.1831 Y5.1265
G01 X4.1515 Y5.1379
G01 X4.1259 Y5.1447
G01 X4.1259 Y25.4231
G01 X9.5444 Y20.0045
G01 X9.5733 Y19.9783
G01 X9.5998 Y19.9585
G01 X9.6098 Y19.9518
G01 X9.6382 Y19.9350
G01 X9.6680 Y19.9207
G01 X9.6792 Y19.9161
G01 X9.7103 Y19.9051
G01 X9.7423 Y19.8969
G01 X9.7541 Y19.8946
G01 X9.7898 Y19.8896
G01 X9.8258 Y19.8880
G01 X10.7259 Y19.8880
G01 X10.7259 Y19.6610
G01 X10.7273 Y19.6305
G01 X10.7281 Y19.6215
G01 X10.7331 Y19.5883
G01 X10.7420 Y19.5528
G01 X10.7543 Y19.5183
G01 X10.7673 Y19.4906
G01 X10.7714 Y19.4826
G01 X10.7871 Y19.4564
G01 X10.7923 Y19.4489
G01 X10.8106 Y19.4244
G01 X10.8310 Y19.4017
G01 X10.8395 Y19.3932
G01 X10.8623 Y19.3727
G01 X10.8917 Y19.3509
G01 X10.9231 Y19.3321
G01 X10.9506 Y19.3189
G01 X10.9618 Y19.3143
G01 X10.9906 Y19.3042
G01 X11.0202 Y19.2966
G01 X11.0291 Y19.2947
G01 X11.0593 Y19.2902
G01 X11.0683 Y19.2895
G01 X11.0988 Y19.2881
G01 X11.7269 Y19.2881
G01 X11.7604 Y19.2899
G01 X11.7907 Y19.2942
G01 X11.8025 Y19.2966
G01 X11.8350 Y19.3051
G01 X11.8666 Y19.3165
G01 X11.8942 Y19.3294
G01 X11.9049 Y19.3351
G01 X11.9310 Y19.3509
G01 X11.9557 Y19.3690
G01 X11.9650 Y19.3767
G01 X11.9875 Y19.3973
G01 X12.0121 Y19.4244
G01 X12.0339 Y19.4538
G01 X12.0497 Y19.4800
G01 X12.0554 Y19.4906
G01 X12.0684 Y19.5183
G01 X12.0807 Y19.5528
G01 X12.0883 Y19.5824
G01 X12.0906 Y19.5942
G01 X12.0942 Y19.6185
G01 X12.0953 Y19.6281
G01 X12.0967 Y19.6610
G01 X12.0967 Y20.9110
G01 X12.0952 Y20.9445
G01 X12.0942 Y20.9535
G01 X12.0896 Y20.9837
G01 X12.0807 Y21.0192
G01 X12.0684 Y21.0537
G01 X12.0527 Y21.0868
G01 X12.0339 Y21.1182
G01 X12.0121 Y21.1476
G01 X11.9875 Y21.1747
G01 X11.9627 Y21.1973
G01 X11.9360 Y21.2176
G01 X11.9259 Y21.2243
G01 X11.8996 Y21.2399
G01 X11.8666 Y21.2555
G01 X11.8321 Y21.2678
G01 X11.8025 Y21.2754
G01 X11.7907 Y21.2778
G01 X11.7664 Y21.2814
G01 X11.7568 Y21.2824
G01 X11.7238 Y21.2839
G01 X11.0958 Y21.2839
G01 X11.0653 Y21.2824
G01 X11.0563 Y21.2814
G01 X11.0261 Y21.2767
G01 X10.9964 Y21.2695
G01 X10.9849 Y21.2660
G01 X10.9561 Y21.2555
G01 X10.9231 Y21.2399
G01 X10.8917 Y21.2211
G01 X10.8670 Y21.2030
G01 X10.8600 Y21.1973
G01 X10.8395 Y21.1788
G01 X10.8331 Y21.1725
G01 X10.8125 Y21.1499
G01 X10.8069 Y21.1428
G01 X10.7888 Y21.1182
G01 X10.7730 Y21.0920
G01 X10.7686 Y21.0841
G01 X10.7568 Y21.0592
G01 X10.7522 Y21.0481
G01 X10.7429 Y21.0221
G01 X10.7404 Y21.0134
G01 X10.7331 Y20.9837
G01 X10.7285 Y20.9535
G01 X10.7275 Y20.9445
G01 X10.7259 Y20.9110
G01 X10.7259 Y20.6840
G01 X9.9907 Y20.6840
G01 X4.1259 Y26.5489
G01 X4.1259 Y43.8681
G01 X5.1078 Y44.8501
G01 X5.1078 Y38.7997
G01 X5.0851 Y38.7938
G01 X5.0534 Y38.7826
G01 X5.0230 Y38.7686
G01 X5.0149 Y38.7644
G01 X4.9862 Y38.7471
G01 X4.9615 Y38.7290
G01 X4.9522 Y38.7213
G01 X4.9276 Y38.6985
G01 X4.9051 Y38.6736
G01 X4.8868 Y38.6491
G01 X4.8801 Y38.6391
G01 X4.8645 Y38.6128
G01 X4.8488 Y38.5797
G01 X4.8384 Y38.5510
G01 X4.8349 Y38.5394
G01 X4.8271 Y38.5068
G01 X4.8222 Y38.4736
G01 X4.8204 Y38.4370
G01 X4.8204 Y37.1870
G01 X4.8222 Y37.1504
G01 X4.8266 Y37.1202
G01 X4.8289 Y37.1084
G01 X4.8365 Y37.0788
G01 X4.8488 Y37.0443
G01 X4.8618 Y37.0166
G01 X4.8675 Y37.0060
G01 X4.8833 Y36.9798
G01 X4.9051 Y36.9504
G01 X4.9297 Y36.9233
G01 X4.9522 Y36.9027
G01 X4.9615 Y36.8950
G01 X4.9862 Y36.8769
G01 X5.0176 Y36.8581
G01 X5.0451 Y36.8449
G01 X5.0563 Y36.8403
G01 X5.0851 Y36.8302
G01 X5.1147 Y36.8226
G01 X5.1265 Y36.8202
G01 X5.1572 Y36.8159
G01 X5.1933 Y36.8141
G01 X5.8214 Y36.8141
G01 X5.8519 Y36.8156
G01 X5.8609 Y36.8166
G01 X5.8911 Y36.8213
G01 X5.9208 Y36.8285
G01 X5.9323 Y36.8320
G01 X5.9611 Y36.8425
G01 X5.9887 Y36.8554
G01 X5.9994 Y36.8611
G01 X6.0255 Y36.8769
G01 X6.0526 Y36.8969
G01 X6.0777 Y36.9192
G01 X6.0862 Y36.9277
G01 X6.1066 Y36.9504
G01 X6.1249 Y36.9749
G01 X6.1316 Y36.9849
G01 X6.1472 Y37.0112
G01 X6.1629 Y37.0443
G01 X6.1733 Y37.0730
G01 X6.1768 Y37.0846
G01 X6.1846 Y37.1172
G01 X6.1895 Y37.1509
G01 X6.1912 Y37.1870
G01 X6.1912 Y38.4370
G01 X6.1895 Y38.4736
G01 X6.1851 Y38.5038
G01 X6.1828 Y38.5156
G01 X6.1760 Y38.5424
G01 X6.1733 Y38.5510
G01 X6.1629 Y38.5797
G01 X6.1472 Y38.6128
G01 X6.1284 Y38.6442
G01 X6.1085 Y38.6712
G01 X6.1027 Y38.6781
G01 X6.0820 Y38.7007
G01 X6.0595 Y38.7213
G01 X6.0502 Y38.7290
G01 X6.0230 Y38.7487
G01 X5.9941 Y38.7659
G01 X5.9611 Y38.7815
G01 X5.9295 Y38.7929
G01 X5.9039 Y38.7997
G01 X5.9039 Y45.6461
G01 X7.3872 Y47.1295
G01 X11.3529 Y47.1295
G01 X11.3889 Y47.1314
G01 X11.4275 Y47.1371
G01 X11.4654 Y47.1466
G01 X11.5022 Y47.1598
G01 X11.5375 Y47.1765
G01 X11.5710 Y47.1965
G01 X11.6024 Y47.2198
G01 X11.6291 Y47.2439
G01 X12.0758 Y47.6905
G01 X12.1020 Y47.7195
G01 X12.1253 Y47.7509
G01 X12.1424 Y47.7791
G01 X12.1481 Y47.7898
G01 X12.1621 Y47.8197
G01 X12.1752 Y47.8565
G01 X12.1834 Y47.8885
G01 X12.1858 Y47.9003
G01 X12.1905 Y47.9330
G01 X12.1924 Y47.9720
G01 X12.1924 Y53.1411
G01 X12.5654 Y53.5142
G01 X12.5654 Y53.3160
G01 X12.5668 Y53.2855
G01 X12.5676 Y53.2765
G01 X12.5726 Y53.2433
G01 X12.5815 Y53.2078
G01 X12.5938 Y53.1733
G01 X12.6095 Y53.1402
G01 X12.6283 Y53.1088
G01 X12.6464 Y53.0842
G01 X12.6540 Y53.0749
G01 X12.6747 Y53.0523
G01 X12.6972 Y53.0317
G01 X12.7041 Y53.0259
G01 X12.7262 Y53.0094
G01 X12.7363 Y53.0027
G01 X12.7626 Y52.9871
G01 X12.7956 Y52.9715
G01 X12.8301 Y52.9592
G01 X12.8597 Y52.9516
G01 X12.8686 Y52.9497
G01 X12.9022 Y52.9449
G01 X12.9383 Y52.9431
G01 X13.5633 Y52.9431
G01 X13.5999 Y52.9449
G01 X13.6302 Y52.9492
G01 X13.6420 Y52.9516
G01 X13.6716 Y52.9592
G01 X13.7004 Y52.9693
G01 X13.7116 Y52.9739
G01 X13.7391 Y52.9871
G01 X13.7705 Y53.0059
G01 X13.7952 Y53.0240
G01 X13.8045 Y53.0317
G01 X13.8270 Y53.0523
G01 X13.8516 Y53.0794
G01 X13.8734 Y53.1088
G01 X13.8892 Y53.1350
G01 X13.8949 Y53.1456
G01 X13.9079 Y53.1733
G01 X13.9202 Y53.2078
G01 X13.9278 Y53.2374
G01 X13.9301 Y53.2492
G01 X13.9337 Y53.2735
G01 X13.9348 Y53.2831
G01 X13.9362 Y53.3160
G01 X13.9362 Y54.5660
G01 X13.9345 Y54.6026
G01 X13.9291 Y54.6387
G01 X13.9202 Y54.6742
G01 X13.9100 Y54.7031
G01 X13.9067 Y54.7115
G01 X13.8949 Y54.7364
G01 X13.8892 Y54.7470
G01 X13.8734 Y54.7732
G01 X13.8516 Y54.8026
G01 X13.8270 Y54.8297
G01 X13.8045 Y54.8503
G01 X13.7952 Y54.8580
G01 X13.7730 Y54.8743
G01 X13.7654 Y54.8793
G01 X13.7391 Y54.8949
G01 X13.7061 Y54.9105
G01 X13.6716 Y54.9228
G01 X13.6420 Y54.9304
G01 X13.6302 Y54.9328
G01 X13.5995 Y54.9371
G01 X13.5633 Y54.9389
G01 X12.9383 Y54.9389
G01 X12.9048 Y54.9374
G01 X12.8958 Y54.9364
G01 X12.8656 Y54.9317
G01 X12.8359 Y54.9245
G01 X12.8244 Y54.9210
G01 X12.7956 Y54.9105
G01 X12.7680 Y54.8976
G01 X12.7573 Y54.8919
G01 X12.7312 Y54.8761
G01 X12.7018 Y54.8543
G01 X12.6790 Y54.8338
G01 X12.6726 Y54.8275
G01 X12.6540 Y54.8071
G01 X12.6464 Y54.7978
G01 X12.6283 Y54.7732
G01 X12.6095 Y54.7418
G01 X12.5938 Y54.7087
G01 X12.5815 Y54.6742
G01 X12.5739 Y54.6446
G01 X12.5716 Y54.6328
G01 X12.5672 Y54.6026
G01 X12.5656 Y54.5720
G01 X12.5654 Y54.3390
G01 X12.4233 Y54.3389
G01 X12.3903 Y54.3371
G01 X12.3576 Y54.3324
G01 X12.3487 Y54.3308
G01 X12.3196 Y54.3235
G01 X12.3109 Y54.3210
G01 X12.2798 Y54.3099
G01 X12.2715 Y54.3063
G01 X12.2444 Y54.2934
G01 X12.2365 Y54.2891
G01 X12.2082 Y54.2720
G01 X12.1816 Y54.2524
G01 X12.1723 Y54.2447
G01 X12.1479 Y54.2225
G01 X11.5108 Y53.5853
G01 X11.4867 Y53.5585
G01 X11.4669 Y53.5321
G01 X11.4602 Y53.5220
G01 X11.4419 Y53.4910
G01 X11.4278 Y53.4611
G01 X11.4244 Y53.4527
G01 X11.4135 Y53.4215
G01 X11.4053 Y53.3895
G01 X11.4029 Y53.3777
G01 X11.3982 Y53.3450
G01 X11.3963 Y53.3060
G01 X11.3963 Y48.1369
G01 X11.1850 Y47.9255
G01 X7.2223 Y47.9255
G01 X7.1833 Y47.9236
G01 X7.1506 Y47.9189
G01 X7.1417 Y47.9173
G01 X7.1068 Y47.9084
G01 X7.0757 Y47.8974
G01 X7.0645 Y47.8928
G01 X7.0347 Y47.8785
G01 X7.0063 Y47.8617
G01 X6.9963 Y47.8550
G01 X6.9697 Y47.8351
G01 X6.9431 Y47.8111
G01 X5.7789 Y46.6469
G01 X5.7789 Y66.2856
G01 X6.8709 Y67.3777
G01 X6.8931 Y67.4022
G01 X6.8987 Y67.4092
G01 X6.9183 Y67.4359
G01 X6.9354 Y67.4641
G01 X6.9398 Y67.4720
G01 X6.9539 Y67.5019
G01 X6.9573 Y67.5103
G01 X6.9673 Y67.5386
G01 X6.9764 Y67.5735
G01 X6.9788 Y67.5853
G01 X6.9835 Y67.6180
G01 X6.9854 Y67.6570
G01 X6.9854 Y69.9631
G01 X7.5873 Y69.9631
G01 X7.6914 Y69.9681
G01 X7.7004 Y69.9688
G01 X7.8064 Y69.9847
G01 X7.9131 Y70.0114
G01 X8.0171 Y70.0486
G01 X8.1167 Y70.0957
G01 X8.2112 Y70.1523
G01 X8.2950 Y70.2143
G01 X8.3043 Y70.2219
G01 X8.3770 Y70.2878
G01 X8.3855 Y70.2964
G01 X8.4554 Y70.3736
G01 X8.5175 Y70.4572
G01 X8.5242 Y70.4672
G01 X8.5777 Y70.5567
G01 X8.6248 Y70.6563
G01 X8.6619 Y70.7600
G01 X8.6887 Y70.8669
G01 X8.7041 Y70.9699
G01 X8.7053 Y70.9820
G01 X8.7102 Y71.0860
G01 X8.7048 Y71.1961
G01 X8.6897 Y71.2991
G01 X8.6874 Y71.3110
G01 X8.6619 Y71.4120
G01 X8.6269 Y71.5101
G01 X8.6223 Y71.5212
G01 X8.5777 Y71.6153
G01 X8.5242 Y71.7048
G01 X8.5175 Y71.7148
G01 X8.4554 Y71.7984
G01 X8.3855 Y71.8756
G01 X8.3770 Y71.8842
G01 X8.3043 Y71.9501
G01 X8.2974 Y71.9559
G01 X8.2161 Y72.0162
G01 X8.2061 Y72.0229
G01 X8.1167 Y72.0763
G01 X8.0226 Y72.1210
G01 X8.0114 Y72.1256
G01 X7.9133 Y72.1605
G01 X7.8064 Y72.1873
G01 X7.6974 Y72.2035
G01 X7.5904 Y72.2089
G01 X6.9854 Y72.2089
G01 X6.9854 Y76.5086
G01 X8.1588 Y76.5086
G01 X8.2629 Y76.5136
G01 X8.2749 Y76.5147
G01 X8.3720 Y76.5291
G01 X8.3838 Y76.5315
G01 X8.4846 Y76.5569
G01 X8.5858 Y76.5930
G01 X8.5941 Y76.5965
G01 X8.6882 Y76.6412
G01 X8.7776 Y76.6946
G01 X8.7876 Y76.7013
G01 X8.8712 Y76.7635
G01 X8.9485 Y76.8333
G01 X8.9570 Y76.8419
G01 X9.0269 Y76.9191
G01 X9.0890 Y77.0027
G01 X9.0957 Y77.0127
G01 X9.1492 Y77.1022
G01 X9.1938 Y77.1963
G01 X9.1984 Y77.2074
G01 X9.2334 Y77.3055
G01 X9.2602 Y77.4124
G01 X9.2763 Y77.5214
G01 X9.2817 Y77.6315
G01 X9.2763 Y77.7416
G01 X9.2612 Y77.8446
G01 X9.2589 Y77.8565
G01 X9.2334 Y77.9575
G01 X9.1984 Y78.0556
G01 X9.1938 Y78.0667
G01 X9.1492 Y78.1608
G01 X9.0957 Y78.2503
G01 X9.0890 Y78.2603
G01 X9.0306 Y78.3391
G01 X9.0229 Y78.3484
G01 X8.9529 Y78.4255
G01 X8.8712 Y78.4995
G01 X8.7827 Y78.5652
G01 X8.6882 Y78.6218
G01 X8.5885 Y78.6689
G01 X8.4848 Y78.7060
G01 X8.3779 Y78.7328
G01 X8.2749 Y78.7483
G01 X8.2659 Y78.7493
G01 X8.1588 Y78.7544
G01 X6.1588 Y78.7544
G01 X6.0488 Y78.7490
G01 X5.9398 Y78.7328
G01 X5.8331 Y78.7061
G01 X5.7348 Y78.6711
G01 X5.7236 Y78.6665
G01 X5.6295 Y78.6218
G01 X5.5401 Y78.5684
G01 X5.5301 Y78.5617
G01 X5.4512 Y78.5032
G01 X5.4419 Y78.4956
G01 X5.3648 Y78.4255
G01 X5.2908 Y78.3439
G01 X5.2252 Y78.2553
G01 X5.1715 Y78.1661
G01 X5.1672 Y78.1582
G01 X5.1214 Y78.0612
G01 X5.0862 Y77.9632
G01 X5.0827 Y77.9516
G01 X5.0575 Y77.8506
G01 X5.0421 Y77.7476
G01 X5.0409 Y77.7355
G01 X5.0359 Y77.6315
G01 X5.0409 Y77.5275
G01 X5.0421 Y77.5154
G01 X5.0575 Y77.4124
G01 X5.0827 Y77.3114
G01 X5.0860 Y77.3003
G01 X5.1214 Y77.2018
G01 X5.1658 Y77.1076
G01 X5.1715 Y77.0969
G01 X5.2235 Y77.0102
G01 X5.2287 Y77.0027
G01 X5.2908 Y76.9191
G01 X5.3607 Y76.8419
G01 X5.3692 Y76.8333
G01 X5.4465 Y76.7635
G01 X5.5301 Y76.7013
G01 X5.5401 Y76.6946
G01 X5.6295 Y76.6412
G01 X5.7236 Y76.5965
G01 X5.7348 Y76.5919
G01 X5.8329 Y76.5570
G01 X5.9368 Y76.5308
G01 X5.9457 Y76.5291
G01 X6.0488 Y76.5140
G01 X6.1528 Y76.5087
G01 X6.1893 Y76.5086
G01 X6.1893 Y72.2089
G01 X5.5873 Y72.2089
G01 X5.4833 Y72.2039
G01 X5.4743 Y72.2032
G01 X5.3683 Y72.1873
G01 X5.2614 Y72.1605
G01 X5.1576 Y72.1234
G01 X5.0634 Y72.0790
G01 X5.0528 Y72.0733
G01 X4.9686 Y72.0229
G01 X4.9586 Y72.0162
G01 X4.8750 Y71.9540
G01 X4.7977 Y71.8842
G01 X4.7892 Y71.8756
G01 X4.7193 Y71.7984
G01 X4.6537 Y71.7098
G01 X4.6000 Y71.6206
G01 X4.5943 Y71.6099
G01 X4.5499 Y71.5157
G01 X4.5147 Y71.4177
G01 X4.5112 Y71.4061
G01 X4.4860 Y71.3051
G01 X4.4706 Y71.2021
G01 X4.4696 Y71.1931
G01 X4.4646 Y71.0920
G01 X4.4646 Y71.0800
G01 X4.4699 Y70.9759
G01 X4.4850 Y70.8729
G01 X4.4873 Y70.8610
G01 X4.5127 Y70.7603
G01 X4.5478 Y70.6619
G01 X4.5524 Y70.6508
G01 X4.5970 Y70.5567
G01 X4.6505 Y70.4672
G01 X4.6572 Y70.4572
G01 X4.7193 Y70.3736
G01 X4.7892 Y70.2964
G01 X4.7977 Y70.2878
G01 X4.8750 Y70.2180
G01 X4.9610 Y70.1540
G01 X4.9686 Y70.1491
G01 X5.0580 Y70.0957
G01 X5.1577 Y70.0486
G01 X5.2614 Y70.0115
G01 X5.3624 Y69.9860
G01 X5.3742 Y69.9836
G01 X5.4773 Y69.9685
G01 X5.5843 Y69.9631
G01 X6.1893 Y69.9631
G01 X6.1893 Y67.8219
G01 X5.0994 Y66.7320
G01 X5.0771 Y66.7076
G01 X5.0713 Y66.7007
G01 X5.0534 Y66.6766
G01 X5.0467 Y66.6665
G01 X5.0298 Y66.6381
G01 X5.0131 Y66.6028
G01 X5.0000 Y66.5660
G01 X4.9918 Y66.5340
G01 X4.9899 Y66.5252
G01 X4.9855 Y66.4955
G01 X4.9843 Y66.4835
G01 X4.9828 Y66.4505
G01 X4.9828 Y45.8509
G01 X3.4422 Y44.3101
G01 X3.4202 Y44.2855
G01 X3.3969 Y44.2541
G01 X3.3768 Y44.2206
G01 X3.3613 Y44.1881
G01 X3.3579 Y44.1797
G01 X3.3470 Y44.1485
G01 X3.3388 Y44.1165
G01 X3.3369 Y44.1077
G01 X3.3325 Y44.0780
G01 X3.3313 Y44.0660
G01 X3.3298 Y44.0330
G01 X3.3298 Y5.1447
G01 X3.3042 Y5.1379
G01 X3.2726 Y5.1265
G01 X3.2396 Y5.1109
G01 X3.2107 Y5.0937
G01 X3.1835 Y5.0740
G01 X3.1742 Y5.0663
G01 X3.1517 Y5.0457
G01 X3.1310 Y5.0231
G01 X3.1252 Y5.0162
G01 X3.1053 Y4.9892
G01 X3.0865 Y4.9578
G01 X3.0708 Y4.9247
G01 X3.0604 Y4.8960
G01 X3.0577 Y4.8874
G01 X3.0509 Y4.8606
G01 X3.0486 Y4.8488
G01 X3.0442 Y4.8181
G01 X3.0424 Y4.7820
G00 Z2.0000
G00 X5.1337 Y6.8893
G01 F60.00
G01 Z-0.1300
G01 F120.00
G01 X5.1689 Y6.7913
G01 X5.2160 Y6.6917
G01 X5.2727 Y6.5972
G01 X5.3346 Y6.5134
G01 X5.3423 Y6.5041
G01 X5.4082 Y6.4314
G01 X5.4167 Y6.4228
G01 X5.4940 Y6.3530
G01 X5.5800 Y6.2890
G01 X5.5876 Y6.2841
G01 X5.6770 Y6.2307
G01 X5.7711 Y6.1860
G01 X5.7823 Y6.1814
G01 X5.8747 Y6.1483
G01 X5.8833 Y6.1456
G01 X5.9873 Y6.1197
G01 X6.0933 Y6.1038
G01 X6.1023 Y6.1031
G01 X6.2033 Y6.0981
G01 X6.2124 Y6.0982
G01 X6.2548 Y6.1003
G01 X6.2548 Y5.1447
G01 X6.2292 Y5.1379
G01 X6.1976 Y5.1265
G01 X6.1646 Y5.1109
G01 X6.1357 Y5.0937
G01 X6.1085 Y5.0740
G01 X6.0992 Y5.0663
G01 X6.0767 Y5.0457
G01 X6.0540 Y5.0209
G01 X6.0338 Y4.9941
G01 X6.0271 Y4.9841
G01 X6.0115 Y4.9578
G01 X5.9958 Y4.9247
G01 X5.9835 Y4.8902
G01 X5.9759 Y4.8606
G01 X5.9736 Y4.8488
G01 X5.9692 Y4.8181
G01 X5.9674 Y4.7820
G01 X5.9675 Y3.5290
G01 X5.9688 Y3.5015
G01 X5.9696 Y3.4925
G01 X5.9741 Y3.4622
G01 X5.9759 Y3.4534
G01 X5.9835 Y3.4238
G01 X5.9937 Y3.3949
G01 X5.9970 Y3.3865
G01 X6.0101 Y3.3589
G01 X6.0145 Y3.3510
G01 X6.0303 Y3.3248
G01 X6.0521 Y3.2954
G01 X6.0767 Y3.2683
G01 X6.0992 Y3.2477
G01 X6.1085 Y3.2400
G01 X6.1332 Y3.2219
G01 X6.1593 Y3.2061
G01 X6.1672 Y3.2017
G01 X6.1921 Y3.1899
G01 X6.2033 Y3.1853
G01 X6.2321 Y3.1752
G01 X6.2676 Y3.1663
G01 X6.3042 Y3.1609
G01 X6.3403 Y3.1591
G01 X6.9653 Y3.1591
G01 X7.0019 Y3.1609
G01 X7.0381 Y3.1663
G01 X7.0678 Y3.1735
G01 X7.0765 Y3.1761
G01 X7.1024 Y3.1853
G01 X7.1136 Y3.1899
G01 X7.1411 Y3.2031
G01 X7.1725 Y3.2219
G01 X7.2019 Y3.2437
G01 X7.2290 Y3.2683
G01 X7.2536 Y3.2954
G01 X7.2754 Y3.3248
G01 X7.2942 Y3.3562
G01 X7.3074 Y3.3838
G01 X7.3110 Y3.3921
G01 X7.3203 Y3.4180
G01 X7.3238 Y3.4296
G01 X7.3311 Y3.4593
G01 X7.3357 Y3.4895
G01 X7.3368 Y3.4991
G01 X7.3382 Y3.5320
G01 X7.3382 Y4.7820
G01 X7.3365 Y4.8186
G01 X7.3316 Y4.8518
G01 X7.3238 Y4.8844
G01 X7.3203 Y4.8960
G01 X7.3099 Y4.9247
G01 X7.2942 Y4.9578
G01 X7.2786 Y4.9841
G01 X7.2719 Y4.9941
G01 X7.2536 Y5.0186
G01 X7.2311 Y5.0435
G01 X7.2065 Y5.0663
G01 X7.1972 Y5.0740
G01 X7.1725 Y5.0921
G01 X7.1438 Y5.1094
G01 X7.1357 Y5.1136
G01 X7.1053 Y5.1276
G01 X7.0736 Y5.1388
G01 X7.0509 Y5.1447
G01 X7.0509 Y6.4825
G01 X7.0704 Y6.5041
G01 X7.0762 Y6.5110
G01 X7.1383 Y6.5947
G01 X7.1432 Y6.6022
G01 X7.1937 Y6.6864
G01 X7.1980 Y6.6943
G01 X7.2438 Y6.7913
G01 X7.2790 Y6.8893
G01 X7.2825 Y6.9009
G01 X7.3077 Y7.0019
G01 X7.3238 Y7.1109
G01 X7.3292 Y7.2180
G01 X7.3292 Y7.8230
G01 X11.5112 Y7.8230
G01 X11.4997 Y7.7907
G01 X11.4970 Y7.7821
G01 X11.4723 Y7.6840
G01 X11.4705 Y7.6751
G01 X11.4549 Y7.5691
G01 X11.4496 Y7.4650
G01 X11.4495 Y7.4560
G01 X11.4549 Y7.3489
G01 X11.4710 Y7.2399
G01 X11.4977 Y7.1333
G01 X11.5338 Y7.0321
G01 X11.5374 Y7.0238
G01 X11.5820 Y6.9297
G01 X11.6387 Y6.8352
G01 X11.7043 Y6.7466
G01 X11.7742 Y6.6694
G01 X11.7827 Y6.6608
G01 X11.8600 Y6.5910
G01 X11.9436 Y6.5288
G01 X11.9536 Y6.5221
G01 X12.0378 Y6.4717
G01 X12.0484 Y6.4660
G01 X12.1427 Y6.4216
G01 X12.2464 Y6.3845
G01 X12.3533 Y6.3577
G01 X12.4563 Y6.3422
G01 X12.4683 Y6.3411
G01 X12.5723 Y6.3361
G01 X14.5754 Y6.3361
G01 X14.6824 Y6.3415
G01 X14.7855 Y6.3566
G01 X14.7973 Y6.3590
G01 X14.8981 Y6.3844
G01 X15.0021 Y6.4216
G01 X15.0963 Y6.4660
G01 X15.1069 Y6.4717
G01 X15.1911 Y6.5221
G01 X15.1987 Y6.5270
G01 X15.2847 Y6.5910
G01 X15.3620 Y6.6608
G01 X15.3705 Y6.6694
G01 X15.4364 Y6.7421
G01 X15.4422 Y6.7490
G01 X15.5060 Y6.8352
G01 X15.5612 Y6.9270
G01 X15.5654 Y6.9351
G01 X15.6086 Y7.0265
G01 X15.6213 Y7.0610
G01 X18.2178 Y7.0610
G01 X18.2569 Y7.0629
G01 X18.2955 Y7.0686
G01 X18.3334 Y7.0781
G01 X18.3674 Y7.0901
G01 X18.3757 Y7.0937
G01 X18.4055 Y7.1080
G01 X18.4390 Y7.1280
G01 X18.4704 Y7.1513
G01 X18.4971 Y7.1754
G01 X19.5859 Y8.2641
G01 X19.6337 Y8.1847
G01 X19.6956 Y8.1009
G01 X19.7033 Y8.0916
G01 X19.7692 Y8.0189
G01 X19.7777 Y8.0103
G01 X19.8550 Y7.9405
G01 X19.9386 Y7.8783
G01 X19.9486 Y7.8716
G01 X20.0380 Y7.8182
G01 X20.1377 Y7.7711
G01 X20.2414 Y7.7340
G01 X20.3353 Y7.7103
G01 X20.3353 Y5.8712
G01 X20.3001 Y5.8623
G01 X20.2713 Y5.8522
G01 X20.2601 Y5.8476
G01 X20.2326 Y5.8344
G01 X20.2012 Y5.8156
G01 X20.1765 Y5.7975
G01 X20.1672 Y5.7898
G01 X20.1447 Y5.7692
G01 X20.1240 Y5.7466
G01 X20.1164 Y5.7373
G01 X20.0983 Y5.7127
G01 X20.0795 Y5.6813
G01 X20.0638 Y5.6482
G01 X20.0534 Y5.6195
G01 X20.0507 Y5.6109
G01 X20.0439 Y5.5841
G01 X20.0416 Y5.5723
G01 X20.0372 Y5.5416
G01 X20.0354 Y5.5055
G01 X20.0354 Y4.2055
G01 X20.0372 Y4.1689
G01 X20.0416 Y4.1387
G01 X20.0439 Y4.1269
G01 X20.0507 Y4.1001
G01 X20.0534 Y4.0915
G01 X20.0638 Y4.0628
G01 X20.0768 Y4.0351
G01 X20.0825 Y4.0245
G01 X20.0983 Y3.9983
G01 X20.1164 Y3.9737
G01 X20.1240 Y3.9644
G01 X20.1447 Y3.9418
G01 X20.1672 Y3.9212
G01 X20.1765 Y3.9135
G01 X20.2012 Y3.8954
G01 X20.2273 Y3.8796
G01 X20.2352 Y3.8752
G01 X20.2656 Y3.8610
G01 X20.2944 Y3.8505
G01 X20.3030 Y3.8478
G01 X20.3326 Y3.8404
G01 X20.3415 Y3.8387
G01 X20.3722 Y3.8344
G01 X20.4083 Y3.8326
G01 X21.0583 Y3.8326
G01 X21.0889 Y3.8340
G01 X21.1009 Y3.8351
G01 X21.1311 Y3.8398
G01 X21.1608 Y3.8470
G01 X21.1723 Y3.8505
G01 X21.2011 Y3.8610
G01 X21.2287 Y3.8739
G01 X21.2394 Y3.8796
G01 X21.2655 Y3.8954
G01 X21.2926 Y3.9154
G01 X21.3177 Y3.9377
G01 X21.3262 Y3.9462
G01 X21.3466 Y3.9689
G01 X21.3649 Y3.9934
G01 X21.3716 Y4.0034
G01 X21.3872 Y4.0297
G01 X21.4029 Y4.0628
G01 X21.4133 Y4.0915
G01 X21.4168 Y4.1031
G01 X21.4246 Y4.1357
G01 X21.4295 Y4.1694
G01 X21.4312 Y4.2055
G01 X21.4312 Y5.5055
G01 X21.4295 Y5.5421
G01 X21.4241 Y5.5782
G01 X21.4152 Y5.6137
G01 X21.4050 Y5.6426
G01 X21.4017 Y5.6510
G01 X21.3899 Y5.6759
G01 X21.3842 Y5.6865
G01 X21.3684 Y5.7127
G01 X21.3466 Y5.7421
G01 X21.3220 Y5.7692
G01 X21.2995 Y5.7898
G01 X21.2902 Y5.7975
G01 X21.2680 Y5.8138
G01 X21.2604 Y5.8188
G01 X21.2341 Y5.8344
G01 X21.2011 Y5.8500
G01 X21.1666 Y5.8623
G01 X21.1314 Y5.8712
G01 X21.1314 Y7.8388
G01 X21.1912 Y7.8748
G01 X21.2774 Y7.9386
G01 X21.2843 Y7.9444
G01 X21.3592 Y8.0124
G01 X21.3655 Y8.0189
G01 X21.4354 Y8.0961
G01 X21.4993 Y8.1822
G01 X21.5042 Y8.1897
G01 X21.5577 Y8.2792
G01 X21.6048 Y8.3788
G01 X21.6419 Y8.4825
G01 X21.6674 Y8.5835
G01 X21.6697 Y8.5954
G01 X21.6848 Y8.6984
G01 X21.6902 Y8.8085
G01 X21.6902 Y10.8085
G01 X21.6853 Y10.9125
G01 X21.6841 Y10.9246
G01 X21.6687 Y11.0276
G01 X21.6435 Y11.1286
G01 X21.6400 Y11.1402
G01 X21.6048 Y11.2382
G01 X21.5604 Y11.3324
G01 X21.5547 Y11.3431
G01 X21.5010 Y11.4323
G01 X21.4391 Y11.5161
G01 X21.4314 Y11.5254
G01 X21.3614 Y11.6025
G01 X21.2843 Y11.6726
G01 X21.2750 Y11.6802
G01 X21.1912 Y11.7422
G01 X21.1019 Y11.7958
G01 X21.0913 Y11.8015
G01 X20.9971 Y11.8459
G01 X20.8990 Y11.8812
G01 X20.8875 Y11.8847
G01 X20.7864 Y11.9098
G01 X20.6834 Y11.9253
G01 X20.6714 Y11.9264
G01 X20.5673 Y11.9314
G01 X20.4633 Y11.9264
G01 X20.4513 Y11.9253
G01 X20.3483 Y11.9098
G01 X20.2472 Y11.8847
G01 X20.2357 Y11.8812
G01 X20.1376 Y11.8459
G01 X20.0434 Y11.8015
G01 X20.0328 Y11.7958
G01 X19.9486 Y11.7454
G01 X19.9386 Y11.7387
G01 X19.8550 Y11.6765
G01 X19.7777 Y11.6067
G01 X19.7692 Y11.5981
G01 X19.6993 Y11.5209
G01 X19.6372 Y11.4373
G01 X19.6305 Y11.4273
G01 X19.5800 Y11.3431
G01 X19.5743 Y11.3324
G01 X19.5299 Y11.2382
G01 X19.4928 Y11.1345
G01 X19.4660 Y11.0276
G01 X19.4506 Y10.9246
G01 X19.4494 Y10.9125
G01 X19.4444 Y10.8085
G01 X19.4444 Y9.2485
G01 X18.0530 Y7.8570
G01 X15.6213 Y7.8570
G01 X15.6119 Y7.8831
G01 X15.6086 Y7.8915
G01 X15.5640 Y7.9857
G01 X15.5597 Y7.9936
G01 X15.5092 Y8.0778
G01 X15.5043 Y8.0853
G01 X15.4404 Y8.1714
G01 X15.3705 Y8.2486
G01 X15.3620 Y8.2572
G01 X15.2893 Y8.3231
G01 X15.2824 Y8.3289
G01 X15.1962 Y8.3927
G01 X15.1069 Y8.4463
G01 X15.0963 Y8.4520
G01 X15.0021 Y8.4964
G01 X14.8983 Y8.5335
G01 X14.7973 Y8.5590
G01 X14.7855 Y8.5614
G01 X14.6884 Y8.5758
G01 X14.6794 Y8.5768
G01 X14.5723 Y8.5819
G01 X12.9775 Y8.5819
G01 X12.9599 Y8.5899
G01 X12.9288 Y8.6010
G01 X12.9201 Y8.6035
G01 X12.8910 Y8.6108
G01 X12.8821 Y8.6124
G01 X12.8494 Y8.6171
G01 X12.8103 Y8.6190
G01 X7.3292 Y8.6190
G01 X7.3292 Y9.2240
G01 X7.3238 Y9.3311
G01 X7.3077 Y9.4401
G01 X7.2825 Y9.5411
G01 X7.2790 Y9.5527
G01 X7.2438 Y9.6507
G01 X7.1994 Y9.7449
G01 X7.1937 Y9.7556
G01 X7.1400 Y9.8448
G01 X7.0781 Y9.9286
G01 X7.0724 Y9.9357
G01 X7.0004 Y10.0150
G01 X6.9233 Y10.0851
G01 X6.9140 Y10.0927
G01 X6.8302 Y10.1547
G01 X6.7357 Y10.2113
G01 X6.6416 Y10.2560
G01 X6.6304 Y10.2606
G01 X6.5323 Y10.2955
G01 X6.4254 Y10.3223
G01 X6.3224 Y10.3378
G01 X6.3104 Y10.3389
G01 X6.2063 Y10.3439
G01 X6.1023 Y10.3389
G01 X6.0903 Y10.3378
G01 X5.9873 Y10.3223
G01 X5.8862 Y10.2972
G01 X5.8747 Y10.2937
G01 X5.7766 Y10.2584
G01 X5.6824 Y10.2140
G01 X5.6718 Y10.2083
G01 X5.5825 Y10.1547
G01 X5.4987 Y10.0927
G01 X5.4894 Y10.0851
G01 X5.4167 Y10.0192
G01 X5.4082 Y10.0106
G01 X5.3383 Y9.9334
G01 X5.2762 Y9.8498
G01 X5.2695 Y9.8398
G01 X5.2160 Y9.7503
G01 X5.1714 Y9.6562
G01 X5.1668 Y9.6451
G01 X5.1318 Y9.5470
G01 X5.1057 Y9.4430
G01 X5.1040 Y9.4341
G01 X5.0889 Y9.3311
G01 X5.0834 Y9.2210
G01 X5.0834 Y7.2210
G01 X5.0889 Y7.1109
G01 X5.1040 Y7.0079
G01 X5.1063 Y6.9960
G01 X5.1302 Y6.9009
G01 X5.1337 Y6.8893
G00 Z2.0000
G00 X4.8913 Y7.1212
G01 F60.00
G01 Z-0.1300
G01 F120.00
G01 X4.8872 Y7.2053
G01 X4.8868 Y7.2210
G01 X4.8868 Y9.2210
G01 X4.8872 Y9.2367
G01 X4.8912 Y9.3191
G01 X4.8704 Y9.3065
G01 X4.8564 Y9.2992
G01 X4.8419 Y9.2925
G01 X4.7614 Y9.2601
G01 X4.7388 Y9.2526
G01 X4.7234 Y9.2486
G01 X4.7079 Y9.2453
G01 X4.6844 Y9.2418
G01 X4.6685 Y9.2405
G01 X4.6527 Y9.2399
G01 X4.6368 Y9.2402
G01 X4.6210 Y9.2412
G01 X4.6052 Y9.2430
G01 X4.5896 Y9.2456
G01 X4.5198 Y9.2589
G01 X4.5043 Y9.2623
G01 X4.4890 Y9.2664
G01 X4.4739 Y9.2713
G01 X4.4590 Y9.2769
G01 X4.4445 Y9.2833
G01 X4.4233 Y9.2941
G01 X4.4097 Y9.3023
G01 X4.3965 Y9.3110
G01 X4.3837 Y9.3205
G01 X4.3655 Y9.3358
G01 X4.3225 Y9.3764
G01 X4.3225 Y7.0664
G01 X4.3758 Y7.1125
G01 X4.3943 Y7.1274
G01 X4.4073 Y7.1366
G01 X4.4275 Y7.1491
G01 X4.4415 Y7.1565
G01 X4.4559 Y7.1633
G01 X4.4706 Y7.1693
G01 X4.4855 Y7.1747
G01 X4.5007 Y7.1792
G01 X4.5161 Y7.1830
G01 X4.5395 Y7.1873
G01 X4.6098 Y7.1974
G01 X4.6256 Y7.1993
G01 X4.6414 Y7.2004
G01 X4.6573 Y7.2006
G01 X4.6731 Y7.2002
G01 X4.6889 Y7.1989
G01 X4.7047 Y7.1968
G01 X4.7203 Y7.1940
G01 X4.7434 Y7.1883
G01 X4.7660 Y7.1808
G01 X4.7880 Y7.1718
G01 X4.8598 Y7.1389
G01 X4.8738 Y7.1316
G01 X4.8913 Y7.1212
G00 Z2.0000
G00 X4.6902 Y7.3961
G01 F60.00
G01 Z-0.1300
G01 F120.00
G01 X4.6902 Y9.0449
G01 X4.6674 Y9.0436
G01 X4.6418 Y9.0433
G01 X4.6162 Y9.0443
G01 X4.6034 Y9.0453
G01 X4.5907 Y9.0466
G01 X4.5653 Y9.0502
G01 X4.5192 Y9.0588
G01 X4.5192 Y7.3830
G01 X4.5945 Y7.3937
G01 X4.6201 Y7.3961
G01 X4.6457 Y7.3972
G01 X4.6585 Y7.3973
G01 X4.6713 Y7.3970
G01 X4.6902 Y7.3961
G00 Z2.0000
G00 X7.5316 Y7.6263
G01 F60.00
G01 Z-0.1300
G01 F120.00
G01 X7.5259 Y7.6263
G01 X7.5259 Y7.6214
G01 X7.5316 Y7.6263
G00 Z2.0000
G00 X7.5259 Y8.8214
G01 F60.00
G01 Z-0.1300
G01 F120.00
G01 X7.5259 Y8.8157
G01 X7.5309 Y8.8157
G01 X7.5259 Y8.8214
G00 Z2.0000
G00 X11.2629 Y7.6160
G01 F60.00
G01 Z-0.1300
G01 F120.00
G01 X11.2644 Y7.6263
G01 X11.2540 Y7.6263
G01 X11.2629 Y7.6160
G00 Z2.0000
G00 X12.1526 Y6.2090
G01 F60.00
G01 Z-0.1300
G01 F120.00
G01 X12.0820 Y6.2343
G01 X12.0675 Y6.2398
G01 X12.0530 Y6.2463
G01 X11.9529 Y6.2939
G01 X11.9553 Y6.2701
G01 X11.9596 Y6.1992
G01 X11.9602 Y6.1833
G01 X11.9600 Y6.1674
G01 X11.9590 Y6.1516
G01 X11.9572 Y6.1357
G01 X11.9556 Y6.1254
G01 X12.0530 Y6.1717
G01 X12.0674 Y6.1781
G01 X12.0820 Y6.1837
G01 X12.1526 Y6.2090
G00 Z2.0000
G00 X11.2395 Y4.5821
G01 F60.00
G01 Z-0.1300
G01 F120.00
G01 X11.2699 Y4.4745
G01 X11.3640 Y4.2727
G01 X11.4895 Y4.0882
G01 X11.6424 Y3.9264
G01 X11.8195 Y3.7910
G01 X12.0159 Y3.6857
G01 X12.2269 Y3.6130
G01 X12.4486 Y3.5747
G01 X12.4671 Y3.5739
G01 X13.1954 Y3.5739
G01 X13.1954 Y3.8361
G01 X12.5723 Y3.8361
G01 X12.4653 Y3.8412
G01 X12.4563 Y3.8422
G01 X12.3592 Y3.8566
G01 X12.3474 Y3.8590
G01 X12.2464 Y3.8845
G01 X12.1455 Y3.9204
G01 X12.1371 Y3.9240
G01 X12.0430 Y3.9687
G01 X11.9485 Y4.0253
G01 X11.8600 Y4.0910
G01 X11.7827 Y4.1608
G01 X11.7762 Y4.1671
G01 X11.7043 Y4.2466
G01 X11.6422 Y4.3302
G01 X11.6370 Y4.3377
G01 X11.5850 Y4.4244
G01 X11.5807 Y4.4323
G01 X11.5361 Y4.5265
G01 X11.5328 Y4.5349
G01 X11.5159 Y4.5821
G01 X11.2395 Y4.5821
G00 Z2.0000
G00 X13.9492 Y3.8361
G01 F60.00
G01 Z-0.1300
G01 F120.00
G01 X13.9492 Y3.5739
G01 X14.6284 Y3.5739
G01 X14.7946 Y3.5873
G01 X15.0111 Y3.6405
G01 X15.2160 Y3.7275
G01 X15.4047 Y3.8462
G01 X15.5720 Y3.9938
G01 X15.7134 Y4.1658
G01 X15.8255 Y4.3585
G01 X15.9054 Y4.5665
G01 X15.9086 Y4.5821
G01 X15.6288 Y4.5821
G01 X15.6119 Y4.5349
G01 X15.6086 Y4.5265
G01 X15.5640 Y4.4323
G01 X15.5597 Y4.4244
G01 X15.5077 Y4.3377
G01 X15.5025 Y4.3302
G01 X15.4404 Y4.2466
G01 X15.3685 Y4.1671
G01 X15.3620 Y4.1608
G01 X15.2847 Y4.0910
G01 X15.1962 Y4.0253
G01 X15.1017 Y3.9687
G01 X15.0076 Y3.9240
G01 X14.9993 Y3.9205
G01 X14.8981 Y3.8844
G01 X14.7973 Y3.8590
G01 X14.7855 Y3.8566
G01 X14.6884 Y3.8422
G01 X14.6794 Y3.8412
G01 X14.5723 Y3.8361
G01 X13.9492 Y3.8361
G00 Z2.0000
G00 X15.1893 Y6.2926
G01 F60.00
G01 Z-0.1300
G01 F120.00
G01 X15.0917 Y6.2463
G01 X15.0773 Y6.2399
G01 X15.0627 Y6.2343
G01 X14.9921 Y6.2090
G01 X15.0627 Y6.1837
G01 X15.0773 Y6.1781
G01 X15.0917 Y6.1717
G01 X15.1917 Y6.1241
G01 X15.1894 Y6.1473
G01 X15.1851 Y6.2181
G01 X15.1845 Y6.2340
G01 X15.1847 Y6.2499
G01 X15.1857 Y6.2658
G01 X15.1875 Y6.2816
G01 X15.1893 Y6.2926
G00 Z2.0000
G00 X21.9304 Y8.2135
G01 F60.00
G01 Z-0.1300
G01 F120.00
G01 X21.8946 Y8.2892
G01 X21.8853 Y8.3108
G01 X21.8467 Y8.4189
G01 X21.8424 Y8.4333
G01 X21.8373 Y8.4529
G01 X21.8323 Y8.4330
G01 X21.8277 Y8.4180
G01 X21.7894 Y8.3110
G01 X21.7801 Y8.2892
G01 X21.7435 Y8.2119
G01 X21.7587 Y8.2140
G01 X21.7745 Y8.2153
G01 X21.8454 Y8.2197
G01 X21.8613 Y8.2202
G01 X21.8772 Y8.2200
G01 X21.8931 Y8.2190
G01 X21.9089 Y8.2172
G01 X21.9304 Y8.2135
G00 Z2.0000
G00 X22.0347 Y8.4768
G01 F60.00
G01 Z-0.1300
G01 F120.00
G01 X22.0699 Y8.3788
G01 X22.1143 Y8.2846
G01 X22.1200 Y8.2739
G01 X22.1737 Y8.1847
G01 X22.2393 Y8.0961
G01 X22.3092 Y8.0189
G01 X22.3177 Y8.0103
G01 X22.3950 Y7.9405
G01 X22.4835 Y7.8748
G01 X22.5728 Y7.8212
G01 X22.5834 Y7.8155
G01 X22.6777 Y7.7711
G01 X22.7814 Y7.7340
G01 X22.8824 Y7.7085
G01 X22.8942 Y7.7061
G01 X22.9973 Y7.6910
G01 X23.1073 Y7.6856
G01 X23.2114 Y7.6906
G01 X23.2234 Y7.6917
G01 X23.3264 Y7.7072
G01 X23.4275 Y7.7323
G01 X23.4390 Y7.7358
G01 X23.5371 Y7.7711
G01 X23.6367 Y7.8182
G01 X23.7261 Y7.8716
G01 X23.7361 Y7.8783
G01 X23.8197 Y7.9405
G01 X23.9014 Y8.0145
G01 X23.9714 Y8.0916
G01 X23.9791 Y8.1009
G01 X24.0410 Y8.1847
G01 X24.0962 Y8.2765
G01 X24.1004 Y8.2846
G01 X24.1448 Y8.3788
G01 X24.1800 Y8.4768
G01 X24.1835 Y8.4884
G01 X24.2087 Y8.5894
G01 X24.2241 Y8.6924
G01 X24.2253 Y8.7045
G01 X24.2301 Y8.8025
G01 X24.2302 Y10.8085
G01 X24.2253 Y10.9125
G01 X24.2241 Y10.9246
G01 X24.2087 Y11.0276
G01 X24.1835 Y11.1286
G01 X24.1800 Y11.1402
G01 X24.1448 Y11.2382
G01 X24.1004 Y11.3324
G01 X24.0947 Y11.3431
G01 X24.0410 Y11.4323
G01 X23.9772 Y11.5185
G01 X23.9714 Y11.5254
G01 X23.9055 Y11.5981
G01 X23.8970 Y11.6067
G01 X23.8197 Y11.6765
G01 X23.7337 Y11.7405
G01 X23.7261 Y11.7454
G01 X23.6419 Y11.7958
G01 X23.6340 Y11.8002
G01 X23.5398 Y11.8447
G01 X23.5314 Y11.8481
G01 X23.5054 Y11.8574
G01 X23.5054 Y12.5111
G01 X25.2307 Y14.2365
G01 X36.4958 Y14.2365
G01 X36.5288 Y14.2379
G01 X36.5409 Y14.2391
G01 X36.5735 Y14.2441
G01 X36.6114 Y14.2536
G01 X36.6482 Y14.2668
G01 X36.6781 Y14.2808
G01 X36.6887 Y14.2864
G01 X36.7195 Y14.3053
G01 X36.7484 Y14.3268
G01 X36.7773 Y14.3530
G01 X39.5693 Y17.1450
G01 X39.5916 Y17.1694
G01 X39.5992 Y17.1787
G01 X39.6188 Y17.2054
G01 X39.6359 Y17.2336
G01 X39.6416 Y17.2443
G01 X39.6556 Y17.2742
G01 X39.6669 Y17.3052
G01 X39.6704 Y17.3168
G01 X39.6782 Y17.3488
G01 X39.6832 Y17.3815
G01 X39.6844 Y17.3935
G01 X39.6859 Y17.4265
G01 X39.6859 Y18.5998
G01 X39.7115 Y18.6066
G01 X39.7431 Y18.6180
G01 X39.7761 Y18.6336
G01 X39.8050 Y18.6508
G01 X39.8322 Y18.6705
G01 X39.8415 Y18.6782
G01 X39.8640 Y18.6988
G01 X39.8867 Y18.7236
G01 X39.9069 Y18.7504
G01 X39.9136 Y18.7604
G01 X39.9292 Y18.7867
G01 X39.9449 Y18.8198
G01 X39.9572 Y18.8543
G01 X39.9648 Y18.8839
G01 X39.9671 Y18.8957
G01 X39.9715 Y18.9264
G01 X39.9732 Y18.9625
G01 X39.9732 Y20.2125
G01 X39.9719 Y20.2430
G01 X39.9707 Y20.2550
G01 X39.9661 Y20.2852
G01 X39.9580 Y20.3179
G01 X39.9553 Y20.3265
G01 X39.9449 Y20.3552
G01 X39.9319 Y20.3829
G01 X39.9262 Y20.3935
G01 X39.9104 Y20.4197
G01 X39.8923 Y20.4443
G01 X39.8867 Y20.4514
G01 X39.8682 Y20.4718
G01 X39.8597 Y20.4803
G01 X39.8369 Y20.5008
G01 X39.8075 Y20.5226
G01 X39.7761 Y20.5414
G01 X39.7486 Y20.5546
G01 X39.7374 Y20.5592
G01 X39.7086 Y20.5693
G01 X39.6760 Y20.5776
G01 X39.6429 Y20.5829
G01 X39.6309 Y20.5840
G01 X39.6003 Y20.5854
G01 X39.2214 Y20.5854
G01 X38.5160 Y21.2908
G01 X38.5195 Y21.3016
G01 X38.5275 Y21.3340
G01 X39.4360 Y21.3340
G01 X39.4408 Y21.3223
G01 X39.4540 Y21.2947
G01 X39.4696 Y21.2684
G01 X39.4763 Y21.2584
G01 X39.4946 Y21.2339
G01 X39.5171 Y21.2090
G01 X39.5417 Y21.1862
G01 X39.5510 Y21.1785
G01 X39.5757 Y21.1604
G01 X39.6018 Y21.1446
G01 X39.6125 Y21.1389
G01 X39.6401 Y21.1260
G01 X39.6746 Y21.1137
G01 X39.7042 Y21.1061
G01 X39.7160 Y21.1037
G01 X39.7467 Y21.0994
G01 X39.7828 Y21.0976
G01 X41.0828 Y21.0976
G01 X41.1194 Y21.0994
G01 X41.1497 Y21.1037
G01 X41.1615 Y21.1061
G01 X41.1882 Y21.1128
G01 X41.1968 Y21.1155
G01 X41.2256 Y21.1260
G01 X41.2532 Y21.1389
G01 X41.2639 Y21.1446
G01 X41.2900 Y21.1604
G01 X41.3147 Y21.1785
G01 X41.3240 Y21.1862
G01 X41.3465 Y21.2068
G01 X41.3692 Y21.2316
G01 X41.3894 Y21.2584
G01 X41.3961 Y21.2684
G01 X41.4117 Y21.2947
G01 X41.4249 Y21.3223
G01 X41.4295 Y21.3334
G01 X41.4397 Y21.3623
G01 X41.4473 Y21.3919
G01 X41.4496 Y21.4037
G01 X41.4540 Y21.4344
G01 X41.4557 Y21.4705
G01 X41.4557 Y22.1205
G01 X41.4542 Y22.1540
G01 X41.4496 Y22.1873
G01 X41.4473 Y22.1991
G01 X41.4397 Y22.2287
G01 X41.4295 Y22.2576
G01 X41.4249 Y22.2687
G01 X41.4117 Y22.2963
G01 X41.3961 Y22.3226
G01 X41.3912 Y22.3302
G01 X41.3748 Y22.3523
G01 X41.3692 Y22.3594
G01 X41.3486 Y22.3820
G01 X41.3422 Y22.3883
G01 X41.3217 Y22.4068
G01 X41.3147 Y22.4125
G01 X41.2900 Y22.4306
G01 X41.2639 Y22.4464
G01 X41.2532 Y22.4521
G01 X41.2256 Y22.4650
G01 X41.1911 Y22.4773
G01 X41.1556 Y22.4862
G01 X41.1194 Y22.4916
G01 X41.0828 Y22.4934
G01 X39.7798 Y22.4934
G01 X39.7463 Y22.4916
G01 X39.7101 Y22.4862
G01 X39.6746 Y22.4773
G01 X39.6401 Y22.4650
G01 X39.6071 Y22.4494
G01 X39.5757 Y22.4306
G01 X39.5463 Y22.4088
G01 X39.5192 Y22.3842
G01 X39.4946 Y22.3571
G01 X39.4728 Y22.3277
G01 X39.4540 Y22.2963
G01 X39.4383 Y22.2632
G01 X39.4260 Y22.2287
G01 X39.4171 Y22.1932
G01 X39.4117 Y22.1571
G01 X39.4103 Y22.1300
G01 X38.5275 Y22.1300
G01 X38.5187 Y22.1652
G01 X38.5064 Y22.1997
G01 X38.4907 Y22.2328
G01 X38.4751 Y22.2591
G01 X38.4702 Y22.2667
G01 X38.4538 Y22.2888
G01 X38.4462 Y22.2981
G01 X38.4255 Y22.3207
G01 X38.3984 Y22.3453
G01 X38.3690 Y22.3671
G01 X38.3429 Y22.3829
G01 X38.3322 Y22.3886
G01 X38.3073 Y22.4003
G01 X38.2989 Y22.4037
G01 X38.2701 Y22.4138
G01 X38.2346 Y22.4227
G01 X38.1984 Y22.4281
G01 X38.1679 Y22.4298
G01 X36.8618 Y22.4299
G01 X36.8253 Y22.4281
G01 X36.7891 Y22.4227
G01 X36.7536 Y22.4138
G01 X36.7191 Y22.4015
G01 X36.6915 Y22.3886
G01 X36.6808 Y22.3829
G01 X36.6547 Y22.3671
G01 X36.6300 Y22.3490
G01 X36.6230 Y22.3433
G01 X36.6025 Y22.3248
G01 X36.5961 Y22.3185
G01 X36.5755 Y22.2959
G01 X36.5699 Y22.2888
G01 X36.5535 Y22.2667
G01 X36.5486 Y22.2591
G01 X36.5330 Y22.2328
G01 X36.5198 Y22.2052
G01 X36.5152 Y22.1941
G01 X36.5050 Y22.1652
G01 X36.4974 Y22.1356
G01 X36.4951 Y22.1238
G01 X36.4905 Y22.0905
G01 X36.4889 Y22.0570
G01 X36.4891 Y21.4010
G01 X36.4907 Y21.3704
G01 X36.4961 Y21.3343
G01 X36.5050 Y21.2988
G01 X36.5173 Y21.2643
G01 X36.5330 Y21.2312
G01 X36.5518 Y21.1998
G01 X36.5736 Y21.1704
G01 X36.5961 Y21.1455
G01 X36.6025 Y21.1392
G01 X36.6253 Y21.1187
G01 X36.6497 Y21.1004
G01 X36.6572 Y21.0953
G01 X36.6808 Y21.0811
G01 X36.6915 Y21.0754
G01 X36.7191 Y21.0625
G01 X36.7536 Y21.0502
G01 X36.7891 Y21.0413
G01 X36.8257 Y21.0359
G01 X36.8618 Y21.0341
G01 X37.6468 Y21.0341
G01 X38.6024 Y20.0785
G01 X38.6024 Y18.9625
G01 X38.6038 Y18.9320
G01 X38.6046 Y18.9230
G01 X38.6096 Y18.8898
G01 X38.6169 Y18.8601
G01 X38.6204 Y18.8485
G01 X38.6308 Y18.8198
G01 X38.6465 Y18.7867
G01 X38.6621 Y18.7604
G01 X38.6688 Y18.7504
G01 X38.6890 Y18.7236
G01 X38.7117 Y18.6988
G01 X38.7342 Y18.6782
G01 X38.7435 Y18.6705
G01 X38.7707 Y18.6508
G01 X38.7996 Y18.6336
G01 X38.8326 Y18.6180
G01 X38.8642 Y18.6066
G01 X38.8898 Y18.5998
G01 X38.8898 Y17.5914
G01 X36.3310 Y15.0325
G01 X25.0658 Y15.0325
G01 X25.0329 Y15.0311
G01 X25.0208 Y15.0299
G01 X24.9882 Y15.0249
G01 X24.9503 Y15.0154
G01 X24.9135 Y15.0022
G01 X24.8836 Y14.9882
G01 X24.8730 Y14.9826
G01 X24.8422 Y14.9637
G01 X24.8132 Y14.9421
G01 X24.7844 Y14.9160
G01 X22.8259 Y12.9575
G01 X22.7997 Y12.9285
G01 X22.7764 Y12.8971
G01 X22.7563 Y12.8636
G01 X22.7408 Y12.8311
G01 X22.7374 Y12.8227
G01 X22.7265 Y12.7915
G01 X22.7170 Y12.7537
G01 X22.7112 Y12.7150
G01 X22.7093 Y12.6790
G01 X22.7093 Y11.8574
G01 X22.6833 Y11.8481
G01 X22.6749 Y11.8447
G01 X22.5807 Y11.8002
G01 X22.5728 Y11.7958
G01 X22.4886 Y11.7454
G01 X22.4810 Y11.7405
G01 X22.3950 Y11.6765
G01 X22.3177 Y11.6067
G01 X22.3092 Y11.5981
G01 X22.2413 Y11.5232
G01 X22.2356 Y11.5161
G01 X22.1772 Y11.4373
G01 X22.1705 Y11.4273
G01 X22.1170 Y11.3378
G01 X22.0724 Y11.2437
G01 X22.0678 Y11.2326
G01 X22.0328 Y11.1345
G01 X22.0073 Y11.0335
G01 X22.0055 Y11.0246
G01 X21.9899 Y10.9186
G01 X21.9844 Y10.8085
G01 X21.9844 Y8.8085
G01 X21.9899 Y8.6984
G01 X22.0050 Y8.5954
G01 X22.0073 Y8.5835
G01 X22.0312 Y8.4884
G01 X22.0347 Y8.4768
G00 Z2.0000
G00 X24.3773 Y8.4529
G01 F60.00
G01 Z-0.1300
G01 F120.00
G01 X24.3723 Y8.4330
G01 X24.3677 Y8.4180
G01 X24.3294 Y8.3110
G01 X24.3201 Y8.2892
G01 X24.2837 Y8.2123
G01 X24.2990 Y8.2144
G01 X24.3148 Y8.2157
G01 X24.3857 Y8.2201
G01 X24.4016 Y8.2206
G01 X24.4175 Y8.2204
G01 X24.4334 Y8.2194
G01 X24.4492 Y8.2176
G01 X24.4702 Y8.2140
G01 X24.4346 Y8.2892
G01 X24.4253 Y8.3108
G01 X24.3867 Y8.4189
G01 X24.3824 Y8.4333
G01 X24.3773 Y8.4529
G00 Z2.0000
G00 X26.0242 Y7.4756
G01 F60.00
G01 Z-0.1300
G01 F120.00
G01 X26.1318 Y7.5061
G01 X26.3336 Y7.6002
G01 X26.5182 Y7.7256
G01 X26.6799 Y7.8786
G01 X26.8153 Y8.0556
G01 X26.9207 Y8.2521
G01 X26.9933 Y8.4630
G01 X27.0316 Y8.6848
G01 X27.0324 Y8.7033
G01 X27.0324 Y9.4316
G01 X26.7702 Y9.4316
G01 X26.7702 Y8.8085
G01 X26.7651 Y8.7014
G01 X26.7641 Y8.6924
G01 X26.7497 Y8.5954
G01 X26.7474 Y8.5835
G01 X26.7219 Y8.4825
G01 X26.6859 Y8.3817
G01 X26.6823 Y8.3733
G01 X26.6377 Y8.2792
G01 X26.5810 Y8.1847
G01 X26.5154 Y8.0961
G01 X26.4455 Y8.0189
G01 X26.4392 Y8.0124
G01 X26.3597 Y7.9405
G01 X26.2761 Y7.8783
G01 X26.2687 Y7.8732
G01 X26.1819 Y7.8212
G01 X26.1740 Y7.8168
G01 X26.0798 Y7.7723
G01 X26.0714 Y7.7689
G01 X26.0242 Y7.7520
G01 X26.0242 Y7.4756
G00 Z2.0000
G00 X24.0602 Y6.1398
G01 F60.00
G01 Z-0.1300
G01 F120.00
G01 X24.0602 Y5.8745
G01 X24.0811 Y5.8712
G01 X24.1137 Y5.8632
G01 X24.1223 Y5.8605
G01 X24.1538 Y5.8488
G01 X24.1841 Y5.8344
G01 X24.2104 Y5.8188
G01 X24.2205 Y5.8121
G01 X24.2472 Y5.7918
G01 X24.2720 Y5.7692
G01 X24.2927 Y5.7466
G01 X24.3003 Y5.7373
G01 X24.3184 Y5.7127
G01 X24.3342 Y5.6865
G01 X24.3399 Y5.6759
G01 X24.3529 Y5.6482
G01 X24.3633 Y5.6195
G01 X24.3668 Y5.6079
G01 X24.3746 Y5.5753
G01 X24.3795 Y5.5421
G01 X24.3811 Y5.5115
G01 X24.3812 Y5.2324
G01 X24.6434 Y5.2324
G01 X24.6434 Y5.5494
G01 X24.6345 Y5.6353
G01 X24.5874 Y5.7766
G01 X24.5095 Y5.9026
G01 X24.4047 Y6.0072
G01 X24.2787 Y6.0849
G01 X24.1373 Y6.1319
G01 X24.0602 Y6.1398
G00 Z2.0000
G00 X22.7232 Y5.2324
G01 F60.00
G01 Z-0.1300
G01 F120.00
G01 X22.9854 Y5.2324
G01 X22.9856 Y5.5115
G01 X22.9872 Y5.5416
G01 X22.9921 Y5.5753
G01 X22.9999 Y5.6079
G01 X23.0034 Y5.6195
G01 X23.0138 Y5.6482
G01 X23.0268 Y5.6759
G01 X23.0325 Y5.6865
G01 X23.0483 Y5.7127
G01 X23.0664 Y5.7373
G01 X23.0740 Y5.7466
G01 X23.0947 Y5.7692
G01 X23.1195 Y5.7918
G01 X23.1462 Y5.8121
G01 X23.1563 Y5.8188
G01 X23.1826 Y5.8344
G01 X23.2129 Y5.8488
G01 X23.2444 Y5.8605
G01 X23.2530 Y5.8632
G01 X23.2856 Y5.8712
G01 X23.3064 Y5.8745
G01 X23.3064 Y6.1398
G01 X23.2283 Y6.1316
G01 X23.0870 Y6.0845
G01 X22.9611 Y6.0065
G01 X22.8565 Y5.9017
G01 X22.7788 Y5.7756
G01 X22.7319 Y5.6342
G01 X22.7232 Y5.5495
G01 X22.7232 Y5.2324
G00 Z2.0000
G00 X22.7232 Y4.4786
G01 F60.00
G01 Z-0.1300
G01 F120.00
G01 X22.7232 Y4.1616
G01 X22.7322 Y4.0757
G01 X22.7793 Y3.9344
G01 X22.8572 Y3.8084
G01 X22.9620 Y3.7038
G01 X23.0880 Y3.6261
G01 X23.2294 Y3.5791
G01 X23.3064 Y3.5712
G01 X23.3064 Y3.8365
G01 X23.2856 Y3.8398
G01 X23.2530 Y3.8478
G01 X23.2444 Y3.8505
G01 X23.2129 Y3.8622
G01 X23.1826 Y3.8766
G01 X23.1563 Y3.8922
G01 X23.1462 Y3.8989
G01 X23.1195 Y3.9192
G01 X23.0947 Y3.9418
G01 X23.0740 Y3.9644
G01 X23.0664 Y3.9737
G01 X23.0483 Y3.9983
G01 X23.0325 Y4.0245
G01 X23.0268 Y4.0351
G01 X23.0138 Y4.0628
G01 X23.0034 Y4.0915
G01 X22.9999 Y4.1031
G01 X22.9921 Y4.1357
G01 X22.9872 Y4.1689
G01 X22.9856 Y4.1995
G01 X22.9854 Y4.4786
G01 X22.7232 Y4.4786
G00 Z2.0000
G00 X24.0602 Y3.8365
G01 F60.00
G01 Z-0.1300
G01 F120.00
G01 X24.0602 Y3.5712
G01 X24.1384 Y3.5794
G01 X24.2797 Y3.6265
G01 X24.4056 Y3.7045
G01 X24.5101 Y3.8091
G01 X24.5879 Y3.9354
G01 X24.6348 Y4.0768
G01 X24.6434 Y4.1615
G01 X24.6434 Y4.4786
G01 X24.3812 Y4.4786
G01 X24.3812 Y4.2055
G01 X24.3795 Y4.1694
G01 X24.3741 Y4.1328
G01 X24.3652 Y4.0973
G01 X24.3529 Y4.0628
G01 X24.3386 Y4.0324
G01 X24.3342 Y4.0245
G01 X24.3184 Y3.9983
G01 X24.3003 Y3.9737
G01 X24.2927 Y3.9644
G01 X24.2720 Y3.9418
G01 X24.2495 Y3.9212
G01 X24.2426 Y3.9154
G01 X24.2180 Y3.8972
G01 X24.2104 Y3.8922
G01 X24.1841 Y3.8766
G01 X24.1566 Y3.8634
G01 X24.1483 Y3.8599
G01 X24.1223 Y3.8505
G01 X24.1137 Y3.8478
G01 X24.0811 Y3.8398
G01 X24.0602 Y3.8365
G00 Z2.0000
G00 X24.2844 Y11.4032
G01 F60.00
G01 Z-0.1300
G01 F120.00
G01 X24.3201 Y11.3278
G01 X24.3294 Y11.3062
G01 X24.3677 Y11.1990
G01 X24.3723 Y11.1840
G01 X24.3773 Y11.1641
G01 X24.3824 Y11.1840
G01 X24.3870 Y11.1990
G01 X24.4253 Y11.3062
G01 X24.4346 Y11.3278
G01 X24.4710 Y11.4046
G01 X24.4563 Y11.4027
G01 X24.4405 Y11.4013
G01 X24.3696 Y11.3970
G01 X24.3538 Y11.3964
G01 X24.3378 Y11.3966
G01 X24.3220 Y11.3976
G01 X24.3062 Y11.3994
G01 X24.2844 Y11.4032
G00 Z2.0000
G00 X26.0242 Y12.1448
G01 F60.00
G01 Z-0.1300
G01 F120.00
G01 X26.0242 Y11.8650
G01 X26.0714 Y11.8481
G01 X26.0798 Y11.8447
G01 X26.1740 Y11.8002
G01 X26.1819 Y11.7958
G01 X26.2687 Y11.7438
G01 X26.2761 Y11.7387
G01 X26.3597 Y11.6765
G01 X26.4392 Y11.6046
G01 X26.4455 Y11.5981
G01 X26.5154 Y11.5209
G01 X26.5810 Y11.4323
G01 X26.6377 Y11.3378
G01 X26.6823 Y11.2437
G01 X26.6859 Y11.2354
G01 X26.7219 Y11.1345
G01 X26.7474 Y11.0335
G01 X26.7497 Y11.0216
G01 X26.7641 Y10.9246
G01 X26.7651 Y10.9156
G01 X26.7702 Y10.8085
G01 X26.7702 Y10.1854
G01 X27.0324 Y10.1854
G01 X27.0324 Y10.8645
G01 X27.0191 Y11.0306
G01 X26.9659 Y11.2470
G01 X26.8789 Y11.4522
G01 X26.7600 Y11.6410
G01 X26.6127 Y11.8080
G01 X26.4405 Y11.9495
G01 X26.2477 Y12.0617
G01 X26.0398 Y12.1415
G01 X26.0242 Y12.1448
G00 Z2.0000
G00 X21.7443 Y11.4035
G01 F60.00
G01 Z-0.1300
G01 F120.00
G01 X21.7801 Y11.3278
G01 X21.7894 Y11.3062
G01 X21.8277 Y11.1990
G01 X21.8323 Y11.1840
G01 X21.8373 Y11.1641
G01 X21.8424 Y11.1840
G01 X21.8470 Y11.1990
G01 X21.8853 Y11.3062
G01 X21.8946 Y11.3278
G01 X21.9312 Y11.4051
G01 X21.9160 Y11.4030
G01 X21.9002 Y11.4017
G01 X21.8293 Y11.3973
G01 X21.8134 Y11.3968
G01 X21.7975 Y11.3970
G01 X21.7816 Y11.3980
G01 X21.7658 Y11.3998
G01 X21.7443 Y11.4035
G00 Z2.0000
G00 X16.6759 Y20.3538
G01 F60.00
G01 Z-0.1300
G01 F120.00
G01 X16.6907 Y20.0971
G01 X16.7402 Y19.8448
G01 X16.8235 Y19.6016
G01 X16.9390 Y19.3719
G01 X17.0847 Y19.1600
G01 X17.2577 Y18.9699
G01 X17.4549 Y18.8050
G01 X17.6727 Y18.6683
G01 X17.9070 Y18.5625
G01 X18.1536 Y18.4895
G01 X18.4077 Y18.4506
G01 X18.6648 Y18.4466
G01 X18.9200 Y18.4775
G01 X19.1687 Y18.5427
G01 X19.4062 Y18.6411
G01 X19.6282 Y18.7708
G01 X19.8305 Y18.9295
G01 X20.0094 Y19.1141
G01 X20.1616 Y19.3213
G01 X20.2822 Y19.5433
G01 X20.2866 Y19.5508
G01 X20.2934 Y19.5604
G01 X20.3031 Y19.5713
G01 X20.3531 Y19.6216
G01 X20.3597 Y19.6278
G01 X20.3691 Y19.6352
G01 X20.3792 Y19.6416
G01 X20.3872 Y19.6458
G01 X20.3983 Y19.6504
G01 X20.4097 Y19.6540
G01 X20.4734 Y19.6703
G01 X20.4855 Y19.6724
G01 X20.5009 Y19.6734
G01 X22.1203 Y19.6734
G01 X22.1965 Y19.6726
