(G-CODE GENERATED BY FLATCAM v8.992 - www.flatcam.org - Version Date: 2020/05/03)

(Name: Power Daughter Board v1-F_Cu (fast).gbr_iso_1_cnc)
(Type: G-code from Geometry)
(Units: MM)

(Created on Friday, 28 April 2023 at 16:40)

(This preprocessor is the default preprocessor used by FlatCAM.)
(It is made to work with MACH3 compatible motion controllers.)

(TOOL DIAMETER: 0.2423 mm)
(Feedrate_XY: 120.0 mm/min)
(Feedrate_Z: 60.0 mm/min)
(Feedrate rapids 1500.0 mm/min)

(Z_Cut: -0.1 mm)
(Z_Move: 2.0 mm)
(Z Start: None mm)
(Z End: 10.0 mm)
(Steps per circle: 64)
(Preprocessor Geometry: default)

(X range:    0.3450 ...   31.1836  mm)
(Y range:    0.9059 ...   36.6738  mm)

(Spindle Speed: None RPM)
G21
G90
G94



G01 F120.00
G00 Z2.0000

M03
G00 X0.9265 Y3.9421
G01 F60.00
G01 Z-0.1000
G01 F120.00
G01 X0.9266 Y1.7288
G01 X0.9273 Y1.7202
G01 X0.9287 Y1.7116
G01 X0.9421 Y1.6506
G01 X0.9448 Y1.6419
G01 X0.9481 Y1.6335
G01 X0.9521 Y1.6253
G01 X0.9566 Y1.6175
G01 X0.9618 Y1.6100
G01 X0.9675 Y1.6029
G01 X1.0139 Y1.5492
G01 X1.0223 Y1.5405
G01 X1.0314 Y1.5327
G01 X1.0438 Y1.5243
G01 X1.0545 Y1.5187
G01 X1.0656 Y1.5142
G01 X1.1451 Y1.4908
G01 X1.1592 Y1.4883
G01 X1.1736 Y1.4874
G01 X5.5948 Y1.4874
G01 X5.6069 Y1.4880
G01 X5.6188 Y1.4898
G01 X5.6794 Y1.5037
G01 X5.6934 Y1.5082
G01 X5.7016 Y1.5117
G01 X5.7119 Y1.5172
G01 X5.7193 Y1.5221
G01 X5.7286 Y1.5293
G01 X5.7878 Y1.5830
G01 X5.7978 Y1.5943
G01 X5.8047 Y1.6041
G01 X5.8119 Y1.6173
G01 X5.8174 Y1.6313
G01 X5.8377 Y1.7056
G01 X5.8397 Y1.7144
G01 X5.8411 Y1.7233
G01 X5.8418 Y1.7323
G01 X5.8418 Y1.7413
G01 X5.8404 Y1.7563
G01 X5.8371 Y1.7710
G01 X5.8148 Y1.8415
G01 X5.8108 Y1.8523
G01 X5.8058 Y1.8627
G01 X5.8014 Y1.8702
G01 X5.7703 Y1.9165
G01 X5.6842 Y2.1075
G01 X5.6314 Y2.3110
G01 X5.6181 Y2.4674
G01 X5.6181 Y3.2949
G01 X5.8839 Y3.2949
G01 X5.8839 Y2.5170
G01 X5.8885 Y2.4248
G01 X5.9015 Y2.3364
G01 X5.9031 Y2.3276
G01 X5.9257 Y2.2381
G01 X5.9556 Y2.1539
G01 X5.9602 Y2.1429
G01 X5.9958 Y2.0675
G01 X6.0015 Y2.0570
G01 X6.0475 Y1.9805
G01 X6.1043 Y1.9039
G01 X6.1683 Y1.8333
G01 X6.2344 Y1.7732
G01 X6.2436 Y1.7656
G01 X6.3106 Y1.7159
G01 X6.3205 Y1.7093
G01 X6.3972 Y1.6635
G01 X6.4834 Y1.6228
G01 X6.5731 Y1.5907
G01 X6.6597 Y1.5688
G01 X6.6714 Y1.5665
G01 X6.7539 Y1.5543
G01 X6.7657 Y1.5531
G01 X6.8550 Y1.5489
G01 X6.9502 Y1.5535
G01 X7.0445 Y1.5675
G01 X7.1312 Y1.5891
G01 X7.1426 Y1.5925
G01 X7.2211 Y1.6206
G01 X7.2321 Y1.6252
G01 X7.3128 Y1.6635
G01 X7.3920 Y1.7109
G01 X7.3994 Y1.7159
G01 X7.4711 Y1.7693
G01 X7.5417 Y1.8333
G01 X7.6057 Y1.9039
G01 X7.6591 Y1.9756
G01 X7.6657 Y1.9855
G01 X7.7085 Y2.0570
G01 X7.7142 Y2.0675
G01 X7.7522 Y2.1484
G01 X7.7825 Y2.2324
G01 X7.7859 Y2.2438
G01 X7.8075 Y2.3305
G01 X7.8207 Y2.4189
G01 X7.8219 Y2.4307
G01 X7.8261 Y2.5200
G01 X7.8261 Y4.8230
G01 X7.8215 Y4.9152
G01 X7.8085 Y5.0036
G01 X7.8062 Y5.0153
G01 X7.7843 Y5.1019
G01 X7.7522 Y5.1916
G01 X7.7142 Y5.2725
G01 X7.7085 Y5.2830
G01 X7.6625 Y5.3595
G01 X7.6057 Y5.4361
G01 X7.5458 Y5.5024
G01 X7.5374 Y5.5108
G01 X7.4711 Y5.5707
G01 X7.3994 Y5.6241
G01 X7.3895 Y5.6307
G01 X7.3128 Y5.6765
G01 X7.2301 Y5.7157
G01 X7.2301 Y5.7329
G01 X7.2345 Y5.7529
G01 X7.2362 Y5.7625
G01 X7.2395 Y5.7925
G01 X7.2401 Y5.8022
G01 X7.2401 Y6.2618
G01 X7.3175 Y6.2983
G01 X7.3280 Y6.3040
G01 X7.4045 Y6.3500
G01 X7.4764 Y6.4031
G01 X7.4856 Y6.4107
G01 X7.5517 Y6.4708
G01 X7.6157 Y6.5414
G01 X7.6725 Y6.6180
G01 X7.7185 Y6.6945
G01 X7.7242 Y6.7050
G01 X7.7622 Y6.7859
G01 X7.7925 Y6.8699
G01 X7.7959 Y6.8813
G01 X7.8175 Y6.9680
G01 X7.8315 Y7.0623
G01 X7.8361 Y7.1575
G01 X7.8361 Y9.4605
G01 X7.8315 Y9.5527
G01 X7.8185 Y9.6411
G01 X7.8162 Y9.6528
G01 X7.7943 Y9.7394
G01 X7.7622 Y9.8291
G01 X7.7242 Y9.9100
G01 X7.7185 Y9.9205
G01 X7.6725 Y9.9970
G01 X7.6157 Y10.0736
G01 X7.5558 Y10.1399
G01 X7.5474 Y10.1483
G01 X7.4811 Y10.2082
G01 X7.4094 Y10.2616
G01 X7.3995 Y10.2682
G01 X7.3228 Y10.3140
G01 X7.2401 Y10.3532
G01 X7.2401 Y10.6361
G01 X7.3322 Y10.6075
G01 X7.5193 Y10.5124
G01 X7.6877 Y10.3871
G01 X7.8323 Y10.2355
G01 X7.9341 Y10.0847
G01 X7.9423 Y10.0748
G01 X7.9695 Y10.0457
G01 X7.9781 Y10.0373
G01 X7.9851 Y10.0317
G01 X7.9925 Y10.0265
G01 X8.0055 Y10.0192
G01 X8.0137 Y10.0156
G01 X8.0826 Y9.9886
G01 X8.0912 Y9.9858
G01 X8.1029 Y9.9831
G01 X8.1149 Y9.9816
G01 X8.1269 Y9.9813
G01 X8.1359 Y9.9818
G01 X8.1448 Y9.9830
G01 X8.2174 Y9.9974
G01 X8.2262 Y9.9995
G01 X8.2404 Y10.0045
G01 X8.2513 Y10.0096
G01 X8.2616 Y10.0159
G01 X8.2712 Y10.0231
G01 X8.2779 Y10.0291
G01 X8.3290 Y10.0784
G01 X8.3390 Y10.0893
G01 X8.3443 Y10.0964
G01 X8.3491 Y10.1039
G01 X8.3816 Y10.1609
G01 X8.5147 Y10.3233
G01 X8.6733 Y10.4609
G01 X8.8528 Y10.5698
G01 X9.0481 Y10.6469
G01 X9.2537 Y10.6901
G01 X9.4635 Y10.6979
G01 X9.6717 Y10.6704
G01 X9.8722 Y10.6081
G01 X10.0594 Y10.5129
G01 X10.2279 Y10.3876
G01 X10.3728 Y10.2356
G01 X10.4746 Y10.0847
G01 X10.4829 Y10.0748
G01 X10.5101 Y10.0457
G01 X10.5187 Y10.0374
G01 X10.5257 Y10.0317
G01 X10.5330 Y10.0266
G01 X10.5461 Y10.0193
G01 X10.5543 Y10.0157
G01 X10.6204 Y9.9897
G01 X10.6318 Y9.9858
G01 X10.6435 Y9.9831
G01 X10.6554 Y9.9816
G01 X10.6645 Y9.9813
G01 X10.6735 Y9.9816
G01 X10.6854 Y9.9831
G01 X10.7580 Y9.9975
G01 X10.7697 Y10.0004
G01 X10.7810 Y10.0045
G01 X10.7919 Y10.0097
G01 X10.8021 Y10.0159
G01 X10.8141 Y10.0251
G01 X10.8696 Y10.0784
G01 X10.8793 Y10.0890
G01 X10.8845 Y10.0959
G01 X10.8893 Y10.1032
G01 X10.9221 Y10.1607
G01 X11.0550 Y10.3228
G01 X11.2138 Y10.4606
G01 X11.3929 Y10.5693
G01 X11.5699 Y10.6392
G01 X11.5699 Y10.3532
G01 X11.4872 Y10.3140
G01 X11.4105 Y10.2682
G01 X11.4006 Y10.2616
G01 X11.3289 Y10.2082
G01 X11.2626 Y10.1483
G01 X11.2542 Y10.1399
G01 X11.1943 Y10.0736
G01 X11.1375 Y9.9970
G01 X11.0915 Y9.9205
G01 X11.0858 Y9.9100
G01 X11.0478 Y9.8291
G01 X11.0157 Y9.7394
G01 X10.9938 Y9.6528
G01 X10.9915 Y9.6411
G01 X10.9785 Y9.5527
G01 X10.9739 Y9.4605
G01 X10.9739 Y7.1575
G01 X10.9785 Y7.0623
G01 X10.9925 Y6.9680
G01 X11.0141 Y6.8813
G01 X11.0175 Y6.8699
G01 X11.0478 Y6.7859
G01 X11.0858 Y6.7050
G01 X11.0915 Y6.6945
G01 X11.1375 Y6.6180
G01 X11.1943 Y6.5414
G01 X11.2583 Y6.4708
G01 X11.3244 Y6.4107
G01 X11.3336 Y6.4031
G01 X11.4055 Y6.3500
G01 X11.4820 Y6.3040
G01 X11.4925 Y6.2983
G01 X11.5699 Y6.2618
G01 X11.5699 Y6.2446
G01 X11.5655 Y6.2246
G01 X11.5638 Y6.2150
G01 X11.5605 Y6.1850
G01 X11.5599 Y6.1753
G01 X11.5599 Y5.7157
G01 X11.4772 Y5.6765
G01 X11.4005 Y5.6307
G01 X11.3906 Y5.6241
G01 X11.3189 Y5.5707
G01 X11.2526 Y5.5108
G01 X11.2442 Y5.5024
G01 X11.1843 Y5.4361
G01 X11.1275 Y5.3595
G01 X11.0815 Y5.2830
G01 X11.0758 Y5.2725
G01 X11.0378 Y5.1916
G01 X11.0057 Y5.1019
G01 X10.9838 Y5.0153
G01 X10.9815 Y5.0036
G01 X10.9685 Y4.9152
G01 X10.9640 Y4.8259
G01 X10.9639 Y2.5200
G01 X10.9681 Y2.4307
G01 X10.9693 Y2.4189
G01 X10.9825 Y2.3305
G01 X11.0041 Y2.2438
G01 X11.0075 Y2.2324
G01 X11.0378 Y2.1484
G01 X11.0758 Y2.0675
G01 X11.0815 Y2.0570
G01 X11.1243 Y1.9855
G01 X11.1309 Y1.9756
G01 X11.1843 Y1.9039
G01 X11.2483 Y1.8333
G01 X11.3189 Y1.7693
G01 X11.3906 Y1.7159
G01 X11.4005 Y1.7093
G01 X11.4720 Y1.6665
G01 X11.4825 Y1.6608
G01 X11.5634 Y1.6228
G01 X11.6531 Y1.5907
G01 X11.7455 Y1.5675
G01 X11.8339 Y1.5543
G01 X11.8457 Y1.5531
G01 X11.9291 Y1.5490
G01 X11.9409 Y1.5490
G01 X12.0302 Y1.5535
G01 X12.1245 Y1.5675
G01 X12.2169 Y1.5907
G01 X12.3011 Y1.6206
G01 X12.3121 Y1.6252
G01 X12.3928 Y1.6635
G01 X12.4695 Y1.7093
G01 X12.4794 Y1.7159
G01 X12.5464 Y1.7656
G01 X12.5556 Y1.7732
G01 X12.6217 Y1.8333
G01 X12.6857 Y1.9039
G01 X12.7425 Y1.9805
G01 X12.7885 Y2.0570
G01 X12.7942 Y2.0675
G01 X12.8298 Y2.1429
G01 X12.8344 Y2.1539
G01 X12.8643 Y2.2381
G01 X12.8869 Y2.3276
G01 X12.8885 Y2.3364
G01 X12.9015 Y2.4248
G01 X12.9061 Y2.5170
G01 X12.9061 Y3.2949
G01 X13.1719 Y3.2949
G01 X13.1719 Y2.4188
G01 X13.1712 Y2.4053
G01 X13.1334 Y2.1965
G01 X13.0619 Y1.9995
G01 X12.9807 Y1.8568
G01 X12.9745 Y1.8441
G01 X12.9714 Y1.8362
G01 X12.9562 Y1.7918
G01 X12.9536 Y1.7831
G01 X12.9507 Y1.7683
G01 X12.9497 Y1.7533
G01 X12.9499 Y1.7442
G01 X12.9509 Y1.7353
G01 X12.9610 Y1.6650
G01 X12.9641 Y1.6503
G01 X12.9678 Y1.6388
G01 X12.9740 Y1.6252
G01 X12.9819 Y1.6124
G01 X12.9893 Y1.6029
G01 X13.0399 Y1.5448
G01 X13.0509 Y1.5346
G01 X13.0632 Y1.5258
G01 X13.0764 Y1.5187
G01 X13.0904 Y1.5132
G01 X13.1614 Y1.4923
G01 X13.1754 Y1.4891
G01 X13.1869 Y1.4877
G01 X13.1955 Y1.4874
G01 X23.7059 Y1.4874
G01 X23.7173 Y1.4880
G01 X23.7287 Y1.4896
G01 X23.7836 Y1.5014
G01 X23.7982 Y1.5055
G01 X23.8121 Y1.5114
G01 X23.8251 Y1.5190
G01 X23.8348 Y1.5262
G01 X23.8909 Y1.5745
G01 X23.9016 Y1.5850
G01 X23.9093 Y1.5943
G01 X23.9159 Y1.6044
G01 X23.9215 Y1.6150
G01 X23.9261 Y1.6261
G01 X23.9496 Y1.7055
G01 X23.9521 Y1.7197
G01 X23.9530 Y1.7341
G01 X23.9760 Y13.1448
G01 X23.9750 Y13.1602
G01 X23.9729 Y13.1723
G01 X23.9563 Y13.2368
G01 X23.9527 Y13.2482
G01 X23.9493 Y13.2565
G01 X23.9439 Y13.2670
G01 X23.9392 Y13.2746
G01 X23.9320 Y13.2841
G01 X23.9239 Y13.2929
G01 X23.8712 Y13.3448
G01 X23.8596 Y13.3543
G01 X23.8469 Y13.3624
G01 X23.8333 Y13.3688
G01 X23.8190 Y13.3735
G01 X23.7378 Y13.3905
G01 X23.7288 Y13.3916
G01 X23.7198 Y13.3920
G01 X23.7048 Y13.3912
G01 X23.6900 Y13.3885
G01 X23.6785 Y13.3851
G01 X23.6093 Y13.3587
G01 X23.5956 Y13.3525
G01 X23.5878 Y13.3480
G01 X23.5804 Y13.3429
G01 X23.5689 Y13.3332
G01 X23.5626 Y13.3267
G01 X23.5568 Y13.3198
G01 X23.5129 Y13.2602
G01 X23.5051 Y13.2481
G01 X23.4987 Y13.2352
G01 X23.4903 Y13.2122
G01 X23.4838 Y13.1904
G01 X23.4787 Y13.1686
G01 X23.4651 Y13.1404
G01 X23.4589 Y13.1259
G01 X23.4470 Y13.0936
G01 X23.4331 Y13.0716
G01 X23.4238 Y13.0549
G01 X23.4140 Y13.0348
G01 X23.3927 Y13.0078
G01 X23.3835 Y12.9950
G01 X23.3665 Y12.9687
G01 X23.3120 Y12.9152
G01 X23.0046 Y12.6077
G01 X22.9974 Y12.5990
G01 X22.9925 Y12.5920
G01 X22.9588 Y12.5372
G01 X22.9546 Y12.5293
G01 X22.9510 Y12.5211
G01 X22.9463 Y12.5068
G01 X22.9439 Y12.4951
G01 X22.9426 Y12.4832
G01 X22.9402 Y12.4063
G01 X22.9409 Y12.3919
G01 X22.9422 Y12.3834
G01 X22.9440 Y12.3749
G01 X22.9741 Y12.2592
G01 X22.9874 Y12.1028
G01 X22.9874 Y9.6487
G01 X22.9867 Y9.6354
G01 X22.9490 Y9.4265
G01 X22.8773 Y9.2291
G01 X22.7734 Y9.0466
G01 X22.6403 Y8.8842
G01 X22.4817 Y8.7466
G01 X22.3022 Y8.6377
G01 X22.1069 Y8.5606
G01 X21.9013 Y8.5174
G01 X21.6915 Y8.5096
G01 X21.4833 Y8.5371
G01 X21.2828 Y8.5994
G01 X21.0956 Y8.6946
G01 X20.9271 Y8.8199
G01 X20.7822 Y8.9719
G01 X20.6804 Y9.1228
G01 X20.6721 Y9.1327
G01 X20.6449 Y9.1618
G01 X20.6363 Y9.1701
G01 X20.6293 Y9.1758
G01 X20.6220 Y9.1809
G01 X20.6089 Y9.1882
G01 X20.6007 Y9.1918
G01 X20.5346 Y9.2178
G01 X20.5261 Y9.2208
G01 X20.5144 Y9.2238
G01 X20.5055 Y9.2253
G01 X20.4935 Y9.2262
G01 X20.4815 Y9.2259
G01 X20.4696 Y9.2244
G01 X20.3970 Y9.2100
G01 X20.3882 Y9.2079
G01 X20.3768 Y9.2041
G01 X20.3631 Y9.1978
G01 X20.3504 Y9.1899
G01 X20.3409 Y9.1824
G01 X20.2854 Y9.1291
G01 X20.2757 Y9.1185
G01 X20.2705 Y9.1116
G01 X20.2657 Y9.1043
G01 X20.2329 Y9.0468
G01 X20.1000 Y8.8847
G01 X19.9412 Y8.7469
G01 X19.7621 Y8.6382
G01 X19.5851 Y8.5683
G01 X19.5851 Y8.8543
G01 X19.6625 Y8.8908
G01 X19.6730 Y8.8965
G01 X19.7495 Y8.9425
G01 X19.8214 Y8.9956
G01 X19.8306 Y9.0032
G01 X19.8967 Y9.0633
G01 X19.9607 Y9.1339
G01 X20.0141 Y9.2056
G01 X20.0207 Y9.2155
G01 X20.0665 Y9.2922
G01 X20.1048 Y9.3729
G01 X20.1094 Y9.3839
G01 X20.1393 Y9.4681
G01 X20.1612 Y9.5547
G01 X20.1630 Y9.5635
G01 X20.1765 Y9.6548
G01 X20.1811 Y9.7500
G01 X20.1811 Y12.0500
G01 X20.1769 Y12.1393
G01 X20.1757 Y12.1511
G01 X20.1625 Y12.2395
G01 X20.1393 Y12.3319
G01 X20.1072 Y12.4216
G01 X20.0692 Y12.5025
G01 X20.0635 Y12.5130
G01 X20.0175 Y12.5895
G01 X19.9607 Y12.6661
G01 X19.9008 Y12.7324
G01 X19.8924 Y12.7408
G01 X19.8261 Y12.8007
G01 X19.7544 Y12.8541
G01 X19.7445 Y12.8607
G01 X19.6678 Y12.9065
G01 X19.5851 Y12.9457
G01 X19.5851 Y13.2286
G01 X19.6772 Y13.2000
G01 X19.8643 Y13.1049
G01 X20.0327 Y12.9796
G01 X20.1773 Y12.8280
G01 X20.2791 Y12.6772
G01 X20.2873 Y12.6673
G01 X20.3145 Y12.6382
G01 X20.3254 Y12.6279
G01 X20.3325 Y12.6224
G01 X20.3400 Y12.6175
G01 X20.3532 Y12.6105
G01 X20.4304 Y12.5801
G01 X20.4450 Y12.5762
G01 X20.4599 Y12.5741
G01 X20.4749 Y12.5739
G01 X20.4869 Y12.5751
G01 X20.5624 Y12.5899
G01 X20.5770 Y12.5938
G01 X20.5882 Y12.5981
G01 X20.5989 Y12.6036
G01 X20.6115 Y12.6118
G01 X20.6207 Y12.6195
G01 X20.6740 Y12.6709
G01 X20.6837 Y12.6815
G01 X20.6890 Y12.6884
G01 X20.6937 Y12.6957
G01 X20.7266 Y12.7534
G01 X20.8597 Y12.9158
G01 X21.0183 Y13.0534
G01 X21.1978 Y13.1623
G01 X21.3931 Y13.2394
G01 X21.5987 Y13.2826
G01 X21.7250 Y13.2876
G01 X21.7527 Y13.2911
G01 X21.7616 Y13.2928
G01 X21.7761 Y13.2971
G01 X21.7899 Y13.3031
G01 X21.8574 Y13.3400
G01 X21.8695 Y13.3479
G01 X21.8784 Y13.3553
G01 X22.1153 Y13.5920
G01 X22.1239 Y13.6016
G01 X22.1462 Y13.6297
G01 X22.1510 Y13.6372
G01 X22.1552 Y13.6451
G01 X22.1588 Y13.6532
G01 X22.1619 Y13.6616
G01 X22.1842 Y13.7382
G01 X22.1864 Y13.7495
G01 X22.1876 Y13.7638
G01 X22.1876 Y16.4121
G01 X22.1873 Y16.4212
G01 X22.1879 Y16.5766
G01 X22.1954 Y16.6101
G01 X22.1982 Y16.6257
G01 X22.2021 Y16.6567
G01 X22.2097 Y16.6778
G01 X22.2152 Y16.6960
G01 X22.2213 Y16.7214
G01 X22.2349 Y16.7496
G01 X22.2411 Y16.7641
G01 X22.2530 Y16.7964
G01 X22.2669 Y16.8184
G01 X22.2762 Y16.8351
G01 X22.2860 Y16.8552
G01 X22.3073 Y16.8822
G01 X22.3165 Y16.8950
G01 X22.3335 Y16.9213
G01 X22.3880 Y16.9747
G01 X22.9495 Y17.5362
G01 X22.9557 Y17.5428
G01 X23.0660 Y17.6524
G01 X23.0925 Y17.6690
G01 X23.1055 Y17.6780
G01 X23.1327 Y17.6989
G01 X23.1563 Y17.7102
G01 X23.1730 Y17.7193
G01 X23.1920 Y17.7311
G01 X23.2215 Y17.7414
G01 X23.2362 Y17.7474
G01 X23.2679 Y17.7620
G01 X23.3066 Y17.7747
G01 X23.3148 Y17.7783
G01 X23.3253 Y17.7839
G01 X23.3328 Y17.7888
G01 X23.3399 Y17.7942
G01 X23.3981 Y17.8446
G01 X23.4085 Y17.8554
G01 X23.4176 Y17.8674
G01 X23.4223 Y17.8751
G01 X23.4264 Y17.8832
G01 X23.4299 Y17.8915
G01 X23.4327 Y17.9000
G01 X23.4542 Y17.9737
G01 X23.4564 Y17.9851
G01 X23.4576 Y17.9994
G01 X23.4576 Y18.9521
G01 X23.4573 Y18.9612
G01 X23.4579 Y19.1166
G01 X23.4654 Y19.1501
G01 X23.4682 Y19.1657
G01 X23.4721 Y19.1967
G01 X23.4797 Y19.2178
G01 X23.4852 Y19.2360
G01 X23.4913 Y19.2614
G01 X23.5049 Y19.2896
G01 X23.5111 Y19.3041
G01 X23.5230 Y19.3364
G01 X23.5369 Y19.3584
G01 X23.5462 Y19.3751
G01 X23.5560 Y19.3952
G01 X23.5773 Y19.4222
G01 X23.5865 Y19.4350
G01 X23.6035 Y19.4613
G01 X23.6580 Y19.5148
G01 X24.1600 Y20.0167
G01 X24.1662 Y20.0233
G01 X24.2765 Y20.1329
G01 X24.3055 Y20.1512
G01 X24.3185 Y20.1603
G01 X24.3432 Y20.1794
G01 X24.3668 Y20.1907
G01 X24.3835 Y20.1998
G01 X24.4025 Y20.2116
G01 X24.4349 Y20.2231
G01 X24.4495 Y20.2290
G01 X24.4779 Y20.2422
G01 X24.5033 Y20.2480
G01 X24.5217 Y20.2532
G01 X24.5428 Y20.2605
G01 X24.5769 Y20.2645
G01 X24.5925 Y20.2671
G01 X24.6129 Y20.2715
G01 X24.6223 Y20.2742
G01 X24.6480 Y20.2827
G01 X24.6618 Y20.2883
G01 X24.6749 Y20.2955
G01 X24.6869 Y20.3042
G01 X24.7451 Y20.3546
G01 X24.7515 Y20.3609
G01 X24.7575 Y20.3677
G01 X24.7646 Y20.3774
G01 X24.7693 Y20.3851
G01 X24.7734 Y20.3932
G01 X24.7779 Y20.4043
G01 X24.8005 Y20.4809
G01 X24.8025 Y20.4894
G01 X24.8038 Y20.4979
G01 X24.8046 Y20.5123
G01 X24.8046 Y20.8618
G01 X24.8053 Y20.8751
G01 X24.8431 Y21.0840
G01 X24.9147 Y21.2814
G01 X25.0186 Y21.4639
G01 X25.1517 Y21.6263
G01 X25.3103 Y21.7639
G01 X25.4898 Y21.8728
G01 X25.6851 Y21.9499
G01 X25.8907 Y21.9931
G01 X26.1005 Y22.0009
G01 X26.3087 Y21.9734
G01 X26.5092 Y21.9111
G01 X26.6964 Y21.8159
G01 X26.8649 Y21.6906
G01 X27.0098 Y21.5386
G01 X27.1287 Y21.3620
G01 X27.1352 Y21.3517
G01 X27.1423 Y21.3426
G01 X27.1743 Y21.3053
G01 X27.1803 Y21.2988
G01 X27.1890 Y21.2909
G01 X27.1985 Y21.2838
G01 X27.2085 Y21.2777
G01 X27.2192 Y21.2726
G01 X27.2936 Y21.2434
G01 X27.3081 Y21.2395
G01 X27.3230 Y21.2374
G01 X27.3381 Y21.2372
G01 X27.3530 Y21.2388
G01 X27.4256 Y21.2533
G01 X27.4344 Y21.2554
G01 X27.4458 Y21.2591
G01 X27.4594 Y21.2654
G01 X27.4722 Y21.2734
G01 X27.4816 Y21.2808
G01 X27.5372 Y21.3342
G01 X27.5469 Y21.3448
G01 X27.5521 Y21.3517
G01 X27.5569 Y21.3590
G01 X27.5896 Y21.4164
G01 X27.7227 Y21.5788
G01 X27.8813 Y21.7164
G01 X28.0608 Y21.8253
G01 X28.2561 Y21.9024
G01 X28.4617 Y21.9456
G01 X28.6715 Y21.9534
G01 X28.8797 Y21.9259
G01 X29.0802 Y21.8636
G01 X29.2674 Y21.7684
G01 X29.4359 Y21.6431
G01 X29.5808 Y21.4911
G01 X29.6981 Y21.3169
G01 X29.7843 Y21.1255
G01 X29.8371 Y20.9222
G01 X29.8504 Y20.7658
G01 X29.8504 Y18.3117
G01 X29.8497 Y18.2984
G01 X29.8119 Y18.0895
G01 X29.7403 Y17.8921
G01 X29.6750 Y17.7774
G01 X29.6364 Y17.7096
G01 X29.5033 Y17.5472
G01 X29.3447 Y17.4096
G01 X29.1652 Y17.3007
G01 X28.9699 Y17.2236
G01 X28.7643 Y17.1804
G01 X28.5545 Y17.1726
G01 X28.3463 Y17.2001
G01 X28.1458 Y17.2624
G01 X27.9586 Y17.3576
G01 X27.7901 Y17.4829
G01 X27.6452 Y17.6349
G01 X27.5263 Y17.8115
G01 X27.5198 Y17.8218
G01 X27.5127 Y17.8309
G01 X27.4807 Y17.8682
G01 X27.4704 Y17.8788
G01 X27.4637 Y17.8845
G01 X27.4541 Y17.8913
G01 X27.4465 Y17.8958
G01 X27.4358 Y17.9009
G01 X27.3614 Y17.9301
G01 X27.3469 Y17.9340
G01 X27.3350 Y17.9358
G01 X27.3199 Y17.9364
G01 X27.3050 Y17.9351
G01 X27.2294 Y17.9202
G01 X27.2206 Y17.9181
G01 X27.2064 Y17.9132
G01 X27.1956 Y17.9081
G01 X27.1828 Y17.9001
G01 X27.1734 Y17.8927
G01 X27.1178 Y17.8393
G01 X27.1081 Y17.8287
G01 X27.1029 Y17.8218
G01 X27.0981 Y17.8145
G01 X27.0654 Y17.7571
G01 X26.9323 Y17.5947
G01 X26.7737 Y17.4571
G01 X26.5942 Y17.3482
G01 X26.3989 Y17.2711
G01 X26.1933 Y17.2279
G01 X25.9835 Y17.2201
G01 X25.7753 Y17.2476
G01 X25.5748 Y17.3099
G01 X25.3876 Y17.4051
G01 X25.2191 Y17.5304
G01 X25.2067 Y17.5435
G01 X25.1964 Y17.5534
G01 X25.1894 Y17.5595
G01 X25.1820 Y17.5651
G01 X25.1743 Y17.5701
G01 X25.1661 Y17.5745
G01 X25.0961 Y17.6068
G01 X25.0848 Y17.6110
G01 X25.0702 Y17.6147
G01 X25.0553 Y17.6165
G01 X25.0433 Y17.6166
G01 X25.0313 Y17.6155
G01 X24.9610 Y17.6057
G01 X24.9521 Y17.6041
G01 X24.9405 Y17.6009
G01 X24.9320 Y17.5978
G01 X24.9238 Y17.5941
G01 X24.9133 Y17.5882
G01 X24.9059 Y17.5831
G01 X24.8988 Y17.5775
G01 X24.8450 Y17.5312
G01 X24.8363 Y17.5229
G01 X24.8284 Y17.5138
G01 X24.8215 Y17.5040
G01 X24.8156 Y17.4935
G01 X24.8108 Y17.4825
G01 X24.8079 Y17.4739
G01 X24.7876 Y17.4059
G01 X24.7844 Y17.3918
G01 X24.7832 Y17.3833
G01 X24.7826 Y17.3718
G01 X24.7821 Y17.2334
G01 X24.7746 Y17.1999
G01 X24.7718 Y17.1843
G01 X24.7679 Y17.1533
G01 X24.7603 Y17.1322
G01 X24.7548 Y17.1139
G01 X24.7487 Y17.0886
G01 X24.7351 Y17.0604
G01 X24.7289 Y17.0459
G01 X24.7170 Y17.0136
G01 X24.7050 Y16.9948
G01 X24.6956 Y16.9782
G01 X24.6840 Y16.9548
G01 X24.6645 Y16.9303
G01 X24.6553 Y16.9175
G01 X24.6365 Y16.8887
G01 X24.5683 Y16.8216
G01 X24.5564 Y16.8088
G01 X24.5489 Y16.7994
G01 X24.5439 Y16.7918
G01 X24.5381 Y16.7812
G01 X24.5077 Y16.7137
G01 X24.5024 Y16.6996
G01 X24.4995 Y16.6879
G01 X24.4980 Y16.6790
G01 X24.4971 Y16.6670
G01 X24.4974 Y16.6550
G01 X24.4984 Y16.6460
G01 X24.5094 Y16.5729
G01 X24.5121 Y16.5611
G01 X24.5149 Y16.5525
G01 X24.5182 Y16.5442
G01 X24.5222 Y16.5361
G01 X24.5268 Y16.5283
G01 X24.5320 Y16.5209
G01 X24.5377 Y16.5139
G01 X24.5865 Y16.4583
G01 X24.5951 Y16.4499
G01 X24.6069 Y16.4406
G01 X24.6198 Y16.4329
G01 X24.6336 Y16.4268
G01 X24.6421 Y16.4240
G01 X24.7160 Y16.4029
G01 X24.7302 Y16.4005
G01 X24.7445 Y16.3997
G01 X30.3564 Y16.4335
G01 X30.3677 Y16.4341
G01 X30.3790 Y16.4358
G01 X30.4364 Y16.4485
G01 X30.4451 Y16.4510
G01 X30.4536 Y16.4541
G01 X30.4618 Y16.4579
G01 X30.4697 Y16.4623
G01 X30.4773 Y16.4672
G01 X30.4845 Y16.4727
G01 X30.5448 Y16.5252
G01 X30.5511 Y16.5317
G01 X30.5587 Y16.5411
G01 X30.5637 Y16.5485
G01 X30.5696 Y16.5590
G01 X30.5733 Y16.5673
G01 X30.5763 Y16.5758
G01 X30.5979 Y16.6496
G01 X30.5999 Y16.6580
G01 X30.6012 Y16.6665
G01 X30.6020 Y16.6809
G01 X30.5833 Y35.8262
G01 X30.5827 Y35.8376
G01 X30.5811 Y35.8490
G01 X30.5691 Y35.9040
G01 X30.5650 Y35.9185
G01 X30.5591 Y35.9324
G01 X30.5532 Y35.9429
G01 X30.5443 Y35.9552
G01 X30.4959 Y36.0111
G01 X30.4854 Y36.0219
G01 X30.4761 Y36.0295
G01 X30.4660 Y36.0361
G01 X30.4554 Y36.0417
G01 X30.4442 Y36.0462
G01 X30.3648 Y36.0696
G01 X30.3507 Y36.0722
G01 X30.3363 Y36.0731
G01 X1.1746 Y36.0922
G01 X1.1631 Y36.0917
G01 X1.1517 Y36.0901
G01 X1.0964 Y36.0781
G01 X1.0819 Y36.0740
G01 X1.0679 Y36.0680
G01 X1.0574 Y36.0621
G01 X1.0451 Y36.0532
G01 X0.9892 Y36.0048
G01 X0.9784 Y35.9942
G01 X0.9708 Y35.9849
G01 X0.9642 Y35.9749
G01 X0.9586 Y35.9642
G01 X0.9541 Y35.9531
G01 X0.9307 Y35.8737
G01 X0.9282 Y35.8595
G01 X0.9273 Y35.8451
G01 X0.9265 Y3.9421
G00 Z2.0000
G00 X5.6282 Y7.1047
G01 F60.00
G01 Z-0.1000
G01 F120.00
G01 X5.6415 Y6.9482
G01 X5.6941 Y6.7454
G01 X5.7803 Y6.5540
G01 X5.8977 Y6.3795
G01 X6.0423 Y6.2279
G01 X6.0953 Y6.1884
G01 X6.1058 Y6.1786
G01 X6.1134 Y6.1699
G01 X6.1597 Y6.1085
G01 X6.1676 Y6.0957
G01 X6.1728 Y6.0849
G01 X6.1778 Y6.0707
G01 X6.1804 Y6.0589
G01 X6.1819 Y6.0470
G01 X6.1875 Y5.9702
G01 X6.1869 Y5.9552
G01 X6.1845 Y5.9403
G01 X6.1803 Y5.9259
G01 X6.1743 Y5.9121
G01 X6.1390 Y5.8470
G01 X6.1344 Y5.8393
G01 X6.1293 Y5.8319
G01 X6.1236 Y5.8249
G01 X6.1174 Y5.8184
G01 X6.1085 Y5.8099
G01 X5.9650 Y5.6853
G01 X5.8321 Y5.5232
G01 X5.7283 Y5.3408
G01 X5.6565 Y5.1432
G01 X5.6188 Y4.9347
G01 X5.6181 Y4.9212
G01 X5.6181 Y4.0451
G01 X5.8839 Y4.0451
G01 X5.8840 Y4.8259
G01 X5.8885 Y4.9152
G01 X5.9015 Y5.0036
G01 X5.9038 Y5.0153
G01 X5.9248 Y5.0991
G01 X5.9275 Y5.1076
G01 X5.9578 Y5.1916
G01 X5.9985 Y5.2778
G01 X6.0475 Y5.3595
G01 X6.1006 Y5.4314
G01 X6.1082 Y5.4406
G01 X6.1642 Y5.5024
G01 X6.1726 Y5.5108
G01 X6.2389 Y5.5707
G01 X6.3106 Y5.6241
G01 X6.3205 Y5.6307
G01 X6.3972 Y5.6765
G01 X6.4799 Y5.7157
G01 X6.4799 Y6.1753
G01 X6.4805 Y6.1850
G01 X6.4838 Y6.2150
G01 X6.4855 Y6.2246
G01 X6.4899 Y6.2446
G01 X6.4899 Y6.2618
G01 X6.4072 Y6.3010
G01 X6.3305 Y6.3468
G01 X6.3206 Y6.3534
G01 X6.2512 Y6.4049
G01 X6.2444 Y6.4107
G01 X6.1783 Y6.4708
G01 X6.1162 Y6.5391
G01 X6.1106 Y6.5461
G01 X6.0575 Y6.6180
G01 X6.0085 Y6.6997
G01 X5.9678 Y6.7859
G01 X5.9375 Y6.8699
G01 X5.9341 Y6.8813
G01 X5.9138 Y6.9622
G01 X5.9115 Y6.9739
G01 X5.8985 Y7.0623
G01 X5.8940 Y7.1516
G01 X5.8939 Y7.9324
G01 X5.6281 Y7.9324
G01 X5.6282 Y7.1047
G00 Z2.0000
G00 X5.6281 Y8.6826
G01 F60.00
G01 Z-0.1000
G01 F120.00
G01 X5.8939 Y8.6826
G01 X5.8940 Y9.4634
G01 X5.8985 Y9.5527
G01 X5.9115 Y9.6411
G01 X5.9138 Y9.6528
G01 X5.9357 Y9.7394
G01 X5.9678 Y9.8291
G01 X6.0085 Y9.9153
G01 X6.0575 Y9.9970
G01 X6.1106 Y10.0689
G01 X6.1182 Y10.0781
G01 X6.1742 Y10.1399
G01 X6.1826 Y10.1483
G01 X6.2489 Y10.2082
G01 X6.3206 Y10.2616
G01 X6.3305 Y10.2682
G01 X6.4072 Y10.3140
G01 X6.4899 Y10.3532
G01 X6.4899 Y10.6392
G01 X6.3129 Y10.5693
G01 X6.1338 Y10.4606
G01 X5.9752 Y10.3230
G01 X5.8421 Y10.1607
G01 X5.7381 Y9.9780
G01 X5.6665 Y9.7807
G01 X5.6288 Y9.5719
G01 X5.6281 Y9.5587
G01 X5.6281 Y8.6826
G00 Z2.0000
G00 X8.3790 Y5.9933
G01 F60.00
G01 Z-0.1000
G01 F120.00
G01 X8.3321 Y6.0358
G01 X8.3071 Y6.0596
G01 X8.2833 Y6.0846
G01 X8.2273 Y6.1464
G01 X8.2048 Y6.1725
G01 X8.1940 Y6.1860
G01 X8.1350 Y6.2651
G01 X8.0760 Y6.1860
G01 X8.0541 Y6.1593
G01 X8.0427 Y6.1464
G01 X7.9867 Y6.0846
G01 X7.9629 Y6.0596
G01 X7.9379 Y6.0358
G01 X7.8810 Y5.9842
G01 X7.9279 Y5.9417
G01 X7.9529 Y5.9179
G01 X7.9767 Y5.8929
G01 X8.0327 Y5.8311
G01 X8.0552 Y5.8050
G01 X8.0660 Y5.7915
G01 X8.1250 Y5.7124
G01 X8.1840 Y5.7915
G01 X8.1948 Y5.8050
G01 X8.2173 Y5.8311
G01 X8.2733 Y5.8929
G01 X8.2971 Y5.9179
G01 X8.3221 Y5.9417
G01 X8.3790 Y5.9933
G00 Z2.0000
G00 X8.6210 Y5.9364
G01 F60.00
G01 Z-0.1000
G01 F120.00
G01 X8.6210 Y6.0485
G01 X8.5627 Y6.0917
G01 X8.5430 Y6.1071
G01 X8.5241 Y6.1234
G01 X8.4531 Y6.1879
G01 X8.4354 Y6.2056
G01 X8.4269 Y6.2147
G01 X8.3709 Y6.2766
G01 X8.3546 Y6.2955
G01 X8.3468 Y6.3052
G01 X8.2896 Y6.3822
G01 X8.2752 Y6.4026
G01 X8.2618 Y6.4237
G01 X8.2126 Y6.5060
G01 X8.2009 Y6.5280
G01 X8.1954 Y6.5393
G01 X8.1545 Y6.6260
G01 X8.1450 Y6.6491
G01 X8.1350 Y6.6765
G01 X8.1250 Y6.6491
G01 X8.1155 Y6.6260
G01 X8.0746 Y6.5393
G01 X8.0691 Y6.5280
G01 X8.0574 Y6.5060
G01 X8.0082 Y6.4237
G01 X7.9948 Y6.4026
G01 X7.9804 Y6.3822
G01 X7.9232 Y6.3052
G01 X7.9073 Y6.2859
G01 X7.8991 Y6.2766
G01 X7.8431 Y6.2147
G01 X7.8258 Y6.1967
G01 X7.8078 Y6.1794
G01 X7.7459 Y6.1234
G01 X7.7270 Y6.1071
G01 X7.7073 Y6.0917
G01 X7.6278 Y6.0331
G01 X7.6278 Y5.9373
G01 X7.6973 Y5.8858
G01 X7.7170 Y5.8704
G01 X7.7359 Y5.8541
G01 X7.7978 Y5.7981
G01 X7.8158 Y5.7808
G01 X7.8331 Y5.7628
G01 X7.8891 Y5.7009
G01 X7.9054 Y5.6820
G01 X7.9132 Y5.6723
G01 X7.9704 Y5.5953
G01 X7.9848 Y5.5749
G01 X7.9982 Y5.5538
G01 X8.0474 Y5.4715
G01 X8.0534 Y5.4605
G01 X8.0646 Y5.4382
G01 X8.1055 Y5.3515
G01 X8.1150 Y5.3284
G01 X8.1250 Y5.3010
G01 X8.1350 Y5.3284
G01 X8.1445 Y5.3515
G01 X8.1854 Y5.4382
G01 X8.1909 Y5.4495
G01 X8.2026 Y5.4715
G01 X8.2518 Y5.5538
G01 X8.2652 Y5.5749
G01 X8.2796 Y5.5953
G01 X8.3368 Y5.6723
G01 X8.3527 Y5.6916
G01 X8.3609 Y5.7009
G01 X8.4169 Y5.7628
G01 X8.4254 Y5.7719
G01 X8.4431 Y5.7896
G01 X8.5141 Y5.8541
G01 X8.5330 Y5.8704
G01 X8.5527 Y5.8858
G01 X8.6210 Y5.9364
G00 Z2.0000
G00 X8.8149 Y5.8293
G01 F60.00
G01 Z-0.1000
G01 F120.00
G01 X8.7608 Y5.7969
G01 X8.7478 Y5.7887
G01 X8.7351 Y5.7798
G01 X8.6681 Y5.7301
G01 X8.6500 Y5.7156
G01 X8.5824 Y5.6544
G01 X8.5712 Y5.6438
G01 X8.5606 Y5.6326
G01 X8.5045 Y5.5708
G01 X8.4945 Y5.5591
G01 X8.4849 Y5.5469
G01 X8.4307 Y5.4736
G01 X8.4181 Y5.4542
G01 X8.3752 Y5.3826
G01 X8.3676 Y5.3692
G01 X8.3606 Y5.3554
G01 X8.3250 Y5.2800
G01 X8.3187 Y5.2658
G01 X8.3131 Y5.2514
G01 X8.2850 Y5.1729
G01 X8.2802 Y5.1582
G01 X8.2761 Y5.1433
G01 X8.2558 Y5.0624
G01 X8.2524 Y5.0473
G01 X8.2498 Y5.0320
G01 X8.2375 Y4.9495
G01 X8.2356 Y4.9342
G01 X8.2345 Y4.9188
G01 X8.2304 Y4.8355
G01 X8.2300 Y4.8200
G01 X8.2300 Y2.5200
G01 X8.2304 Y2.5045
G01 X8.2345 Y2.4212
G01 X8.2356 Y2.4058
G01 X8.2375 Y2.3905
G01 X8.2510 Y2.3003
G01 X8.2558 Y2.2776
G01 X8.2761 Y2.1967
G01 X8.2802 Y2.1818
G01 X8.2850 Y2.1671
G01 X8.3131 Y2.0886
G01 X8.3187 Y2.0742
G01 X8.3250 Y2.0600
G01 X8.3606 Y1.9846
G01 X8.3676 Y1.9708
G01 X8.3752 Y1.9574
G01 X8.4181 Y1.8858
G01 X8.4263 Y1.8728
G01 X8.4352 Y1.8601
G01 X8.4849 Y1.7931
G01 X8.4945 Y1.7809
G01 X8.5045 Y1.7692
G01 X8.5606 Y1.7074
G01 X8.5712 Y1.6962
G01 X8.5824 Y1.6856
G01 X8.6442 Y1.6295
G01 X8.6559 Y1.6195
G01 X8.6681 Y1.6099
G01 X8.7351 Y1.5602
G01 X8.7478 Y1.5513
G01 X8.7608 Y1.5431
G01 X8.8324 Y1.5002
G01 X8.8458 Y1.4926
G01 X8.8596 Y1.4856
G01 X8.9350 Y1.4500
G01 X8.9492 Y1.4437
G01 X8.9636 Y1.4381
G01 X9.0421 Y1.4100
G01 X9.0568 Y1.4052
G01 X9.0717 Y1.4011
G01 X9.1526 Y1.3808
G01 X9.1677 Y1.3774
G01 X9.1830 Y1.3748
G01 X9.2655 Y1.3625
G01 X9.2808 Y1.3606
G01 X9.2962 Y1.3595
G01 X9.3795 Y1.3554
G01 X9.3950 Y1.3550
G01 X9.4105 Y1.3554
G01 X9.4938 Y1.3595
G01 X9.5092 Y1.3606
G01 X9.5245 Y1.3625
G01 X9.6147 Y1.3760
G01 X9.6374 Y1.3808
G01 X9.7183 Y1.4011
G01 X9.7332 Y1.4052
G01 X9.7479 Y1.4100
G01 X9.8264 Y1.4381
G01 X9.8408 Y1.4437
G01 X9.8550 Y1.4500
G01 X9.9304 Y1.4856
G01 X9.9442 Y1.4926
G01 X9.9576 Y1.5002
G01 X10.0292 Y1.5431
G01 X10.0422 Y1.5513
G01 X10.0549 Y1.5602
G01 X10.1219 Y1.6099
G01 X10.1341 Y1.6195
G01 X10.1458 Y1.6295
G01 X10.2132 Y1.6908
G01 X10.2294 Y1.7074
G01 X10.2855 Y1.7692
G01 X10.2955 Y1.7809
G01 X10.3051 Y1.7931
G01 X10.3548 Y1.8601
G01 X10.3637 Y1.8728
G01 X10.3719 Y1.8858
G01 X10.4148 Y1.9574
G01 X10.4224 Y1.9708
G01 X10.4294 Y1.9846
G01 X10.4650 Y2.0600
G01 X10.4713 Y2.0742
G01 X10.4769 Y2.0886
G01 X10.5050 Y2.1671
G01 X10.5120 Y2.1892
G01 X10.5342 Y2.2776
G01 X10.5376 Y2.2927
G01 X10.5402 Y2.3080
G01 X10.5525 Y2.3905
G01 X10.5544 Y2.4058
G01 X10.5555 Y2.4212
G01 X10.5596 Y2.5045
G01 X10.5600 Y2.5200
G01 X10.5600 Y4.8200
G01 X10.5596 Y4.8355
G01 X10.5555 Y4.9188
G01 X10.5544 Y4.9342
G01 X10.5525 Y4.9495
G01 X10.5402 Y5.0320
G01 X10.5376 Y5.0473
G01 X10.5342 Y5.0624
G01 X10.5139 Y5.1433
G01 X10.5075 Y5.1655
G01 X10.4769 Y5.2514
G01 X10.4713 Y5.2658
G01 X10.4650 Y5.2800
G01 X10.4294 Y5.3554
G01 X10.4224 Y5.3692
G01 X10.4148 Y5.3826
G01 X10.3679 Y5.4608
G01 X10.3548 Y5.4799
G01 X10.3051 Y5.5469
G01 X10.2955 Y5.5591
G01 X10.2855 Y5.5708
G01 X10.2294 Y5.6326
G01 X10.2132 Y5.6492
G01 X10.1458 Y5.7105
G01 X10.1280 Y5.7254
G01 X10.0486 Y5.7843
G01 X10.0358 Y5.7929
G01 X9.9951 Y5.8173
G01 X9.9951 Y6.1542
G01 X10.0392 Y6.1806
G01 X10.0522 Y6.1888
G01 X10.0649 Y6.1977
G01 X10.1380 Y6.2521
G01 X10.1558 Y6.2670
G01 X10.2232 Y6.3283
G01 X10.2394 Y6.3449
G01 X10.2955 Y6.4067
G01 X10.3055 Y6.4184
G01 X10.3151 Y6.4306
G01 X10.3693 Y6.5039
G01 X10.3819 Y6.5233
G01 X10.4248 Y6.5949
G01 X10.4324 Y6.6083
G01 X10.4394 Y6.6221
G01 X10.4750 Y6.6975
G01 X10.4813 Y6.7117
G01 X10.4869 Y6.7261
G01 X10.5150 Y6.8046
G01 X10.5198 Y6.8193
G01 X10.5239 Y6.8342
G01 X10.5460 Y6.9227
G01 X10.5502 Y6.9455
G01 X10.5625 Y7.0280
G01 X10.5644 Y7.0433
G01 X10.5655 Y7.0587
G01 X10.5696 Y7.1420
G01 X10.5700 Y7.1575
G01 X10.5699 Y9.4652
G01 X10.5655 Y9.5563
G01 X10.5644 Y9.5717
G01 X10.5625 Y9.5870
G01 X10.5490 Y9.6772
G01 X10.5442 Y9.6999
G01 X10.5220 Y9.7883
G01 X10.5175 Y9.8030
G01 X10.5098 Y9.8249
G01 X10.5568 Y9.8065
G01 X10.5716 Y9.8015
G01 X10.5866 Y9.7973
G01 X10.6019 Y9.7938
G01 X10.6250 Y9.7899
G01 X10.6406 Y9.7884
G01 X10.6562 Y9.7876
G01 X10.6719 Y9.7875
G01 X10.6875 Y9.7883
G01 X10.7031 Y9.7898
G01 X10.7185 Y9.7921
G01 X10.8035 Y9.8090
G01 X10.8187 Y9.8128
G01 X10.8381 Y9.8189
G01 X10.8302 Y9.7957
G01 X10.8261 Y9.7808
G01 X10.8058 Y9.6999
G01 X10.8010 Y9.6772
G01 X10.7875 Y9.5870
G01 X10.7856 Y9.5717
G01 X10.7845 Y9.5563
G01 X10.7801 Y9.4652
G01 X10.7800 Y7.1575
G01 X10.7804 Y7.1420
G01 X10.7845 Y7.0587
G01 X10.7865 Y7.0356
G01 X10.7998 Y6.9455
G01 X10.8024 Y6.9302
G01 X10.8058 Y6.9151
G01 X10.8261 Y6.8342
G01 X10.8302 Y6.8193
G01 X10.8350 Y6.8046
G01 X10.8631 Y6.7261
G01 X10.8687 Y6.7117
G01 X10.8750 Y6.6975
G01 X10.9106 Y6.6221
G01 X10.9176 Y6.6083
G01 X10.9252 Y6.5949
G01 X10.9681 Y6.5233
G01 X10.9763 Y6.5103
G01 X10.9852 Y6.4976
G01 X11.0349 Y6.4306
G01 X11.0445 Y6.4184
G01 X11.0545 Y6.4067
G01 X11.1106 Y6.3449
G01 X11.1268 Y6.3283
G01 X11.1942 Y6.2670
G01 X11.2059 Y6.2570
G01 X11.2181 Y6.2474
G01 X11.2851 Y6.1977
G01 X11.2978 Y6.1888
G01 X11.3108 Y6.1806
G01 X11.3660 Y6.1475
G01 X11.3660 Y5.8360
G01 X11.3008 Y5.7969
G01 X11.2878 Y5.7887
G01 X11.2751 Y5.7798
G01 X11.2081 Y5.7301
G01 X11.1900 Y5.7156
G01 X11.1224 Y5.6544
G01 X11.1112 Y5.6438
G01 X11.1006 Y5.6326
G01 X11.0445 Y5.5708
G01 X11.0345 Y5.5591
G01 X11.0249 Y5.5469
G01 X10.9707 Y5.4736
G01 X10.9581 Y5.4542
G01 X10.9152 Y5.3826
G01 X10.9076 Y5.3692
G01 X10.9006 Y5.3554
G01 X10.8650 Y5.2800
G01 X10.8587 Y5.2658
G01 X10.8531 Y5.2514
G01 X10.8250 Y5.1729
G01 X10.8202 Y5.1582
G01 X10.8161 Y5.1433
G01 X10.7958 Y5.0624
G01 X10.7910 Y5.0397
G01 X10.7775 Y4.9495
G01 X10.7756 Y4.9342
G01 X10.7745 Y4.9188
G01 X10.7704 Y4.8355
G01 X10.7700 Y4.8200
G01 X10.7700 Y2.5200
G01 X10.7704 Y2.5045
G01 X10.7745 Y2.4212
G01 X10.7756 Y2.4058
G01 X10.7775 Y2.3905
G01 X10.7898 Y2.3080
G01 X10.7924 Y2.2927
G01 X10.7958 Y2.2776
G01 X10.8161 Y2.1967
G01 X10.8202 Y2.1818
G01 X10.8250 Y2.1671
G01 X10.8531 Y2.0886
G01 X10.8587 Y2.0742
G01 X10.8650 Y2.0600
G01 X10.9006 Y1.9846
G01 X10.9076 Y1.9708
G01 X10.9152 Y1.9574
G01 X10.9621 Y1.8792
G01 X10.9752 Y1.8601
G01 X11.0249 Y1.7931
G01 X11.0345 Y1.7809
G01 X11.0445 Y1.7692
G01 X11.1006 Y1.7074
G01 X11.1112 Y1.6962
G01 X11.1224 Y1.6856
G01 X11.1842 Y1.6295
G01 X11.1959 Y1.6195
G01 X11.2081 Y1.6099
G01 X11.2751 Y1.5602
G01 X11.2942 Y1.5471
G01 X11.3724 Y1.5002
G01 X11.3858 Y1.4926
G01 X11.3996 Y1.4856
G01 X11.4750 Y1.4500
G01 X11.4892 Y1.4437
G01 X11.5036 Y1.4381
G01 X11.5821 Y1.4100
G01 X11.5968 Y1.4052
G01 X11.6117 Y1.4011
G01 X11.6926 Y1.3808
G01 X11.7077 Y1.3774
G01 X11.7230 Y1.3748
G01 X11.8131 Y1.3615
G01 X11.8362 Y1.3595
G01 X11.9195 Y1.3554
G01 X11.9350 Y1.3550
G01 X11.9505 Y1.3554
G01 X12.0338 Y1.3595
G01 X12.0492 Y1.3606
G01 X12.0645 Y1.3625
G01 X12.1470 Y1.3748
G01 X12.1623 Y1.3774
G01 X12.1774 Y1.3808
G01 X12.2583 Y1.4011
G01 X12.2732 Y1.4052
G01 X12.2879 Y1.4100
G01 X12.3664 Y1.4381
G01 X12.3808 Y1.4437
G01 X12.3950 Y1.4500
G01 X12.4704 Y1.4856
G01 X12.4909 Y1.4963
G01 X12.5692 Y1.5431
G01 X12.5822 Y1.5513
G01 X12.5949 Y1.5602
G01 X12.6619 Y1.6099
G01 X12.6741 Y1.6195
G01 X12.6858 Y1.6295
G01 X12.7476 Y1.6856
G01 X12.7604 Y1.6979
G01 X12.7703 Y1.6297
G01 X12.7751 Y1.6067
G01 X12.7792 Y1.5916
G01 X12.7841 Y1.5767
G01 X12.7928 Y1.5549
G01 X12.7995 Y1.5408
G01 X12.8068 Y1.5270
G01 X12.8149 Y1.5136
G01 X12.8236 Y1.5006
G01 X12.8329 Y1.4880
G01 X12.8429 Y1.4759
G01 X12.8893 Y1.4223
G01 X12.8999 Y1.4107
G01 X12.9110 Y1.3997
G01 X12.9226 Y1.3892
G01 X12.9347 Y1.3794
G01 X12.9474 Y1.3701
G01 X12.9604 Y1.3615
G01 X12.9739 Y1.3535
G01 X12.9877 Y1.3462
G01 X13.0019 Y1.3397
G01 X13.0164 Y1.3338
G01 X13.0387 Y1.3263
G01 X13.1068 Y1.3063
G01 X13.1286 Y1.3008
G01 X13.1507 Y1.2968
G01 X13.1656 Y1.2950
G01 X13.1805 Y1.2939
G01 X13.1955 Y1.2936
G01 X23.7133 Y1.2937
G01 X23.7357 Y1.2950
G01 X23.7579 Y1.2979
G01 X23.7725 Y1.3007
G01 X23.8323 Y1.3137
G01 X23.8475 Y1.3178
G01 X23.8698 Y1.3254
G01 X23.8843 Y1.3313
G01 X23.9056 Y1.3416
G01 X23.9192 Y1.3493
G01 X23.9325 Y1.3576
G01 X23.9516 Y1.3714
G01 X23.9638 Y1.3814
G01 X24.0175 Y1.4278
G01 X24.0347 Y1.4437
G01 X24.0455 Y1.4551
G01 X24.0557 Y1.4670
G01 X24.0698 Y1.4857
G01 X24.0826 Y1.5054
G01 X24.0938 Y1.5260
G01 X24.1034 Y1.5474
G01 X24.1115 Y1.5694
G01 X24.1339 Y1.6450
G01 X24.1395 Y1.6667
G01 X24.1424 Y1.6814
G01 X24.1446 Y1.6963
G01 X24.1460 Y1.7112
G01 X24.1469 Y1.7337
G01 X24.1698 Y13.1444
G01 X24.1695 Y13.1604
G01 X24.1674 Y13.1844
G01 X24.1634 Y13.2082
G01 X24.1598 Y13.2238
G01 X24.1439 Y13.2853
G01 X24.1397 Y13.3002
G01 X24.1320 Y13.3221
G01 X24.1227 Y13.3434
G01 X24.1118 Y13.3639
G01 X24.0995 Y13.3835
G01 X24.0858 Y13.4022
G01 X24.0758 Y13.4141
G01 X24.0654 Y13.4255
G01 X24.0093 Y13.4808
G01 X23.9920 Y13.4966
G01 X23.9735 Y13.5111
G01 X23.9541 Y13.5242
G01 X23.9337 Y13.5358
G01 X23.9125 Y13.5458
G01 X23.8906 Y13.5543
G01 X23.8681 Y13.5611
G01 X23.8529 Y13.5646
G01 X23.7834 Y13.5792
G01 X23.7680 Y13.5820
G01 X23.7447 Y13.5848
G01 X23.7213 Y13.5859
G01 X23.6978 Y13.5852
G01 X23.6745 Y13.5827
G01 X23.6514 Y13.5786
G01 X23.6362 Y13.5748
G01 X23.6212 Y13.5703
G01 X23.6065 Y13.5651
G01 X23.5401 Y13.5398
G01 X23.5257 Y13.5339
G01 X23.5115 Y13.5272
G01 X23.4977 Y13.5198
G01 X23.4777 Y13.5076
G01 X23.4587 Y13.4938
G01 X23.4401 Y13.4781
G01 X23.4401 Y16.2556
G01 X23.7244 Y16.5399
G01 X23.9400 Y16.5399
G01 X23.9555 Y16.5403
G01 X23.9901 Y16.5421
G01 X24.0055 Y16.5436
G01 X24.0475 Y16.5498
G01 X24.0627 Y16.5528
G01 X24.1039 Y16.5631
G01 X24.1187 Y16.5676
G01 X24.1587 Y16.5819
G01 X24.1800 Y16.5911
G01 X24.2182 Y16.6096
G01 X24.2548 Y16.6311
G01 X24.2742 Y16.6437
G01 X24.3033 Y16.6651
G01 X24.3036 Y16.6484
G01 X24.3057 Y16.6251
G01 X24.3185 Y16.5394
G01 X24.3234 Y16.5164
G01 X24.3276 Y16.5014
G01 X24.3326 Y16.4865
G01 X24.3383 Y16.4720
G01 X24.3482 Y16.4507
G01 X24.3556 Y16.4369
G01 X24.3681 Y16.4170
G01 X24.3772 Y16.4043
G01 X24.3920 Y16.3861
G01 X24.4388 Y16.3327
G01 X24.4494 Y16.3212
G01 X24.4605 Y16.3103
G01 X24.4722 Y16.2999
G01 X24.4907 Y16.2854
G01 X24.5036 Y16.2765
G01 X24.5169 Y16.2683
G01 X24.5306 Y16.2608
G01 X24.5447 Y16.2539
G01 X24.5591 Y16.2478
G01 X24.5737 Y16.2424
G01 X24.5887 Y16.2377
G01 X24.6569 Y16.2181
G01 X24.6714 Y16.2143
G01 X24.6935 Y16.2099
G01 X24.7083 Y16.2078
G01 X24.7232 Y16.2065
G01 X24.7382 Y16.2059
G01 X30.3575 Y16.2397
G01 X30.3797 Y16.2406
G01 X30.3945 Y16.2421
G01 X30.4164 Y16.2456
G01 X30.4830 Y16.2604
G01 X30.4981 Y16.2645
G01 X30.5130 Y16.2694
G01 X30.5276 Y16.2750
G01 X30.5419 Y16.2813
G01 X30.5559 Y16.2884
G01 X30.5695 Y16.2961
G01 X30.5828 Y16.3045
G01 X30.5955 Y16.3135
G01 X30.6138 Y16.3283
G01 X30.6733 Y16.3800
G01 X30.6900 Y16.3965
G01 X30.7005 Y16.4081
G01 X30.7103 Y16.4203
G01 X30.7196 Y16.4329
G01 X30.7282 Y16.4459
G01 X30.7361 Y16.4594
G01 X30.7434 Y16.4733
G01 X30.7530 Y16.4947
G01 X30.7610 Y16.5167
G01 X30.7852 Y16.5996
G01 X30.7902 Y16.6215
G01 X30.7927 Y16.6363
G01 X30.7945 Y16.6512
G01 X30.7955 Y16.6661
G01 X30.7959 Y16.6811
G01 X30.7771 Y35.8263
G01 X30.7767 Y35.8413
G01 X30.7757 Y35.8562
G01 X30.7727 Y35.8784
G01 X30.7699 Y35.8930
G01 X30.7568 Y35.9528
G01 X30.7527 Y35.9680
G01 X30.7451 Y35.9903
G01 X30.7359 Y36.0120
G01 X30.7289 Y36.0261
G01 X30.7211 Y36.0398
G01 X30.7083 Y36.0595
G01 X30.6989 Y36.0722
G01 X30.6890 Y36.0843
G01 X30.6425 Y36.1380
G01 X30.6320 Y36.1496
G01 X30.6209 Y36.1606
G01 X30.6093 Y36.1711
G01 X30.5909 Y36.1857
G01 X30.5715 Y36.1988
G01 X30.5511 Y36.2105
G01 X30.5371 Y36.2175
G01 X30.5228 Y36.2237
G01 X30.5007 Y36.2317
G01 X30.4251 Y36.2541
G01 X30.4034 Y36.2597
G01 X30.3886 Y36.2625
G01 X30.3738 Y36.2647
G01 X30.3589 Y36.2661
G01 X30.3364 Y36.2669
G01 X1.1748 Y36.2861
G01 X1.1523 Y36.2853
G01 X1.1373 Y36.2839
G01 X1.1225 Y36.2817
G01 X1.1077 Y36.2789
G01 X1.0476 Y36.2657
G01 X1.0249 Y36.2593
G01 X1.0100 Y36.2541
G01 X0.9883 Y36.2448
G01 X0.9742 Y36.2378
G01 X0.9538 Y36.2259
G01 X0.9407 Y36.2172
G01 X0.9280 Y36.2078
G01 X0.9159 Y36.1978
G01 X0.8622 Y36.1513
G01 X0.8507 Y36.1407
G01 X0.8343 Y36.1239
G01 X0.8242 Y36.1120
G01 X0.8146 Y36.0996
G01 X0.8014 Y36.0802
G01 X0.7934 Y36.0667
G01 X0.7862 Y36.0529
G01 X0.7766 Y36.0315
G01 X0.7686 Y36.0094
G01 X0.7463 Y35.9338
G01 X0.7407 Y35.9121
G01 X0.7367 Y35.8899
G01 X0.7349 Y35.8750
G01 X0.7339 Y35.8601
G01 X0.7335 Y35.8451
G01 X0.7326 Y1.7346
G01 X0.7334 Y1.7121
G01 X0.7349 Y1.6972
G01 X0.7370 Y1.6823
G01 X0.7398 Y1.6676
G01 X0.7530 Y1.6076
G01 X0.7594 Y1.5849
G01 X0.7647 Y1.5700
G01 X0.7706 Y1.5555
G01 X0.7809 Y1.5342
G01 X0.7887 Y1.5205
G01 X0.7971 Y1.5072
G01 X0.8109 Y1.4881
G01 X0.8210 Y1.4759
G01 X0.8726 Y1.4164
G01 X0.8891 Y1.3997
G01 X0.9007 Y1.3892
G01 X0.9191 Y1.3747
G01 X0.9385 Y1.3615
G01 X0.9589 Y1.3498
G01 X0.9800 Y1.3397
G01 X0.9945 Y1.3338
G01 X1.0168 Y1.3263
G01 X1.0849 Y1.3063
G01 X1.1067 Y1.3008
G01 X1.1214 Y1.2979
G01 X1.1362 Y1.2958
G01 X1.1586 Y1.2939
G01 X1.1736 Y1.2936
G01 X5.6026 Y1.2937
G01 X5.6262 Y1.2951
G01 X5.6496 Y1.2984
G01 X5.6650 Y1.3015
G01 X5.7198 Y1.3140
G01 X5.7346 Y1.3178
G01 X5.7493 Y1.3223
G01 X5.7637 Y1.3275
G01 X5.7848 Y1.3366
G01 X5.7984 Y1.3435
G01 X5.8183 Y1.3551
G01 X5.8310 Y1.3636
G01 X5.8433 Y1.3727
G01 X5.8609 Y1.3875
G01 X5.9192 Y1.4404
G01 X5.9303 Y1.4515
G01 X5.9408 Y1.4631
G01 X5.9507 Y1.4752
G01 X5.9600 Y1.4878
G01 X5.9687 Y1.5008
G01 X5.9767 Y1.5142
G01 X5.9840 Y1.5281
G01 X5.9907 Y1.5422
G01 X5.9993 Y1.5640
G01 X6.0063 Y1.5864
G01 X6.0268 Y1.6626
G01 X6.0301 Y1.6778
G01 X6.0328 Y1.6947
G01 X6.0424 Y1.6856
G01 X6.1042 Y1.6295
G01 X6.1159 Y1.6195
G01 X6.1281 Y1.6099
G01 X6.1951 Y1.5602
G01 X6.2078 Y1.5513
G01 X6.2208 Y1.5431
G01 X6.2924 Y1.5002
G01 X6.3058 Y1.4926
G01 X6.3196 Y1.4856
G01 X6.3950 Y1.4500
G01 X6.4092 Y1.4437
G01 X6.4236 Y1.4381
G01 X6.5021 Y1.4100
G01 X6.5168 Y1.4052
G01 X6.5317 Y1.4011
G01 X6.6126 Y1.3808
G01 X6.6277 Y1.3774
G01 X6.6430 Y1.3748
G01 X6.7255 Y1.3625
G01 X6.7408 Y1.3606
G01 X6.7562 Y1.3595
G01 X6.8395 Y1.3554
G01 X6.8550 Y1.3550
G01 X6.8705 Y1.3554
G01 X6.9538 Y1.3595
G01 X6.9769 Y1.3615
G01 X7.0670 Y1.3748
G01 X7.0823 Y1.3774
G01 X7.0974 Y1.3808
G01 X7.1783 Y1.4011
G01 X7.1932 Y1.4052
G01 X7.2079 Y1.4100
G01 X7.2864 Y1.4381
G01 X7.3079 Y1.4467
G01 X7.3904 Y1.4856
G01 X7.4042 Y1.4926
G01 X7.4176 Y1.5002
G01 X7.4892 Y1.5431
G01 X7.5022 Y1.5513
G01 X7.5149 Y1.5602
G01 X7.5819 Y1.6099
G01 X7.5941 Y1.6195
G01 X7.6058 Y1.6295
G01 X7.6676 Y1.6856
G01 X7.6788 Y1.6962
G01 X7.6894 Y1.7074
G01 X7.7506 Y1.7750
G01 X7.7651 Y1.7931
G01 X7.8148 Y1.8601
G01 X7.8237 Y1.8728
G01 X7.8319 Y1.8858
G01 X7.8748 Y1.9574
G01 X7.8824 Y1.9708
G01 X7.8894 Y1.9846
G01 X7.9250 Y2.0600
G01 X7.9313 Y2.0742
G01 X7.9369 Y2.0886
G01 X7.9650 Y2.1671
G01 X7.9698 Y2.1818
G01 X7.9739 Y2.1967
G01 X7.9942 Y2.2776
G01 X7.9976 Y2.2927
G01 X8.0002 Y2.3080
G01 X8.0125 Y2.3905
G01 X8.0150 Y2.4135
G01 X8.0196 Y2.5045
G01 X8.0200 Y2.5200
G01 X8.0200 Y4.8200
G01 X8.0196 Y4.8355
G01 X8.0150 Y4.9265
G01 X8.0125 Y4.9495
G01 X8.0002 Y5.0320
G01 X7.9976 Y5.0473
G01 X7.9942 Y5.0624
G01 X7.9739 Y5.1433
G01 X7.9698 Y5.1582
G01 X7.9650 Y5.1729
G01 X7.9369 Y5.2514
G01 X7.9313 Y5.2658
G01 X7.9250 Y5.2800
G01 X7.8894 Y5.3554
G01 X7.8824 Y5.3692
G01 X7.8748 Y5.3826
G01 X7.8279 Y5.4608
G01 X7.8148 Y5.4799
G01 X7.7651 Y5.5469
G01 X7.7555 Y5.5591
G01 X7.7455 Y5.5708
G01 X7.6894 Y5.6326
G01 X7.6732 Y5.6492
G01 X7.6058 Y5.7105
G01 X7.5941 Y5.7205
G01 X7.5819 Y5.7301
G01 X7.5149 Y5.7798
G01 X7.5022 Y5.7887
G01 X7.4892 Y5.7969
G01 X7.4340 Y5.8300
G01 X7.4340 Y6.1415
G01 X7.4992 Y6.1806
G01 X7.5122 Y6.1888
G01 X7.5249 Y6.1977
G01 X7.5919 Y6.2474
G01 X7.6100 Y6.2619
G01 X7.6776 Y6.3231
G01 X7.6888 Y6.3337
G01 X7.6994 Y6.3449
G01 X7.7555 Y6.4067
G01 X7.7655 Y6.4184
G01 X7.7751 Y6.4306
G01 X7.8248 Y6.4976
G01 X7.8337 Y6.5103
G01 X7.8419 Y6.5233
G01 X7.8848 Y6.5949
G01 X7.8924 Y6.6083
G01 X7.8994 Y6.6221
G01 X7.9350 Y6.6975
G01 X7.9413 Y6.7117
G01 X7.9469 Y6.7261
G01 X7.9750 Y6.8046
G01 X7.9798 Y6.8193
G01 X7.9839 Y6.8342
G01 X8.0042 Y6.9151
G01 X8.0090 Y6.9378
G01 X8.0225 Y7.0280
G01 X8.0244 Y7.0433
G01 X8.0255 Y7.0587
G01 X8.0296 Y7.1420
G01 X8.0300 Y7.1575
G01 X8.0299 Y9.4652
G01 X8.0255 Y9.5563
G01 X8.0244 Y9.5717
G01 X8.0225 Y9.5870
G01 X8.0090 Y9.6772
G01 X8.0042 Y9.6999
G01 X7.9820 Y9.7883
G01 X7.9775 Y9.8030
G01 X7.9699 Y9.8246
G01 X8.0162 Y9.8065
G01 X8.0310 Y9.8015
G01 X8.0460 Y9.7972
G01 X8.0613 Y9.7937
G01 X8.0844 Y9.7899
G01 X8.1000 Y9.7883
G01 X8.1156 Y9.7875
G01 X8.1313 Y9.7875
G01 X8.1469 Y9.7882
G01 X8.1625 Y9.7898
G01 X8.1779 Y9.7920
G01 X8.2629 Y9.8090
G01 X8.2781 Y9.8128
G01 X8.2982 Y9.8191
G01 X8.2902 Y9.7957
G01 X8.2861 Y9.7808
G01 X8.2658 Y9.6999
G01 X8.2610 Y9.6772
G01 X8.2475 Y9.5870
G01 X8.2456 Y9.5717
G01 X8.2445 Y9.5563
G01 X8.2401 Y9.4652
G01 X8.2400 Y7.1575
G01 X8.2404 Y7.1420
G01 X8.2445 Y7.0587
G01 X8.2465 Y7.0356
G01 X8.2598 Y6.9455
G01 X8.2624 Y6.9302
G01 X8.2658 Y6.9151
G01 X8.2861 Y6.8342
G01 X8.2902 Y6.8193
G01 X8.2950 Y6.8046
G01 X8.3231 Y6.7261
G01 X8.3287 Y6.7117
G01 X8.3350 Y6.6975
G01 X8.3706 Y6.6221
G01 X8.3776 Y6.6083
G01 X8.3852 Y6.5949
G01 X8.4321 Y6.5167
G01 X8.4452 Y6.4976
G01 X8.4949 Y6.4306
G01 X8.5045 Y6.4184
G01 X8.5145 Y6.4067
G01 X8.5706 Y6.3449
G01 X8.5868 Y6.3283
G01 X8.6542 Y6.2670
G01 X8.6720 Y6.2521
G01 X8.7451 Y6.1977
G01 X8.7578 Y6.1888
G01 X8.7708 Y6.1806
G01 X8.8149 Y6.1542
G01 X8.8149 Y5.8293
G00 Z2.0000
G00 X9.0087 Y5.7105
G01 F60.00
G01 Z-0.1000
G01 F120.00
G01 X8.9372 Y5.6765
G01 X8.8605 Y5.6307
G01 X8.8506 Y5.6241
G01 X8.7836 Y5.5744
G01 X8.7744 Y5.5668
G01 X8.7083 Y5.5067
G01 X8.6443 Y5.4361
G01 X8.5909 Y5.3644
G01 X8.5843 Y5.3545
G01 X8.5385 Y5.2778
G01 X8.5002 Y5.1971
G01 X8.4956 Y5.1861
G01 X8.4657 Y5.1019
G01 X8.4438 Y5.0153
G01 X8.4420 Y5.0065
G01 X8.4285 Y4.9152
G01 X8.4239 Y4.8200
G01 X8.4239 Y2.5200
G01 X8.4281 Y2.4307
G01 X8.4289 Y2.4219
G01 X8.4425 Y2.3305
G01 X8.4657 Y2.2381
G01 X8.4978 Y2.1484
G01 X8.5385 Y2.0622
G01 X8.5875 Y1.9805
G01 X8.6443 Y1.9039
G01 X8.7083 Y1.8333
G01 X8.7789 Y1.7693
G01 X8.8555 Y1.7125
G01 X8.9372 Y1.6635
G01 X9.0234 Y1.6228
G01 X9.1131 Y1.5907
G01 X9.2055 Y1.5675
G01 X9.2998 Y1.5535
G01 X9.3950 Y1.5489
G01 X9.4843 Y1.5531
G01 X9.4931 Y1.5539
G01 X9.5845 Y1.5675
G01 X9.6712 Y1.5891
G01 X9.6826 Y1.5925
G01 X9.7611 Y1.6206
G01 X9.7721 Y1.6252
G01 X9.8528 Y1.6635
G01 X9.9345 Y1.7125
G01 X10.0111 Y1.7693
G01 X10.0774 Y1.8292
G01 X10.0858 Y1.8376
G01 X10.1418 Y1.8994
G01 X10.1494 Y1.9086
G01 X10.2025 Y1.9805
G01 X10.2515 Y2.0622
G01 X10.2922 Y2.1484
G01 X10.3225 Y2.2324
G01 X10.3259 Y2.2438
G01 X10.3462 Y2.3247
G01 X10.3485 Y2.3364
G01 X10.3615 Y2.4248
G01 X10.3661 Y2.5200
G01 X10.3661 Y4.8200
G01 X10.3619 Y4.9093
G01 X10.3607 Y4.9211
G01 X10.3475 Y5.0095
G01 X10.3259 Y5.0962
G01 X10.3225 Y5.1076
G01 X10.2944 Y5.1861
G01 X10.2898 Y5.1971
G01 X10.2515 Y5.2778
G01 X10.2057 Y5.3545
G01 X10.2008 Y5.3620
G01 X10.1457 Y5.4361
G01 X10.0858 Y5.5024
G01 X10.0774 Y5.5108
G01 X10.0134 Y5.5688
G01 X10.0064 Y5.5744
G01 X9.9394 Y5.6241
G01 X9.9320 Y5.6291
G01 X9.8528 Y5.6765
G01 X9.8013 Y5.7010
G01 X9.8013 Y6.2718
G01 X9.8628 Y6.3010
G01 X9.9420 Y6.3484
G01 X9.9494 Y6.3534
G01 X10.0164 Y6.4031
G01 X10.0234 Y6.4087
G01 X10.0917 Y6.4708
G01 X10.1518 Y6.5369
G01 X10.1594 Y6.5461
G01 X10.2091 Y6.6131
G01 X10.2141 Y6.6205
G01 X10.2615 Y6.6997
G01 X10.2998 Y6.7804
G01 X10.3044 Y6.7914
G01 X10.3343 Y6.8756
G01 X10.3575 Y6.9680
G01 X10.3707 Y7.0564
G01 X10.3719 Y7.0682
G01 X10.3761 Y7.1575
G01 X10.3761 Y9.4605
G01 X10.3719 Y9.5468
G01 X10.3707 Y9.5586
G01 X10.3575 Y9.6470
G01 X10.3352 Y9.7366
G01 X10.3325 Y9.7451
G01 X10.3044 Y9.8236
G01 X10.2998 Y9.8346
G01 X10.2615 Y9.9153
G01 X10.2125 Y9.9970
G01 X10.1557 Y10.0736
G01 X10.0958 Y10.1399
G01 X10.0874 Y10.1483
G01 X10.0211 Y10.2082
G01 X9.9494 Y10.2616
G01 X9.9395 Y10.2682
G01 X9.8628 Y10.3140
G01 X9.7766 Y10.3547
G01 X9.6926 Y10.3850
G01 X9.6812 Y10.3884
G01 X9.5945 Y10.4100
G01 X9.5002 Y10.4240
G01 X9.4050 Y10.4286
G01 X9.3098 Y10.4240
G01 X9.2155 Y10.4100
G01 X9.1231 Y10.3868
G01 X9.0334 Y10.3547
G01 X8.9472 Y10.3140
G01 X8.8655 Y10.2650
G01 X8.7889 Y10.2082
G01 X8.7183 Y10.1442
G01 X8.6543 Y10.0736
G01 X8.5975 Y9.9970
G01 X8.5485 Y9.9153
G01 X8.5078 Y9.8291
G01 X8.4757 Y9.7394
G01 X8.4525 Y9.6470
G01 X8.4385 Y9.5527
G01 X8.4339 Y9.4575
G01 X8.4339 Y7.1575
G01 X8.4385 Y7.0623
G01 X8.4515 Y6.9739
G01 X8.4538 Y6.9622
G01 X8.4757 Y6.8756
G01 X8.5056 Y6.7914
G01 X8.5102 Y6.7804
G01 X8.5485 Y6.6997
G01 X8.5943 Y6.6230
G01 X8.6009 Y6.6131
G01 X8.6524 Y6.5437
G01 X8.6582 Y6.5369
G01 X8.7183 Y6.4708
G01 X8.7844 Y6.4107
G01 X8.7912 Y6.4049
G01 X8.8606 Y6.3534
G01 X8.8705 Y6.3468
G01 X8.9472 Y6.3010
G01 X9.0087 Y6.2718
G01 X9.0087 Y5.7105
G00 Z2.0000
G00 X10.6750 Y6.2651
G01 F60.00
G01 Z-0.1000
G01 F120.00
G01 X10.6160 Y6.1860
G01 X10.5941 Y6.1593
G01 X10.5827 Y6.1464
G01 X10.5267 Y6.0846
G01 X10.5029 Y6.0596
G01 X10.4779 Y6.0358
G01 X10.4210 Y5.9842
G01 X10.4679 Y5.9417
G01 X10.4929 Y5.9179
G01 X10.5167 Y5.8929
G01 X10.5727 Y5.8311
G01 X10.5841 Y5.8182
G01 X10.6060 Y5.7915
G01 X10.6650 Y5.7124
G01 X10.7240 Y5.7915
G01 X10.7348 Y5.8050
G01 X10.7573 Y5.8311
G01 X10.8133 Y5.8929
G01 X10.8371 Y5.9179
G01 X10.8621 Y5.9417
G01 X10.9190 Y5.9933
G01 X10.8721 Y6.0358
G01 X10.8471 Y6.0596
G01 X10.8233 Y6.0846
G01 X10.7673 Y6.1464
G01 X10.7559 Y6.1593
G01 X10.7340 Y6.1860
G01 X10.6750 Y6.2651
G00 Z2.0000
G00 X10.6750 Y6.6765
G01 F60.00
G01 Z-0.1000
G01 F120.00
G01 X10.6650 Y6.6491
G01 X10.6555 Y6.6260
G01 X10.6146 Y6.5393
G01 X10.6091 Y6.5280
G01 X10.5974 Y6.5060
G01 X10.5482 Y6.4237
G01 X10.5348 Y6.4026
G01 X10.5204 Y6.3822
G01 X10.4632 Y6.3052
G01 X10.4473 Y6.2859
G01 X10.4391 Y6.2766
G01 X10.3831 Y6.2147
G01 X10.3746 Y6.2056
G01 X10.3569 Y6.1879
G01 X10.2859 Y6.1234
G01 X10.2670 Y6.1071
G01 X10.2473 Y6.0917
G01 X10.1890 Y6.0485
G01 X10.1890 Y5.9216
G01 X10.2373 Y5.8858
G01 X10.2570 Y5.8704
G01 X10.2759 Y5.8541
G01 X10.3469 Y5.7896
G01 X10.3646 Y5.7719
G01 X10.3731 Y5.7628
G01 X10.4291 Y5.7009
G01 X10.4454 Y5.6820
G01 X10.4532 Y5.6723
G01 X10.5104 Y5.5953
G01 X10.5248 Y5.5749
G01 X10.5382 Y5.5538
G01 X10.5874 Y5.4715
G01 X10.5934 Y5.4605
G01 X10.6046 Y5.4382
G01 X10.6455 Y5.3515
G01 X10.6550 Y5.3284
G01 X10.6650 Y5.3010
G01 X10.6750 Y5.3284
G01 X10.6845 Y5.3515
G01 X10.7254 Y5.4382
G01 X10.7366 Y5.4605
G01 X10.7426 Y5.4715
G01 X10.7918 Y5.5538
G01 X10.8052 Y5.5749
G01 X10.8196 Y5.5953
G01 X10.8768 Y5.6723
G01 X10.8846 Y5.6820
G01 X10.9009 Y5.7009
G01 X10.9569 Y5.7628
G01 X10.9742 Y5.7808
G01 X10.9922 Y5.7981
G01 X11.0541 Y5.8541
G01 X11.0730 Y5.8704
G01 X11.0927 Y5.8858
G01 X11.1722 Y5.9444
G01 X11.1722 Y6.0402
G01 X11.1027 Y6.0917
G01 X11.0830 Y6.1071
G01 X11.0641 Y6.1234
G01 X11.0022 Y6.1794
G01 X10.9842 Y6.1967
G01 X10.9669 Y6.2147
G01 X10.9109 Y6.2766
G01 X10.9027 Y6.2859
G01 X10.8868 Y6.3052
G01 X10.8296 Y6.3822
G01 X10.8152 Y6.4026
G01 X10.8018 Y6.4237
G01 X10.7526 Y6.5060
G01 X10.7466 Y6.5170
G01 X10.7354 Y6.5393
G01 X10.6945 Y6.6260
G01 X10.6850 Y6.6491
G01 X10.6750 Y6.6765
G00 Z2.0000
G00 X12.3201 Y6.2618
G01 F60.00
G01 Z-0.1000
G01 F120.00
G01 X12.3201 Y5.8022
G01 X12.3195 Y5.7925
G01 X12.3162 Y5.7625
G01 X12.3145 Y5.7529
G01 X12.3101 Y5.7329
G01 X12.3101 Y5.7157
G01 X12.3928 Y5.6765
G01 X12.4695 Y5.6307
G01 X12.4794 Y5.6241
G01 X12.5511 Y5.5707
G01 X12.6174 Y5.5108
G01 X12.6258 Y5.5024
G01 X12.6818 Y5.4406
G01 X12.6894 Y5.4314
G01 X12.7425 Y5.3595
G01 X12.7915 Y5.2778
G01 X12.8322 Y5.1916
G01 X12.8625 Y5.1076
G01 X12.8652 Y5.0991
G01 X12.8862 Y5.0153
G01 X12.8885 Y5.0036
G01 X12.9015 Y4.9152
G01 X12.9060 Y4.8259
G01 X12.9061 Y4.0451
G01 X13.1719 Y4.0451
G01 X13.1718 Y4.8728
G01 X13.1585 Y5.0293
G01 X13.1059 Y5.2321
G01 X13.0197 Y5.4235
G01 X12.9025 Y5.5977
G01 X12.7577 Y5.7496
G01 X12.7070 Y5.7873
G01 X12.7004 Y5.7929
G01 X12.6942 Y5.7989
G01 X12.6848 Y5.8099
G01 X12.6421 Y5.8666
G01 X12.6370 Y5.8740
G01 X12.6310 Y5.8844
G01 X12.6260 Y5.8954
G01 X12.6222 Y5.9068
G01 X12.6196 Y5.9186
G01 X12.6181 Y5.9305
G01 X12.6128 Y6.0013
G01 X12.6125 Y6.0103
G01 X12.6131 Y6.0223
G01 X12.6149 Y6.0342
G01 X12.6178 Y6.0459
G01 X12.6231 Y6.0600
G01 X12.6271 Y6.0680
G01 X12.6624 Y6.1331
G01 X12.6672 Y6.1407
G01 X12.6725 Y6.1480
G01 X12.6805 Y6.1570
G01 X12.6948 Y6.1705
G01 X12.8350 Y6.2922
G01 X12.9681 Y6.4546
G01 X13.0717 Y6.6367
G01 X13.1434 Y6.8340
G01 X13.1812 Y7.0428
G01 X13.1818 Y7.0562
G01 X13.1819 Y7.9324
G01 X12.9161 Y7.9324
G01 X12.9160 Y7.1516
G01 X12.9115 Y7.0623
G01 X12.8985 Y6.9739
G01 X12.8962 Y6.9622
G01 X12.8759 Y6.8813
G01 X12.8725 Y6.8699
G01 X12.8422 Y6.7859
G01 X12.8042 Y6.7050
G01 X12.7985 Y6.6945
G01 X12.7557 Y6.6230
G01 X12.7491 Y6.6131
G01 X12.6957 Y6.5414
G01 X12.6358 Y6.4751
G01 X12.6274 Y6.4667
G01 X12.5611 Y6.4068
G01 X12.4845 Y6.3500
G01 X12.4028 Y6.3010
G01 X12.3201 Y6.2618
G00 Z2.0000
G00 X12.3201 Y10.6361
G01 F60.00
G01 Z-0.1000
G01 F120.00
G01 X12.3201 Y10.3532
G01 X12.4028 Y10.3140
G01 X12.4795 Y10.2682
G01 X12.4894 Y10.2616
G01 X12.5611 Y10.2082
G01 X12.6274 Y10.1483
G01 X12.6358 Y10.1399
G01 X12.6918 Y10.0781
G01 X12.6994 Y10.0689
G01 X12.7525 Y9.9970
G01 X12.8015 Y9.9153
G01 X12.8422 Y9.8291
G01 X12.8743 Y9.7394
G01 X12.8962 Y9.6528
G01 X12.8985 Y9.6411
G01 X12.9115 Y9.5527
G01 X12.9160 Y9.4634
G01 X12.9161 Y8.6826
G01 X13.1819 Y8.6826
G01 X13.1818 Y9.5103
G01 X13.1685 Y9.6668
G01 X13.1158 Y9.8700
G01 X13.0297 Y10.0610
G01 X12.9125 Y10.2352
G01 X12.7677 Y10.3871
G01 X12.5990 Y10.5126
G01 X12.4122 Y10.6075
G01 X12.3201 Y10.6361
G00 Z2.0000
G00 X8.4967 Y12.5680
G01 F60.00
G01 Z-0.1000
G01 F120.00
G01 X8.5166 Y12.5742
G01 X8.5318 Y12.5781
G01 X8.6168 Y12.5950
G01 X8.6323 Y12.5973
G01 X8.6478 Y12.5988
G01 X8.6634 Y12.5995
G01 X8.6791 Y12.5995
G01 X8.6947 Y12.5987
G01 X8.7180 Y12.5960
G01 X8.7334 Y12.5933
G01 X8.7487 Y12.5898
G01 X8.7637 Y12.5855
G01 X8.7786 Y12.5805
G01 X8.8254 Y12.5622
G01 X8.8175 Y12.5845
G01 X8.8130 Y12.5992
G01 X8.7890 Y12.6952
G01 X8.7848 Y12.7180
G01 X8.7725 Y12.8005
G01 X8.7700 Y12.8235
G01 X8.7654 Y12.9145
G01 X8.7650 Y12.9300
G01 X8.7650 Y13.4899
G01 X8.5550 Y13.4899
G01 X8.5550 Y12.9300
G01 X8.5546 Y12.9145
G01 X8.5500 Y12.8235
G01 X8.5475 Y12.8005
G01 X8.5352 Y12.7180
G01 X8.5326 Y12.7027
G01 X8.5292 Y12.6876
G01 X8.5070 Y12.5992
G01 X8.5025 Y12.5845
G01 X8.4967 Y12.5680
G00 Z2.0000
G00 X5.9567 Y12.5680
G01 F60.00
G01 Z-0.1000
G01 F120.00
G01 X5.9766 Y12.5742
G01 X5.9918 Y12.5781
G01 X6.0768 Y12.5950
G01 X6.0923 Y12.5973
G01 X6.1078 Y12.5988
G01 X6.1234 Y12.5995
G01 X6.1391 Y12.5995
G01 X6.1547 Y12.5987
G01 X6.1780 Y12.5960
G01 X6.1934 Y12.5933
G01 X6.2087 Y12.5898
G01 X6.2237 Y12.5855
G01 X6.2386 Y12.5805
G01 X6.2854 Y12.5622
G01 X6.2775 Y12.5845
G01 X6.2730 Y12.5992
G01 X6.2490 Y12.6952
G01 X6.2448 Y12.7180
G01 X6.2325 Y12.8005
G01 X6.2300 Y12.8235
G01 X6.2254 Y12.9145
G01 X6.2250 Y12.9300
G01 X6.2250 Y13.4899
G01 X6.0150 Y13.4899
G01 X6.0150 Y12.9300
G01 X6.0146 Y12.9145
G01 X6.0100 Y12.8235
G01 X6.0075 Y12.8005
G01 X5.9952 Y12.7180
G01 X5.9926 Y12.7027
G01 X5.9892 Y12.6876
G01 X5.9670 Y12.5992
G01 X5.9625 Y12.5845
G01 X5.9567 Y12.5680
G00 Z2.0000
G00 X5.8211 Y14.4763
G01 F60.00
G01 Z-0.1000
G01 F120.00
G01 X5.8211 Y15.2330
G01 X5.8165 Y15.3252
G01 X5.8035 Y15.4136
G01 X5.8019 Y15.4224
G01 X5.7793 Y15.5119
G01 X5.7472 Y15.6016
G01 X5.7065 Y15.6878
G01 X5.6607 Y15.7645
G01 X5.6541 Y15.7744
G01 X5.6044 Y15.8414
G01 X5.5968 Y15.8506
G01 X5.5367 Y15.9167
G01 X5.4706 Y15.9768
G01 X5.4638 Y15.9826
G01 X5.3895 Y16.0375
G01 X5.3078 Y16.0865
G01 X5.2216 Y16.1272
G01 X5.1319 Y16.1593
G01 X5.0395 Y16.1825
G01 X4.9452 Y16.1965
G01 X4.8500 Y16.2011
G01 X4.7548 Y16.1965
G01 X4.6605 Y16.1825
G01 X4.5681 Y16.1593
G01 X4.4784 Y16.1272
G01 X4.3922 Y16.0865
G01 X4.3105 Y16.0375
G01 X4.2339 Y15.9807
G01 X4.1633 Y15.9167
G01 X4.1032 Y15.8506
G01 X4.0974 Y15.8438
G01 X4.0425 Y15.7695
G01 X3.9965 Y15.6930
G01 X3.9908 Y15.6825
G01 X3.9528 Y15.6016
G01 X3.9207 Y15.5119
G01 X3.8988 Y15.4253
G01 X3.8965 Y15.4136
G01 X3.8843 Y15.3311
G01 X3.8833 Y15.3222
G01 X3.8789 Y15.2300
G01 X3.8789 Y12.9300
G01 X3.8831 Y12.8407
G01 X3.8843 Y12.8289
G01 X3.8975 Y12.7405
G01 X3.9207 Y12.6481
G01 X3.9528 Y12.5584
G01 X3.9908 Y12.4775
G01 X3.9965 Y12.4670
G01 X4.0425 Y12.3905
G01 X4.0956 Y12.3186
G01 X4.1032 Y12.3094
G01 X4.1592 Y12.2476
G01 X4.1676 Y12.2392
G01 X4.2339 Y12.1793
G01 X4.3056 Y12.1259
G01 X4.3130 Y12.1209
G01 X4.3922 Y12.0735
G01 X4.4729 Y12.0352
G01 X4.4839 Y12.0306
G01 X4.5681 Y12.0007
G01 X4.6605 Y11.9775
G01 X4.7489 Y11.9643
G01 X4.7607 Y11.9631
G01 X4.8441 Y11.9590
G01 X4.8559 Y11.9590
G01 X4.9452 Y11.9635
G01 X5.0336 Y11.9765
G01 X5.0453 Y11.9788
G01 X5.1262 Y11.9991
G01 X5.1376 Y12.0025
G01 X5.2216 Y12.0328
G01 X5.3078 Y12.0735
G01 X5.3895 Y12.1225
G01 X5.4614 Y12.1756
G01 X5.4706 Y12.1832
G01 X5.5367 Y12.2433
G01 X5.5968 Y12.3094
G01 X5.6044 Y12.3186
G01 X5.6541 Y12.3856
G01 X5.6607 Y12.3955
G01 X5.7065 Y12.4722
G01 X5.7472 Y12.5584
G01 X5.7793 Y12.6481
G01 X5.8012 Y12.7347
G01 X5.8035 Y12.7464
G01 X5.8165 Y12.8348
G01 X5.8211 Y12.9270
G01 X5.8211 Y13.6837
G01 X6.4189 Y13.6837
G01 X6.4189 Y12.9270
G01 X6.4235 Y12.8348
G01 X6.4365 Y12.7464
G01 X6.4388 Y12.7347
G01 X6.4607 Y12.6481
G01 X6.4906 Y12.5639
G01 X6.4952 Y12.5529
G01 X6.5308 Y12.4775
G01 X6.5365 Y12.4670
G01 X6.5825 Y12.3905
G01 X6.6356 Y12.3186
G01 X6.6432 Y12.3094
G01 X6.6992 Y12.2476
G01 X6.7076 Y12.2392
G01 X6.7739 Y12.1793
G01 X6.8505 Y12.1225
G01 X6.9270 Y12.0765
G01 X6.9375 Y12.0708
G01 X7.0184 Y12.0328
G01 X7.1081 Y12.0007
G01 X7.1947 Y11.9788
G01 X7.2064 Y11.9765
G01 X7.2948 Y11.9635
G01 X7.3900 Y11.9589
G01 X7.4852 Y11.9635
G01 X7.5736 Y11.9765
G01 X7.5853 Y11.9788
G01 X7.6662 Y11.9991
G01 X7.6747 Y12.0016
G01 X7.7616 Y12.0328
G01 X7.8425 Y12.0708
G01 X7.8530 Y12.0765
G01 X7.9245 Y12.1193
G01 X7.9344 Y12.1259
G01 X8.0061 Y12.1793
G01 X8.0724 Y12.2392
G01 X8.0808 Y12.2476
G01 X8.1407 Y12.3139
G01 X8.1975 Y12.3905
G01 X8.2465 Y12.4722
G01 X8.2872 Y12.5584
G01 X8.3193 Y12.6481
G01 X8.3412 Y12.7347
G01 X8.3435 Y12.7464
G01 X8.3557 Y12.8289
G01 X8.3567 Y12.8378
G01 X8.3611 Y12.9300
G01 X8.3611 Y13.6837
G01 X8.9589 Y13.6837
G01 X8.9589 Y12.9300
G01 X8.9631 Y12.8407
G01 X8.9639 Y12.8319
G01 X8.9765 Y12.7464
G01 X8.9788 Y12.7347
G01 X9.0007 Y12.6481
G01 X9.0306 Y12.5639
G01 X9.0352 Y12.5529
G01 X9.0735 Y12.4722
G01 X9.1225 Y12.3905
G01 X9.1793 Y12.3139
G01 X9.2392 Y12.2476
G01 X9.2476 Y12.2392
G01 X9.3139 Y12.1793
G01 X9.3905 Y12.1225
G01 X9.4670 Y12.0765
G01 X9.4775 Y12.0708
G01 X9.5584 Y12.0328
G01 X9.6424 Y12.0025
G01 X9.6538 Y11.9991
G01 X9.7405 Y11.9775
G01 X9.8348 Y11.9635
G01 X9.9300 Y11.9589
G01 X10.0193 Y11.9631
G01 X10.0311 Y11.9643
G01 X10.1195 Y11.9775
G01 X10.2062 Y11.9991
G01 X10.2176 Y12.0025
G01 X10.3016 Y12.0328
G01 X10.3825 Y12.0708
G01 X10.3930 Y12.0765
G01 X10.4695 Y12.1225
G01 X10.5461 Y12.1793
G01 X10.6167 Y12.2433
G01 X10.6768 Y12.3094
G01 X10.6844 Y12.3186
G01 X10.7375 Y12.3905
G01 X10.7835 Y12.4670
G01 X10.7892 Y12.4775
G01 X10.8248 Y12.5529
G01 X10.8294 Y12.5639
G01 X10.8575 Y12.6424
G01 X10.8609 Y12.6538
G01 X10.8825 Y12.7405
G01 X10.8957 Y12.8289
G01 X10.8967 Y12.8378
G01 X10.9011 Y12.9300
G01 X10.9011 Y13.6837
G01 X10.9130 Y13.6837
G01 X10.9429 Y13.6852
G01 X10.9547 Y13.6863
G01 X10.9902 Y13.6919
G01 X11.0222 Y13.6999
G01 X11.0307 Y13.7026
G01 X11.0617 Y13.7139
G01 X11.0915 Y13.7278
G01 X11.0994 Y13.7319
G01 X11.1302 Y13.7505
G01 X11.1567 Y13.7700
G01 X11.1659 Y13.7775
G01 X11.1902 Y13.7998
G01 X12.4541 Y15.0637
G01 X16.6389 Y15.0637
G01 X16.6389 Y14.8100
G01 X16.6404 Y14.7766
G01 X16.6450 Y14.7435
G01 X16.6473 Y14.7318
G01 X16.6548 Y14.7023
G01 X16.6660 Y14.6707
G01 X16.6695 Y14.6625
G01 X16.6827 Y14.6350
G01 X16.7014 Y14.6038
G01 X16.7231 Y14.5745
G01 X16.7476 Y14.5476
G01 X16.7745 Y14.5231
G01 X16.8038 Y14.5014
G01 X16.8350 Y14.4827
G01 X16.8652 Y14.4683
G01 X16.8735 Y14.4650
G01 X16.9023 Y14.4548
G01 X16.9376 Y14.4460
G01 X16.9736 Y14.4406
G01 X17.0070 Y14.4389
G01 X17.6600 Y14.4389
G01 X17.6904 Y14.4402
G01 X17.7023 Y14.4414
G01 X17.7353 Y14.4466
G01 X17.7677 Y14.4548
G01 X17.7993 Y14.4660
G01 X17.8296 Y14.4800
G01 X17.8401 Y14.4856
G01 X17.8662 Y14.5014
G01 X17.8931 Y14.5212
G01 X17.9000 Y14.5270
G01 X17.9224 Y14.5476
G01 X17.9469 Y14.5745
G01 X17.9686 Y14.6038
G01 X17.9873 Y14.6350
G01 X18.0029 Y14.6680
G01 X18.0152 Y14.7023
G01 X18.0240 Y14.7376
G01 X18.0290 Y14.7707
G01 X18.0298 Y14.7796
G01 X18.0311 Y14.8100
G01 X18.0311 Y15.5957
G01 X18.7063 Y16.2711
G01 X18.7264 Y16.2933
G01 X18.7320 Y16.3003
G01 X18.7515 Y16.3268
G01 X18.7686 Y16.3550
G01 X18.7742 Y16.3655
G01 X18.7881 Y16.3953
G01 X18.8003 Y16.4291
G01 X18.8094 Y16.4639
G01 X18.8117 Y16.4755
G01 X18.8164 Y16.5082
G01 X18.8183 Y16.5440
G01 X18.8183 Y17.5748
G01 X18.8798 Y17.6040
G01 X18.9565 Y17.6498
G01 X18.9664 Y17.6564
G01 X19.0334 Y17.7061
G01 X19.0426 Y17.7137
G01 X19.1087 Y17.7738
G01 X19.1688 Y17.8399
G01 X19.1764 Y17.8491
G01 X19.2295 Y17.9210
G01 X19.2785 Y18.0027
G01 X19.3192 Y18.0889
G01 X19.3495 Y18.1729
G01 X19.3529 Y18.1843
G01 X19.3732 Y18.2652
G01 X19.3755 Y18.2769
G01 X19.3885 Y18.3653
G01 X19.3930 Y18.4546
G01 X19.3931 Y19.2142
G01 X20.0219 Y19.2142
G01 X20.0220 Y18.4071
G01 X20.0265 Y18.3178
G01 X20.0395 Y18.2294
G01 X20.0418 Y18.2177
G01 X20.0628 Y18.1339
G01 X20.0655 Y18.1254
G01 X20.0958 Y18.0414
G01 X20.1338 Y17.9605
G01 X20.1395 Y17.9500
G01 X20.1823 Y17.8785
G01 X20.1889 Y17.8686
G01 X20.2423 Y17.7969
G01 X20.3063 Y17.7263
G01 X20.3769 Y17.6623
G01 X20.4535 Y17.6055
G01 X20.5352 Y17.5565
G01 X20.6159 Y17.5182
G01 X20.6269 Y17.5136
G01 X20.7054 Y17.4855
G01 X20.7168 Y17.4821
G01 X20.8035 Y17.4605
G01 X20.8978 Y17.4465
G01 X20.9930 Y17.4419
G01 X21.0882 Y17.4465
G01 X21.1825 Y17.4605
G01 X21.2692 Y17.4821
G01 X21.2806 Y17.4855
G01 X21.3591 Y17.5136
G01 X21.3701 Y17.5182
G01 X21.4508 Y17.5565
G01 X21.5325 Y17.6055
G01 X21.6091 Y17.6623
G01 X21.6754 Y17.7222
G01 X21.6838 Y17.7306
G01 X21.7437 Y17.7969
G01 X21.7971 Y17.8686
G01 X21.8037 Y17.8785
G01 X21.8465 Y17.9500
G01 X21.8522 Y17.9605
G01 X21.8902 Y18.0414
G01 X21.9223 Y18.1311
G01 X21.9455 Y18.2235
G01 X21.9587 Y18.3119
G01 X21.9597 Y18.3208
G01 X21.9641 Y18.4130
G01 X21.9641 Y20.7160
G01 X21.9595 Y20.8082
G01 X21.9455 Y20.9025
G01 X21.9223 Y20.9949
G01 X21.8913 Y21.0819
G01 X21.8878 Y21.0901
G01 X21.8495 Y21.1708
G01 X21.8005 Y21.2525
G01 X21.7437 Y21.3291
G01 X21.6797 Y21.3997
G01 X21.6091 Y21.4637
G01 X21.5325 Y21.5205
G01 X21.4508 Y21.5695
G01 X21.3646 Y21.6102
G01 X21.2749 Y21.6423
G01 X21.1825 Y21.6655
G01 X21.0882 Y21.6795
G01 X20.9930 Y21.6841
G01 X20.8978 Y21.6795
G01 X20.8035 Y21.6655
G01 X20.7111 Y21.6423
G01 X20.6269 Y21.6124
G01 X20.6186 Y21.6091
G01 X20.5352 Y21.5695
G01 X20.4535 Y21.5205
G01 X20.3769 Y21.4637
G01 X20.3063 Y21.3997
G01 X20.2423 Y21.3291
G01 X20.1855 Y21.2525
G01 X20.1365 Y21.1708
G01 X20.0982 Y21.0901
G01 X20.0947 Y21.0819
G01 X20.0637 Y20.9949
G01 X20.0418 Y20.9083
G01 X20.0395 Y20.8966
G01 X20.0273 Y20.8141
G01 X20.0263 Y20.8052
G01 X20.0219 Y20.7130
G01 X20.0219 Y20.0068
G01 X19.3931 Y20.0068
G01 X19.3930 Y20.7664
G01 X19.3885 Y20.8557
G01 X19.3755 Y20.9441
G01 X19.3732 Y20.9558
G01 X19.3529 Y21.0367
G01 X19.3495 Y21.0481
G01 X19.3192 Y21.1321
G01 X19.2785 Y21.2183
G01 X19.2295 Y21.3000
G01 X19.1764 Y21.3719
G01 X19.1688 Y21.3811
G01 X19.1087 Y21.4472
G01 X19.0426 Y21.5073
G01 X19.0334 Y21.5149
G01 X18.9664 Y21.5646
G01 X18.9565 Y21.5712
G01 X18.8798 Y21.6170
G01 X18.8183 Y21.6462
G01 X18.8183 Y25.1948
G01 X18.8798 Y25.2240
G01 X18.9565 Y25.2698
G01 X18.9664 Y25.2764
G01 X19.0334 Y25.3261
G01 X19.0426 Y25.3337
G01 X19.1087 Y25.3938
G01 X19.1688 Y25.4599
G01 X19.1764 Y25.4691
G01 X19.2295 Y25.5410
G01 X19.2785 Y25.6227
G01 X19.3192 Y25.7089
G01 X19.3495 Y25.7929
G01 X19.3529 Y25.8043
G01 X19.3732 Y25.8852
G01 X19.3755 Y25.8969
G01 X19.3885 Y25.9853
G01 X19.3930 Y26.0746
G01 X19.3931 Y26.8342
G01 X20.0219 Y26.8342
G01 X20.0220 Y26.0271
G01 X20.0265 Y25.9378
G01 X20.0395 Y25.8494
G01 X20.0418 Y25.8377
G01 X20.0628 Y25.7539
G01 X20.0655 Y25.7454
G01 X20.0958 Y25.6614
G01 X20.1365 Y25.5752
G01 X20.1855 Y25.4935
G01 X20.2386 Y25.4216
G01 X20.2462 Y25.4124
G01 X20.3063 Y25.3463
G01 X20.3724 Y25.2862
G01 X20.3816 Y25.2786
G01 X20.4486 Y25.2289
G01 X20.4585 Y25.2223
G01 X20.5352 Y25.1765
G01 X20.6214 Y25.1358
G01 X20.7111 Y25.1037
G01 X20.8035 Y25.0805
G01 X20.8978 Y25.0665
G01 X20.9930 Y25.0619
G01 X21.0882 Y25.0665
G01 X21.1766 Y25.0795
G01 X21.1883 Y25.0818
G01 X21.2749 Y25.1037
G01 X21.3646 Y25.1358
G01 X21.4508 Y25.1765
G01 X21.5275 Y25.2223
G01 X21.5374 Y25.2289
G01 X21.6044 Y25.2786
G01 X21.6136 Y25.2862
G01 X21.6797 Y25.3463
G01 X21.7398 Y25.4124
G01 X21.7474 Y25.4216
G01 X21.8005 Y25.4935
G01 X21.8465 Y25.5700
G01 X21.8522 Y25.5805
G01 X21.8902 Y25.6614
G01 X21.9223 Y25.7511
G01 X21.9442 Y25.8377
G01 X21.9465 Y25.8494
G01 X21.9587 Y25.9319
G01 X21.9597 Y25.9408
G01 X21.9641 Y26.0330
G01 X21.9641 Y28.3360
G01 X21.9595 Y28.4282
G01 X21.9455 Y28.5225
G01 X21.9223 Y28.6149
G01 X21.8902 Y28.7046
G01 X21.8495 Y28.7908
G01 X21.8005 Y28.8725
G01 X21.7437 Y28.9491
G01 X21.6838 Y29.0154
G01 X21.6754 Y29.0238
G01 X21.6091 Y29.0837
G01 X21.5374 Y29.1371
G01 X21.5275 Y29.1437
G01 X21.4560 Y29.1865
G01 X21.4455 Y29.1922
G01 X21.3646 Y29.2302
G01 X21.2749 Y29.2623
G01 X21.1825 Y29.2855
G01 X21.0941 Y29.2987
G01 X21.0823 Y29.2999
G01 X20.9930 Y29.3041
G01 X20.8978 Y29.2995
G01 X20.8035 Y29.2855
G01 X20.7111 Y29.2623
G01 X20.6214 Y29.2302
G01 X20.5352 Y29.1895
G01 X20.4535 Y29.1405
G01 X20.3769 Y29.0837
G01 X20.3063 Y29.0197
G01 X20.2462 Y28.9536
G01 X20.2386 Y28.9444
G01 X20.1889 Y28.8774
G01 X20.1823 Y28.8675
G01 X20.1365 Y28.7908
G01 X20.0958 Y28.7046
G01 X20.0637 Y28.6149
G01 X20.0418 Y28.5283
G01 X20.0395 Y28.5166
G01 X20.0265 Y28.4282
G01 X20.0219 Y28.3360
G01 X20.0219 Y27.6268
G01 X19.3931 Y27.6268
G01 X19.3931 Y28.3805
G01 X19.3887 Y28.4727
G01 X19.3877 Y28.4816
G01 X19.3755 Y28.5641
G01 X19.3732 Y28.5758
G01 X19.3513 Y28.6624
G01 X19.3214 Y28.7466
G01 X19.3168 Y28.7576
G01 X19.2785 Y28.8383
G01 X19.2295 Y28.9200
G01 X19.1727 Y28.9966
G01 X19.1087 Y29.0672
G01 X19.0381 Y29.1312
G01 X18.9615 Y29.1880
G01 X18.8798 Y29.2370
G01 X18.7936 Y29.2777
G01 X18.7039 Y29.3098
G01 X18.6115 Y29.3330
G01 X18.5172 Y29.3470
G01 X18.4279 Y29.3515
G01 X18.4161 Y29.3515
G01 X18.3268 Y29.3470
G01 X18.2384 Y29.3340
G01 X18.2267 Y29.3317
G01 X18.1458 Y29.3114
G01 X18.1344 Y29.3080
G01 X18.0504 Y29.2777
G01 X17.9695 Y29.2397
G01 X17.9590 Y29.2340
G01 X17.8825 Y29.1880
G01 X17.8059 Y29.1312
G01 X17.7353 Y29.0672
G01 X17.6713 Y28.9966
G01 X17.6145 Y28.9200
G01 X17.5655 Y28.8383
G01 X17.5248 Y28.7521
G01 X17.4927 Y28.6624
G01 X17.4695 Y28.5700
G01 X17.4563 Y28.4816
G01 X17.4551 Y28.4698
G01 X17.4509 Y28.3805
G01 X17.4509 Y26.0805
G01 X17.4555 Y25.9853
G01 X17.4685 Y25.8969
G01 X17.4708 Y25.8852
G01 X17.4927 Y25.7986
G01 X17.5226 Y25.7144
G01 X17.5272 Y25.7034
G01 X17.5655 Y25.6227
G01 X17.6113 Y25.5460
G01 X17.6179 Y25.5361
G01 X17.6694 Y25.4667
G01 X17.6752 Y25.4599
G01 X17.7353 Y25.3938
G01 X17.8014 Y25.3337
G01 X17.8082 Y25.3279
G01 X17.8776 Y25.2764
G01 X17.8875 Y25.2698
G01 X17.9642 Y25.2240
G01 X18.0257 Y25.1948
G01 X18.0257 Y21.6462
G01 X17.9642 Y21.6170
G01 X17.8850 Y21.5696
G01 X17.8776 Y21.5646
G01 X17.8106 Y21.5149
G01 X17.8036 Y21.5093
G01 X17.7353 Y21.4472
G01 X17.6752 Y21.3811
G01 X17.6676 Y21.3719
G01 X17.6145 Y21.3000
G01 X17.5685 Y21.2235
G01 X17.5628 Y21.2130
G01 X17.5248 Y21.1321
G01 X17.4927 Y21.0424
G01 X17.4708 Y20.9558
G01 X17.4685 Y20.9441
G01 X17.4555 Y20.8557
G01 X17.4509 Y20.7635
G01 X17.4509 Y18.4605
G01 X17.4555 Y18.3653
G01 X17.4690 Y18.2740
G01 X17.4708 Y18.2652
G01 X17.4927 Y18.1786
G01 X17.5226 Y18.0944
G01 X17.5272 Y18.0834
G01 X17.5655 Y18.0027
G01 X17.6113 Y17.9260
G01 X17.6179 Y17.9161
G01 X17.6694 Y17.8467
G01 X17.6752 Y17.8399
G01 X17.7353 Y17.7738
G01 X17.8014 Y17.7137
G01 X17.8082 Y17.7079
G01 X17.8776 Y17.6564
G01 X17.8875 Y17.6498
G01 X17.9642 Y17.6040
G01 X18.0257 Y17.5748
G01 X18.0257 Y16.7111
G01 X17.7767 Y16.4621
G01 X17.7620 Y16.4668
G01 X17.7295 Y16.4746
G01 X17.6964 Y16.4794
G01 X17.6630 Y16.4811
G01 X17.0070 Y16.4811
G01 X16.9766 Y16.4796
G01 X16.9677 Y16.4786
G01 X16.9376 Y16.4740
G01 X16.9080 Y16.4668
G01 X16.8966 Y16.4633
G01 X16.8680 Y16.4529
G01 X16.8350 Y16.4373
G01 X16.8038 Y16.4186
G01 X16.7745 Y16.3969
G01 X16.7476 Y16.3724
G01 X16.7231 Y16.3455
G01 X16.7014 Y16.3162
G01 X16.6827 Y16.2850
G01 X16.6671 Y16.2520
G01 X16.6557 Y16.2206
G01 X16.6473 Y16.1882
G01 X16.6450 Y16.1765
G01 X16.6406 Y16.1464
G01 X16.6390 Y16.1159
G01 X16.6389 Y15.8563
G01 X12.2900 Y15.8563
G01 X12.2571 Y15.8548
G01 X12.2453 Y15.8537
G01 X12.2127 Y15.8487
G01 X12.1778 Y15.8401
G01 X12.1693 Y15.8374
G01 X12.1383 Y15.8261
G01 X12.1085 Y15.8122
G01 X12.0980 Y15.8066
G01 X12.0698 Y15.7895
G01 X12.0433 Y15.7700
G01 X12.0363 Y15.7644
G01 X12.0119 Y15.7423
G01 X10.9011 Y14.6316
G01 X10.9011 Y15.2330
G01 X10.8965 Y15.3252
G01 X10.8830 Y15.4165
G01 X10.8812 Y15.4253
G01 X10.8593 Y15.5119
G01 X10.8294 Y15.5961
G01 X10.8248 Y15.6071
G01 X10.7865 Y15.6878
G01 X10.7407 Y15.7645
G01 X10.7341 Y15.7744
G01 X10.6844 Y15.8414
G01 X10.6768 Y15.8506
G01 X10.6208 Y15.9124
G01 X10.6124 Y15.9208
G01 X10.5461 Y15.9807
G01 X10.4744 Y16.0341
G01 X10.4645 Y16.0407
G01 X10.3878 Y16.0865
G01 X10.3071 Y16.1248
G01 X10.2961 Y16.1294
G01 X10.2119 Y16.1593
G01 X10.1253 Y16.1812
G01 X10.1136 Y16.1835
G01 X10.0252 Y16.1965
G01 X9.9300 Y16.2011
G01 X9.8407 Y16.1969
G01 X9.8289 Y16.1957
G01 X9.7464 Y16.1835
G01 X9.7376 Y16.1819
G01 X9.6538 Y16.1609
G01 X9.6424 Y16.1575
G01 X9.5584 Y16.1272
G01 X9.4775 Y16.0892
G01 X9.4670 Y16.0835
G01 X9.3905 Y16.0375
G01 X9.3139 Y15.9807
G01 X9.2433 Y15.9167
G01 X9.1832 Y15.8506
G01 X9.1756 Y15.8414
G01 X9.1225 Y15.7695
G01 X9.0765 Y15.6930
G01 X9.0708 Y15.6825
G01 X9.0339 Y15.6044
G01 X9.0306 Y15.5961
G01 X9.0025 Y15.5176
G01 X8.9991 Y15.5062
G01 X8.9775 Y15.4195
G01 X8.9643 Y15.3311
G01 X8.9633 Y15.3222
G01 X8.9589 Y15.2300
G01 X8.9589 Y14.4763
G01 X8.3611 Y14.4763
G01 X8.3611 Y15.2330
G01 X8.3565 Y15.3252
G01 X8.3425 Y15.4195
G01 X8.3209 Y15.5062
G01 X8.3175 Y15.5176
G01 X8.2872 Y15.6016
G01 X8.2465 Y15.6878
G01 X8.1975 Y15.7695
G01 X8.1444 Y15.8414
G01 X8.1368 Y15.8506
G01 X8.0808 Y15.9124
G01 X8.0746 Y15.9188
G01 X8.0106 Y15.9768
G01 X8.0014 Y15.9844
G01 X7.9295 Y16.0375
G01 X7.8530 Y16.0835
G01 X7.8425 Y16.0892
G01 X7.7616 Y16.1272
G01 X7.6719 Y16.1593
G01 X7.5795 Y16.1825
G01 X7.4911 Y16.1957
G01 X7.4793 Y16.1969
G01 X7.3900 Y16.2011
G01 X7.3007 Y16.1969
G01 X7.2889 Y16.1957
G01 X7.2035 Y16.1830
G01 X7.1947 Y16.1812
G01 X7.1081 Y16.1593
G01 X7.0239 Y16.1294
G01 X7.0129 Y16.1248
G01 X6.9322 Y16.0865
G01 X6.8555 Y16.0407
G01 X6.8456 Y16.0341
G01 X6.7739 Y15.9807
G01 X6.7033 Y15.9167
G01 X6.6432 Y15.8506
G01 X6.6356 Y15.8414
G01 X6.5859 Y15.7744
G01 X6.5793 Y15.7645
G01 X6.5335 Y15.6878
G01 X6.4952 Y15.6071
G01 X6.4906 Y15.5961
G01 X6.4625 Y15.5176
G01 X6.4591 Y15.5062
G01 X6.4375 Y15.4195
G01 X6.4243 Y15.3311
G01 X6.4233 Y15.3222
G01 X6.4189 Y15.2300
G01 X6.4189 Y14.4763
G01 X5.8211 Y14.4763
G00 Z2.0000
G00 X6.2833 Y15.5920
G01 F60.00
G01 Z-0.1000
G01 F120.00
G01 X6.2634 Y15.5858
G01 X6.2482 Y15.5819
G01 X6.1632 Y15.5650
G01 X6.1477 Y15.5627
G01 X6.1322 Y15.5612
G01 X6.1166 Y15.5605
G01 X6.1009 Y15.5605
G01 X6.0853 Y15.5613
G01 X6.0697 Y15.5629
G01 X6.0466 Y15.5667
G01 X6.0313 Y15.5702
G01 X6.0163 Y15.5745
G01 X6.0014 Y15.5795
G01 X5.9546 Y15.5978
G01 X5.9625 Y15.5755
G01 X5.9670 Y15.5608
G01 X5.9910 Y15.4648
G01 X5.9952 Y15.4420
G01 X6.0075 Y15.3595
G01 X6.0100 Y15.3365
G01 X6.0146 Y15.2455
G01 X6.0150 Y15.2300
G01 X6.0150 Y14.6701
G01 X6.2250 Y14.6701
G01 X6.2250 Y15.2300
G01 X6.2254 Y15.2455
G01 X6.2300 Y15.3365
G01 X6.2325 Y15.3595
G01 X6.2448 Y15.4420
G01 X6.2474 Y15.4573
G01 X6.2508 Y15.4724
G01 X6.2730 Y15.5608
G01 X6.2775 Y15.5755
G01 X6.2833 Y15.5920
G00 Z2.0000
G00 X8.8233 Y15.5920
G01 F60.00
G01 Z-0.1000
G01 F120.00
G01 X8.8034 Y15.5858
G01 X8.7882 Y15.5819
G01 X8.7032 Y15.5650
G01 X8.6877 Y15.5627
G01 X8.6722 Y15.5612
G01 X8.6566 Y15.5605
G01 X8.6409 Y15.5605
G01 X8.6253 Y15.5613
G01 X8.6097 Y15.5629
G01 X8.5866 Y15.5667
G01 X8.5713 Y15.5702
G01 X8.5563 Y15.5745
G01 X8.5414 Y15.5795
G01 X8.4946 Y15.5978
G01 X8.5025 Y15.5755
G01 X8.5070 Y15.5608
G01 X8.5310 Y15.4648
G01 X8.5352 Y15.4420
G01 X8.5475 Y15.3595
G01 X8.5500 Y15.3365
G01 X8.5546 Y15.2455
G01 X8.5550 Y15.2300
G01 X8.5550 Y14.6701
G01 X8.7650 Y14.6701
G01 X8.7650 Y15.2300
G01 X8.7654 Y15.2455
G01 X8.7700 Y15.3365
G01 X8.7725 Y15.3595
G01 X8.7848 Y15.4420
G01 X8.7874 Y15.4573
G01 X8.7908 Y15.4724
G01 X8.8130 Y15.5608
G01 X8.8175 Y15.5755
G01 X8.8233 Y15.5920
G00 Z2.0000
G00 X11.3284 Y15.3330
G01 F60.00
G01 Z-0.1000
G01 F120.00
G01 X11.2481 Y15.3386
G01 X11.2325 Y15.3401
G01 X11.2093 Y15.3438
G01 X11.1865 Y15.3492
G01 X11.1715 Y15.3537
G01 X11.1568 Y15.3590
G01 X11.1424 Y15.3650
G01 X11.1282 Y15.3717
G01 X11.1145 Y15.3792
G01 X11.1011 Y15.3872
G01 X11.0813 Y15.4009
G01 X11.0885 Y15.3519
G01 X11.0900 Y15.3365
G01 X11.0946 Y15.2455
G01 X11.0950 Y15.2300
G01 X11.0950 Y15.0996
G01 X11.3284 Y15.3330
G00 Z2.0000
G00 X11.9399 Y18.0517
G01 F60.00
G01 Z-0.1000
G01 F120.00
G01 X11.9601 Y18.0580
G01 X11.9753 Y18.0618
G01 X12.0602 Y18.0788
G01 X12.0835 Y18.0819
G01 X12.0991 Y18.0830
G01 X12.1147 Y18.0834
G01 X12.1304 Y18.0830
G01 X12.1460 Y18.0818
G01 X12.1615 Y18.0798
G01 X12.1845 Y18.0754
G01 X12.1997 Y18.0715
G01 X12.2146 Y18.0669
G01 X12.2517 Y18.0527
G01 X12.2320 Y18.1076
G01 X12.2250 Y18.1297
G01 X12.2028 Y18.2181
G01 X12.1994 Y18.2332
G01 X12.1968 Y18.2485
G01 X12.1845 Y18.3310
G01 X12.1826 Y18.3463
G01 X12.1815 Y18.3617
G01 X12.1771 Y18.4528
G01 X12.1770 Y20.7605
G01 X12.1774 Y20.7760
G01 X12.1815 Y20.8593
G01 X12.1826 Y20.8747
G01 X12.1845 Y20.8900
G01 X12.1968 Y20.9725
G01 X12.2010 Y20.9953
G01 X12.2231 Y21.0838
G01 X12.2272 Y21.0987
G01 X12.2320 Y21.1134
G01 X12.2601 Y21.1919
G01 X12.2657 Y21.2063
G01 X12.2720 Y21.2205
G01 X12.3076 Y21.2959
G01 X12.3146 Y21.3097
G01 X12.3222 Y21.3231
G01 X12.3651 Y21.3947
G01 X12.3777 Y21.4141
G01 X12.4319 Y21.4874
G01 X12.4415 Y21.4996
G01 X12.4515 Y21.5113
G01 X12.5076 Y21.5731
G01 X12.5238 Y21.5897
G01 X12.5912 Y21.6510
G01 X12.6090 Y21.6659
G01 X12.6821 Y21.7203
G01 X12.6948 Y21.7292
G01 X12.7078 Y21.7374
G01 X12.7519 Y21.7638
G01 X12.7519 Y25.0772
G01 X12.7078 Y25.1036
G01 X12.6948 Y25.1118
G01 X12.6821 Y25.1207
G01 X12.6090 Y25.1751
G01 X12.5912 Y25.1900
G01 X12.5294 Y25.2461
G01 X12.5128 Y25.2623
G01 X12.4515 Y25.3297
G01 X12.4415 Y25.3414
G01 X12.4319 Y25.3536
G01 X12.3822 Y25.4206
G01 X12.3733 Y25.4333
G01 X12.3651 Y25.4463
G01 X12.3183 Y25.5246
G01 X12.3076 Y25.5451
G01 X12.2720 Y25.6205
G01 X12.2657 Y25.6347
G01 X12.2601 Y25.6491
G01 X12.2320 Y25.7276
G01 X12.2272 Y25.7423
G01 X12.2231 Y25.7572
G01 X12.2028 Y25.8381
G01 X12.1994 Y25.8532
G01 X12.1968 Y25.8685
G01 X12.1845 Y25.9510
G01 X12.1826 Y25.9663
G01 X12.1815 Y25.9817
G01 X12.1771 Y26.0728
G01 X12.1770 Y28.3805
G01 X12.1774 Y28.3960
G01 X12.1815 Y28.4793
G01 X12.1826 Y28.4947
G01 X12.1845 Y28.5100
G01 X12.1980 Y28.6002
G01 X12.2028 Y28.6229
G01 X12.2231 Y28.7038
G01 X12.2272 Y28.7187
G01 X12.2320 Y28.7334
G01 X12.2601 Y28.8119
G01 X12.2657 Y28.8263
G01 X12.2720 Y28.8405
G01 X12.3076 Y28.9159
G01 X12.3146 Y28.9297
G01 X12.3222 Y28.9431
G01 X12.3651 Y29.0147
G01 X12.3777 Y29.0341
G01 X12.4319 Y29.1074
G01 X12.4415 Y29.1196
G01 X12.4515 Y29.1313
G01 X12.5076 Y29.1931
G01 X12.5238 Y29.2097
G01 X12.5912 Y29.2710
G01 X12.6090 Y29.2859
G01 X12.6821 Y29.3403
G01 X12.6948 Y29.3492
G01 X12.7078 Y29.3574
G01 X12.7545 Y29.3854
G01 X12.7340 Y29.3945
G01 X12.6572 Y29.4346
G01 X12.6371 Y29.4467
G01 X12.6243 Y29.4556
G01 X12.6119 Y29.4651
G01 X12.5999 Y29.4752
G01 X12.5830 Y29.4915
G01 X12.5725 Y29.5030
G01 X12.5625 Y29.5151
G01 X12.5486 Y29.5340
G01 X12.5362 Y29.5539
G01 X12.5010 Y29.6156
G01 X12.4936 Y29.6294
G01 X12.4838 Y29.6507
G01 X12.4781 Y29.6652
G01 X12.4732 Y29.6801
G01 X12.4690 Y29.6952
G01 X12.4656 Y29.7104
G01 X12.4629 Y29.7259
G01 X12.4610 Y29.7414
G01 X12.4599 Y29.7570
G01 X12.4596 Y29.7726
G01 X12.4600 Y29.7883
G01 X12.4615 Y29.8169
G01 X11.7257 Y29.0812
G01 X11.7335 Y29.0721
G01 X11.7431 Y29.0599
G01 X11.7928 Y28.9929
G01 X11.8017 Y28.9802
G01 X11.8099 Y28.9672
G01 X11.8528 Y28.8956
G01 X11.8604 Y28.8822
G01 X11.8674 Y28.8684
G01 X11.9063 Y28.7859
G01 X11.9149 Y28.7644
G01 X11.9430 Y28.6859
G01 X11.9478 Y28.6712
G01 X11.9519 Y28.6563
G01 X11.9722 Y28.5754
G01 X11.9756 Y28.5603
G01 X11.9782 Y28.5450
G01 X11.9905 Y28.4625
G01 X11.9924 Y28.4472
G01 X11.9935 Y28.4318
G01 X11.9976 Y28.3485
G01 X11.9980 Y28.3330
G01 X11.9980 Y26.0330
G01 X11.9976 Y26.0175
G01 X11.9930 Y25.9265
G01 X11.9905 Y25.9035
G01 X11.9782 Y25.8210
G01 X11.9756 Y25.8057
G01 X11.9722 Y25.7906
G01 X11.9519 Y25.7097
G01 X11.9478 Y25.6948
G01 X11.9430 Y25.6801
G01 X11.9149 Y25.6016
G01 X11.9093 Y25.5872
G01 X11.9030 Y25.5730
G01 X11.8674 Y25.4976
G01 X11.8604 Y25.4838
G01 X11.8528 Y25.4704
G01 X11.8099 Y25.3988
G01 X11.8017 Y25.3858
G01 X11.7928 Y25.3731
G01 X11.7384 Y25.3000
G01 X11.7235 Y25.2822
G01 X11.6674 Y25.2204
G01 X11.6568 Y25.2092
G01 X11.6456 Y25.1986
G01 X11.5838 Y25.1425
G01 X11.5721 Y25.1325
G01 X11.5599 Y25.1229
G01 X11.4866 Y25.0687
G01 X11.4672 Y25.0561
G01 X11.3956 Y25.0132
G01 X11.3822 Y25.0056
G01 X11.3684 Y24.9986
G01 X11.2930 Y24.9630
G01 X11.2788 Y24.9567
G01 X11.2644 Y24.9511
G01 X11.1859 Y24.9230
G01 X11.1712 Y24.9182
G01 X11.1563 Y24.9141
G01 X11.0754 Y24.8938
G01 X11.0603 Y24.8904
G01 X11.0450 Y24.8878
G01 X10.9625 Y24.8755
G01 X10.9472 Y24.8736
G01 X10.9318 Y24.8725
G01 X10.8485 Y24.8684
G01 X10.8330 Y24.8680
G01 X10.8175 Y24.8684
G01 X10.7342 Y24.8725
G01 X10.7188 Y24.8736
G01 X10.7035 Y24.8755
G01 X10.6210 Y24.8878
G01 X10.6057 Y24.8904
G01 X10.5906 Y24.8938
G01 X10.5022 Y24.9160
G01 X10.4801 Y24.9230
G01 X10.4016 Y24.9511
G01 X10.3872 Y24.9567
G01 X10.3730 Y24.9630
G01 X10.2976 Y24.9986
G01 X10.2771 Y25.0093
G01 X10.1988 Y25.0561
G01 X10.1858 Y25.0643
G01 X10.1731 Y25.0732
G01 X10.1061 Y25.1229
G01 X10.0939 Y25.1325
G01 X10.0822 Y25.1425
G01 X10.0204 Y25.1986
G01 X10.0092 Y25.2092
G01 X9.9986 Y25.2204
G01 X9.9425 Y25.2822
G01 X9.9276 Y25.3000
G01 X9.8732 Y25.3731
G01 X9.8643 Y25.3858
G01 X9.8561 Y25.3988
G01 X9.8132 Y25.4704
G01 X9.8056 Y25.4838
G01 X9.7986 Y25.4976
G01 X9.7630 Y25.5730
G01 X9.7538 Y25.5944
G01 X9.7230 Y25.6801
G01 X9.7182 Y25.6948
G01 X9.7141 Y25.7097
G01 X9.6938 Y25.7906
G01 X9.6904 Y25.8057
G01 X9.6878 Y25.8210
G01 X9.6755 Y25.9035
G01 X9.6730 Y25.9265
G01 X9.6684 Y26.0175
G01 X9.6680 Y26.0330
G01 X9.6680 Y26.6404
G01 X9.4270 Y26.6404
G01 X9.4270 Y26.0805
G01 X9.4266 Y26.0650
G01 X9.4220 Y25.9740
G01 X9.4195 Y25.9510
G01 X9.4072 Y25.8685
G01 X9.4046 Y25.8532
G01 X9.4012 Y25.8381
G01 X9.3809 Y25.7572
G01 X9.3768 Y25.7423
G01 X9.3720 Y25.7276
G01 X9.3439 Y25.6491
G01 X9.3353 Y25.6276
G01 X9.2964 Y25.5451
G01 X9.2894 Y25.5313
G01 X9.2818 Y25.5179
G01 X9.2389 Y25.4463
G01 X9.2307 Y25.4333
G01 X9.2218 Y25.4206
G01 X9.1721 Y25.3536
G01 X9.1576 Y25.3355
G01 X9.0964 Y25.2679
G01 X9.0858 Y25.2567
G01 X9.0746 Y25.2461
G01 X9.0070 Y25.1849
G01 X8.9889 Y25.1704
G01 X8.9156 Y25.1162
G01 X8.8962 Y25.1036
G01 X8.8521 Y25.0772
G01 X8.8521 Y21.7638
G01 X8.8962 Y21.7374
G01 X8.9156 Y21.7248
G01 X8.9889 Y21.6706
G01 X9.0070 Y21.6561
G01 X9.0746 Y21.5949
G01 X9.0858 Y21.5843
G01 X9.0964 Y21.5731
G01 X9.1525 Y21.5113
G01 X9.1674 Y21.4935
G01 X9.2218 Y21.4204
G01 X9.2307 Y21.4077
G01 X9.2389 Y21.3947
G01 X9.2818 Y21.3231
G01 X9.2894 Y21.3097
G01 X9.2964 Y21.2959
G01 X9.3320 Y21.2205
G01 X9.3383 Y21.2063
G01 X9.3439 Y21.1919
G01 X9.3720 Y21.1134
G01 X9.3768 Y21.0987
G01 X9.3809 Y21.0838
G01 X9.4012 Y21.0029
G01 X9.4046 Y20.9878
G01 X9.4072 Y20.9725
G01 X9.4195 Y20.8900
G01 X9.4214 Y20.8747
G01 X9.4225 Y20.8593
G01 X9.4266 Y20.7760
G01 X9.4270 Y20.7605
G01 X9.4270 Y20.1531
G01 X9.6680 Y20.1531
G01 X9.6680 Y20.7130
G01 X9.6684 Y20.7285
G01 X9.6725 Y20.8118
G01 X9.6736 Y20.8272
G01 X9.6755 Y20.8425
G01 X9.6878 Y20.9250
G01 X9.6904 Y20.9403
G01 X9.6938 Y20.9554
G01 X9.7141 Y21.0363
G01 X9.7205 Y21.0585
G01 X9.7511 Y21.1444
G01 X9.7567 Y21.1588
G01 X9.7630 Y21.1730
G01 X9.7986 Y21.2484
G01 X9.8056 Y21.2622
G01 X9.8132 Y21.2756
G01 X9.8561 Y21.3472
G01 X9.8643 Y21.3602
G01 X9.8732 Y21.3729
G01 X9.9229 Y21.4399
G01 X9.9374 Y21.4580
G01 X9.9986 Y21.5256
G01 X10.0092 Y21.5368
G01 X10.0204 Y21.5474
G01 X10.0822 Y21.6035
G01 X10.0939 Y21.6135
G01 X10.1061 Y21.6231
G01 X10.1731 Y21.6728
G01 X10.1858 Y21.6817
G01 X10.1988 Y21.6899
G01 X10.2704 Y21.7328
G01 X10.2838 Y21.7404
G01 X10.2976 Y21.7474
G01 X10.3730 Y21.7830
G01 X10.3944 Y21.7922
G01 X10.4801 Y21.8230
G01 X10.4948 Y21.8278
G01 X10.5097 Y21.8319
G01 X10.5906 Y21.8522
G01 X10.6057 Y21.8556
G01 X10.6210 Y21.8582
G01 X10.7035 Y21.8705
G01 X10.7188 Y21.8724
G01 X10.7342 Y21.8735
G01 X10.8175 Y21.8776
G01 X10.8330 Y21.8780
G01 X10.8485 Y21.8776
G01 X10.9318 Y21.8735
G01 X10.9472 Y21.8724
G01 X10.9625 Y21.8705
G01 X11.0527 Y21.8570
G01 X11.0754 Y21.8522
G01 X11.1563 Y21.8319
G01 X11.1712 Y21.8278
G01 X11.1859 Y21.8230
G01 X11.2644 Y21.7949
G01 X11.2788 Y21.7893
G01 X11.2930 Y21.7830
G01 X11.3684 Y21.7474
G01 X11.3822 Y21.7404
G01 X11.3956 Y21.7328
G01 X11.4672 Y21.6899
G01 X11.4802 Y21.6817
G01 X11.4929 Y21.6728
G01 X11.5599 Y21.6231
G01 X11.5721 Y21.6135
G01 X11.5838 Y21.6035
G01 X11.6456 Y21.5474
G01 X11.6568 Y21.5368
G01 X11.6674 Y21.5256
G01 X11.7235 Y21.4638
G01 X11.7335 Y21.4521
G01 X11.7431 Y21.4399
G01 X11.7928 Y21.3729
G01 X11.8017 Y21.3602
G01 X11.8099 Y21.3472
G01 X11.8528 Y21.2756
G01 X11.8604 Y21.2622
G01 X11.8674 Y21.2484
G01 X11.9030 Y21.1730
G01 X11.9093 Y21.1588
G01 X11.9149 Y21.1444
G01 X11.9430 Y21.0659
G01 X11.9478 Y21.0512
G01 X11.9519 Y21.0363
G01 X11.9722 Y20.9554
G01 X11.9756 Y20.9403
G01 X11.9782 Y20.9250
G01 X11.9905 Y20.8425
G01 X11.9924 Y20.8272
G01 X11.9935 Y20.8118
G01 X11.9976 Y20.7285
G01 X11.9980 Y20.7130
G01 X11.9979 Y18.4053
G01 X11.9935 Y18.3142
G01 X11.9924 Y18.2988
G01 X11.9905 Y18.2835
G01 X11.9770 Y18.1933
G01 X11.9722 Y18.1706
G01 X11.9519 Y18.0897
G01 X11.9478 Y18.0748
G01 X11.9399 Y18.0517
G00 Z2.0000
G00 X14.4487 Y18.0986
G01 F60.00
G01 Z-0.1000
G01 F120.00
G01 X14.4687 Y18.1049
G01 X14.4839 Y18.1087
G01 X14.5689 Y18.1256
G01 X14.5844 Y18.1279
G01 X14.5999 Y18.1294
G01 X14.6155 Y18.1302
G01 X14.6312 Y18.1302
G01 X14.6468 Y18.1293
G01 X14.6701 Y18.1267
G01 X14.6932 Y18.1223
G01 X14.7083 Y18.1184
G01 X14.7307 Y18.1112
G01 X14.7950 Y18.0860
G01 X14.7738 Y18.1706
G01 X14.7704 Y18.1857
G01 X14.7678 Y18.2010
G01 X14.7555 Y18.2835
G01 X14.7536 Y18.2988
G01 X14.7525 Y18.3142
G01 X14.7484 Y18.3975
G01 X14.7480 Y18.4130
G01 X14.7480 Y19.0204
G01 X14.5070 Y19.0204
G01 X14.5070 Y18.4605
G01 X14.5066 Y18.4450
G01 X14.5020 Y18.3540
G01 X14.4995 Y18.3310
G01 X14.4872 Y18.2485
G01 X14.4846 Y18.2332
G01 X14.4812 Y18.2181
G01 X14.4590 Y18.1297
G01 X14.4545 Y18.1150
G01 X14.4487 Y18.0986
G00 Z2.0000
G00 X17.0199 Y18.0517
G01 F60.00
G01 Z-0.1000
G01 F120.00
G01 X17.0401 Y18.0580
G01 X17.0553 Y18.0618
G01 X17.1402 Y18.0788
G01 X17.1635 Y18.0819
G01 X17.1791 Y18.0830
G01 X17.1947 Y18.0834
G01 X17.2104 Y18.0830
G01 X17.2260 Y18.0818
G01 X17.2415 Y18.0798
G01 X17.2645 Y18.0754
G01 X17.2797 Y18.0715
G01 X17.2946 Y18.0669
G01 X17.3317 Y18.0527
G01 X17.3120 Y18.1076
G01 X17.3050 Y18.1297
G01 X17.2828 Y18.2181
G01 X17.2794 Y18.2332
G01 X17.2768 Y18.2485
G01 X17.2645 Y18.3310
G01 X17.2626 Y18.3463
G01 X17.2615 Y18.3617
G01 X17.2571 Y18.4528
G01 X17.2570 Y20.7605
G01 X17.2574 Y20.7760
G01 X17.2615 Y20.8593
G01 X17.2626 Y20.8747
G01 X17.2645 Y20.8900
G01 X17.2768 Y20.9725
G01 X17.2810 Y20.9953
G01 X17.3031 Y21.0838
G01 X17.3072 Y21.0987
G01 X17.3120 Y21.1134
G01 X17.3401 Y21.1919
G01 X17.3457 Y21.2063
G01 X17.3520 Y21.2205
G01 X17.3876 Y21.2959
G01 X17.3946 Y21.3097
G01 X17.4022 Y21.3231
G01 X17.4451 Y21.3947
G01 X17.4577 Y21.4141
G01 X17.5119 Y21.4874
G01 X17.5215 Y21.4996
G01 X17.5315 Y21.5113
G01 X17.5876 Y21.5731
G01 X17.6038 Y21.5897
G01 X17.6712 Y21.6510
G01 X17.6890 Y21.6659
G01 X17.7621 Y21.7203
G01 X17.7748 Y21.7292
G01 X17.7878 Y21.7374
G01 X17.8319 Y21.7638
G01 X17.8319 Y25.0772
G01 X17.7878 Y25.1036
G01 X17.7748 Y25.1118
G01 X17.7621 Y25.1207
G01 X17.6890 Y25.1751
G01 X17.6712 Y25.1900
G01 X17.6038 Y25.2513
G01 X17.5876 Y25.2679
G01 X17.5315 Y25.3297
G01 X17.5215 Y25.3414
G01 X17.5119 Y25.3536
G01 X17.4622 Y25.4206
G01 X17.4491 Y25.4397
G01 X17.4022 Y25.5179
G01 X17.3946 Y25.5313
G01 X17.3876 Y25.5451
G01 X17.3520 Y25.6205
G01 X17.3457 Y25.6347
G01 X17.3401 Y25.6491
G01 X17.3095 Y25.7350
G01 X17.3031 Y25.7572
G01 X17.2828 Y25.8381
G01 X17.2794 Y25.8532
G01 X17.2768 Y25.8685
G01 X17.2645 Y25.9510
G01 X17.2626 Y25.9663
G01 X17.2615 Y25.9817
G01 X17.2574 Y26.0650
G01 X17.2570 Y26.0805
G01 X17.2571 Y28.3882
G01 X17.2615 Y28.4793
G01 X17.2626 Y28.4947
G01 X17.2645 Y28.5100
G01 X17.2768 Y28.5925
G01 X17.2794 Y28.6078
G01 X17.2828 Y28.6229
G01 X17.3031 Y28.7038
G01 X17.3072 Y28.7187
G01 X17.3120 Y28.7334
G01 X17.3401 Y28.8119
G01 X17.3457 Y28.8263
G01 X17.3520 Y28.8405
G01 X17.3876 Y28.9159
G01 X17.3946 Y28.9297
G01 X17.4022 Y28.9431
G01 X17.4451 Y29.0147
G01 X17.4533 Y29.0277
G01 X17.4622 Y29.0404
G01 X17.5119 Y29.1074
G01 X17.5215 Y29.1196
G01 X17.5315 Y29.1313
G01 X17.5876 Y29.1931
G01 X17.5982 Y29.2043
G01 X17.6094 Y29.2149
G01 X17.6712 Y29.2710
G01 X17.6829 Y29.2810
G01 X17.6951 Y29.2906
G01 X17.7621 Y29.3403
G01 X17.7748 Y29.3492
G01 X17.7878 Y29.3574
G01 X17.8594 Y29.4003
G01 X17.8728 Y29.4079
G01 X17.8866 Y29.4149
G01 X17.9620 Y29.4505
G01 X17.9762 Y29.4568
G01 X17.9906 Y29.4624
G01 X18.0691 Y29.4905
G01 X18.0838 Y29.4953
G01 X18.0987 Y29.4994
G01 X18.1796 Y29.5197
G01 X18.1947 Y29.5231
G01 X18.2100 Y29.5257
G01 X18.2925 Y29.5380
G01 X18.3078 Y29.5399
G01 X18.3232 Y29.5410
G01 X18.4065 Y29.5451
G01 X18.4220 Y29.5455
G01 X18.4375 Y29.5451
G01 X18.5208 Y29.5410
G01 X18.5362 Y29.5399
G01 X18.5515 Y29.5380
G01 X18.6340 Y29.5257
G01 X18.6493 Y29.5231
G01 X18.6644 Y29.5197
G01 X18.7453 Y29.4994
G01 X18.7602 Y29.4953
G01 X18.7749 Y29.4905
G01 X18.8534 Y29.4624
G01 X18.8678 Y29.4568
G01 X18.8820 Y29.4505
G01 X18.9574 Y29.4149
G01 X18.9712 Y29.4079
G01 X18.9846 Y29.4003
G01 X19.0562 Y29.3574
G01 X19.0692 Y29.3492
G01 X19.0819 Y29.3403
G01 X19.1489 Y29.2906
G01 X19.1670 Y29.2761
G01 X19.2346 Y29.2149
G01 X19.2458 Y29.2043
G01 X19.2564 Y29.1931
G01 X19.3125 Y29.1313
G01 X19.3225 Y29.1196
G01 X19.3321 Y29.1074
G01 X19.3818 Y29.0404
G01 X19.3949 Y29.0213
G01 X19.4418 Y28.9431
G01 X19.4494 Y28.9297
G01 X19.4564 Y28.9159
G01 X19.4920 Y28.8405
G01 X19.4983 Y28.8263
G01 X19.5039 Y28.8119
G01 X19.5320 Y28.7334
G01 X19.5368 Y28.7187
G01 X19.5409 Y28.7038
G01 X19.5612 Y28.6229
G01 X19.5646 Y28.6078
G01 X19.5672 Y28.5925
G01 X19.5795 Y28.5100
G01 X19.5814 Y28.4947
G01 X19.5825 Y28.4793
G01 X19.5869 Y28.3882
G01 X19.5870 Y27.8206
G01 X19.8280 Y27.8206
G01 X19.8281 Y28.3407
G01 X19.8325 Y28.4318
G01 X19.8336 Y28.4472
G01 X19.8355 Y28.4625
G01 X19.8478 Y28.5450
G01 X19.8504 Y28.5603
G01 X19.8538 Y28.5754
G01 X19.8741 Y28.6563
G01 X19.8782 Y28.6712
G01 X19.8830 Y28.6859
G01 X19.9111 Y28.7644
G01 X19.9167 Y28.7788
G01 X19.9230 Y28.7930
G01 X19.9586 Y28.8684
G01 X19.9656 Y28.8822
G01 X19.9732 Y28.8956
G01 X20.0161 Y28.9672
G01 X20.0243 Y28.9802
G01 X20.0332 Y28.9929
G01 X20.0829 Y29.0599
G01 X20.0925 Y29.0721
G01 X20.1025 Y29.0838
G01 X20.1586 Y29.1456
G01 X20.1692 Y29.1568
G01 X20.1804 Y29.1674
G01 X20.2422 Y29.2235
G01 X20.2539 Y29.2335
G01 X20.2661 Y29.2431
G01 X20.3331 Y29.2928
G01 X20.3458 Y29.3017
G01 X20.3588 Y29.3099
G01 X20.4304 Y29.3528
G01 X20.4438 Y29.3604
G01 X20.4576 Y29.3674
G01 X20.5330 Y29.4030
G01 X20.5472 Y29.4093
G01 X20.5616 Y29.4149
G01 X20.6401 Y29.4430
G01 X20.6548 Y29.4478
G01 X20.6697 Y29.4519
G01 X20.7506 Y29.4722
G01 X20.7657 Y29.4756
G01 X20.7810 Y29.4782
G01 X20.8635 Y29.4905
G01 X20.8788 Y29.4924
G01 X20.8942 Y29.4935
G01 X20.9775 Y29.4976
G01 X20.9930 Y29.4980
G01 X21.0085 Y29.4976
G01 X21.0918 Y29.4935
G01 X21.1072 Y29.4924
G01 X21.1225 Y29.4905
G01 X21.2158 Y29.4764
G01 X21.2089 Y29.4901
G01 X21.2026 Y29.5044
G01 X21.1969 Y29.5190
G01 X21.1920 Y29.5339
G01 X21.1879 Y29.5490
G01 X21.1690 Y29.6255
G01 X21.1647 Y29.6486
G01 X21.1622 Y29.6719
G01 X21.1615 Y29.6875
G01 X21.1619 Y29.7110
G01 X21.1632 Y29.7266
G01 X21.1652 Y29.7421
G01 X21.1680 Y29.7575
G01 X21.1715 Y29.7727
G01 X21.1782 Y29.7952
G01 X21.2037 Y29.8699
G01 X21.2127 Y29.8918
G01 X21.2233 Y29.9129
G01 X21.2355 Y29.9332
G01 X21.2464 Y29.9489
G01 X21.1755 Y29.9454
G01 X21.1600 Y29.9450
G01 X21.1445 Y29.9454
G01 X21.0612 Y29.9495
G01 X21.0458 Y29.9506
G01 X21.0305 Y29.9525
G01 X20.9480 Y29.9648
G01 X20.9327 Y29.9674
G01 X20.9176 Y29.9708
G01 X20.8367 Y29.9911
G01 X20.8218 Y29.9952
G01 X20.8071 Y30.0000
G01 X20.7286 Y30.0281
G01 X20.7142 Y30.0337
G01 X20.7000 Y30.0400
G01 X20.6177 Y30.0790
G01 X20.5974 Y30.0902
G01 X20.5258 Y30.1331
G01 X20.5128 Y30.1413
G01 X20.5001 Y30.1502
G01 X20.4331 Y30.1999
G01 X20.4209 Y30.2095
G01 X20.4092 Y30.2195
G01 X20.3474 Y30.2756
G01 X20.3362 Y30.2862
G01 X20.3256 Y30.2974
G01 X20.2695 Y30.3592
G01 X20.2595 Y30.3709
G01 X20.2499 Y30.3831
G01 X20.2002 Y30.4501
G01 X20.1892 Y30.4660
G01 X20.1792 Y30.4587
G01 X20.1664 Y30.4501
G01 X20.1366 Y30.4322
G01 X20.1232 Y30.4246
G01 X20.1094 Y30.4176
G01 X20.0779 Y30.4028
G01 X20.0564 Y30.3942
G01 X20.0163 Y30.3803
G01 X20.0014 Y30.3762
G01 X19.9677 Y30.3678
G01 X19.9449 Y30.3636
G01 X19.9105 Y30.3586
G01 X19.8951 Y30.3571
G01 X19.8605 Y30.3553
G01 X19.8450 Y30.3549
G01 X18.6189 Y30.3549
G01 X18.6107 Y30.3402
G01 X18.5940 Y30.3126
G01 X18.5809 Y30.2935
G01 X18.5567 Y30.2616
G01 X18.5466 Y30.2499
G01 X18.5195 Y30.2205
G01 X18.5083 Y30.2098
G01 X18.4843 Y30.1882
G01 X18.4662 Y30.1737
G01 X18.4339 Y30.1502
G01 X18.3998 Y30.1293
G01 X18.3863 Y30.1217
G01 X18.3725 Y30.1148
G01 X18.3433 Y30.1011
G01 X18.3218 Y30.0925
G01 X18.2840 Y30.0793
G01 X18.2453 Y30.0693
G01 X18.2302 Y30.0659
G01 X18.2150 Y30.0632
G01 X18.1831 Y30.0586
G01 X18.1600 Y30.0566
G01 X18.1277 Y30.0551
G01 X18.0488 Y30.0550
G01 X18.0454 Y30.0398
G01 X18.0369 Y30.0061
G01 X18.0299 Y29.9840
G01 X18.0152 Y29.9442
G01 X18.0089 Y29.9300
G01 X17.9940 Y29.8987
G01 X17.9828 Y29.8784
G01 X17.9607 Y29.8421
G01 X17.9518 Y29.8295
G01 X17.9310 Y29.8017
G01 X17.9161 Y29.7839
G01 X17.8873 Y29.7527
G01 X16.9652 Y28.8307
G01 X16.9863 Y28.7859
G01 X16.9922 Y28.7716
G01 X17.0255 Y28.6785
G01 X17.0319 Y28.6563
G01 X17.0540 Y28.5678
G01 X17.0582 Y28.5450
G01 X17.0705 Y28.4625
G01 X17.0724 Y28.4472
G01 X17.0735 Y28.4318
G01 X17.0776 Y28.3485
G01 X17.0780 Y28.3330
G01 X17.0780 Y26.0330
G01 X17.0776 Y26.0175
G01 X17.0730 Y25.9265
G01 X17.0705 Y25.9035
G01 X17.0582 Y25.8210
G01 X17.0556 Y25.8057
G01 X17.0522 Y25.7906
G01 X17.0319 Y25.7097
G01 X17.0278 Y25.6948
G01 X17.0230 Y25.6801
G01 X16.9949 Y25.6016
G01 X16.9893 Y25.5872
G01 X16.9830 Y25.5730
G01 X16.9474 Y25.4976
G01 X16.9404 Y25.4838
G01 X16.9328 Y25.4704
G01 X16.8899 Y25.3988
G01 X16.8817 Y25.3858
G01 X16.8728 Y25.3731
G01 X16.8231 Y25.3061
G01 X16.8135 Y25.2939
G01 X16.8035 Y25.2822
G01 X16.7474 Y25.2204
G01 X16.7368 Y25.2092
G01 X16.7256 Y25.1986
G01 X16.6580 Y25.1374
G01 X16.6399 Y25.1229
G01 X16.5729 Y25.0732
G01 X16.5602 Y25.0643
G01 X16.5472 Y25.0561
G01 X16.4756 Y25.0132
G01 X16.4622 Y25.0056
G01 X16.4484 Y24.9986
G01 X16.3730 Y24.9630
G01 X16.3588 Y24.9567
G01 X16.3444 Y24.9511
G01 X16.2659 Y24.9230
G01 X16.2512 Y24.9182
G01 X16.2363 Y24.9141
G01 X16.1554 Y24.8938
G01 X16.1403 Y24.8904
G01 X16.1250 Y24.8878
G01 X16.0349 Y24.8745
G01 X16.0118 Y24.8725
G01 X15.9285 Y24.8684
G01 X15.9130 Y24.8680
G01 X15.8975 Y24.8684
G01 X15.8142 Y24.8725
G01 X15.7988 Y24.8736
G01 X15.7835 Y24.8755
G01 X15.7010 Y24.8878
G01 X15.6857 Y24.8904
G01 X15.6706 Y24.8938
G01 X15.5897 Y24.9141
G01 X15.5675 Y24.9205
G01 X15.4816 Y24.9511
G01 X15.4672 Y24.9567
G01 X15.4530 Y24.9630
G01 X15.3776 Y24.9986
G01 X15.3638 Y25.0056
G01 X15.3504 Y25.0132
G01 X15.2788 Y25.0561
G01 X15.2594 Y25.0687
G01 X15.1861 Y25.1229
G01 X15.1739 Y25.1325
G01 X15.1622 Y25.1425
G01 X15.1004 Y25.1986
G01 X15.0892 Y25.2092
G01 X15.0786 Y25.2204
G01 X15.0225 Y25.2822
G01 X15.0125 Y25.2939
G01 X15.0029 Y25.3061
G01 X14.9532 Y25.3731
G01 X14.9401 Y25.3922
G01 X14.8932 Y25.4704
G01 X14.8856 Y25.4838
G01 X14.8786 Y25.4976
G01 X14.8430 Y25.5730
G01 X14.8367 Y25.5872
G01 X14.8311 Y25.6016
G01 X14.8005 Y25.6875
G01 X14.7941 Y25.7097
G01 X14.7738 Y25.7906
G01 X14.7704 Y25.8057
G01 X14.7678 Y25.8210
G01 X14.7555 Y25.9035
G01 X14.7536 Y25.9188
G01 X14.7525 Y25.9342
G01 X14.7484 Y26.0175
G01 X14.7480 Y26.0330
G01 X14.7480 Y26.6404
G01 X14.5070 Y26.6404
G01 X14.5070 Y26.0805
G01 X14.5066 Y26.0650
G01 X14.5020 Y25.9740
G01 X14.4995 Y25.9510
G01 X14.4872 Y25.8685
G01 X14.4846 Y25.8532
G01 X14.4812 Y25.8381
G01 X14.4609 Y25.7572
G01 X14.4568 Y25.7423
G01 X14.4520 Y25.7276
G01 X14.4239 Y25.6491
G01 X14.4153 Y25.6276
G01 X14.3764 Y25.5451
G01 X14.3694 Y25.5313
G01 X14.3618 Y25.5179
G01 X14.3189 Y25.4463
G01 X14.3107 Y25.4333
G01 X14.3018 Y25.4206
G01 X14.2521 Y25.3536
G01 X14.2376 Y25.3355
G01 X14.1764 Y25.2679
G01 X14.1658 Y25.2567
G01 X14.1546 Y25.2461
G01 X14.0870 Y25.1849
G01 X14.0689 Y25.1704
G01 X13.9956 Y25.1162
G01 X13.9762 Y25.1036
G01 X13.9321 Y25.0772
G01 X13.9321 Y21.7638
G01 X13.9762 Y21.7374
G01 X13.9956 Y21.7248
G01 X14.0689 Y21.6706
G01 X14.0870 Y21.6561
G01 X14.1546 Y21.5949
G01 X14.1658 Y21.5843
G01 X14.1764 Y21.5731
G01 X14.2376 Y21.5055
G01 X14.2521 Y21.4874
G01 X14.3018 Y21.4204
G01 X14.3107 Y21.4077
G01 X14.3189 Y21.3947
G01 X14.3618 Y21.3231
G01 X14.3694 Y21.3097
G01 X14.3764 Y21.2959
G01 X14.4153 Y21.2134
G01 X14.4239 Y21.1919
G01 X14.4520 Y21.1134
G01 X14.4568 Y21.0987
G01 X14.4609 Y21.0838
G01 X14.4812 Y21.0029
G01 X14.4846 Y20.9878
G01 X14.4872 Y20.9725
G01 X14.4995 Y20.8900
G01 X14.5020 Y20.8670
G01 X14.5066 Y20.7760
G01 X14.5070 Y20.7605
G01 X14.5070 Y20.2006
G01 X14.7480 Y20.2006
G01 X14.7480 Y20.7130
G01 X14.7484 Y20.7285
G01 X14.7530 Y20.8195
G01 X14.7555 Y20.8425
G01 X14.7678 Y20.9250
G01 X14.7704 Y20.9403
G01 X14.7738 Y20.9554
G01 X14.7941 Y21.0363
G01 X14.7982 Y21.0512
G01 X14.8030 Y21.0659
G01 X14.8311 Y21.1444
G01 X14.8367 Y21.1588
G01 X14.8430 Y21.1730
G01 X14.8786 Y21.2484
G01 X14.8856 Y21.2622
G01 X14.8932 Y21.2756
G01 X14.9361 Y21.3472
G01 X14.9443 Y21.3602
G01 X14.9532 Y21.3729
G01 X15.0029 Y21.4399
G01 X15.0174 Y21.4580
G01 X15.0786 Y21.5256
G01 X15.0892 Y21.5368
G01 X15.1004 Y21.5474
G01 X15.1622 Y21.6035
G01 X15.1739 Y21.6135
G01 X15.1861 Y21.6231
G01 X15.2531 Y21.6728
G01 X15.2658 Y21.6817
G01 X15.2788 Y21.6899
G01 X15.3504 Y21.7328
G01 X15.3638 Y21.7404
G01 X15.3776 Y21.7474
G01 X15.4530 Y21.7830
G01 X15.4744 Y21.7922
G01 X15.5601 Y21.8230
G01 X15.5748 Y21.8278
G01 X15.5897 Y21.8319
G01 X15.6706 Y21.8522
G01 X15.6857 Y21.8556
G01 X15.7010 Y21.8582
G01 X15.7835 Y21.8705
G01 X15.7988 Y21.8724
G01 X15.8142 Y21.8735
G01 X15.8975 Y21.8776
G01 X15.9130 Y21.8780
G01 X15.9285 Y21.8776
G01 X16.0118 Y21.8735
G01 X16.0272 Y21.8724
G01 X16.0425 Y21.8705
G01 X16.1327 Y21.8570
G01 X16.1554 Y21.8522
G01 X16.2363 Y21.8319
G01 X16.2512 Y21.8278
G01 X16.2659 Y21.8230
G01 X16.3444 Y21.7949
G01 X16.3588 Y21.7893
G01 X16.3730 Y21.7830
G01 X16.4484 Y21.7474
G01 X16.4622 Y21.7404
G01 X16.4756 Y21.7328
G01 X16.5472 Y21.6899
G01 X16.5602 Y21.6817
G01 X16.5729 Y21.6728
G01 X16.6399 Y21.6231
G01 X16.6580 Y21.6086
G01 X16.7256 Y21.5474
G01 X16.7368 Y21.5368
G01 X16.7474 Y21.5256
G01 X16.8035 Y21.4638
G01 X16.8135 Y21.4521
G01 X16.8231 Y21.4399
G01 X16.8728 Y21.3729
G01 X16.8817 Y21.3602
G01 X16.8899 Y21.3472
G01 X16.9328 Y21.2756
G01 X16.9404 Y21.2622
G01 X16.9474 Y21.2484
G01 X16.9830 Y21.1730
G01 X16.9893 Y21.1588
G01 X16.9949 Y21.1444
G01 X17.0230 Y21.0659
G01 X17.0278 Y21.0512
G01 X17.0319 Y21.0363
G01 X17.0522 Y20.9554
G01 X17.0556 Y20.9403
G01 X17.0582 Y20.9250
G01 X17.0705 Y20.8425
G01 X17.0724 Y20.8272
G01 X17.0735 Y20.8118
G01 X17.0776 Y20.7285
G01 X17.0780 Y20.7130
G01 X17.0779 Y18.4053
G01 X17.0735 Y18.3142
G01 X17.0724 Y18.2988
G01 X17.0705 Y18.2835
G01 X17.0570 Y18.1933
G01 X17.0522 Y18.1706
G01 X17.0319 Y18.0897
G01 X17.0278 Y18.0748
G01 X17.0199 Y18.0517
G00 Z2.0000
G00 X19.5287 Y18.0986
G01 F60.00
G01 Z-0.1000
G01 F120.00
G01 X19.5487 Y18.1049
G01 X19.5639 Y18.1087
G01 X19.6489 Y18.1256
G01 X19.6644 Y18.1279
G01 X19.6799 Y18.1294
G01 X19.6955 Y18.1302
G01 X19.7112 Y18.1302
G01 X19.7268 Y18.1293
G01 X19.7501 Y18.1267
G01 X19.7732 Y18.1223
G01 X19.7883 Y18.1184
G01 X19.8107 Y18.1112
G01 X19.8750 Y18.0860
G01 X19.8538 Y18.1706
G01 X19.8504 Y18.1857
G01 X19.8478 Y18.2010
G01 X19.8355 Y18.2835
G01 X19.8336 Y18.2988
G01 X19.8325 Y18.3142
G01 X19.8284 Y18.3975
G01 X19.8280 Y18.4130
G01 X19.8280 Y19.0204
G01 X19.5870 Y19.0204
G01 X19.5870 Y18.4605
G01 X19.5866 Y18.4450
G01 X19.5820 Y18.3540
G01 X19.5795 Y18.3310
G01 X19.5672 Y18.2485
G01 X19.5646 Y18.2332
G01 X19.5612 Y18.2181
G01 X19.5390 Y18.1297
G01 X19.5345 Y18.1150
G01 X19.5287 Y18.0986
G00 Z2.0000
G00 X20.7352 Y16.8304
G01 F60.00
G01 Z-0.1000
G01 F120.00
G01 X20.7116 Y16.8040
G01 X20.7052 Y16.7978
G01 X20.6985 Y16.7920
G01 X20.6888 Y16.7851
G01 X20.6812 Y16.7805
G01 X20.6705 Y16.7754
G01 X20.6601 Y16.7716
G01 X20.6601 Y16.4775
G01 X20.6824 Y16.4740
G01 X20.7120 Y16.4668
G01 X20.7206 Y16.4643
G01 X20.7493 Y16.4540
G01 X20.7575 Y16.4505
G01 X20.7850 Y16.4373
G01 X20.8112 Y16.4218
G01 X20.8187 Y16.4169
G01 X20.8431 Y16.3988
G01 X20.8500 Y16.3930
G01 X20.8724 Y16.3724
G01 X20.8930 Y16.3500
G01 X20.9006 Y16.3408
G01 X20.9186 Y16.3162
G01 X20.9344 Y16.2901
G01 X20.9387 Y16.2823
G01 X20.9529 Y16.2520
G01 X20.9652 Y16.2177
G01 X20.9740 Y16.1824
G01 X20.9794 Y16.1464
G01 X20.9811 Y16.1100
G01 X20.9811 Y15.8351
G01 X21.2468 Y15.8351
G01 X21.2468 Y16.1542
G01 X21.2378 Y16.2405
G01 X21.1905 Y16.3822
G01 X21.1123 Y16.5084
G01 X21.0076 Y16.6130
G01 X20.8812 Y16.6910
G01 X20.8664 Y16.6969
G01 X20.8537 Y16.7037
G01 X20.7906 Y16.7473
G01 X20.7834 Y16.7528
G01 X20.7766 Y16.7587
G01 X20.7682 Y16.7674
G01 X20.7608 Y16.7768
G01 X20.7558 Y16.7844
G01 X20.7489 Y16.7977
G01 X20.7352 Y16.8304
G00 Z2.0000
G00 X19.2905 Y16.2976
G01 F60.00
G01 Z-0.1000
G01 F120.00
G01 X19.3000 Y16.2914
G01 X19.3127 Y16.2822
G01 X19.3752 Y16.2342
G01 X19.3871 Y16.2241
G01 X19.4037 Y16.2082
G01 X19.4075 Y16.2278
G01 X19.4172 Y16.2666
G01 X19.4217 Y16.2814
G01 X19.4288 Y16.3016
G01 X19.4141 Y16.2986
G01 X19.3986 Y16.2962
G01 X19.3831 Y16.2946
G01 X19.3675 Y16.2937
G01 X19.3440 Y16.2939
G01 X19.2905 Y16.2976
G00 Z2.0000
G00 X18.9757 Y16.3438
G01 F60.00
G01 Z-0.1000
G01 F120.00
G01 X18.9906 Y16.3471
G01 X19.0060 Y16.3496
G01 X19.0216 Y16.3515
G01 X19.0372 Y16.3525
G01 X19.0528 Y16.3528
G01 X19.0685 Y16.3523
G01 X19.1177 Y16.3483
G01 X19.0990 Y16.3613
G01 X19.0359 Y16.4085
G01 X19.0181 Y16.4237
G01 X19.0022 Y16.4393
G01 X18.9992 Y16.4243
G01 X18.9889 Y16.3831
G01 X18.9844 Y16.3683
G01 X18.9757 Y16.3438
G00 Z2.0000
G00 X19.3232 Y14.7658
G01 F60.00
G01 Z-0.1000
G01 F120.00
G01 X19.3322 Y14.6795
G01 X19.3793 Y14.5382
G01 X19.4577 Y14.4116
G01 X19.5628 Y14.3067
G01 X19.6888 Y14.2290
G01 X19.8306 Y14.1819
G01 X19.9099 Y14.1738
G01 X19.9099 Y14.4425
G01 X19.8876 Y14.4460
G01 X19.8551 Y14.4540
G01 X19.8466 Y14.4567
G01 X19.8152 Y14.4683
G01 X19.7850 Y14.4827
G01 X19.7588 Y14.4982
G01 X19.7489 Y14.5048
G01 X19.7245 Y14.5231
G01 X19.7019 Y14.5435
G01 X19.6935 Y14.5519
G01 X19.6731 Y14.5745
G01 X19.6514 Y14.6038
G01 X19.6356 Y14.6299
G01 X19.6300 Y14.6404
G01 X19.6171 Y14.6680
G01 X19.6067 Y14.6966
G01 X19.6032 Y14.7080
G01 X19.5954 Y14.7405
G01 X19.5906 Y14.7736
G01 X19.5890 Y14.8041
G01 X19.5889 Y15.0849
G01 X19.3232 Y15.0849
G01 X19.3232 Y14.7658
G00 Z2.0000
G00 X20.6601 Y14.4425
G01 F60.00
G01 Z-0.1000
G01 F120.00
G01 X20.6601 Y14.1738
G01 X20.7405 Y14.1822
G01 X20.8822 Y14.2295
G01 X21.0084 Y14.3077
G01 X21.1130 Y14.4124
G01 X21.1912 Y14.5392
G01 X21.2382 Y14.6810
G01 X21.2469 Y14.7659
G01 X21.2469 Y15.0849
G01 X20.9811 Y15.0849
G01 X20.9811 Y14.8100
G01 X20.9794 Y14.7736
G01 X20.9740 Y14.7376
G01 X20.9652 Y14.7023
G01 X20.9529 Y14.6680
G01 X20.9387 Y14.6377
G01 X20.9344 Y14.6299
G01 X20.9186 Y14.6038
G01 X20.9006 Y14.5792
G01 X20.8930 Y14.5700
G01 X20.8724 Y14.5476
G01 X20.8500 Y14.5270
G01 X20.8431 Y14.5212
G01 X20.8187 Y14.5031
G01 X20.8112 Y14.4982
G01 X20.7850 Y14.4827
G01 X20.7575 Y14.4695
G01 X20.7493 Y14.4660
G01 X20.7206 Y14.4557
G01 X20.7120 Y14.4532
G01 X20.6824 Y14.4460
G01 X20.6601 Y14.4425
G00 Z2.0000
G00 X21.9070 Y13.0075
G01 F60.00
G01 Z-0.1000
G01 F120.00
G01 X21.8452 Y13.0165
G01 X21.7559 Y13.0210
G01 X21.7441 Y13.0210
G01 X21.6578 Y13.0167
G01 X21.6489 Y13.0157
G01 X21.5605 Y13.0025
G01 X21.4709 Y12.9802
G01 X21.4624 Y12.9775
G01 X21.3784 Y12.9472
G01 X21.2922 Y12.9065
G01 X21.2105 Y12.8575
G01 X21.1386 Y12.8044
G01 X21.1316 Y12.7988
G01 X21.0633 Y12.7367
G01 X20.9993 Y12.6661
G01 X20.9425 Y12.5895
G01 X20.8965 Y12.5130
G01 X20.8908 Y12.5025
G01 X20.8528 Y12.4216
G01 X20.8225 Y12.3376
G01 X20.8191 Y12.3262
G01 X20.7988 Y12.2453
G01 X20.7965 Y12.2336
G01 X20.7835 Y12.1452
G01 X20.7790 Y12.0559
G01 X20.7789 Y9.7470
G01 X20.7835 Y9.6548
G01 X20.7965 Y9.5664
G01 X20.7988 Y9.5547
G01 X20.8207 Y9.4681
G01 X20.8528 Y9.3784
G01 X20.8908 Y9.2975
G01 X20.8965 Y9.2870
G01 X20.9425 Y9.2105
G01 X20.9993 Y9.1339
G01 X21.0592 Y9.0676
G01 X21.0676 Y9.0592
G01 X21.1294 Y9.0032
G01 X21.1386 Y8.9956
G01 X21.2105 Y8.9425
G01 X21.2870 Y8.8965
G01 X21.2975 Y8.8908
G01 X21.3729 Y8.8552
G01 X21.3839 Y8.8506
G01 X21.4681 Y8.8207
G01 X21.5605 Y8.7975
G01 X21.6548 Y8.7835
G01 X21.7441 Y8.7790
G01 X21.7559 Y8.7790
G01 X21.8393 Y8.7831
G01 X21.8511 Y8.7843
G01 X21.9395 Y8.7975
G01 X22.0319 Y8.8207
G01 X22.1216 Y8.8528
G01 X22.2025 Y8.8908
G01 X22.2130 Y8.8965
G01 X22.2845 Y8.9393
G01 X22.2944 Y8.9459
G01 X22.3661 Y8.9993
G01 X22.4367 Y9.0633
G01 X22.5007 Y9.1339
G01 X22.5541 Y9.2056
G01 X22.5607 Y9.2155
G01 X22.6035 Y9.2870
G01 X22.6092 Y9.2975
G01 X22.6472 Y9.3784
G01 X22.6775 Y9.4624
G01 X22.6802 Y9.4709
G01 X22.7025 Y9.5605
G01 X22.7157 Y9.6489
G01 X22.7169 Y9.6607
G01 X22.7211 Y9.7470
G01 X22.7211 Y12.0530
G01 X22.7169 Y12.1393
G01 X22.7157 Y12.1511
G01 X22.7025 Y12.2395
G01 X22.6802 Y12.3291
G01 X22.6775 Y12.3376
G01 X22.6494 Y12.4161
G01 X22.6461 Y12.4244
G01 X22.6065 Y12.5078
G01 X22.5773 Y12.5568
G01 X23.1302 Y13.1098
G01 X23.1544 Y13.1363
G01 X23.1761 Y13.1650
G01 X23.1827 Y13.1749
G01 X23.1995 Y13.2032
G01 X23.2137 Y13.2329
G01 X23.2183 Y13.2439
G01 X23.2292 Y13.2750
G01 X23.2374 Y13.3069
G01 X23.2392 Y13.3156
G01 X23.2444 Y13.3512
G01 X23.2463 Y13.3900
G01 X23.2463 Y16.3359
G01 X23.6441 Y16.7337
G01 X23.9400 Y16.7337
G01 X23.9788 Y16.7356
G01 X24.0173 Y16.7413
G01 X24.0550 Y16.7508
G01 X24.0917 Y16.7639
G01 X24.1215 Y16.7778
G01 X24.1320 Y16.7834
G01 X24.1577 Y16.7989
G01 X24.1650 Y16.8039
G01 X24.1914 Y16.8237
G01 X24.2202 Y16.8498
G01 X24.4043 Y17.0341
G01 X24.4263 Y17.0586
G01 X24.4461 Y17.0850
G01 X24.4527 Y17.0949
G01 X24.4709 Y17.1258
G01 X24.4850 Y17.1556
G01 X24.4883 Y17.1639
G01 X24.4992 Y17.1950
G01 X24.5074 Y17.2269
G01 X24.5097 Y17.2385
G01 X24.5144 Y17.2712
G01 X24.5163 Y17.3070
G01 X24.5163 Y18.8759
G01 X24.8546 Y19.2142
G01 X25.0709 Y19.2142
G01 X25.0709 Y18.4605
G01 X25.0751 Y18.3712
G01 X25.0759 Y18.3624
G01 X25.0895 Y18.2710
G01 X25.1111 Y18.1843
G01 X25.1145 Y18.1729
G01 X25.1448 Y18.0889
G01 X25.1828 Y18.0080
G01 X25.1885 Y17.9975
G01 X25.2329 Y17.9235
G01 X25.2379 Y17.9161
G01 X25.2876 Y17.8491
G01 X25.2952 Y17.8399
G01 X25.3553 Y17.7738
G01 X25.4214 Y17.7137
G01 X25.4306 Y17.7061
G01 X25.5025 Y17.6530
G01 X25.5790 Y17.6070
G01 X25.5895 Y17.6013
G01 X25.6704 Y17.5633
G01 X25.7544 Y17.5330
G01 X25.7658 Y17.5296
G01 X25.8525 Y17.5080
G01 X25.9468 Y17.4940
G01 X26.0361 Y17.4895
G01 X26.0479 Y17.4895
G01 X26.1372 Y17.4940
G01 X26.2315 Y17.5080
G01 X26.3182 Y17.5296
G01 X26.3296 Y17.5330
G01 X26.4136 Y17.5633
G01 X26.4945 Y17.6013
G01 X26.5050 Y17.6070
G01 X26.5815 Y17.6530
G01 X26.6581 Y17.7098
G01 X26.7244 Y17.7697
G01 X26.7328 Y17.7781
G01 X26.7927 Y17.8444
G01 X26.8461 Y17.9161
G01 X26.8527 Y17.9260
G01 X26.8985 Y18.0027
G01 X26.9392 Y18.0889
G01 X26.9713 Y18.1786
G01 X26.9945 Y18.2710
G01 X27.0085 Y18.3653
G01 X27.0131 Y18.4605
G01 X27.0131 Y19.1667
G01 X27.6419 Y19.1667
G01 X27.6419 Y18.4100
G01 X27.6465 Y18.3178
G01 X27.6600 Y18.2265
G01 X27.6618 Y18.2177
G01 X27.6821 Y18.1368
