(G-CODE GENERATED BY FLATCAM v8.992 - www.flatcam.org - Version Date: 2020/05/03)

(Name: Power Daughter Board v1-F_Cu.gbr_iso_cnc)
(Type: G-code from Geometry)
(Units: MM)

(Created on Friday, 28 April 2023 at 16:39)

(This preprocessor is the default preprocessor used by FlatCAM.)
(It is made to work with MACH3 compatible motion controllers.)

(TOOL DIAMETER: 0.2423 mm)
(Feedrate_XY: 60.0 mm/min)
(Feedrate_Z: 50.0 mm/min)
(Feedrate rapids 1500.0 mm/min)

(Z_Cut: -0.12 mm)
(Z_Move: 2.0 mm)
(Z Start: None mm)
(Z End: 10.0 mm)
(Steps per circle: 64)
(Preprocessor Geometry: default)

(X range:    0.0542 ...   31.4743  mm)
(Y range:    0.6151 ...   36.9645  mm)

(Spindle Speed: None RPM)
G21
G90
G94



G01 F60.00
G00 Z2.0000

M03
G00 X0.9265 Y3.9421
G01 F50.00
G01 Z-0.1200
G01 F60.00
G01 X0.9266 Y1.7288
G01 X0.9273 Y1.7202
G01 X0.9287 Y1.7116
G01 X0.9421 Y1.6506
G01 X0.9448 Y1.6419
G01 X0.9481 Y1.6335
G01 X0.9521 Y1.6253
G01 X0.9566 Y1.6175
G01 X0.9618 Y1.6100
G01 X0.9675 Y1.6029
G01 X1.0139 Y1.5492
G01 X1.0223 Y1.5405
G01 X1.0314 Y1.5327
G01 X1.0438 Y1.5243
G01 X1.0545 Y1.5187
G01 X1.0656 Y1.5142
G01 X1.1451 Y1.4908
G01 X1.1592 Y1.4883
G01 X1.1736 Y1.4874
G01 X5.5948 Y1.4874
G01 X5.6069 Y1.4880
G01 X5.6188 Y1.4898
G01 X5.6794 Y1.5037
G01 X5.6934 Y1.5082
G01 X5.7016 Y1.5117
G01 X5.7119 Y1.5172
G01 X5.7193 Y1.5221
G01 X5.7286 Y1.5293
G01 X5.7878 Y1.5830
G01 X5.7978 Y1.5943
G01 X5.8047 Y1.6041
G01 X5.8119 Y1.6173
G01 X5.8174 Y1.6313
G01 X5.8377 Y1.7056
G01 X5.8397 Y1.7144
G01 X5.8411 Y1.7233
G01 X5.8418 Y1.7323
G01 X5.8418 Y1.7413
G01 X5.8404 Y1.7563
G01 X5.8371 Y1.7710
G01 X5.8148 Y1.8415
G01 X5.8108 Y1.8523
G01 X5.8058 Y1.8627
G01 X5.8014 Y1.8702
G01 X5.7703 Y1.9165
G01 X5.6842 Y2.1075
G01 X5.6314 Y2.3110
G01 X5.6181 Y2.4674
G01 X5.6181 Y3.2949
G01 X5.8839 Y3.2949
G01 X5.8839 Y2.5170
G01 X5.8885 Y2.4248
G01 X5.9015 Y2.3364
G01 X5.9031 Y2.3276
G01 X5.9257 Y2.2381
G01 X5.9556 Y2.1539
G01 X5.9602 Y2.1429
G01 X5.9958 Y2.0675
G01 X6.0015 Y2.0570
G01 X6.0475 Y1.9805
G01 X6.1043 Y1.9039
G01 X6.1683 Y1.8333
G01 X6.2344 Y1.7732
G01 X6.2436 Y1.7656
G01 X6.3106 Y1.7159
G01 X6.3205 Y1.7093
G01 X6.3972 Y1.6635
G01 X6.4834 Y1.6228
G01 X6.5731 Y1.5907
G01 X6.6597 Y1.5688
G01 X6.6714 Y1.5665
G01 X6.7539 Y1.5543
G01 X6.7657 Y1.5531
G01 X6.8550 Y1.5489
G01 X6.9502 Y1.5535
G01 X7.0445 Y1.5675
G01 X7.1312 Y1.5891
G01 X7.1426 Y1.5925
G01 X7.2211 Y1.6206
G01 X7.2321 Y1.6252
G01 X7.3128 Y1.6635
G01 X7.3920 Y1.7109
G01 X7.3994 Y1.7159
G01 X7.4711 Y1.7693
G01 X7.5417 Y1.8333
G01 X7.6057 Y1.9039
G01 X7.6591 Y1.9756
G01 X7.6657 Y1.9855
G01 X7.7085 Y2.0570
G01 X7.7142 Y2.0675
G01 X7.7522 Y2.1484
G01 X7.7825 Y2.2324
G01 X7.7859 Y2.2438
G01 X7.8075 Y2.3305
G01 X7.8207 Y2.4189
G01 X7.8219 Y2.4307
G01 X7.8261 Y2.5200
G01 X7.8261 Y4.8230
G01 X7.8215 Y4.9152
G01 X7.8085 Y5.0036
G01 X7.8062 Y5.0153
G01 X7.7843 Y5.1019
G01 X7.7522 Y5.1916
G01 X7.7142 Y5.2725
G01 X7.7085 Y5.2830
G01 X7.6625 Y5.3595
G01 X7.6057 Y5.4361
G01 X7.5458 Y5.5024
G01 X7.5374 Y5.5108
G01 X7.4711 Y5.5707
G01 X7.3994 Y5.6241
G01 X7.3895 Y5.6307
G01 X7.3128 Y5.6765
G01 X7.2301 Y5.7157
G01 X7.2301 Y5.7329
G01 X7.2345 Y5.7529
G01 X7.2362 Y5.7625
G01 X7.2395 Y5.7925
G01 X7.2401 Y5.8022
G01 X7.2401 Y6.2618
G01 X7.3175 Y6.2983
G01 X7.3280 Y6.3040
G01 X7.4045 Y6.3500
G01 X7.4764 Y6.4031
G01 X7.4856 Y6.4107
G01 X7.5517 Y6.4708
G01 X7.6157 Y6.5414
G01 X7.6725 Y6.6180
G01 X7.7185 Y6.6945
G01 X7.7242 Y6.7050
G01 X7.7622 Y6.7859
G01 X7.7925 Y6.8699
G01 X7.7959 Y6.8813
G01 X7.8175 Y6.9680
G01 X7.8315 Y7.0623
G01 X7.8361 Y7.1575
G01 X7.8361 Y9.4605
G01 X7.8315 Y9.5527
G01 X7.8185 Y9.6411
G01 X7.8162 Y9.6528
G01 X7.7943 Y9.7394
G01 X7.7622 Y9.8291
G01 X7.7242 Y9.9100
G01 X7.7185 Y9.9205
G01 X7.6725 Y9.9970
G01 X7.6157 Y10.0736
G01 X7.5558 Y10.1399
G01 X7.5474 Y10.1483
G01 X7.4811 Y10.2082
G01 X7.4094 Y10.2616
G01 X7.3995 Y10.2682
G01 X7.3228 Y10.3140
G01 X7.2401 Y10.3532
G01 X7.2401 Y10.6361
G01 X7.3322 Y10.6075
G01 X7.5193 Y10.5124
G01 X7.6877 Y10.3871
G01 X7.8323 Y10.2355
G01 X7.9341 Y10.0847
G01 X7.9423 Y10.0748
G01 X7.9695 Y10.0457
G01 X7.9781 Y10.0373
G01 X7.9851 Y10.0317
G01 X7.9925 Y10.0265
G01 X8.0055 Y10.0192
G01 X8.0137 Y10.0156
G01 X8.0826 Y9.9886
G01 X8.0912 Y9.9858
G01 X8.1029 Y9.9831
G01 X8.1149 Y9.9816
G01 X8.1269 Y9.9813
G01 X8.1359 Y9.9818
G01 X8.1448 Y9.9830
G01 X8.2174 Y9.9974
G01 X8.2262 Y9.9995
G01 X8.2404 Y10.0045
G01 X8.2513 Y10.0096
G01 X8.2616 Y10.0159
G01 X8.2712 Y10.0231
G01 X8.2779 Y10.0291
G01 X8.3290 Y10.0784
G01 X8.3390 Y10.0893
G01 X8.3443 Y10.0964
G01 X8.3491 Y10.1039
G01 X8.3816 Y10.1609
G01 X8.5147 Y10.3233
G01 X8.6733 Y10.4609
G01 X8.8528 Y10.5698
G01 X9.0481 Y10.6469
G01 X9.2537 Y10.6901
G01 X9.4635 Y10.6979
G01 X9.6717 Y10.6704
G01 X9.8722 Y10.6081
G01 X10.0594 Y10.5129
G01 X10.2279 Y10.3876
G01 X10.3728 Y10.2356
G01 X10.4746 Y10.0847
G01 X10.4829 Y10.0748
G01 X10.5101 Y10.0457
G01 X10.5187 Y10.0374
G01 X10.5257 Y10.0317
G01 X10.5330 Y10.0266
G01 X10.5461 Y10.0193
G01 X10.5543 Y10.0157
G01 X10.6204 Y9.9897
G01 X10.6318 Y9.9858
G01 X10.6435 Y9.9831
G01 X10.6554 Y9.9816
G01 X10.6645 Y9.9813
G01 X10.6735 Y9.9816
G01 X10.6854 Y9.9831
G01 X10.7580 Y9.9975
G01 X10.7697 Y10.0004
G01 X10.7810 Y10.0045
G01 X10.7919 Y10.0097
G01 X10.8021 Y10.0159
G01 X10.8141 Y10.0251
G01 X10.8696 Y10.0784
G01 X10.8793 Y10.0890
G01 X10.8845 Y10.0959
G01 X10.8893 Y10.1032
G01 X10.9221 Y10.1607
G01 X11.0550 Y10.3228
G01 X11.2138 Y10.4606
G01 X11.3929 Y10.5693
G01 X11.5699 Y10.6392
G01 X11.5699 Y10.3532
G01 X11.4872 Y10.3140
G01 X11.4105 Y10.2682
G01 X11.4006 Y10.2616
G01 X11.3289 Y10.2082
G01 X11.2626 Y10.1483
G01 X11.2542 Y10.1399
G01 X11.1943 Y10.0736
G01 X11.1375 Y9.9970
G01 X11.0915 Y9.9205
G01 X11.0858 Y9.9100
G01 X11.0478 Y9.8291
G01 X11.0157 Y9.7394
G01 X10.9938 Y9.6528
G01 X10.9915 Y9.6411
G01 X10.9785 Y9.5527
G01 X10.9739 Y9.4605
G01 X10.9739 Y7.1575
G01 X10.9785 Y7.0623
G01 X10.9925 Y6.9680
G01 X11.0141 Y6.8813
G01 X11.0175 Y6.8699
G01 X11.0478 Y6.7859
G01 X11.0858 Y6.7050
G01 X11.0915 Y6.6945
G01 X11.1375 Y6.6180
G01 X11.1943 Y6.5414
G01 X11.2583 Y6.4708
G01 X11.3244 Y6.4107
G01 X11.3336 Y6.4031
G01 X11.4055 Y6.3500
G01 X11.4820 Y6.3040
G01 X11.4925 Y6.2983
G01 X11.5699 Y6.2618
G01 X11.5699 Y6.2446
G01 X11.5655 Y6.2246
G01 X11.5638 Y6.2150
G01 X11.5605 Y6.1850
G01 X11.5599 Y6.1753
G01 X11.5599 Y5.7157
G01 X11.4772 Y5.6765
G01 X11.4005 Y5.6307
G01 X11.3906 Y5.6241
G01 X11.3189 Y5.5707
G01 X11.2526 Y5.5108
G01 X11.2442 Y5.5024
G01 X11.1843 Y5.4361
G01 X11.1275 Y5.3595
G01 X11.0815 Y5.2830
G01 X11.0758 Y5.2725
G01 X11.0378 Y5.1916
G01 X11.0057 Y5.1019
G01 X10.9838 Y5.0153
G01 X10.9815 Y5.0036
G01 X10.9685 Y4.9152
G01 X10.9640 Y4.8259
G01 X10.9639 Y2.5200
G01 X10.9681 Y2.4307
G01 X10.9693 Y2.4189
G01 X10.9825 Y2.3305
G01 X11.0041 Y2.2438
G01 X11.0075 Y2.2324
G01 X11.0378 Y2.1484
G01 X11.0758 Y2.0675
G01 X11.0815 Y2.0570
G01 X11.1243 Y1.9855
G01 X11.1309 Y1.9756
G01 X11.1843 Y1.9039
G01 X11.2483 Y1.8333
G01 X11.3189 Y1.7693
G01 X11.3906 Y1.7159
G01 X11.4005 Y1.7093
G01 X11.4720 Y1.6665
G01 X11.4825 Y1.6608
G01 X11.5634 Y1.6228
G01 X11.6531 Y1.5907
G01 X11.7455 Y1.5675
G01 X11.8339 Y1.5543
G01 X11.8457 Y1.5531
G01 X11.9291 Y1.5490
G01 X11.9409 Y1.5490
G01 X12.0302 Y1.5535
G01 X12.1245 Y1.5675
G01 X12.2169 Y1.5907
G01 X12.3011 Y1.6206
G01 X12.3121 Y1.6252
G01 X12.3928 Y1.6635
G01 X12.4695 Y1.7093
G01 X12.4794 Y1.7159
G01 X12.5464 Y1.7656
G01 X12.5556 Y1.7732
G01 X12.6217 Y1.8333
G01 X12.6857 Y1.9039
G01 X12.7425 Y1.9805
G01 X12.7885 Y2.0570
G01 X12.7942 Y2.0675
G01 X12.8298 Y2.1429
G01 X12.8344 Y2.1539
G01 X12.8643 Y2.2381
G01 X12.8869 Y2.3276
G01 X12.8885 Y2.3364
G01 X12.9015 Y2.4248
G01 X12.9061 Y2.5170
G01 X12.9061 Y3.2949
G01 X13.1719 Y3.2949
G01 X13.1719 Y2.4188
G01 X13.1712 Y2.4053
G01 X13.1334 Y2.1965
G01 X13.0619 Y1.9995
G01 X12.9807 Y1.8568
G01 X12.9745 Y1.8441
G01 X12.9714 Y1.8362
G01 X12.9562 Y1.7918
G01 X12.9536 Y1.7831
G01 X12.9507 Y1.7683
G01 X12.9497 Y1.7533
G01 X12.9499 Y1.7442
G01 X12.9509 Y1.7353
G01 X12.9610 Y1.6650
G01 X12.9641 Y1.6503
G01 X12.9678 Y1.6388
G01 X12.9740 Y1.6252
G01 X12.9819 Y1.6124
G01 X12.9893 Y1.6029
G01 X13.0399 Y1.5448
G01 X13.0509 Y1.5346
G01 X13.0632 Y1.5258
G01 X13.0764 Y1.5187
G01 X13.0904 Y1.5132
G01 X13.1614 Y1.4923
G01 X13.1754 Y1.4891
G01 X13.1869 Y1.4877
G01 X13.1955 Y1.4874
G01 X23.7059 Y1.4874
G01 X23.7173 Y1.4880
G01 X23.7287 Y1.4896
G01 X23.7836 Y1.5014
G01 X23.7982 Y1.5055
G01 X23.8121 Y1.5114
G01 X23.8251 Y1.5190
G01 X23.8348 Y1.5262
G01 X23.8909 Y1.5745
G01 X23.9016 Y1.5850
G01 X23.9093 Y1.5943
G01 X23.9159 Y1.6044
G01 X23.9215 Y1.6150
G01 X23.9261 Y1.6261
G01 X23.9496 Y1.7055
G01 X23.9521 Y1.7197
G01 X23.9530 Y1.7341
G01 X23.9760 Y13.1448
G01 X23.9750 Y13.1602
G01 X23.9729 Y13.1723
G01 X23.9563 Y13.2368
G01 X23.9527 Y13.2482
G01 X23.9493 Y13.2565
G01 X23.9439 Y13.2670
G01 X23.9392 Y13.2746
G01 X23.9320 Y13.2841
G01 X23.9239 Y13.2929
G01 X23.8712 Y13.3448
G01 X23.8596 Y13.3543
G01 X23.8469 Y13.3624
G01 X23.8333 Y13.3688
G01 X23.8190 Y13.3735
G01 X23.7378 Y13.3905
G01 X23.7288 Y13.3916
G01 X23.7198 Y13.3920
G01 X23.7048 Y13.3912
G01 X23.6900 Y13.3885
G01 X23.6785 Y13.3851
G01 X23.6093 Y13.3587
G01 X23.5956 Y13.3525
G01 X23.5878 Y13.3480
G01 X23.5804 Y13.3429
G01 X23.5689 Y13.3332
G01 X23.5626 Y13.3267
G01 X23.5568 Y13.3198
G01 X23.5129 Y13.2602
G01 X23.5051 Y13.2481
G01 X23.4987 Y13.2352
G01 X23.4903 Y13.2122
G01 X23.4838 Y13.1904
G01 X23.4787 Y13.1686
G01 X23.4651 Y13.1404
G01 X23.4589 Y13.1259
G01 X23.4470 Y13.0936
G01 X23.4331 Y13.0716
G01 X23.4238 Y13.0549
G01 X23.4140 Y13.0348
G01 X23.3927 Y13.0078
G01 X23.3835 Y12.9950
G01 X23.3665 Y12.9687
G01 X23.3120 Y12.9152
G01 X23.0046 Y12.6077
G01 X22.9974 Y12.5990
G01 X22.9925 Y12.5920
G01 X22.9588 Y12.5372
G01 X22.9546 Y12.5293
G01 X22.9510 Y12.5211
G01 X22.9463 Y12.5068
G01 X22.9439 Y12.4951
G01 X22.9426 Y12.4832
G01 X22.9402 Y12.4063
G01 X22.9409 Y12.3919
G01 X22.9422 Y12.3834
G01 X22.9440 Y12.3749
G01 X22.9741 Y12.2592
G01 X22.9874 Y12.1028
G01 X22.9874 Y9.6487
G01 X22.9867 Y9.6354
G01 X22.9490 Y9.4265
G01 X22.8773 Y9.2291
G01 X22.7734 Y9.0466
G01 X22.6403 Y8.8842
G01 X22.4817 Y8.7466
G01 X22.3022 Y8.6377
G01 X22.1069 Y8.5606
G01 X21.9013 Y8.5174
G01 X21.6915 Y8.5096
G01 X21.4833 Y8.5371
G01 X21.2828 Y8.5994
G01 X21.0956 Y8.6946
G01 X20.9271 Y8.8199
G01 X20.7822 Y8.9719
G01 X20.6804 Y9.1228
G01 X20.6721 Y9.1327
G01 X20.6449 Y9.1618
G01 X20.6363 Y9.1701
G01 X20.6293 Y9.1758
G01 X20.6220 Y9.1809
G01 X20.6089 Y9.1882
G01 X20.6007 Y9.1918
G01 X20.5346 Y9.2178
G01 X20.5261 Y9.2208
G01 X20.5144 Y9.2238
G01 X20.5055 Y9.2253
G01 X20.4935 Y9.2262
G01 X20.4815 Y9.2259
G01 X20.4696 Y9.2244
G01 X20.3970 Y9.2100
G01 X20.3882 Y9.2079
G01 X20.3768 Y9.2041
G01 X20.3631 Y9.1978
G01 X20.3504 Y9.1899
G01 X20.3409 Y9.1824
G01 X20.2854 Y9.1291
G01 X20.2757 Y9.1185
G01 X20.2705 Y9.1116
G01 X20.2657 Y9.1043
G01 X20.2329 Y9.0468
G01 X20.1000 Y8.8847
G01 X19.9412 Y8.7469
G01 X19.7621 Y8.6382
G01 X19.5851 Y8.5683
G01 X19.5851 Y8.8543
G01 X19.6625 Y8.8908
G01 X19.6730 Y8.8965
G01 X19.7495 Y8.9425
G01 X19.8214 Y8.9956
G01 X19.8306 Y9.0032
G01 X19.8967 Y9.0633
G01 X19.9607 Y9.1339
G01 X20.0141 Y9.2056
G01 X20.0207 Y9.2155
G01 X20.0665 Y9.2922
G01 X20.1048 Y9.3729
G01 X20.1094 Y9.3839
G01 X20.1393 Y9.4681
G01 X20.1612 Y9.5547
G01 X20.1630 Y9.5635
G01 X20.1765 Y9.6548
G01 X20.1811 Y9.7500
G01 X20.1811 Y12.0500
G01 X20.1769 Y12.1393
G01 X20.1757 Y12.1511
G01 X20.1625 Y12.2395
G01 X20.1393 Y12.3319
G01 X20.1072 Y12.4216
G01 X20.0692 Y12.5025
G01 X20.0635 Y12.5130
G01 X20.0175 Y12.5895
G01 X19.9607 Y12.6661
G01 X19.9008 Y12.7324
G01 X19.8924 Y12.7408
G01 X19.8261 Y12.8007
G01 X19.7544 Y12.8541
G01 X19.7445 Y12.8607
G01 X19.6678 Y12.9065
G01 X19.5851 Y12.9457
G01 X19.5851 Y13.2286
G01 X19.6772 Y13.2000
G01 X19.8643 Y13.1049
G01 X20.0327 Y12.9796
G01 X20.1773 Y12.8280
G01 X20.2791 Y12.6772
G01 X20.2873 Y12.6673
G01 X20.3145 Y12.6382
G01 X20.3254 Y12.6279
G01 X20.3325 Y12.6224
G01 X20.3400 Y12.6175
G01 X20.3532 Y12.6105
G01 X20.4304 Y12.5801
G01 X20.4450 Y12.5762
G01 X20.4599 Y12.5741
G01 X20.4749 Y12.5739
G01 X20.4869 Y12.5751
G01 X20.5624 Y12.5899
G01 X20.5770 Y12.5938
G01 X20.5882 Y12.5981
G01 X20.5989 Y12.6036
G01 X20.6115 Y12.6118
G01 X20.6207 Y12.6195
G01 X20.6740 Y12.6709
G01 X20.6837 Y12.6815
G01 X20.6890 Y12.6884
G01 X20.6937 Y12.6957
G01 X20.7266 Y12.7534
G01 X20.8597 Y12.9158
G01 X21.0183 Y13.0534
G01 X21.1978 Y13.1623
G01 X21.3931 Y13.2394
G01 X21.5987 Y13.2826
G01 X21.7250 Y13.2876
G01 X21.7527 Y13.2911
G01 X21.7616 Y13.2928
G01 X21.7761 Y13.2971
G01 X21.7899 Y13.3031
G01 X21.8574 Y13.3400
G01 X21.8695 Y13.3479
G01 X21.8784 Y13.3553
G01 X22.1153 Y13.5920
G01 X22.1239 Y13.6016
G01 X22.1462 Y13.6297
G01 X22.1510 Y13.6372
G01 X22.1552 Y13.6451
G01 X22.1588 Y13.6532
G01 X22.1619 Y13.6616
G01 X22.1842 Y13.7382
G01 X22.1864 Y13.7495
G01 X22.1876 Y13.7638
G01 X22.1876 Y16.4121
G01 X22.1873 Y16.4212
G01 X22.1879 Y16.5766
G01 X22.1954 Y16.6101
G01 X22.1982 Y16.6257
G01 X22.2021 Y16.6567
G01 X22.2097 Y16.6778
G01 X22.2152 Y16.6960
G01 X22.2213 Y16.7214
G01 X22.2349 Y16.7496
G01 X22.2411 Y16.7641
G01 X22.2530 Y16.7964
G01 X22.2669 Y16.8184
G01 X22.2762 Y16.8351
G01 X22.2860 Y16.8552
G01 X22.3073 Y16.8822
G01 X22.3165 Y16.8950
G01 X22.3335 Y16.9213
G01 X22.3880 Y16.9747
G01 X22.9495 Y17.5362
G01 X22.9557 Y17.5428
G01 X23.0660 Y17.6524
G01 X23.0925 Y17.6690
G01 X23.1055 Y17.6780
G01 X23.1327 Y17.6989
G01 X23.1563 Y17.7102
G01 X23.1730 Y17.7193
G01 X23.1920 Y17.7311
G01 X23.2215 Y17.7414
G01 X23.2362 Y17.7474
G01 X23.2679 Y17.7620
G01 X23.3066 Y17.7747
G01 X23.3148 Y17.7783
G01 X23.3253 Y17.7839
G01 X23.3328 Y17.7888
G01 X23.3399 Y17.7942
G01 X23.3981 Y17.8446
G01 X23.4085 Y17.8554
G01 X23.4176 Y17.8674
G01 X23.4223 Y17.8751
G01 X23.4264 Y17.8832
G01 X23.4299 Y17.8915
G01 X23.4327 Y17.9000
G01 X23.4542 Y17.9737
G01 X23.4564 Y17.9851
G01 X23.4576 Y17.9994
G01 X23.4576 Y18.9521
G01 X23.4573 Y18.9612
G01 X23.4579 Y19.1166
G01 X23.4654 Y19.1501
G01 X23.4682 Y19.1657
G01 X23.4721 Y19.1967
G01 X23.4797 Y19.2178
G01 X23.4852 Y19.2360
G01 X23.4913 Y19.2614
G01 X23.5049 Y19.2896
G01 X23.5111 Y19.3041
G01 X23.5230 Y19.3364
G01 X23.5369 Y19.3584
G01 X23.5462 Y19.3751
G01 X23.5560 Y19.3952
G01 X23.5773 Y19.4222
G01 X23.5865 Y19.4350
G01 X23.6035 Y19.4613
G01 X23.6580 Y19.5148
G01 X24.1600 Y20.0167
G01 X24.1662 Y20.0233
G01 X24.2765 Y20.1329
G01 X24.3055 Y20.1512
G01 X24.3185 Y20.1603
G01 X24.3432 Y20.1794
G01 X24.3668 Y20.1907
G01 X24.3835 Y20.1998
G01 X24.4025 Y20.2116
G01 X24.4349 Y20.2231
G01 X24.4495 Y20.2290
G01 X24.4779 Y20.2422
G01 X24.5033 Y20.2480
G01 X24.5217 Y20.2532
G01 X24.5428 Y20.2605
G01 X24.5769 Y20.2645
G01 X24.5925 Y20.2671
G01 X24.6129 Y20.2715
G01 X24.6223 Y20.2742
G01 X24.6480 Y20.2827
G01 X24.6618 Y20.2883
G01 X24.6749 Y20.2955
G01 X24.6869 Y20.3042
G01 X24.7451 Y20.3546
G01 X24.7515 Y20.3609
G01 X24.7575 Y20.3677
G01 X24.7646 Y20.3774
G01 X24.7693 Y20.3851
G01 X24.7734 Y20.3932
G01 X24.7779 Y20.4043
G01 X24.8005 Y20.4809
G01 X24.8025 Y20.4894
G01 X24.8038 Y20.4979
G01 X24.8046 Y20.5123
G01 X24.8046 Y20.8618
G01 X24.8053 Y20.8751
G01 X24.8431 Y21.0840
G01 X24.9147 Y21.2814
G01 X25.0186 Y21.4639
G01 X25.1517 Y21.6263
G01 X25.3103 Y21.7639
G01 X25.4898 Y21.8728
G01 X25.6851 Y21.9499
G01 X25.8907 Y21.9931
G01 X26.1005 Y22.0009
G01 X26.3087 Y21.9734
G01 X26.5092 Y21.9111
G01 X26.6964 Y21.8159
G01 X26.8649 Y21.6906
G01 X27.0098 Y21.5386
G01 X27.1287 Y21.3620
G01 X27.1352 Y21.3517
G01 X27.1423 Y21.3426
G01 X27.1743 Y21.3053
G01 X27.1803 Y21.2988
G01 X27.1890 Y21.2909
G01 X27.1985 Y21.2838
G01 X27.2085 Y21.2777
G01 X27.2192 Y21.2726
G01 X27.2936 Y21.2434
G01 X27.3081 Y21.2395
G01 X27.3230 Y21.2374
G01 X27.3381 Y21.2372
G01 X27.3530 Y21.2388
G01 X27.4256 Y21.2533
G01 X27.4344 Y21.2554
G01 X27.4458 Y21.2591
G01 X27.4594 Y21.2654
G01 X27.4722 Y21.2734
G01 X27.4816 Y21.2808
G01 X27.5372 Y21.3342
G01 X27.5469 Y21.3448
G01 X27.5521 Y21.3517
G01 X27.5569 Y21.3590
G01 X27.5896 Y21.4164
G01 X27.7227 Y21.5788
G01 X27.8813 Y21.7164
G01 X28.0608 Y21.8253
G01 X28.2561 Y21.9024
G01 X28.4617 Y21.9456
G01 X28.6715 Y21.9534
G01 X28.8797 Y21.9259
G01 X29.0802 Y21.8636
G01 X29.2674 Y21.7684
G01 X29.4359 Y21.6431
G01 X29.5808 Y21.4911
G01 X29.6981 Y21.3169
G01 X29.7843 Y21.1255
G01 X29.8371 Y20.9222
G01 X29.8504 Y20.7658
G01 X29.8504 Y18.3117
G01 X29.8497 Y18.2984
G01 X29.8119 Y18.0895
G01 X29.7403 Y17.8921
G01 X29.6750 Y17.7774
G01 X29.6364 Y17.7096
G01 X29.5033 Y17.5472
G01 X29.3447 Y17.4096
G01 X29.1652 Y17.3007
G01 X28.9699 Y17.2236
G01 X28.7643 Y17.1804
G01 X28.5545 Y17.1726
G01 X28.3463 Y17.2001
G01 X28.1458 Y17.2624
G01 X27.9586 Y17.3576
G01 X27.7901 Y17.4829
G01 X27.6452 Y17.6349
G01 X27.5263 Y17.8115
G01 X27.5198 Y17.8218
G01 X27.5127 Y17.8309
G01 X27.4807 Y17.8682
G01 X27.4704 Y17.8788
G01 X27.4637 Y17.8845
G01 X27.4541 Y17.8913
G01 X27.4465 Y17.8958
G01 X27.4358 Y17.9009
G01 X27.3614 Y17.9301
G01 X27.3469 Y17.9340
G01 X27.3350 Y17.9358
G01 X27.3199 Y17.9364
G01 X27.3050 Y17.9351
G01 X27.2294 Y17.9202
G01 X27.2206 Y17.9181
G01 X27.2064 Y17.9132
G01 X27.1956 Y17.9081
G01 X27.1828 Y17.9001
G01 X27.1734 Y17.8927
G01 X27.1178 Y17.8393
G01 X27.1081 Y17.8287
G01 X27.1029 Y17.8218
G01 X27.0981 Y17.8145
G01 X27.0654 Y17.7571
G01 X26.9323 Y17.5947
G01 X26.7737 Y17.4571
G01 X26.5942 Y17.3482
G01 X26.3989 Y17.2711
G01 X26.1933 Y17.2279
G01 X25.9835 Y17.2201
G01 X25.7753 Y17.2476
G01 X25.5748 Y17.3099
G01 X25.3876 Y17.4051
G01 X25.2191 Y17.5304
G01 X25.2067 Y17.5435
G01 X25.1964 Y17.5534
G01 X25.1894 Y17.5595
G01 X25.1820 Y17.5651
G01 X25.1743 Y17.5701
G01 X25.1661 Y17.5745
G01 X25.0961 Y17.6068
G01 X25.0848 Y17.6110
G01 X25.0702 Y17.6147
G01 X25.0553 Y17.6165
G01 X25.0433 Y17.6166
G01 X25.0313 Y17.6155
G01 X24.9610 Y17.6057
G01 X24.9521 Y17.6041
G01 X24.9405 Y17.6009
G01 X24.9320 Y17.5978
G01 X24.9238 Y17.5941
G01 X24.9133 Y17.5882
G01 X24.9059 Y17.5831
G01 X24.8988 Y17.5775
G01 X24.8450 Y17.5312
G01 X24.8363 Y17.5229
G01 X24.8284 Y17.5138
G01 X24.8215 Y17.5040
G01 X24.8156 Y17.4935
G01 X24.8108 Y17.4825
G01 X24.8079 Y17.4739
G01 X24.7876 Y17.4059
G01 X24.7844 Y17.3918
G01 X24.7832 Y17.3833
G01 X24.7826 Y17.3718
G01 X24.7821 Y17.2334
G01 X24.7746 Y17.1999
G01 X24.7718 Y17.1843
G01 X24.7679 Y17.1533
G01 X24.7603 Y17.1322
G01 X24.7548 Y17.1139
G01 X24.7487 Y17.0886
G01 X24.7351 Y17.0604
G01 X24.7289 Y17.0459
G01 X24.7170 Y17.0136
G01 X24.7050 Y16.9948
G01 X24.6956 Y16.9782
G01 X24.6840 Y16.9548
G01 X24.6645 Y16.9303
G01 X24.6553 Y16.9175
G01 X24.6365 Y16.8887
G01 X24.5683 Y16.8216
G01 X24.5564 Y16.8088
G01 X24.5489 Y16.7994
G01 X24.5439 Y16.7918
G01 X24.5381 Y16.7812
G01 X24.5077 Y16.7137
G01 X24.5024 Y16.6996
G01 X24.4995 Y16.6879
G01 X24.4980 Y16.6790
G01 X24.4971 Y16.6670
G01 X24.4974 Y16.6550
G01 X24.4984 Y16.6460
G01 X24.5094 Y16.5729
G01 X24.5121 Y16.5611
G01 X24.5149 Y16.5525
G01 X24.5182 Y16.5442
G01 X24.5222 Y16.5361
G01 X24.5268 Y16.5283
G01 X24.5320 Y16.5209
G01 X24.5377 Y16.5139
G01 X24.5865 Y16.4583
G01 X24.5951 Y16.4499
G01 X24.6069 Y16.4406
G01 X24.6198 Y16.4329
G01 X24.6336 Y16.4268
G01 X24.6421 Y16.4240
G01 X24.7160 Y16.4029
G01 X24.7302 Y16.4005
G01 X24.7445 Y16.3997
G01 X30.3564 Y16.4335
G01 X30.3677 Y16.4341
G01 X30.3790 Y16.4358
G01 X30.4364 Y16.4485
G01 X30.4451 Y16.4510
G01 X30.4536 Y16.4541
G01 X30.4618 Y16.4579
G01 X30.4697 Y16.4623
G01 X30.4773 Y16.4672
G01 X30.4845 Y16.4727
G01 X30.5448 Y16.5252
G01 X30.5511 Y16.5317
G01 X30.5587 Y16.5411
G01 X30.5637 Y16.5485
G01 X30.5696 Y16.5590
G01 X30.5733 Y16.5673
G01 X30.5763 Y16.5758
G01 X30.5979 Y16.6496
G01 X30.5999 Y16.6580
G01 X30.6012 Y16.6665
G01 X30.6020 Y16.6809
G01 X30.5833 Y35.8262
G01 X30.5827 Y35.8376
G01 X30.5811 Y35.8490
G01 X30.5691 Y35.9040
G01 X30.5650 Y35.9185
G01 X30.5591 Y35.9324
G01 X30.5532 Y35.9429
G01 X30.5443 Y35.9552
G01 X30.4959 Y36.0111
G01 X30.4854 Y36.0219
G01 X30.4761 Y36.0295
G01 X30.4660 Y36.0361
G01 X30.4554 Y36.0417
G01 X30.4442 Y36.0462
G01 X30.3648 Y36.0696
G01 X30.3507 Y36.0722
G01 X30.3363 Y36.0731
G01 X1.1746 Y36.0922
G01 X1.1631 Y36.0917
G01 X1.1517 Y36.0901
G01 X1.0964 Y36.0781
G01 X1.0819 Y36.0740
G01 X1.0679 Y36.0680
G01 X1.0574 Y36.0621
G01 X1.0451 Y36.0532
G01 X0.9892 Y36.0048
G01 X0.9784 Y35.9942
G01 X0.9708 Y35.9849
G01 X0.9642 Y35.9749
G01 X0.9586 Y35.9642
G01 X0.9541 Y35.9531
G01 X0.9307 Y35.8737
G01 X0.9282 Y35.8595
G01 X0.9273 Y35.8451
G01 X0.9265 Y3.9421
G00 Z2.0000
G00 X5.6282 Y7.1047
G01 F50.00
G01 Z-0.1200
G01 F60.00
G01 X5.6415 Y6.9482
G01 X5.6941 Y6.7454
G01 X5.7803 Y6.5540
G01 X5.8977 Y6.3795
G01 X6.0423 Y6.2279
G01 X6.0953 Y6.1884
G01 X6.1058 Y6.1786
G01 X6.1134 Y6.1699
G01 X6.1597 Y6.1085
G01 X6.1676 Y6.0957
G01 X6.1728 Y6.0849
G01 X6.1778 Y6.0707
G01 X6.1804 Y6.0589
G01 X6.1819 Y6.0470
G01 X6.1875 Y5.9702
G01 X6.1869 Y5.9552
G01 X6.1845 Y5.9403
G01 X6.1803 Y5.9259
G01 X6.1743 Y5.9121
G01 X6.1390 Y5.8470
G01 X6.1344 Y5.8393
G01 X6.1293 Y5.8319
G01 X6.1236 Y5.8249
G01 X6.1174 Y5.8184
G01 X6.1085 Y5.8099
G01 X5.9650 Y5.6853
G01 X5.8321 Y5.5232
G01 X5.7283 Y5.3408
G01 X5.6565 Y5.1432
G01 X5.6188 Y4.9347
G01 X5.6181 Y4.9212
G01 X5.6181 Y4.0451
G01 X5.8839 Y4.0451
G01 X5.8840 Y4.8259
G01 X5.8885 Y4.9152
G01 X5.9015 Y5.0036
G01 X5.9038 Y5.0153
G01 X5.9248 Y5.0991
G01 X5.9275 Y5.1076
G01 X5.9578 Y5.1916
G01 X5.9985 Y5.2778
G01 X6.0475 Y5.3595
G01 X6.1006 Y5.4314
G01 X6.1082 Y5.4406
G01 X6.1642 Y5.5024
G01 X6.1726 Y5.5108
G01 X6.2389 Y5.5707
G01 X6.3106 Y5.6241
G01 X6.3205 Y5.6307
G01 X6.3972 Y5.6765
G01 X6.4799 Y5.7157
G01 X6.4799 Y6.1753
G01 X6.4805 Y6.1850
G01 X6.4838 Y6.2150
G01 X6.4855 Y6.2246
G01 X6.4899 Y6.2446
G01 X6.4899 Y6.2618
G01 X6.4072 Y6.3010
G01 X6.3305 Y6.3468
G01 X6.3206 Y6.3534
G01 X6.2512 Y6.4049
G01 X6.2444 Y6.4107
G01 X6.1783 Y6.4708
G01 X6.1162 Y6.5391
G01 X6.1106 Y6.5461
G01 X6.0575 Y6.6180
G01 X6.0085 Y6.6997
G01 X5.9678 Y6.7859
G01 X5.9375 Y6.8699
G01 X5.9341 Y6.8813
G01 X5.9138 Y6.9622
G01 X5.9115 Y6.9739
G01 X5.8985 Y7.0623
G01 X5.8940 Y7.1516
G01 X5.8939 Y7.9324
G01 X5.6281 Y7.9324
G01 X5.6282 Y7.1047
G00 Z2.0000
G00 X6.2564 Y6.2218
G01 F50.00
G01 Z-0.1200
G01 F60.00
G01 X6.2779 Y6.1930
G01 X6.2853 Y6.1821
G01 X6.2922 Y6.1708
G01 X6.2985 Y6.1591
G01 X6.3042 Y6.1472
G01 X6.3094 Y6.1350
G01 X6.3159 Y6.1162
G01 X6.3195 Y6.1035
G01 X6.3224 Y6.0906
G01 X6.3256 Y6.0710
G01 X6.3269 Y6.0578
G01 X6.3322 Y5.9870
G01 X6.3329 Y5.9672
G01 X6.3322 Y5.9473
G01 X6.3308 Y5.9342
G01 X6.3289 Y5.9211
G01 X6.3247 Y5.9017
G01 X6.3211 Y5.8889
G01 X6.3169 Y5.8764
G01 X6.3095 Y5.8580
G01 X6.3038 Y5.8460
G01 X6.2668 Y5.7777
G01 X6.2580 Y5.7627
G01 X6.3173 Y5.7982
G01 X6.3345 Y5.8077
G01 X6.3345 Y6.1751
G01 X6.2564 Y6.2218
G00 Z2.0000
G00 X8.1690 Y5.9942
G01 F50.00
G01 Z-0.1200
G01 F60.00
G01 X8.1350 Y6.0317
G01 X8.0910 Y5.9833
G01 X8.1250 Y5.9458
G01 X8.1690 Y5.9942
G00 Z2.0000
G00 X8.3790 Y5.9933
G01 F50.00
G01 Z-0.1200
G01 F60.00
G01 X8.3321 Y6.0358
G01 X8.3071 Y6.0596
G01 X8.2833 Y6.0846
G01 X8.2273 Y6.1464
G01 X8.2048 Y6.1725
G01 X8.1940 Y6.1860
G01 X8.1350 Y6.2651
G01 X8.0760 Y6.1860
G01 X8.0541 Y6.1593
G01 X8.0427 Y6.1464
G01 X7.9867 Y6.0846
G01 X7.9629 Y6.0596
G01 X7.9379 Y6.0358
G01 X7.8810 Y5.9842
G01 X7.9279 Y5.9417
G01 X7.9529 Y5.9179
G01 X7.9767 Y5.8929
G01 X8.0327 Y5.8311
G01 X8.0552 Y5.8050
G01 X8.0660 Y5.7915
G01 X8.1250 Y5.7124
G01 X8.1840 Y5.7915
G01 X8.1948 Y5.8050
G01 X8.2173 Y5.8311
G01 X8.2733 Y5.8929
G01 X8.2971 Y5.9179
G01 X8.3221 Y5.9417
G01 X8.3790 Y5.9933
G00 Z2.0000
G00 X8.5726 Y5.9609
G01 F50.00
G01 Z-0.1200
G01 F60.00
G01 X8.5726 Y6.0241
G01 X8.5229 Y6.0611
G01 X8.5018 Y6.0785
G01 X8.4197 Y6.1528
G01 X8.4099 Y6.1624
G01 X8.3910 Y6.1822
G01 X8.3350 Y6.2440
G01 X8.3172 Y6.2647
G01 X8.3003 Y6.2863
G01 X8.2506 Y6.3533
G01 X8.2426 Y6.3644
G01 X8.2274 Y6.3871
G01 X8.1705 Y6.4821
G01 X8.1576 Y6.5062
G01 X8.1350 Y6.5536
G01 X8.1124 Y6.5062
G01 X8.0995 Y6.4821
G01 X8.0426 Y6.3871
G01 X8.0274 Y6.3644
G01 X8.0194 Y6.3533
G01 X7.9697 Y6.2863
G01 X7.9528 Y6.2647
G01 X7.9350 Y6.2440
G01 X7.8790 Y6.1822
G01 X7.8601 Y6.1624
G01 X7.8403 Y6.1435
G01 X7.7785 Y6.0875
G01 X7.7578 Y6.0697
G01 X7.7362 Y6.0528
G01 X7.6763 Y6.0084
G01 X7.6763 Y5.9617
G01 X7.7262 Y5.9247
G01 X7.7478 Y5.9078
G01 X7.7685 Y5.8900
G01 X7.8403 Y5.8247
G01 X7.8501 Y5.8151
G01 X7.8690 Y5.7953
G01 X7.9250 Y5.7335
G01 X7.9428 Y5.7128
G01 X7.9514 Y5.7021
G01 X8.0094 Y5.6242
G01 X8.0174 Y5.6131
G01 X8.0326 Y5.5904
G01 X8.0895 Y5.4954
G01 X8.1024 Y5.4713
G01 X8.1250 Y5.4239
G01 X8.1476 Y5.4713
G01 X8.1605 Y5.4954
G01 X8.2174 Y5.5904
G01 X8.2249 Y5.6018
G01 X8.2406 Y5.6242
G01 X8.2903 Y5.6912
G01 X8.3072 Y5.7128
G01 X8.3250 Y5.7335
G01 X8.3810 Y5.7953
G01 X8.3999 Y5.8151
G01 X8.4097 Y5.8247
G01 X8.4815 Y5.8900
G01 X8.5022 Y5.9078
G01 X8.5238 Y5.9247
G01 X8.5726 Y5.9609
G00 Z2.0000
G00 X8.7180 Y5.8842
G01 F50.00
G01 Z-0.1200
G01 F60.00
G01 X8.7024 Y5.8748
G01 X8.6856 Y5.8635
G01 X8.6023 Y5.8018
G01 X8.5791 Y5.7823
G01 X8.5099 Y5.7194
G01 X8.4888 Y5.6977
G01 X8.4327 Y5.6359
G01 X8.4195 Y5.6205
G01 X8.4071 Y5.6046
G01 X8.3574 Y5.5376
G01 X8.3458 Y5.5211
G01 X8.3349 Y5.5040
G01 X8.2921 Y5.4325
G01 X8.2821 Y5.4149
G01 X8.2730 Y5.3968
G01 X8.2373 Y5.3214
G01 X8.2291 Y5.3029
G01 X8.2219 Y5.2840
G01 X8.1938 Y5.2055
G01 X8.1874 Y5.1863
G01 X8.1820 Y5.1668
G01 X8.1618 Y5.0859
G01 X8.1555 Y5.0562
G01 X8.1416 Y4.9638
G01 X8.1392 Y4.9437
G01 X8.1377 Y4.9235
G01 X8.1336 Y4.8402
G01 X8.1331 Y4.8200
G01 X8.1331 Y2.5200
G01 X8.1336 Y2.4998
G01 X8.1383 Y2.4064
G01 X8.1416 Y2.3762
G01 X8.1539 Y2.2937
G01 X8.1573 Y2.2738
G01 X8.1618 Y2.2541
G01 X8.1820 Y2.1732
G01 X8.1874 Y2.1537
G01 X8.1938 Y2.1345
G01 X8.2219 Y2.0560
G01 X8.2291 Y2.0371
G01 X8.2373 Y2.0186
G01 X8.2730 Y1.9432
G01 X8.2821 Y1.9251
G01 X8.2921 Y1.9075
G01 X8.3349 Y1.8360
G01 X8.3458 Y1.8189
G01 X8.3574 Y1.8024
G01 X8.4071 Y1.7354
G01 X8.4195 Y1.7195
G01 X8.4327 Y1.7041
G01 X8.4888 Y1.6423
G01 X8.5027 Y1.6277
G01 X8.5173 Y1.6138
G01 X8.5791 Y1.5577
G01 X8.5945 Y1.5445
G01 X8.6104 Y1.5321
G01 X8.6774 Y1.4824
G01 X8.6939 Y1.4708
G01 X8.7110 Y1.4599
G01 X8.7825 Y1.4171
G01 X8.8001 Y1.4071
G01 X8.8182 Y1.3980
G01 X8.8936 Y1.3623
G01 X8.9121 Y1.3541
G01 X8.9310 Y1.3469
G01 X9.0095 Y1.3188
G01 X9.0384 Y1.3096
G01 X9.1291 Y1.2868
G01 X9.1488 Y1.2823
G01 X9.1687 Y1.2789
G01 X9.2512 Y1.2666
G01 X9.2814 Y1.2633
G01 X9.3748 Y1.2586
G01 X9.4051 Y1.2582
G01 X9.5086 Y1.2633
G01 X9.5388 Y1.2666
G01 X9.6213 Y1.2789
G01 X9.6511 Y1.2844
G01 X9.7516 Y1.3096
G01 X9.7805 Y1.3188
G01 X9.8590 Y1.3469
G01 X9.8779 Y1.3541
G01 X9.8964 Y1.3623
G01 X9.9718 Y1.3980
G01 X9.9987 Y1.4120
G01 X10.0790 Y1.4599
G01 X10.0961 Y1.4708
G01 X10.1126 Y1.4824
G01 X10.1796 Y1.5321
G01 X10.1955 Y1.5445
G01 X10.2109 Y1.5577
G01 X10.2727 Y1.6138
G01 X10.2873 Y1.6277
G01 X10.3012 Y1.6423
G01 X10.3573 Y1.7041
G01 X10.3705 Y1.7195
G01 X10.3829 Y1.7354
G01 X10.4326 Y1.8024
G01 X10.4442 Y1.8189
G01 X10.4551 Y1.8360
G01 X10.4979 Y1.9075
G01 X10.5079 Y1.9251
G01 X10.5170 Y1.9432
G01 X10.5527 Y2.0186
G01 X10.5609 Y2.0371
G01 X10.5681 Y2.0560
G01 X10.5962 Y2.1345
G01 X10.6026 Y2.1537
G01 X10.6080 Y2.1732
G01 X10.6282 Y2.2541
G01 X10.6327 Y2.2738
G01 X10.6361 Y2.2937
G01 X10.6484 Y2.3762
G01 X10.6508 Y2.3963
G01 X10.6523 Y2.4165
G01 X10.6564 Y2.4998
G01 X10.6569 Y2.5200
G01 X10.6569 Y4.8200
G01 X10.6564 Y4.8402
G01 X10.6523 Y4.9235
G01 X10.6508 Y4.9437
G01 X10.6484 Y4.9638
G01 X10.6361 Y5.0463
G01 X10.6306 Y5.0761
G01 X10.6054 Y5.1766
G01 X10.5962 Y5.2055
G01 X10.5681 Y5.2840
G01 X10.5609 Y5.3029
G01 X10.5527 Y5.3214
G01 X10.5170 Y5.3968
G01 X10.5030 Y5.4237
G01 X10.4551 Y5.5040
G01 X10.4442 Y5.5211
G01 X10.4326 Y5.5376
G01 X10.3829 Y5.6046
G01 X10.3705 Y5.6205
G01 X10.3573 Y5.6359
G01 X10.3012 Y5.6977
G01 X10.2873 Y5.7123
G01 X10.2727 Y5.7262
G01 X10.2109 Y5.7823
G01 X10.1955 Y5.7955
G01 X10.1796 Y5.8079
G01 X10.1126 Y5.8576
G01 X10.0920 Y5.8719
G01 X10.0920 Y6.0993
G01 X10.1061 Y6.1083
G01 X10.1226 Y6.1199
G01 X10.1896 Y6.1696
G01 X10.2055 Y6.1820
G01 X10.2209 Y6.1952
G01 X10.2827 Y6.2513
G01 X10.2973 Y6.2652
G01 X10.3112 Y6.2798
G01 X10.3673 Y6.3416
G01 X10.3805 Y6.3570
G01 X10.3929 Y6.3729
G01 X10.4426 Y6.4399
G01 X10.4542 Y6.4564
G01 X10.4651 Y6.4735
G01 X10.5079 Y6.5450
G01 X10.5179 Y6.5626
G01 X10.5270 Y6.5807
G01 X10.5627 Y6.6561
G01 X10.5709 Y6.6746
G01 X10.5781 Y6.6935
G01 X10.6062 Y6.7720
G01 X10.6126 Y6.7912
G01 X10.6180 Y6.8107
G01 X10.6382 Y6.8916
G01 X10.6445 Y6.9213
G01 X10.6584 Y7.0137
G01 X10.6608 Y7.0338
G01 X10.6623 Y7.0540
G01 X10.6664 Y7.1373
G01 X10.6669 Y7.1575
G01 X10.6669 Y9.4575
G01 X10.6664 Y9.4777
G01 X10.6623 Y9.5610
G01 X10.6608 Y9.5812
G01 X10.6584 Y9.6013
G01 X10.6450 Y9.6910
G01 X10.6741 Y9.6906
G01 X10.6945 Y9.6916
G01 X10.7053 Y9.6925
G01 X10.6916 Y9.6013
G01 X10.6892 Y9.5812
G01 X10.6877 Y9.5610
G01 X10.6836 Y9.4777
G01 X10.6831 Y9.4575
G01 X10.6831 Y7.1575
G01 X10.6836 Y7.1373
G01 X10.6877 Y7.0540
G01 X10.6892 Y7.0338
G01 X10.6916 Y7.0137
G01 X10.7055 Y6.9213
G01 X10.7118 Y6.8916
G01 X10.7320 Y6.8107
G01 X10.7374 Y6.7912
G01 X10.7438 Y6.7720
G01 X10.7719 Y6.6935
G01 X10.7831 Y6.6653
G01 X10.8274 Y6.5716
G01 X10.8421 Y6.5450
G01 X10.8902 Y6.4649
G01 X10.9074 Y6.4399
G01 X10.9571 Y6.3729
G01 X10.9695 Y6.3570
G01 X10.9827 Y6.3416
G01 X11.0388 Y6.2798
G01 X11.0527 Y6.2652
G01 X11.0673 Y6.2513
G01 X11.1291 Y6.1952
G01 X11.1523 Y6.1757
G01 X11.2356 Y6.1140
G01 X11.2524 Y6.1027
G01 X11.2691 Y6.0926
G01 X11.2691 Y5.8909
G01 X11.2424 Y5.8748
G01 X11.2256 Y5.8635
G01 X11.1423 Y5.8018
G01 X11.1191 Y5.7823
G01 X11.0499 Y5.7194
G01 X11.0288 Y5.6977
G01 X10.9727 Y5.6359
G01 X10.9595 Y5.6205
G01 X10.9471 Y5.6046
G01 X10.8915 Y5.5294
G01 X10.8749 Y5.5040
G01 X10.8321 Y5.4325
G01 X10.8221 Y5.4149
G01 X10.8130 Y5.3968
G01 X10.7773 Y5.3214
G01 X10.7691 Y5.3029
G01 X10.7619 Y5.2840
G01 X10.7338 Y5.2055
G01 X10.7274 Y5.1863
G01 X10.7220 Y5.1668
G01 X10.7018 Y5.0859
G01 X10.6955 Y5.0562
G01 X10.6816 Y4.9638
G01 X10.6792 Y4.9437
G01 X10.6777 Y4.9235
G01 X10.6736 Y4.8402
G01 X10.6731 Y4.8200
G01 X10.6731 Y2.5200
G01 X10.6736 Y2.4998
G01 X10.6783 Y2.4064
G01 X10.6816 Y2.3762
G01 X10.6939 Y2.2937
G01 X10.6973 Y2.2738
G01 X10.7018 Y2.2541
G01 X10.7220 Y2.1732
G01 X10.7274 Y2.1537
G01 X10.7338 Y2.1345
G01 X10.7619 Y2.0560
G01 X10.7691 Y2.0371
G01 X10.7773 Y2.0186
G01 X10.8130 Y1.9432
G01 X10.8270 Y1.9163
G01 X10.8749 Y1.8360
G01 X10.8858 Y1.8189
G01 X10.8974 Y1.8024
G01 X10.9471 Y1.7354
G01 X10.9595 Y1.7195
G01 X10.9727 Y1.7041
G01 X11.0288 Y1.6423
G01 X11.0427 Y1.6277
G01 X11.0573 Y1.6138
G01 X11.1191 Y1.5577
G01 X11.1345 Y1.5445
G01 X11.1504 Y1.5321
G01 X11.2174 Y1.4824
G01 X11.2339 Y1.4708
G01 X11.2510 Y1.4599
G01 X11.3225 Y1.4171
G01 X11.3401 Y1.4071
G01 X11.3582 Y1.3980
G01 X11.4336 Y1.3623
G01 X11.4521 Y1.3541
G01 X11.4710 Y1.3469
G01 X11.5495 Y1.3188
G01 X11.5784 Y1.3096
G01 X11.6691 Y1.2868
G01 X11.6888 Y1.2823
G01 X11.7087 Y1.2789
G01 X11.8013 Y1.2653
G01 X11.8315 Y1.2627
G01 X11.9148 Y1.2586
G01 X11.9350 Y1.2581
G01 X11.9552 Y1.2586
G01 X12.0385 Y1.2627
G01 X12.0587 Y1.2642
G01 X12.0788 Y1.2666
G01 X12.1712 Y1.2805
G01 X12.2009 Y1.2868
G01 X12.2818 Y1.3070
G01 X12.3013 Y1.3124
G01 X12.3205 Y1.3188
G01 X12.3990 Y1.3469
G01 X12.4179 Y1.3541
G01 X12.4364 Y1.3623
G01 X12.5118 Y1.3980
G01 X12.5299 Y1.4071
G01 X12.5475 Y1.4171
G01 X12.6276 Y1.4652
G01 X12.6526 Y1.4824
G01 X12.7026 Y1.5194
G01 X12.7129 Y1.4973
G01 X12.7176 Y1.4882
G01 X12.7276 Y1.4704
G01 X12.7386 Y1.4531
G01 X12.7444 Y1.4447
G01 X12.7566 Y1.4283
G01 X12.7630 Y1.4203
G01 X12.8161 Y1.3588
G01 X12.8229 Y1.3512
G01 X12.8370 Y1.3364
G01 X12.8519 Y1.3223
G01 X12.8674 Y1.3090
G01 X12.8836 Y1.2965
G01 X12.9004 Y1.2848
G01 X12.9178 Y1.2740
G01 X12.9266 Y1.2689
G01 X12.9356 Y1.2640
G01 X12.9540 Y1.2549
G01 X12.9633 Y1.2508
G01 X12.9823 Y1.2431
G01 X13.0016 Y1.2363
G01 X13.0114 Y1.2333
G01 X13.0889 Y1.2107
G01 X13.1176 Y1.2041
G01 X13.1369 Y1.2008
G01 X13.1564 Y1.1985
G01 X13.1759 Y1.1971
G01 X13.1955 Y1.1967
G01 X23.7156 Y1.1968
G01 X23.7449 Y1.1985
G01 X23.7739 Y1.2023
G01 X23.7930 Y1.2060
G01 X23.8552 Y1.2196
G01 X23.8651 Y1.2221
G01 X23.8848 Y1.2279
G01 X23.9042 Y1.2347
G01 X23.9232 Y1.2425
G01 X23.9418 Y1.2512
G01 X23.9510 Y1.2559
G01 X23.9600 Y1.2608
G01 X23.9776 Y1.2714
G01 X23.9947 Y1.2827
G01 X24.0112 Y1.2950
G01 X24.0271 Y1.3080
G01 X24.0809 Y1.3544
G01 X24.0960 Y1.3681
G01 X24.1033 Y1.3753
G01 X24.1105 Y1.3826
G01 X24.1242 Y1.3978
G01 X24.1371 Y1.4136
G01 X24.1433 Y1.4218
G01 X24.1493 Y1.4301
G01 X24.1606 Y1.4472
G01 X24.1659 Y1.4559
G01 X24.1759 Y1.4737
G01 X24.1850 Y1.4920
G01 X24.1932 Y1.5108
G01 X24.2004 Y1.5299
G01 X24.2037 Y1.5396
G01 X24.2295 Y1.6269
G01 X24.2362 Y1.6555
G01 X24.2395 Y1.6749
G01 X24.2419 Y1.6943
G01 X24.2433 Y1.7139
G01 X24.2438 Y1.7335
G01 X24.2668 Y13.1442
G01 X24.2663 Y13.1652
G01 X24.2647 Y13.1861
G01 X24.2635 Y13.1965
G01 X24.2621 Y13.2069
G01 X24.2584 Y13.2276
G01 X24.2537 Y13.2481
G01 X24.2351 Y13.3193
G01 X24.2291 Y13.3387
G01 X24.2183 Y13.3670
G01 X24.2100 Y13.3855
G01 X24.1958 Y13.4123
G01 X24.1853 Y13.4296
G01 X24.1679 Y13.4545
G01 X24.1553 Y13.4703
G01 X24.1350 Y13.4929
G01 X24.0773 Y13.5499
G01 X24.0624 Y13.5639
G01 X24.0547 Y13.5706
G01 X24.0387 Y13.5834
G01 X24.0305 Y13.5895
G01 X24.0137 Y13.6011
G01 X24.0051 Y13.6066
G01 X23.9874 Y13.6170
G01 X23.9692 Y13.6264
G01 X23.9506 Y13.6349
G01 X23.9412 Y13.6388
G01 X23.9317 Y13.6425
G01 X23.9123 Y13.6492
G01 X23.8926 Y13.6548
G01 X23.8827 Y13.6573
G01 X23.8032 Y13.6741
G01 X23.7831 Y13.6777
G01 X23.7628 Y13.6804
G01 X23.7527 Y13.6814
G01 X23.7425 Y13.6821
G01 X23.7220 Y13.6828
G01 X23.7118 Y13.6827
G01 X23.6913 Y13.6819
G01 X23.6710 Y13.6800
G01 X23.6608 Y13.6787
G01 X23.6406 Y13.6753
G01 X23.6306 Y13.6732
G01 X23.6108 Y13.6684
G01 X23.5912 Y13.6625
G01 X23.5719 Y13.6557
G01 X23.5370 Y13.6424
G01 X23.5370 Y16.2154
G01 X23.7646 Y16.4430
G01 X23.9501 Y16.4431
G01 X23.9973 Y16.4454
G01 X24.0274 Y16.4487
G01 X24.0541 Y16.4527
G01 X24.0740 Y16.4562
G01 X24.0938 Y16.4606
G01 X24.1297 Y16.4697
G01 X24.1491 Y16.4756
G01 X24.1935 Y16.4915
G01 X24.2122 Y16.4992
G01 X24.2264 Y16.5058
G01 X24.2295 Y16.4926
G01 X24.2350 Y16.4729
G01 X24.2415 Y16.4535
G01 X24.2489 Y16.4345
G01 X24.2573 Y16.4158
G01 X24.2666 Y16.3976
G01 X24.2768 Y16.3798
G01 X24.2878 Y16.3626
G01 X24.2997 Y16.3460
G01 X24.3124 Y16.3300
G01 X24.3728 Y16.2612
G01 X24.3870 Y16.2465
G01 X24.3944 Y16.2394
G01 X24.4019 Y16.2325
G01 X24.4176 Y16.2193
G01 X24.4256 Y16.2130
G01 X24.4422 Y16.2010
G01 X24.4593 Y16.1899
G01 X24.4770 Y16.1795
G01 X24.4951 Y16.1701
G01 X24.5044 Y16.1658
G01 X24.5232 Y16.1577
G01 X24.5328 Y16.1541
G01 X24.5521 Y16.1475
G01 X24.5619 Y16.1445
G01 X24.6302 Y16.1249
G01 X24.6491 Y16.1200
G01 X24.6683 Y16.1159
G01 X24.6877 Y16.1128
G01 X24.7169 Y16.1098
G01 X24.7463 Y16.1089
G01 X30.3581 Y16.1428
G01 X30.3775 Y16.1434
G01 X30.3968 Y16.1448
G01 X30.4256 Y16.1488
G01 X30.4446 Y16.1525
G01 X30.5063 Y16.1663
G01 X30.5162 Y16.1689
G01 X30.5358 Y16.1748
G01 X30.5551 Y16.1816
G01 X30.5740 Y16.1894
G01 X30.5925 Y16.1982
G01 X30.6106 Y16.2079
G01 X30.6282 Y16.2184
G01 X30.6452 Y16.2298
G01 X30.6535 Y16.2358
G01 X30.6696 Y16.2485
G01 X30.7386 Y16.3084
G01 X30.7534 Y16.3226
G01 X30.7674 Y16.3375
G01 X30.7807 Y16.3530
G01 X30.7932 Y16.3692
G01 X30.8049 Y16.3860
G01 X30.8104 Y16.3946
G01 X30.8208 Y16.4123
G01 X30.8303 Y16.4304
G01 X30.8347 Y16.4396
G01 X30.8429 Y16.4584
G01 X30.8501 Y16.4775
G01 X30.8533 Y16.4872
G01 X30.8789 Y16.5746
G01 X30.8854 Y16.6032
G01 X30.8887 Y16.6226
G01 X30.8910 Y16.6421
G01 X30.8923 Y16.6616
G01 X30.8928 Y16.6812
G01 X30.8740 Y35.8264
G01 X30.8730 Y35.8557
G01 X30.8698 Y35.8848
G01 X30.8646 Y35.9137
G01 X30.8509 Y35.9758
G01 X30.8456 Y35.9957
G01 X30.8425 Y36.0055
G01 X30.8357 Y36.0249
G01 X30.8279 Y36.0439
G01 X30.8236 Y36.0532
G01 X30.8144 Y36.0716
G01 X30.8043 Y36.0895
G01 X30.7990 Y36.0983
G01 X30.7875 Y36.1154
G01 X30.7753 Y36.1319
G01 X30.7622 Y36.1477
G01 X30.7158 Y36.2014
G01 X30.7090 Y36.2091
G01 X30.6949 Y36.2238
G01 X30.6875 Y36.2310
G01 X30.6723 Y36.2447
G01 X30.6645 Y36.2512
G01 X30.6483 Y36.2637
G01 X30.6315 Y36.2754
G01 X30.6229 Y36.2810
G01 X30.6142 Y36.2863
G01 X30.5963 Y36.2963
G01 X30.5780 Y36.3054
G01 X30.5592 Y36.3135
G01 X30.5497 Y36.3173
G01 X30.5304 Y36.3240
G01 X30.4431 Y36.3497
G01 X30.4144 Y36.3563
G01 X30.3951 Y36.3596
G01 X30.3756 Y36.3619
G01 X30.3561 Y36.3633
G01 X30.3365 Y36.3638
G01 X1.1748 Y36.3830
G01 X1.1454 Y36.3820
G01 X1.1161 Y36.3788
G01 X1.0871 Y36.3736
G01 X1.0247 Y36.3599
G01 X1.0048 Y36.3545
G01 X0.9852 Y36.3482
G01 X0.9755 Y36.3446
G01 X0.9565 Y36.3368
G01 X0.9378 Y36.3281
G01 X0.9196 Y36.3184
G01 X0.9107 Y36.3132
G01 X0.8933 Y36.3022
G01 X0.8848 Y36.2964
G01 X0.8683 Y36.2841
G01 X0.8524 Y36.2710
G01 X0.7988 Y36.2245
G01 X0.7836 Y36.2107
G01 X0.7763 Y36.2036
G01 X0.7692 Y36.1962
G01 X0.7555 Y36.1810
G01 X0.7490 Y36.1732
G01 X0.7365 Y36.1570
G01 X0.7305 Y36.1487
G01 X0.7192 Y36.1316
G01 X0.7088 Y36.1140
G01 X0.6993 Y36.0959
G01 X0.6907 Y36.0773
G01 X0.6867 Y36.0679
G01 X0.6830 Y36.0584
G01 X0.6763 Y36.0390
G01 X0.6506 Y35.9517
G01 X0.6440 Y35.9231
G01 X0.6408 Y35.9037
G01 X0.6384 Y35.8843
G01 X0.6370 Y35.8647
G01 X0.6366 Y35.8451
G01 X0.6357 Y1.7346
G01 X0.6368 Y1.7052
G01 X0.6399 Y1.6760
G01 X0.6451 Y1.6470
G01 X0.6588 Y1.5846
G01 X0.6642 Y1.5648
G01 X0.6706 Y1.5452
G01 X0.6741 Y1.5355
G01 X0.6819 Y1.5165
G01 X0.6862 Y1.5071
G01 X0.6954 Y1.4887
G01 X0.7003 Y1.4797
G01 X0.7055 Y1.4708
G01 X0.7165 Y1.4534
G01 X0.7284 Y1.4366
G01 X0.7346 Y1.4284
G01 X0.7477 Y1.4125
G01 X0.8010 Y1.3512
G01 X0.8151 Y1.3364
G01 X0.8225 Y1.3293
G01 X0.8300 Y1.3223
G01 X0.8456 Y1.3090
G01 X0.8536 Y1.3027
G01 X0.8701 Y1.2906
G01 X0.8871 Y1.2793
G01 X0.9047 Y1.2689
G01 X0.9228 Y1.2594
G01 X0.9321 Y1.2549
G01 X0.9508 Y1.2468
G01 X0.9700 Y1.2396
G01 X0.9797 Y1.2363
G01 X1.0576 Y1.2133
G01 X1.0861 Y1.2061
G01 X1.1053 Y1.2024
G01 X1.1247 Y1.1996
G01 X1.1540 Y1.1971
G01 X1.1736 Y1.1967
G01 X5.6051 Y1.1968
G01 X5.6256 Y1.1978
G01 X5.6359 Y1.1987
G01 X5.6461 Y1.1999
G01 X5.6665 Y1.2029
G01 X5.6866 Y1.2070
G01 X5.7414 Y1.2196
G01 X5.7704 Y1.2273
G01 X5.7988 Y1.2372
G01 X5.8264 Y1.2491
G01 X5.8530 Y1.2629
G01 X5.8786 Y1.2787
G01 X5.9029 Y1.2963
G01 X5.9259 Y1.3156
G01 X5.9860 Y1.3702
G01 X6.0005 Y1.3847
G01 X6.0142 Y1.3998
G01 X6.0208 Y1.4077
G01 X6.0334 Y1.4238
G01 X6.0451 Y1.4405
G01 X6.0560 Y1.4578
G01 X6.0612 Y1.4667
G01 X6.0708 Y1.4848
G01 X6.0794 Y1.5033
G01 X6.0864 Y1.5202
G01 X6.1374 Y1.4824
G01 X6.1539 Y1.4708
G01 X6.1710 Y1.4599
G01 X6.2425 Y1.4171
G01 X6.2691 Y1.4024
G01 X6.3536 Y1.3623
G01 X6.3815 Y1.3504
G01 X6.4790 Y1.3155
G01 X6.5082 Y1.3070
G01 X6.5989 Y1.2844
G01 X6.6287 Y1.2789
G01 X6.7112 Y1.2666
G01 X6.7313 Y1.2642
G01 X6.7515 Y1.2627
G01 X6.8348 Y1.2586
G01 X6.8550 Y1.2581
G01 X6.8752 Y1.2586
G01 X6.9585 Y1.2627
G01 X6.9787 Y1.2642
G01 X6.9988 Y1.2666
G01 X7.0813 Y1.2789
G01 X7.1111 Y1.2844
G01 X7.2018 Y1.3070
G01 X7.2213 Y1.3124
G01 X7.2405 Y1.3188
G01 X7.3285 Y1.3504
G01 X7.3564 Y1.3623
G01 X7.4318 Y1.3980
G01 X7.4499 Y1.4071
G01 X7.4675 Y1.4171
G01 X7.5390 Y1.4599
G01 X7.5561 Y1.4708
G01 X7.5726 Y1.4824
G01 X7.6396 Y1.5321
G01 X7.6555 Y1.5445
G01 X7.6709 Y1.5577
G01 X7.7327 Y1.6138
G01 X7.7473 Y1.6277
G01 X7.7612 Y1.6423
G01 X7.8173 Y1.7041
G01 X7.8368 Y1.7273
G01 X7.8926 Y1.8024
G01 X7.9042 Y1.8189
G01 X7.9151 Y1.8360
G01 X7.9579 Y1.9075
G01 X7.9679 Y1.9251
G01 X7.9770 Y1.9432
G01 X8.0127 Y2.0186
G01 X8.0209 Y2.0371
G01 X8.0281 Y2.0560
G01 X8.0562 Y2.1345
G01 X8.0626 Y2.1537
G01 X8.0680 Y2.1732
G01 X8.0882 Y2.2541
G01 X8.0927 Y2.2738
G01 X8.0961 Y2.2937
G01 X8.1084 Y2.3762
G01 X8.1108 Y2.3963
G01 X8.1123 Y2.4165
G01 X8.1164 Y2.4998
G01 X8.1169 Y2.5200
G01 X8.1169 Y4.8200
G01 X8.1164 Y4.8402
G01 X8.1117 Y4.9336
G01 X8.1084 Y4.9638
G01 X8.0961 Y5.0463
G01 X8.0927 Y5.0662
G01 X8.0882 Y5.0859
G01 X8.0680 Y5.1668
G01 X8.0626 Y5.1863
G01 X8.0562 Y5.2055
G01 X8.0281 Y5.2840
G01 X8.0209 Y5.3029
G01 X8.0127 Y5.3214
G01 X7.9770 Y5.3968
G01 X7.9630 Y5.4237
G01 X7.9151 Y5.5040
G01 X7.9042 Y5.5211
G01 X7.8926 Y5.5376
G01 X7.8429 Y5.6046
G01 X7.8305 Y5.6205
G01 X7.8173 Y5.6359
G01 X7.7612 Y5.6977
G01 X7.7473 Y5.7123
G01 X7.7327 Y5.7262
G01 X7.6709 Y5.7823
G01 X7.6477 Y5.8018
G01 X7.5644 Y5.8635
G01 X7.5476 Y5.8748
G01 X7.5309 Y5.8849
G01 X7.5309 Y6.0866
G01 X7.5576 Y6.1027
G01 X7.5744 Y6.1140
G01 X7.6577 Y6.1757
G01 X7.6809 Y6.1952
G01 X7.7501 Y6.2581
G01 X7.7712 Y6.2798
G01 X7.8273 Y6.3416
G01 X7.8405 Y6.3570
G01 X7.8529 Y6.3729
G01 X7.9026 Y6.4399
G01 X7.9142 Y6.4564
G01 X7.9251 Y6.4735
G01 X7.9679 Y6.5450
G01 X7.9779 Y6.5626
G01 X7.9870 Y6.5807
G01 X8.0227 Y6.6561
G01 X8.0309 Y6.6746
G01 X8.0381 Y6.6935
G01 X8.0662 Y6.7720
G01 X8.0726 Y6.7912
G01 X8.0780 Y6.8107
G01 X8.0982 Y6.8916
G01 X8.1027 Y6.9113
G01 X8.1061 Y6.9312
G01 X8.1184 Y7.0137
G01 X8.1208 Y7.0338
G01 X8.1223 Y7.0540
G01 X8.1264 Y7.1373
G01 X8.1269 Y7.1575
G01 X8.1269 Y9.4575
G01 X8.1264 Y9.4777
G01 X8.1223 Y9.5610
G01 X8.1208 Y9.5812
G01 X8.1184 Y9.6013
G01 X8.1050 Y9.6910
G01 X8.1335 Y9.6906
G01 X8.1539 Y9.6916
G01 X8.1653 Y9.6926
G01 X8.1516 Y9.6013
G01 X8.1492 Y9.5812
G01 X8.1477 Y9.5610
G01 X8.1436 Y9.4777
G01 X8.1431 Y9.4575
G01 X8.1431 Y7.1575
G01 X8.1436 Y7.1373
G01 X8.1477 Y7.0540
G01 X8.1492 Y7.0338
G01 X8.1516 Y7.0137
G01 X8.1655 Y6.9213
G01 X8.1718 Y6.8916
G01 X8.1920 Y6.8107
G01 X8.1974 Y6.7912
G01 X8.2038 Y6.7720
G01 X8.2319 Y6.6935
G01 X8.2391 Y6.6746
G01 X8.2473 Y6.6561
G01 X8.2830 Y6.5807
G01 X8.2921 Y6.5626
G01 X8.3021 Y6.5450
G01 X8.3449 Y6.4735
G01 X8.3558 Y6.4564
G01 X8.3674 Y6.4399
G01 X8.4171 Y6.3729
G01 X8.4295 Y6.3570
G01 X8.4427 Y6.3416
G01 X8.4988 Y6.2798
G01 X8.5127 Y6.2652
G01 X8.5273 Y6.2513
G01 X8.5891 Y6.1952
G01 X8.6045 Y6.1820
G01 X8.6204 Y6.1696
G01 X8.6874 Y6.1199
G01 X8.7039 Y6.1083
G01 X8.7180 Y6.0993
G01 X8.7180 Y5.8842
G00 Z2.0000
G00 X8.8633 Y5.8018
G01 F50.00
G01 Z-0.1200
G01 F60.00
G01 X8.7857 Y5.7554
G01 X8.7747 Y5.7484
G01 X8.7640 Y5.7408
G01 X8.6970 Y5.6911
G01 X8.6867 Y5.6831
G01 X8.6768 Y5.6745
G01 X8.6150 Y5.6185
G01 X8.6055 Y5.6095
G01 X8.5965 Y5.6000
G01 X8.5405 Y5.5382
G01 X8.5319 Y5.5283
G01 X8.5239 Y5.5180
G01 X8.4742 Y5.4510
G01 X8.4666 Y5.4403
G01 X8.4596 Y5.4293
G01 X8.4168 Y5.3577
G01 X8.4103 Y5.3463
G01 X8.4044 Y5.3346
G01 X8.3688 Y5.2592
G01 X8.3635 Y5.2473
G01 X8.3588 Y5.2351
G01 X8.3307 Y5.1565
G01 X8.3265 Y5.1441
G01 X8.3231 Y5.1315
G01 X8.3028 Y5.0506
G01 X8.2987 Y5.0314
G01 X8.2854 Y4.9424
G01 X8.2838 Y4.9294
G01 X8.2829 Y4.9164
G01 X8.2788 Y4.8331
G01 X8.2785 Y4.8200
G01 X8.2785 Y2.5200
G01 X8.2788 Y2.5069
G01 X8.2829 Y2.4236
G01 X8.2838 Y2.4106
G01 X8.2854 Y2.3976
G01 X8.2987 Y2.3086
G01 X8.3028 Y2.2894
G01 X8.3231 Y2.2085
G01 X8.3265 Y2.1959
G01 X8.3307 Y2.1835
G01 X8.3588 Y2.1049
G01 X8.3635 Y2.0927
G01 X8.3688 Y2.0808
G01 X8.4044 Y2.0054
G01 X8.4103 Y1.9937
G01 X8.4168 Y1.9823
G01 X8.4596 Y1.9107
G01 X8.4666 Y1.8997
G01 X8.4742 Y1.8890
G01 X8.5239 Y1.8220
G01 X8.5319 Y1.8117
G01 X8.5405 Y1.8018
G01 X8.5965 Y1.7400
G01 X8.6055 Y1.7305
G01 X8.6150 Y1.7215
G01 X8.6768 Y1.6655
G01 X8.6867 Y1.6569
G01 X8.6970 Y1.6489
G01 X8.7640 Y1.5992
G01 X8.7747 Y1.5916
G01 X8.7857 Y1.5846
G01 X8.8573 Y1.5418
G01 X8.8687 Y1.5353
G01 X8.8804 Y1.5294
G01 X8.9558 Y1.4938
G01 X8.9677 Y1.4885
G01 X8.9799 Y1.4838
G01 X9.0585 Y1.4557
G01 X9.0709 Y1.4515
G01 X9.0835 Y1.4481
G01 X9.1644 Y1.4278
G01 X9.1772 Y1.4249
G01 X9.1901 Y1.4227
G01 X9.2726 Y1.4104
G01 X9.2856 Y1.4088
G01 X9.2986 Y1.4079
G01 X9.3819 Y1.4038
G01 X9.3950 Y1.4035
G01 X9.4081 Y1.4038
G01 X9.4914 Y1.4079
G01 X9.5044 Y1.4088
G01 X9.5174 Y1.4104
G01 X9.6064 Y1.4237
G01 X9.6256 Y1.4278
G01 X9.7065 Y1.4481
G01 X9.7191 Y1.4515
G01 X9.7315 Y1.4557
G01 X9.8101 Y1.4838
G01 X9.8223 Y1.4885
G01 X9.8342 Y1.4938
G01 X9.9096 Y1.5294
G01 X9.9213 Y1.5353
G01 X9.9327 Y1.5418
G01 X10.0043 Y1.5846
G01 X10.0153 Y1.5916
G01 X10.0260 Y1.5992
G01 X10.0930 Y1.6489
G01 X10.1033 Y1.6569
G01 X10.1132 Y1.6655
G01 X10.1750 Y1.7215
G01 X10.1845 Y1.7305
G01 X10.1935 Y1.7400
G01 X10.2495 Y1.8018
G01 X10.2581 Y1.8117
G01 X10.2661 Y1.8220
G01 X10.3158 Y1.8890
G01 X10.3234 Y1.8997
G01 X10.3304 Y1.9107
G01 X10.3732 Y1.9823
G01 X10.3797 Y1.9937
G01 X10.3856 Y2.0054
G01 X10.4212 Y2.0808
G01 X10.4265 Y2.0927
G01 X10.4312 Y2.1049
G01 X10.4593 Y2.1835
G01 X10.4635 Y2.1959
G01 X10.4669 Y2.2085
G01 X10.4872 Y2.2894
G01 X10.4901 Y2.3022
G01 X10.4923 Y2.3151
G01 X10.5046 Y2.3976
G01 X10.5062 Y2.4106
G01 X10.5071 Y2.4236
G01 X10.5112 Y2.5069
G01 X10.5115 Y2.5200
G01 X10.5115 Y4.8200
G01 X10.5112 Y4.8331
G01 X10.5071 Y4.9164
G01 X10.5062 Y4.9294
G01 X10.5046 Y4.9424
G01 X10.4923 Y5.0249
G01 X10.4901 Y5.0378
G01 X10.4872 Y5.0506
G01 X10.4669 Y5.1315
G01 X10.4635 Y5.1441
G01 X10.4593 Y5.1565
G01 X10.4312 Y5.2351
G01 X10.4265 Y5.2473
G01 X10.4212 Y5.2592
G01 X10.3856 Y5.3346
G01 X10.3797 Y5.3463
G01 X10.3732 Y5.3577
G01 X10.3304 Y5.4293
G01 X10.3234 Y5.4403
G01 X10.3158 Y5.4510
G01 X10.2661 Y5.5180
G01 X10.2581 Y5.5283
G01 X10.2495 Y5.5382
G01 X10.1935 Y5.6000
G01 X10.1845 Y5.6095
G01 X10.1750 Y5.6185
G01 X10.1132 Y5.6745
G01 X10.1033 Y5.6831
G01 X10.0930 Y5.6911
G01 X10.0260 Y5.7408
G01 X10.0153 Y5.7484
G01 X10.0043 Y5.7554
G01 X9.9467 Y5.7899
G01 X9.9467 Y6.1816
G01 X10.0143 Y6.2221
G01 X10.0253 Y6.2291
G01 X10.0360 Y6.2367
G01 X10.1030 Y6.2864
G01 X10.1133 Y6.2944
G01 X10.1232 Y6.3030
G01 X10.1850 Y6.3590
G01 X10.1945 Y6.3680
G01 X10.2035 Y6.3775
G01 X10.2595 Y6.4393
G01 X10.2681 Y6.4492
G01 X10.2761 Y6.4595
G01 X10.3258 Y6.5265
G01 X10.3334 Y6.5372
G01 X10.3404 Y6.5482
G01 X10.3832 Y6.6198
G01 X10.3897 Y6.6312
G01 X10.3956 Y6.6429
G01 X10.4312 Y6.7183
G01 X10.4365 Y6.7302
G01 X10.4412 Y6.7424
G01 X10.4693 Y6.8210
G01 X10.4735 Y6.8334
G01 X10.4769 Y6.8460
G01 X10.4972 Y6.9269
G01 X10.5001 Y6.9397
G01 X10.5023 Y6.9526
G01 X10.5154 Y7.0416
G01 X10.5171 Y7.0611
G01 X10.5212 Y7.1444
G01 X10.5215 Y7.1575
G01 X10.5214 Y9.4640
G01 X10.5171 Y9.5539
G01 X10.5162 Y9.5669
G01 X10.5146 Y9.5799
G01 X10.5023 Y9.6624
G01 X10.4987 Y9.6817
G01 X10.4769 Y9.7690
G01 X10.4715 Y9.7878
G01 X10.4390 Y9.8787
G01 X10.4312 Y9.8967
G01 X10.4113 Y9.9388
G01 X10.4228 Y9.9281
G01 X10.4329 Y9.9197
G01 X10.4434 Y9.9117
G01 X10.4543 Y9.9043
G01 X10.4656 Y9.8975
G01 X10.4771 Y9.8912
G01 X10.4890 Y9.8855
G01 X10.5011 Y9.8804
G01 X10.5734 Y9.8520
G01 X10.5859 Y9.8478
G01 X10.5987 Y9.8442
G01 X10.6181 Y9.8400
G01 X10.6311 Y9.8380
G01 X10.6509 Y9.8363
G01 X10.6708 Y9.8360
G01 X10.6906 Y9.8372
G01 X10.7103 Y9.8398
G01 X10.7864 Y9.8549
G01 X10.7993 Y9.8578
G01 X10.8121 Y9.8613
G01 X10.8246 Y9.8655
G01 X10.8370 Y9.8703
G01 X10.8490 Y9.8757
G01 X10.8609 Y9.8817
G01 X10.8723 Y9.8883
G01 X10.8889 Y9.8992
G01 X10.8995 Y9.9071
G01 X10.9097 Y9.9156
G01 X10.9424 Y9.9466
G01 X10.9188 Y9.8967
G01 X10.9135 Y9.8848
G01 X10.9088 Y9.8726
G01 X10.8807 Y9.7940
G01 X10.8765 Y9.7816
G01 X10.8731 Y9.7690
G01 X10.8528 Y9.6881
G01 X10.8499 Y9.6753
G01 X10.8477 Y9.6624
G01 X10.8354 Y9.5799
G01 X10.8338 Y9.5669
G01 X10.8329 Y9.5539
G01 X10.8288 Y9.4706
G01 X10.8285 Y9.4575
G01 X10.8285 Y7.1575
G01 X10.8288 Y7.1444
G01 X10.8329 Y7.0611
G01 X10.8346 Y7.0416
G01 X10.8477 Y6.9526
G01 X10.8499 Y6.9397
G01 X10.8528 Y6.9269
G01 X10.8731 Y6.8460
G01 X10.8765 Y6.8334
G01 X10.8807 Y6.8210
G01 X10.9088 Y6.7424
G01 X10.9135 Y6.7302
G01 X10.9188 Y6.7183
G01 X10.9544 Y6.6429
G01 X10.9603 Y6.6312
G01 X10.9668 Y6.6198
G01 X11.0096 Y6.5482
G01 X11.0166 Y6.5372
G01 X11.0242 Y6.5265
G01 X11.0739 Y6.4595
G01 X11.0819 Y6.4492
G01 X11.0905 Y6.4393
G01 X11.1465 Y6.3775
G01 X11.1555 Y6.3680
G01 X11.1650 Y6.3590
G01 X11.2268 Y6.3030
G01 X11.2367 Y6.2944
G01 X11.2470 Y6.2864
G01 X11.3140 Y6.2367
G01 X11.3247 Y6.2291
G01 X11.3357 Y6.2221
G01 X11.4145 Y6.1751
G01 X11.4145 Y5.8077
G01 X11.3973 Y5.7982
G01 X11.3257 Y5.7554
G01 X11.3147 Y5.7484
G01 X11.3040 Y5.7408
G01 X11.2370 Y5.6911
G01 X11.2267 Y5.6831
G01 X11.2168 Y5.6745
G01 X11.1550 Y5.6185
G01 X11.1455 Y5.6095
G01 X11.1365 Y5.6000
G01 X11.0805 Y5.5382
G01 X11.0719 Y5.5283
G01 X11.0639 Y5.5180
G01 X11.0142 Y5.4510
G01 X11.0066 Y5.4403
G01 X10.9996 Y5.4293
G01 X10.9568 Y5.3577
G01 X10.9503 Y5.3463
G01 X10.9444 Y5.3346
G01 X10.9088 Y5.2592
G01 X10.9035 Y5.2473
G01 X10.8988 Y5.2351
G01 X10.8707 Y5.1565
G01 X10.8665 Y5.1441
G01 X10.8631 Y5.1315
G01 X10.8428 Y5.0506
G01 X10.8387 Y5.0314
G01 X10.8254 Y4.9424
G01 X10.8238 Y4.9294
G01 X10.8229 Y4.9164
G01 X10.8188 Y4.8331
G01 X10.8185 Y4.8200
G01 X10.8185 Y2.5200
G01 X10.8188 Y2.5069
G01 X10.8229 Y2.4236
G01 X10.8238 Y2.4106
G01 X10.8254 Y2.3976
G01 X10.8377 Y2.3151
G01 X10.8399 Y2.3022
G01 X10.8428 Y2.2894
G01 X10.8631 Y2.2085
G01 X10.8665 Y2.1959
G01 X10.8707 Y2.1835
G01 X10.8988 Y2.1049
G01 X10.9035 Y2.0927
G01 X10.9088 Y2.0808
G01 X10.9444 Y2.0054
G01 X10.9503 Y1.9937
G01 X10.9568 Y1.9823
G01 X10.9996 Y1.9107
G01 X11.0066 Y1.8997
G01 X11.0142 Y1.8890
G01 X11.0639 Y1.8220
G01 X11.0719 Y1.8117
G01 X11.0805 Y1.8018
G01 X11.1365 Y1.7400
G01 X11.1455 Y1.7305
G01 X11.1550 Y1.7215
G01 X11.2168 Y1.6655
G01 X11.2267 Y1.6569
G01 X11.2370 Y1.6489
G01 X11.3040 Y1.5992
G01 X11.3202 Y1.5881
G01 X11.3973 Y1.5418
G01 X11.4087 Y1.5353
G01 X11.4204 Y1.5294
G01 X11.4958 Y1.4938
G01 X11.5077 Y1.4885
G01 X11.5199 Y1.4838
G01 X11.5985 Y1.4557
G01 X11.6109 Y1.4515
G01 X11.6235 Y1.4481
G01 X11.7044 Y1.4278
G01 X11.7172 Y1.4249
G01 X11.7301 Y1.4227
G01 X11.8126 Y1.4104
G01 X11.8256 Y1.4088
G01 X11.8386 Y1.4079
G01 X11.9219 Y1.4038
G01 X11.9350 Y1.4035
G01 X11.9481 Y1.4038
G01 X12.0314 Y1.4079
G01 X12.0444 Y1.4088
G01 X12.0574 Y1.4104
G01 X12.1464 Y1.4237
G01 X12.1656 Y1.4278
G01 X12.2465 Y1.4481
G01 X12.2591 Y1.4515
G01 X12.2715 Y1.4557
G01 X12.3501 Y1.4838
G01 X12.3623 Y1.4885
G01 X12.3742 Y1.4938
G01 X12.4496 Y1.5294
G01 X12.4613 Y1.5353
G01 X12.4727 Y1.5418
G01 X12.5498 Y1.5881
G01 X12.5660 Y1.5992
G01 X12.6330 Y1.6489
G01 X12.6433 Y1.6569
G01 X12.6532 Y1.6655
G01 X12.7198 Y1.7259
G01 X12.7335 Y1.7400
G01 X12.7939 Y1.8067
G01 X12.8022 Y1.8168
G01 X12.8187 Y1.8389
G01 X12.8147 Y1.8262
G01 X12.8113 Y1.8134
G01 X12.8075 Y1.7939
G01 X12.8052 Y1.7741
G01 X12.8043 Y1.7542
G01 X12.8049 Y1.7344
G01 X12.8061 Y1.7211
G01 X12.8171 Y1.6443
G01 X12.8206 Y1.6248
G01 X12.8238 Y1.6119
G01 X12.8276 Y1.5992
G01 X12.8345 Y1.5806
G01 X12.8428 Y1.5625
G01 X12.8490 Y1.5509
G01 X12.8594 Y1.5340
G01 X12.8670 Y1.5232
G01 X12.8795 Y1.5077
G01 X12.9260 Y1.4540
G01 X12.9395 Y1.4395
G01 X12.9541 Y1.4261
G01 X12.9644 Y1.4177
G01 X12.9805 Y1.4062
G01 X12.9975 Y1.3958
G01 X13.0152 Y1.3868
G01 X13.0273 Y1.3815
G01 X13.0397 Y1.3769
G01 X13.0523 Y1.3728
G01 X13.1265 Y1.3511
G01 X13.1451 Y1.3468
G01 X13.1576 Y1.3447
G01 X13.1702 Y1.3432
G01 X13.1892 Y1.3421
G01 X23.7122 Y1.3421
G01 X23.7311 Y1.3432
G01 X23.7499 Y1.3457
G01 X23.7623 Y1.3481
G01 X23.8209 Y1.3608
G01 X23.8401 Y1.3663
G01 X23.8526 Y1.3707
G01 X23.8710 Y1.3784
G01 X23.8829 Y1.3844
G01 X23.8944 Y1.3909
G01 X23.9057 Y1.3980
G01 X23.9219 Y1.4096
G01 X23.9321 Y1.4181
G01 X23.9859 Y1.4644
G01 X24.0004 Y1.4780
G01 X24.0095 Y1.4876
G01 X24.0223 Y1.5028
G01 X24.0301 Y1.5134
G01 X24.0409 Y1.5301
G01 X24.0504 Y1.5476
G01 X24.0586 Y1.5656
G01 X24.0654 Y1.5843
G01 X24.0875 Y1.6587
G01 X24.0922 Y1.6771
G01 X24.0946 Y1.6896
G01 X24.0965 Y1.7021
G01 X24.0981 Y1.7211
G01 X24.0984 Y1.7338
G01 X24.1214 Y13.1445
G01 X24.1211 Y13.1581
G01 X24.1200 Y13.1716
G01 X24.1183 Y13.1851
G01 X24.1145 Y13.2051
G01 X24.0970 Y13.2732
G01 X24.0914 Y13.2920
G01 X24.0844 Y13.3104
G01 X24.0761 Y13.3282
G01 X24.0665 Y13.3453
G01 X24.0594 Y13.3563
G01 X24.0518 Y13.3670
G01 X24.0394 Y13.3822
G01 X24.0305 Y13.3918
G01 X23.9753 Y13.4463
G01 X23.9607 Y13.4597
G01 X23.9451 Y13.4719
G01 X23.9342 Y13.4794
G01 X23.9229 Y13.4864
G01 X23.9113 Y13.4928
G01 X23.8994 Y13.4986
G01 X23.8873 Y13.5038
G01 X23.8748 Y13.5084
G01 X23.8622 Y13.5124
G01 X23.8494 Y13.5158
G01 X23.7735 Y13.5318
G01 X23.7539 Y13.5351
G01 X23.7407 Y13.5365
G01 X23.7275 Y13.5373
G01 X23.7143 Y13.5374
G01 X23.7011 Y13.5368
G01 X23.6813 Y13.5347
G01 X23.6683 Y13.5326
G01 X23.6553 Y13.5297
G01 X23.6426 Y13.5263
G01 X23.6238 Y13.5199
G01 X23.5574 Y13.4945
G01 X23.5452 Y13.4895
G01 X23.5332 Y13.4839
G01 X23.5215 Y13.4776
G01 X23.5102 Y13.4709
G01 X23.4991 Y13.4635
G01 X23.4885 Y13.4556
G01 X23.4783 Y13.4472
G01 X23.4685 Y13.4383
G01 X23.4546 Y13.4241
G01 X23.4419 Y13.4089
G01 X23.3890 Y13.3367
G01 X23.3900 Y13.3500
G01 X23.3917 Y13.3900
G01 X23.3917 Y16.2756
G01 X23.7044 Y16.5883
G01 X23.9400 Y16.5883
G01 X23.9531 Y16.5887
G01 X23.9866 Y16.5904
G01 X24.0061 Y16.5925
G01 X24.0457 Y16.5987
G01 X24.0846 Y16.6082
G01 X24.1035 Y16.6136
G01 X24.1351 Y16.6249
G01 X24.1473 Y16.6296
G01 X24.1837 Y16.6464
G01 X24.1953 Y16.6523
G01 X24.2067 Y16.6587
G01 X24.2355 Y16.6761
G01 X24.2463 Y16.6833
G01 X24.2733 Y16.7032
G01 X24.2836 Y16.7113
G01 X24.3135 Y16.7380
G01 X24.3230 Y16.7470
G01 X24.3962 Y16.8202
G01 X24.3725 Y16.7672
G01 X24.3655 Y16.7486
G01 X24.3616 Y16.7360
G01 X24.3570 Y16.7167
G01 X24.3538 Y16.6971
G01 X24.3520 Y16.6773
G01 X24.3518 Y16.6574
G01 X24.3524 Y16.6442
G01 X24.3547 Y16.6245
G01 X24.3662 Y16.5477
G01 X24.3704 Y16.5283
G01 X24.3760 Y16.5093
G01 X24.3830 Y16.4907
G01 X24.3913 Y16.4727
G01 X24.4010 Y16.4554
G01 X24.4119 Y16.4388
G01 X24.4241 Y16.4231
G01 X24.4752 Y16.3647
G01 X24.4842 Y16.3549
G01 X24.4936 Y16.3457
G01 X24.5086 Y16.3327
G01 X24.5191 Y16.3246
G01 X24.5356 Y16.3136
G01 X24.5529 Y16.3038
G01 X24.5648 Y16.2980
G01 X24.5832 Y16.2904
G01 X24.6020 Y16.2842
G01 X24.6703 Y16.2647
G01 X24.6825 Y16.2614
G01 X24.6950 Y16.2588
G01 X24.7075 Y16.2568
G01 X24.7201 Y16.2554
G01 X24.7327 Y16.2545
G01 X24.7454 Y16.2543
G01 X30.3572 Y16.2882
G01 X30.3698 Y16.2885
G01 X30.3885 Y16.2902
G01 X30.4071 Y16.2932
G01 X30.4714 Y16.3074
G01 X30.4841 Y16.3109
G01 X30.4967 Y16.3150
G01 X30.5091 Y16.3198
G01 X30.5212 Y16.3251
G01 X30.5331 Y16.3311
G01 X30.5446 Y16.3376
G01 X30.5558 Y16.3447
G01 X30.5666 Y16.3524
G01 X30.5821 Y16.3649
G01 X30.6406 Y16.4158
G01 X30.6502 Y16.4250
G01 X30.6593 Y16.4346
G01 X30.6679 Y16.4447
G01 X30.6759 Y16.4551
G01 X30.6835 Y16.4660
G01 X30.6905 Y16.4772
G01 X30.6969 Y16.4888
G01 X30.7028 Y16.5007
G01 X30.7081 Y16.5128
G01 X30.7148 Y16.5315
G01 X30.7367 Y16.6060
G01 X30.7400 Y16.6182
G01 X30.7426 Y16.6306
G01 X30.7447 Y16.6431
G01 X30.7462 Y16.6557
G01 X30.7471 Y16.6684
G01 X30.7474 Y16.6811
G01 X30.7286 Y35.8263
G01 X30.7280 Y35.8452
G01 X30.7267 Y35.8578
G01 X30.7249 Y35.8703
G01 X30.7225 Y35.8827
G01 X30.7097 Y35.9414
G01 X30.7043 Y35.9605
G01 X30.6998 Y35.9731
G01 X30.6920 Y35.9914
G01 X30.6861 Y36.0033
G01 X30.6796 Y36.0149
G01 X30.6724 Y36.0262
G01 X30.6608 Y36.0423
G01 X30.6523 Y36.0526
G01 X30.6059 Y36.1063
G01 X30.5969 Y36.1161
G01 X30.5827 Y36.1299
G01 X30.5675 Y36.1426
G01 X30.5568 Y36.1505
G01 X30.5401 Y36.1612
G01 X30.5227 Y36.1707
G01 X30.5046 Y36.1788
G01 X30.4859 Y36.1856
G01 X30.4115 Y36.2076
G01 X30.3930 Y36.2123
G01 X30.3806 Y36.2147
G01 X30.3680 Y36.2165
G01 X30.3491 Y36.2181
G01 X30.3364 Y36.2184
G01 X1.1747 Y36.2376
G01 X1.1557 Y36.2369
G01 X1.1431 Y36.2357
G01 X1.1305 Y36.2339
G01 X1.1180 Y36.2315
G01 X1.0591 Y36.2187
G01 X1.0399 Y36.2132
G01 X1.0273 Y36.2088
G01 X1.0089 Y36.2010
G01 X0.9970 Y36.1950
G01 X0.9797 Y36.1850
G01 X0.9686 Y36.1776
G01 X0.9579 Y36.1696
G01 X0.9476 Y36.1611
G01 X0.8940 Y36.1146
G01 X0.8794 Y36.1011
G01 X0.8703 Y36.0915
G01 X0.8576 Y36.0762
G01 X0.8498 Y36.0656
G01 X0.8391 Y36.0489
G01 X0.8296 Y36.0314
G01 X0.8215 Y36.0133
G01 X0.8147 Y35.9946
G01 X0.7928 Y35.9202
G01 X0.7880 Y35.9017
G01 X0.7856 Y35.8893
G01 X0.7838 Y35.8767
G01 X0.7823 Y35.8578
G01 X0.7820 Y35.8451
G01 X0.7811 Y1.7346
G01 X0.7814 Y1.7219
G01 X0.7823 Y1.7092
G01 X0.7848 Y1.6904
G01 X0.7872 Y1.6779
G01 X0.8001 Y1.6191
G01 X0.8035 Y1.6062
G01 X0.8100 Y1.5873
G01 X0.8178 Y1.5689
G01 X0.8237 Y1.5570
G01 X0.8303 Y1.5454
G01 X0.8374 Y1.5341
G01 X0.8491 Y1.5180
G01 X0.8576 Y1.5077
G01 X0.9085 Y1.4491
G01 X0.9224 Y1.4349
G01 X0.9373 Y1.4218
G01 X0.9478 Y1.4137
G01 X0.9642 Y1.4026
G01 X0.9814 Y1.3927
G01 X0.9993 Y1.3841
G01 X1.0178 Y1.3769
G01 X1.0304 Y1.3728
G01 X1.0985 Y1.3528
G01 X1.1108 Y1.3495
G01 X1.1232 Y1.3468
G01 X1.1357 Y1.3447
G01 X1.1483 Y1.3432
G01 X1.1609 Y1.3423
G01 X1.1736 Y1.3420
G01 X5.6014 Y1.3421
G01 X5.6214 Y1.3434
G01 X5.6412 Y1.3461
G01 X5.6542 Y1.3487
G01 X5.7153 Y1.3628
G01 X5.7339 Y1.3683
G01 X5.7461 Y1.3727
G01 X5.7581 Y1.3777
G01 X5.7755 Y1.3862
G01 X5.7923 Y1.3960
G01 X5.8031 Y1.4032
G01 X5.8135 Y1.4109
G01 X5.8235 Y1.4191
G01 X5.8810 Y1.4711
G01 X5.8906 Y1.4802
G01 X5.9041 Y1.4947
G01 X5.9165 Y1.5102
G01 X5.9277 Y1.5266
G01 X5.9377 Y1.5438
G01 X5.9463 Y1.5617
G01 X5.9536 Y1.5801
G01 X5.9595 Y1.5991
G01 X5.9780 Y1.6676
G01 X5.9812 Y1.6805
G01 X5.9847 Y1.7000
G01 X5.9867 Y1.7198
G01 X5.9873 Y1.7396
G01 X5.9864 Y1.7595
G01 X5.9849 Y1.7726
G01 X5.9816 Y1.7922
G01 X5.9785 Y1.8051
G01 X5.9657 Y1.8464
G01 X5.9878 Y1.8168
G01 X5.9961 Y1.8067
G01 X6.0609 Y1.7352
G01 X6.0750 Y1.7215
G01 X6.1417 Y1.6611
G01 X6.1570 Y1.6489
G01 X6.2240 Y1.5992
G01 X6.2347 Y1.5916
G01 X6.2457 Y1.5846
G01 X6.3173 Y1.5418
G01 X6.3345 Y1.5323
G01 X6.4158 Y1.4938
G01 X6.4277 Y1.4885
G01 X6.4399 Y1.4838
G01 X6.5185 Y1.4557
G01 X6.5309 Y1.4515
G01 X6.5435 Y1.4481
G01 X6.6244 Y1.4278
G01 X6.6372 Y1.4249
G01 X6.6501 Y1.4227
G01 X6.7326 Y1.4104
G01 X6.7456 Y1.4088
G01 X6.7586 Y1.4079
G01 X6.8485 Y1.4036
G01 X6.8681 Y1.4038
G01 X6.9514 Y1.4079
G01 X6.9644 Y1.4088
G01 X6.9774 Y1.4104
G01 X7.0599 Y1.4227
G01 X7.0728 Y1.4249
G01 X7.0856 Y1.4278
G01 X7.1665 Y1.4481
G01 X7.1791 Y1.4515
G01 X7.1915 Y1.4557
G01 X7.2701 Y1.4838
G01 X7.2823 Y1.4885
G01 X7.2942 Y1.4938
G01 X7.3696 Y1.5294
G01 X7.3813 Y1.5353
G01 X7.3927 Y1.5418
G01 X7.4643 Y1.5846
G01 X7.4753 Y1.5916
G01 X7.4860 Y1.5992
G01 X7.5530 Y1.6489
G01 X7.5633 Y1.6569
G01 X7.5732 Y1.6655
G01 X7.6350 Y1.7215
G01 X7.6445 Y1.7305
G01 X7.6535 Y1.7400
G01 X7.7095 Y1.8018
G01 X7.7181 Y1.8117
G01 X7.7261 Y1.8220
G01 X7.7758 Y1.8890
G01 X7.7834 Y1.8997
G01 X7.7904 Y1.9107
G01 X7.8332 Y1.9823
G01 X7.8397 Y1.9937
G01 X7.8456 Y2.0054
G01 X7.8812 Y2.0808
G01 X7.8865 Y2.0927
G01 X7.8912 Y2.1049
G01 X7.9193 Y2.1835
G01 X7.9235 Y2.1959
G01 X7.9269 Y2.2085
G01 X7.9472 Y2.2894
G01 X7.9501 Y2.3022
G01 X7.9523 Y2.3151
G01 X7.9646 Y2.3976
G01 X7.9667 Y2.4171
G01 X7.9712 Y2.5069
G01 X7.9715 Y2.5200
G01 X7.9715 Y4.8200
G01 X7.9712 Y4.8331
G01 X7.9667 Y4.9229
G01 X7.9646 Y4.9424
G01 X7.9523 Y5.0249
G01 X7.9501 Y5.0378
G01 X7.9472 Y5.0506
G01 X7.9269 Y5.1315
G01 X7.9235 Y5.1441
G01 X7.9193 Y5.1565
G01 X7.8912 Y5.2351
G01 X7.8865 Y5.2473
G01 X7.8812 Y5.2592
G01 X7.8456 Y5.3346
G01 X7.8397 Y5.3463
G01 X7.8332 Y5.3577
G01 X7.7904 Y5.4293
G01 X7.7834 Y5.4403
G01 X7.7758 Y5.4510
G01 X7.7261 Y5.5180
G01 X7.7181 Y5.5283
G01 X7.7095 Y5.5382
G01 X7.6535 Y5.6000
G01 X7.6445 Y5.6095
G01 X7.6350 Y5.6185
G01 X7.5732 Y5.6745
G01 X7.5633 Y5.6831
G01 X7.5530 Y5.6911
G01 X7.4860 Y5.7408
G01 X7.4753 Y5.7484
G01 X7.4643 Y5.7554
G01 X7.3855 Y5.8024
G01 X7.3855 Y6.1698
G01 X7.4027 Y6.1793
G01 X7.4743 Y6.2221
G01 X7.4853 Y6.2291
G01 X7.4960 Y6.2367
G01 X7.5630 Y6.2864
G01 X7.5733 Y6.2944
G01 X7.5832 Y6.3030
G01 X7.6450 Y6.3590
G01 X7.6545 Y6.3680
G01 X7.6635 Y6.3775
G01 X7.7195 Y6.4393
G01 X7.7281 Y6.4492
G01 X7.7361 Y6.4595
G01 X7.7858 Y6.5265
G01 X7.7934 Y6.5372
G01 X7.8004 Y6.5482
G01 X7.8432 Y6.6198
G01 X7.8497 Y6.6312
G01 X7.8556 Y6.6429
G01 X7.8912 Y6.7183
G01 X7.8965 Y6.7302
G01 X7.9012 Y6.7424
G01 X7.9293 Y6.8210
G01 X7.9335 Y6.8334
G01 X7.9369 Y6.8460
G01 X7.9572 Y6.9269
G01 X7.9601 Y6.9397
G01 X7.9623 Y6.9526
G01 X7.9754 Y7.0416
G01 X7.9771 Y7.0611
G01 X7.9812 Y7.1444
G01 X7.9815 Y7.1575
G01 X7.9814 Y9.4640
G01 X7.9771 Y9.5539
G01 X7.9762 Y9.5669
G01 X7.9746 Y9.5799
G01 X7.9623 Y9.6624
G01 X7.9587 Y9.6817
G01 X7.9369 Y9.7690
G01 X7.9315 Y9.7878
G01 X7.8990 Y9.8787
G01 X7.8912 Y9.8967
G01 X7.8719 Y9.9377
G01 X7.8822 Y9.9281
G01 X7.8923 Y9.9197
G01 X7.9028 Y9.9117
G01 X7.9137 Y9.9043
G01 X7.9250 Y9.8975
G01 X7.9365 Y9.8912
G01 X7.9484 Y9.8855
G01 X7.9605 Y9.8803
G01 X8.0328 Y9.8520
G01 X8.0453 Y9.8478
G01 X8.0581 Y9.8442
G01 X8.0775 Y9.8400
G01 X8.0906 Y9.8380
G01 X8.1103 Y9.8362
G01 X8.1302 Y9.8359
G01 X8.1500 Y9.8371
G01 X8.1697 Y9.8398
G01 X8.2458 Y9.8549
G01 X8.2587 Y9.8578
G01 X8.2715 Y9.8613
G01 X8.2840 Y9.8655
G01 X8.2964 Y9.8703
G01 X8.3085 Y9.8757
G01 X8.3203 Y9.8817
G01 X8.3374 Y9.8917
G01 X8.3483 Y9.8991
G01 X8.3589 Y9.9071
G01 X8.3691 Y9.9155
G01 X8.4028 Y9.9476
G01 X8.3788 Y9.8967
G01 X8.3735 Y9.8848
G01 X8.3688 Y9.8726
G01 X8.3407 Y9.7940
G01 X8.3365 Y9.7816
G01 X8.3331 Y9.7690
G01 X8.3128 Y9.6881
G01 X8.3099 Y9.6753
G01 X8.3077 Y9.6624
G01 X8.2954 Y9.5799
G01 X8.2938 Y9.5669
G01 X8.2929 Y9.5539
G01 X8.2888 Y9.4706
G01 X8.2885 Y9.4575
G01 X8.2885 Y7.1575
G01 X8.2888 Y7.1444
G01 X8.2929 Y7.0611
G01 X8.2946 Y7.0416
G01 X8.3077 Y6.9526
G01 X8.3099 Y6.9397
G01 X8.3128 Y6.9269
G01 X8.3331 Y6.8460
G01 X8.3365 Y6.8334
G01 X8.3407 Y6.8210
G01 X8.3688 Y6.7424
G01 X8.3735 Y6.7302
G01 X8.3788 Y6.7183
G01 X8.4144 Y6.6429
G01 X8.4203 Y6.6312
G01 X8.4268 Y6.6198
G01 X8.4696 Y6.5482
G01 X8.4766 Y6.5372
G01 X8.4842 Y6.5265
G01 X8.5339 Y6.4595
G01 X8.5419 Y6.4492
G01 X8.5505 Y6.4393
G01 X8.6065 Y6.3775
G01 X8.6155 Y6.3680
G01 X8.6250 Y6.3590
G01 X8.6868 Y6.3030
G01 X8.6967 Y6.2944
G01 X8.7070 Y6.2864
G01 X8.7740 Y6.2367
G01 X8.7847 Y6.2291
G01 X8.7957 Y6.2221
G01 X8.8633 Y6.1816
G01 X8.8633 Y5.8018
G00 Z2.0000
G00 X9.0087 Y5.7105
G01 F50.00
G01 Z-0.1200
G01 F60.00
G01 X8.9372 Y5.6765
G01 X8.8605 Y5.6307
G01 X8.8506 Y5.6241
G01 X8.7836 Y5.5744
G01 X8.7744 Y5.5668
G01 X8.7083 Y5.5067
G01 X8.6443 Y5.4361
G01 X8.5909 Y5.3644
G01 X8.5843 Y5.3545
G01 X8.5385 Y5.2778
G01 X8.5002 Y5.1971
G01 X8.4956 Y5.1861
G01 X8.4657 Y5.1019
G01 X8.4438 Y5.0153
G01 X8.4420 Y5.0065
G01 X8.4285 Y4.9152
G01 X8.4239 Y4.8200
G01 X8.4239 Y2.5200
G01 X8.4281 Y2.4307
G01 X8.4289 Y2.4219
G01 X8.4425 Y2.3305
G01 X8.4657 Y2.2381
G01 X8.4978 Y2.1484
G01 X8.5385 Y2.0622
G01 X8.5875 Y1.9805
G01 X8.6443 Y1.9039
G01 X8.7083 Y1.8333
G01 X8.7789 Y1.7693
G01 X8.8555 Y1.7125
G01 X8.9372 Y1.6635
G01 X9.0234 Y1.6228
G01 X9.1131 Y1.5907
G01 X9.2055 Y1.5675
G01 X9.2998 Y1.5535
G01 X9.3950 Y1.5489
G01 X9.4843 Y1.5531
G01 X9.4931 Y1.5539
G01 X9.5845 Y1.5675
G01 X9.6712 Y1.5891
G01 X9.6826 Y1.5925
G01 X9.7611 Y1.6206
G01 X9.7721 Y1.6252
G01 X9.8528 Y1.6635
G01 X9.9345 Y1.7125
G01 X10.0111 Y1.7693
G01 X10.0774 Y1.8292
G01 X10.0858 Y1.8376
G01 X10.1418 Y1.8994
G01 X10.1494 Y1.9086
G01 X10.2025 Y1.9805
G01 X10.2515 Y2.0622
G01 X10.2922 Y2.1484
G01 X10.3225 Y2.2324
G01 X10.3259 Y2.2438
G01 X10.3462 Y2.3247
G01 X10.3485 Y2.3364
G01 X10.3615 Y2.4248
G01 X10.3661 Y2.5200
G01 X10.3661 Y4.8200
G01 X10.3619 Y4.9093
G01 X10.3607 Y4.9211
G01 X10.3475 Y5.0095
G01 X10.3259 Y5.0962
G01 X10.3225 Y5.1076
G01 X10.2944 Y5.1861
G01 X10.2898 Y5.1971
G01 X10.2515 Y5.2778
G01 X10.2057 Y5.3545
G01 X10.2008 Y5.3620
G01 X10.1457 Y5.4361
G01 X10.0858 Y5.5024
G01 X10.0774 Y5.5108
G01 X10.0134 Y5.5688
G01 X10.0064 Y5.5744
G01 X9.9394 Y5.6241
G01 X9.9320 Y5.6291
G01 X9.8528 Y5.6765
G01 X9.8013 Y5.7010
G01 X9.8013 Y6.2718
G01 X9.8628 Y6.3010
G01 X9.9420 Y6.3484
G01 X9.9494 Y6.3534
G01 X10.0164 Y6.4031
G01 X10.0234 Y6.4087
G01 X10.0917 Y6.4708
G01 X10.1518 Y6.5369
G01 X10.1594 Y6.5461
G01 X10.2091 Y6.6131
G01 X10.2141 Y6.6205
G01 X10.2615 Y6.6997
G01 X10.2998 Y6.7804
G01 X10.3044 Y6.7914
G01 X10.3343 Y6.8756
G01 X10.3575 Y6.9680
G01 X10.3707 Y7.0564
G01 X10.3719 Y7.0682
G01 X10.3761 Y7.1575
G01 X10.3761 Y9.4605
G01 X10.3719 Y9.5468
G01 X10.3707 Y9.5586
G01 X10.3575 Y9.6470
G01 X10.3352 Y9.7366
G01 X10.3325 Y9.7451
G01 X10.3044 Y9.8236
G01 X10.2998 Y9.8346
G01 X10.2615 Y9.9153
G01 X10.2125 Y9.9970
G01 X10.1557 Y10.0736
G01 X10.0958 Y10.1399
G01 X10.0874 Y10.1483
G01 X10.0211 Y10.2082
G01 X9.9494 Y10.2616
G01 X9.9395 Y10.2682
G01 X9.8628 Y10.3140
G01 X9.7766 Y10.3547
G01 X9.6926 Y10.3850
G01 X9.6812 Y10.3884
G01 X9.5945 Y10.4100
G01 X9.5002 Y10.4240
G01 X9.4050 Y10.4286
G01 X9.3098 Y10.4240
G01 X9.2155 Y10.4100
G01 X9.1231 Y10.3868
G01 X9.0334 Y10.3547
G01 X8.9472 Y10.3140
G01 X8.8655 Y10.2650
G01 X8.7889 Y10.2082
G01 X8.7183 Y10.1442
G01 X8.6543 Y10.0736
G01 X8.5975 Y9.9970
G01 X8.5485 Y9.9153
G01 X8.5078 Y9.8291
G01 X8.4757 Y9.7394
G01 X8.4525 Y9.6470
G01 X8.4385 Y9.5527
G01 X8.4339 Y9.4575
G01 X8.4339 Y7.1575
G01 X8.4385 Y7.0623
G01 X8.4515 Y6.9739
G01 X8.4538 Y6.9622
G01 X8.4757 Y6.8756
G01 X8.5056 Y6.7914
G01 X8.5102 Y6.7804
G01 X8.5485 Y6.6997
G01 X8.5943 Y6.6230
G01 X8.6009 Y6.6131
G01 X8.6524 Y6.5437
G01 X8.6582 Y6.5369
G01 X8.7183 Y6.4708
G01 X8.7844 Y6.4107
G01 X8.7912 Y6.4049
G01 X8.8606 Y6.3534
G01 X8.8705 Y6.3468
G01 X8.9472 Y6.3010
G01 X9.0087 Y6.2718
G01 X9.0087 Y5.7105
G00 Z2.0000
G00 X10.6750 Y6.0317
G01 F50.00
G01 Z-0.1200
G01 F60.00
G01 X10.6310 Y5.9833
G01 X10.6650 Y5.9458
G01 X10.7090 Y5.9942
G01 X10.6750 Y6.0317
G00 Z2.0000
G00 X10.6750 Y6.2651
G01 F50.00
G01 Z-0.1200
G01 F60.00
G01 X10.6160 Y6.1860
G01 X10.5941 Y6.1593
G01 X10.5827 Y6.1464
G01 X10.5267 Y6.0846
G01 X10.5029 Y6.0596
G01 X10.4779 Y6.0358
G01 X10.4210 Y5.9842
G01 X10.4679 Y5.9417
G01 X10.4929 Y5.9179
G01 X10.5167 Y5.8929
G01 X10.5727 Y5.8311
G01 X10.5841 Y5.8182
G01 X10.6060 Y5.7915
G01 X10.6650 Y5.7124
G01 X10.7240 Y5.7915
G01 X10.7348 Y5.8050
G01 X10.7573 Y5.8311
G01 X10.8133 Y5.8929
G01 X10.8371 Y5.9179
G01 X10.8621 Y5.9417
G01 X10.9190 Y5.9933
G01 X10.8721 Y6.0358
G01 X10.8471 Y6.0596
G01 X10.8233 Y6.0846
G01 X10.7673 Y6.1464
G01 X10.7559 Y6.1593
G01 X10.7340 Y6.1860
G01 X10.6750 Y6.2651
G00 Z2.0000
G00 X10.6750 Y6.5536
G01 F50.00
G01 Z-0.1200
G01 F60.00
G01 X10.6524 Y6.5062
G01 X10.6395 Y6.4821
G01 X10.5826 Y6.3871
G01 X10.5751 Y6.3757
G01 X10.5594 Y6.3533
G01 X10.5097 Y6.2863
G01 X10.4928 Y6.2647
G01 X10.4750 Y6.2440
G01 X10.4190 Y6.1822
G01 X10.4001 Y6.1624
G01 X10.3903 Y6.1528
G01 X10.3082 Y6.0785
G01 X10.2871 Y6.0611
G01 X10.2374 Y6.0241
G01 X10.2374 Y5.9460
G01 X10.2771 Y5.9164
G01 X10.2982 Y5.8990
G01 X10.3803 Y5.8247
G01 X10.3901 Y5.8151
G01 X10.4090 Y5.7953
G01 X10.4650 Y5.7335
G01 X10.4828 Y5.7128
G01 X10.4997 Y5.6912
G01 X10.5494 Y5.6242
G01 X10.5651 Y5.6018
G01 X10.5726 Y5.5904
G01 X10.6295 Y5.4954
G01 X10.6424 Y5.4713
G01 X10.6650 Y5.4239
G01 X10.6876 Y5.4713
G01 X10.7005 Y5.4954
G01 X10.7574 Y5.5904
G01 X10.7726 Y5.6131
G01 X10.7806 Y5.6242
G01 X10.8303 Y5.6912
G01 X10.8472 Y5.7128
G01 X10.8650 Y5.7335
G01 X10.9210 Y5.7953
G01 X10.9399 Y5.8151
G01 X10.9597 Y5.8340
G01 X11.0215 Y5.8900
G01 X11.0422 Y5.9078
G01 X11.0638 Y5.9247
G01 X11.1237 Y5.9691
G01 X11.1237 Y6.0158
G01 X11.0738 Y6.0528
G01 X11.0522 Y6.0697
G01 X11.0315 Y6.0875
G01 X10.9597 Y6.1528
G01 X10.9499 Y6.1624
G01 X10.9310 Y6.1822
G01 X10.8750 Y6.2440
G01 X10.8660 Y6.2543
G01 X10.8486 Y6.2754
G01 X10.7906 Y6.3533
G01 X10.7749 Y6.3757
G01 X10.7674 Y6.3871
G01 X10.7105 Y6.4821
G01 X10.6976 Y6.5062
G01 X10.6750 Y6.5536
G00 Z2.0000
G00 X12.3201 Y6.2618
G01 F50.00
G01 Z-0.1200
G01 F60.00
G01 X12.3201 Y5.8022
G01 X12.3195 Y5.7925
G01 X12.3162 Y5.7625
G01 X12.3145 Y5.7529
G01 X12.3101 Y5.7329
G01 X12.3101 Y5.7157
G01 X12.3928 Y5.6765
G01 X12.4695 Y5.6307
G01 X12.4794 Y5.6241
G01 X12.5511 Y5.5707
G01 X12.6174 Y5.5108
G01 X12.6258 Y5.5024
G01 X12.6818 Y5.4406
G01 X12.6894 Y5.4314
G01 X12.7425 Y5.3595
G01 X12.7915 Y5.2778
G01 X12.8322 Y5.1916
G01 X12.8625 Y5.1076
G01 X12.8652 Y5.0991
G01 X12.8862 Y5.0153
G01 X12.8885 Y5.0036
G01 X12.9015 Y4.9152
G01 X12.9060 Y4.8259
G01 X12.9061 Y4.0451
G01 X13.1719 Y4.0451
G01 X13.1718 Y4.8728
G01 X13.1585 Y5.0293
G01 X13.1059 Y5.2321
G01 X13.0197 Y5.4235
G01 X12.9025 Y5.5977
G01 X12.7577 Y5.7496
G01 X12.7070 Y5.7873
G01 X12.7004 Y5.7929
G01 X12.6942 Y5.7989
G01 X12.6848 Y5.8099
G01 X12.6421 Y5.8666
G01 X12.6370 Y5.8740
G01 X12.6310 Y5.8844
G01 X12.6260 Y5.8954
G01 X12.6222 Y5.9068
G01 X12.6196 Y5.9186
G01 X12.6181 Y5.9305
G01 X12.6128 Y6.0013
G01 X12.6125 Y6.0103
G01 X12.6131 Y6.0223
G01 X12.6149 Y6.0342
G01 X12.6178 Y6.0459
G01 X12.6231 Y6.0600
G01 X12.6271 Y6.0680
G01 X12.6624 Y6.1331
G01 X12.6672 Y6.1407
G01 X12.6725 Y6.1480
G01 X12.6805 Y6.1570
G01 X12.6948 Y6.1705
G01 X12.8350 Y6.2922
G01 X12.9681 Y6.4546
G01 X13.0717 Y6.6367
G01 X13.1434 Y6.8340
G01 X13.1812 Y7.0428
G01 X13.1818 Y7.0562
G01 X13.1819 Y7.9324
G01 X12.9161 Y7.9324
G01 X12.9160 Y7.1516
G01 X12.9115 Y7.0623
G01 X12.8985 Y6.9739
G01 X12.8962 Y6.9622
G01 X12.8759 Y6.8813
G01 X12.8725 Y6.8699
G01 X12.8422 Y6.7859
G01 X12.8042 Y6.7050
G01 X12.7985 Y6.6945
G01 X12.7557 Y6.6230
G01 X12.7491 Y6.6131
G01 X12.6957 Y6.5414
G01 X12.6358 Y6.4751
G01 X12.6274 Y6.4667
G01 X12.5611 Y6.4068
G01 X12.4845 Y6.3500
G01 X12.4028 Y6.3010
G01 X12.3201 Y6.2618
G00 Z2.0000
G00 X12.4655 Y6.1698
G01 F50.00
G01 Z-0.1200
G01 F60.00
G01 X12.4655 Y5.8024
G01 X12.5436 Y5.7557
G01 X12.5221 Y5.7845
G01 X12.5147 Y5.7954
G01 X12.5078 Y5.8067
G01 X12.5015 Y5.8184
G01 X12.4958 Y5.8303
G01 X12.4906 Y5.8425
G01 X12.4841 Y5.8613
G01 X12.4805 Y5.8740
G01 X12.4776 Y5.8869
G01 X12.4744 Y5.9065
G01 X12.4731 Y5.9197
G01 X12.4678 Y5.9905
G01 X12.4671 Y6.0103
G01 X12.4678 Y6.0302
G01 X12.4692 Y6.0433
G01 X12.4711 Y6.0564
G01 X12.4753 Y6.0758
G01 X12.4789 Y6.0886
G01 X12.4831 Y6.1011
G01 X12.4879 Y6.1135
G01 X12.4962 Y6.1315
G01 X12.5332 Y6.1998
G01 X12.5420 Y6.2148
G01 X12.4827 Y6.1793
G01 X12.4655 Y6.1698
G00 Z2.0000
G00 X12.3201 Y10.6361
G01 F50.00
G01 Z-0.1200
G01 F60.00
G01 X12.3201 Y10.3532
G01 X12.4028 Y10.3140
G01 X12.4795 Y10.2682
G01 X12.4894 Y10.2616
G01 X12.5611 Y10.2082
G01 X12.6274 Y10.1483
G01 X12.6358 Y10.1399
G01 X12.6918 Y10.0781
G01 X12.6994 Y10.0689
G01 X12.7525 Y9.9970
G01 X12.8015 Y9.9153
G01 X12.8422 Y9.8291
G01 X12.8743 Y9.7394
G01 X12.8962 Y9.6528
G01 X12.8985 Y9.6411
G01 X12.9115 Y9.5527
G01 X12.9160 Y9.4634
G01 X12.9161 Y8.6826
G01 X13.1819 Y8.6826
G01 X13.1818 Y9.5103
G01 X13.1685 Y9.6668
G01 X13.1158 Y9.8700
G01 X13.0297 Y10.0610
G01 X12.9125 Y10.2352
G01 X12.7677 Y10.3871
G01 X12.5990 Y10.5126
G01 X12.4122 Y10.6075
G01 X12.3201 Y10.6361
G00 Z2.0000
G00 X11.0465 Y13.4422
G01 F50.00
G01 Z-0.1200
G01 F60.00
G01 X11.0546 Y13.4696
G01 X11.0588 Y13.4816
G01 X11.0662 Y13.4993
G01 X11.0748 Y13.5165
G01 X11.0846 Y13.5329
G01 X11.0956 Y13.5486
G01 X11.1076 Y13.5635
G01 X11.1255 Y13.5831
G01 X11.1112 Y13.5771
G01 X11.0735 Y13.5636
G01 X11.0610 Y13.5598
G01 X11.0465 Y13.5561
G01 X11.0465 Y13.4422
G00 Z2.0000
G00 X11.4881 Y15.4241
G01 F50.00
G01 Z-0.1200
G01 F60.00
G01 X11.4573 Y15.4077
G01 X11.4453 Y15.4022
G01 X11.4267 Y15.3952
G01 X11.4077 Y15.3895
G01 X11.3948 Y15.3866
G01 X11.3818 Y15.3842
G01 X11.3686 Y15.3826
G01 X11.3488 Y15.3813
G01 X11.3356 Y15.3812
G01 X11.3224 Y15.3818
G01 X11.2449 Y15.3875
G01 X11.2318 Y15.3891
G01 X11.2123 Y15.3927
G01 X11.1994 Y15.3959
G01 X11.1868 Y15.3997
G01 X11.1682 Y15.4067
G01 X11.1561 Y15.4121
G01 X11.1443 Y15.4180
G01 X11.1328 Y15.4246
G01 X11.1216 Y15.4317
G01 X11.1108 Y15.4394
G01 X11.0540 Y15.4819
G01 X11.0436 Y15.4901
G01 X11.0337 Y15.4987
G01 X11.0242 Y15.5079
G01 X11.0152 Y15.5174
G01 X11.0049 Y15.5297
G01 X11.0222 Y15.4606
G01 X11.0251 Y15.4478
G01 X11.0273 Y15.4349
G01 X11.0396 Y15.3524
G01 X11.0417 Y15.3329
G01 X11.0464 Y15.2365
G01 X11.0465 Y14.9826
G01 X11.4881 Y15.4241
G00 Z2.0000
G00 X12.4932 Y14.8972
G01 F50.00
G01 Z-0.1200
G01 F60.00
G01 X12.5180 Y14.9106
G01 X12.5344 Y14.9183
G01 X12.5144 Y14.9183
G01 X12.4932 Y14.8972
G00 Z2.0000
G00 X11.8353 Y17.9231
G01 F50.00
G01 Z-0.1200
G01 F60.00
G01 X11.8691 Y17.9553
G01 X11.8792 Y17.9637
G01 X11.8898 Y17.9717
G01 X11.9064 Y17.9826
G01 X11.9179 Y17.9891
G01 X11.9297 Y17.9951
G01 X11.9418 Y18.0005
G01 X11.9541 Y18.0053
G01 X11.9667 Y18.0095
G01 X11.9859 Y18.0146
G01 X12.0685 Y18.0310
G01 X12.0882 Y18.0337
G01 X12.1014 Y18.0346
G01 X12.1146 Y18.0349
G01 X12.1279 Y18.0346
G01 X12.1411 Y18.0336
G01 X12.1542 Y18.0319
G01 X12.1672 Y18.0296
G01 X12.1801 Y18.0266
G01 X12.1929 Y18.0230
G01 X12.2054 Y18.0188
G01 X12.2777 Y17.9905
G01 X12.2958 Y17.9825
G01 X12.3132 Y17.9733
G01 X12.3245 Y17.9665
G01 X12.3353 Y17.9591
G01 X12.3509 Y17.9471
G01 X12.3158 Y18.0213
G01 X12.3105 Y18.0332
G01 X12.3058 Y18.0454
G01 X12.2777 Y18.1240
G01 X12.2735 Y18.1364
G01 X12.2701 Y18.1490
G01 X12.2498 Y18.2299
G01 X12.2469 Y18.2427
G01 X12.2447 Y18.2556
G01 X12.2324 Y18.3381
G01 X12.2308 Y18.3511
G01 X12.2299 Y18.3641
G01 X12.2258 Y18.4474
G01 X12.2255 Y18.4605
G01 X12.2255 Y20.7605
G01 X12.2258 Y20.7736
G01 X12.2299 Y20.8569
G01 X12.2316 Y20.8764
G01 X12.2447 Y20.9654
G01 X12.2469 Y20.9783
G01 X12.2498 Y20.9911
G01 X12.2701 Y21.0720
G01 X12.2735 Y21.0846
G01 X12.2777 Y21.0970
G01 X12.3058 Y21.1756
G01 X12.3105 Y21.1878
G01 X12.3158 Y21.1997
G01 X12.3514 Y21.2751
G01 X12.3573 Y21.2868
G01 X12.3638 Y21.2982
G01 X12.4066 Y21.3698
G01 X12.4136 Y21.3808
G01 X12.4212 Y21.3915
G01 X12.4709 Y21.4585
G01 X12.4789 Y21.4688
G01 X12.4875 Y21.4787
G01 X12.5435 Y21.5405
G01 X12.5525 Y21.5500
G01 X12.5620 Y21.5590
G01 X12.6238 Y21.6150
G01 X12.6337 Y21.6236
G01 X12.6440 Y21.6316
G01 X12.7110 Y21.6813
G01 X12.7217 Y21.6889
G01 X12.7327 Y21.6959
G01 X12.8003 Y21.7364
G01 X12.8003 Y25.1046
G01 X12.7327 Y25.1451
G01 X12.7217 Y25.1521
G01 X12.7110 Y25.1597
G01 X12.6440 Y25.2094
G01 X12.6337 Y25.2174
G01 X12.6238 Y25.2260
G01 X12.5620 Y25.2820
G01 X12.5525 Y25.2910
G01 X12.5435 Y25.3005
G01 X12.4875 Y25.3623
G01 X12.4789 Y25.3722
G01 X12.4709 Y25.3825
G01 X12.4212 Y25.4495
G01 X12.4136 Y25.4602
G01 X12.4066 Y25.4712
G01 X12.3638 Y25.5428
G01 X12.3573 Y25.5542
G01 X12.3514 Y25.5659
G01 X12.3158 Y25.6413
G01 X12.3105 Y25.6532
G01 X12.3058 Y25.6654
G01 X12.2777 Y25.7440
G01 X12.2735 Y25.7564
G01 X12.2701 Y25.7690
G01 X12.2498 Y25.8499
G01 X12.2469 Y25.8627
G01 X12.2447 Y25.8756
G01 X12.2324 Y25.9581
G01 X12.2308 Y25.9711
G01 X12.2299 Y25.9841
G01 X12.2256 Y26.0740
G01 X12.2255 Y28.3805
G01 X12.2258 Y28.3936
G01 X12.2299 Y28.4769
G01 X12.2308 Y28.4899
G01 X12.2324 Y28.5029
G01 X12.2447 Y28.5854
G01 X12.2469 Y28.5983
G01 X12.2498 Y28.6111
G01 X12.2701 Y28.6920
G01 X12.2735 Y28.7046
G01 X12.2777 Y28.7170
G01 X12.3058 Y28.7956
G01 X12.3105 Y28.8078
G01 X12.3158 Y28.8197
G01 X12.3514 Y28.8951
G01 X12.3573 Y28.9068
G01 X12.3638 Y28.9182
G01 X12.4066 Y28.9898
G01 X12.4136 Y29.0008
G01 X12.4212 Y29.0115
G01 X12.4709 Y29.0785
G01 X12.4789 Y29.0888
G01 X12.4875 Y29.0987
G01 X12.5435 Y29.1605
G01 X12.5525 Y29.1700
G01 X12.5620 Y29.1790
G01 X12.6238 Y29.2350
G01 X12.6337 Y29.2436
G01 X12.6440 Y29.2516
G01 X12.7110 Y29.3013
G01 X12.7217 Y29.3089
G01 X12.7327 Y29.3159
G01 X12.8043 Y29.3587
G01 X12.8157 Y29.3652
G01 X12.8274 Y29.3711
G01 X12.9028 Y29.4067
G01 X12.9189 Y29.4137
G01 X12.8883 Y29.4112
G01 X12.8752 Y29.4108
G01 X12.8556 Y29.4113
G01 X12.8362 Y29.4133
G01 X12.8169 Y29.4167
G01 X12.7979 Y29.4215
G01 X12.7793 Y29.4277
G01 X12.7612 Y29.4352
G01 X12.7495 Y29.4410
G01 X12.6807 Y29.4769
G01 X12.6693 Y29.4836
G01 X12.6528 Y29.4947
G01 X12.6372 Y29.5070
G01 X12.6273 Y29.5158
G01 X12.6179 Y29.5251
G01 X12.6090 Y29.5349
G01 X12.6005 Y29.5451
G01 X12.5888 Y29.5611
G01 X12.5783 Y29.5780
G01 X12.5431 Y29.6396
G01 X12.5368 Y29.6513
G01 X12.5311 Y29.6632
G01 X12.5237 Y29.6816
G01 X12.5177 Y29.7006
G01 X12.5131 Y29.7199
G01 X12.5100 Y29.7395
G01 X12.5083 Y29.7593
G01 X12.5081 Y29.7791
G01 X12.5121 Y29.8566
G01 X12.5131 Y29.8695
G01 X12.5147 Y29.8823
G01 X12.5169 Y29.8951
G01 X12.5198 Y29.9077
G01 X12.5252 Y29.9263
G01 X12.5319 Y29.9445
G01 X12.5372 Y29.9563
G01 X12.5420 Y29.9659
G01 X11.6589 Y29.0828
G01 X11.6875 Y29.0512
G01 X11.7002 Y29.0362
G01 X11.7538 Y28.9640
G01 X11.7649 Y28.9478
G01 X11.8112 Y28.8707
G01 X11.8177 Y28.8593
G01 X11.8236 Y28.8476
G01 X11.8592 Y28.7722
G01 X11.8670 Y28.7542
G01 X11.8973 Y28.6695
G01 X11.9015 Y28.6571
G01 X11.9049 Y28.6445
G01 X11.9252 Y28.5636
G01 X11.9281 Y28.5508
G01 X11.9303 Y28.5379
G01 X11.9426 Y28.4554
G01 X11.9442 Y28.4424
G01 X11.9451 Y28.4294
G01 X11.9492 Y28.3461
G01 X11.9495 Y28.3330
G01 X11.9495 Y26.0330
G01 X11.9492 Y26.0199
G01 X11.9447 Y25.9301
G01 X11.9426 Y25.9106
G01 X11.9303 Y25.8281
G01 X11.9281 Y25.8152
G01 X11.9252 Y25.8024
G01 X11.9049 Y25.7215
G01 X11.9015 Y25.7089
G01 X11.8973 Y25.6965
G01 X11.8692 Y25.6179
G01 X11.8645 Y25.6057
G01 X11.8592 Y25.5938
G01 X11.8236 Y25.5184
G01 X11.8177 Y25.5067
G01 X11.8112 Y25.4953
G01 X11.7684 Y25.4237
G01 X11.7614 Y25.4127
G01 X11.7538 Y25.4020
G01 X11.7002 Y25.3298
G01 X11.6875 Y25.3148
G01 X11.6315 Y25.2530
G01 X11.6225 Y25.2435
G01 X11.6130 Y25.2345
G01 X11.5512 Y25.1785
G01 X11.5413 Y25.1699
G01 X11.5310 Y25.1619
G01 X11.4640 Y25.1122
G01 X11.4533 Y25.1046
G01 X11.4423 Y25.0976
G01 X11.3707 Y25.0548
G01 X11.3593 Y25.0483
G01 X11.3476 Y25.0424
G01 X11.2722 Y25.0068
G01 X11.2603 Y25.0015
G01 X11.2481 Y24.9968
G01 X11.1695 Y24.9687
G01 X11.1571 Y24.9645
G01 X11.1445 Y24.9611
G01 X11.0636 Y24.9408
G01 X11.0508 Y24.9379
G01 X11.0379 Y24.9357
G01 X10.9554 Y24.9234
G01 X10.9424 Y24.9218
G01 X10.9294 Y24.9209
G01 X10.8461 Y24.9168
G01 X10.8330 Y24.9165
G01 X10.8199 Y24.9168
G01 X10.7366 Y24.9209
G01 X10.7236 Y24.9218
G01 X10.7106 Y24.9234
G01 X10.6281 Y24.9357
G01 X10.6152 Y24.9379
G01 X10.6024 Y24.9408
G01 X10.5215 Y24.9611
G01 X10.5089 Y24.9645
G01 X10.4965 Y24.9687
G01 X10.4179 Y24.9968
G01 X10.4057 Y25.0015
G01 X10.3938 Y25.0068
G01 X10.3184 Y25.0424
G01 X10.3067 Y25.0483
G01 X10.2953 Y25.0548
G01 X10.2237 Y25.0976
G01 X10.2127 Y25.1046
G01 X10.2020 Y25.1122
G01 X10.1350 Y25.1619
G01 X10.1247 Y25.1699
G01 X10.1148 Y25.1785
G01 X10.0530 Y25.2345
G01 X10.0435 Y25.2435
G01 X10.0345 Y25.2530
G01 X9.9785 Y25.3148
G01 X9.9699 Y25.3247
G01 X9.9619 Y25.3350
G01 X9.9122 Y25.4020
G01 X9.9046 Y25.4127
G01 X9.8976 Y25.4237
G01 X9.8548 Y25.4953
G01 X9.8483 Y25.5067
G01 X9.8424 Y25.5184
G01 X9.8068 Y25.5938
G01 X9.8015 Y25.6057
G01 X9.7968 Y25.6179
G01 X9.7687 Y25.6965
G01 X9.7645 Y25.7089
G01 X9.7611 Y25.7215
G01 X9.7408 Y25.8024
G01 X9.7379 Y25.8152
G01 X9.7357 Y25.8281
G01 X9.7234 Y25.9106
G01 X9.7218 Y25.9236
G01 X9.7209 Y25.9366
G01 X9.7168 Y26.0199
G01 X9.7165 Y26.0330
G01 X9.7165 Y26.6888
G01 X9.3785 Y26.6888
G01 X9.3785 Y26.0805
G01 X9.3782 Y26.0674
G01 X9.3737 Y25.9776
G01 X9.3716 Y25.9581
G01 X9.3593 Y25.8756
G01 X9.3571 Y25.8627
G01 X9.3542 Y25.8499
G01 X9.3339 Y25.7690
G01 X9.3305 Y25.7564
G01 X9.3263 Y25.7440
G01 X9.2982 Y25.6654
G01 X9.2935 Y25.6532
G01 X9.2882 Y25.6413
G01 X9.2526 Y25.5659
G01 X9.2467 Y25.5542
G01 X9.2402 Y25.5428
G01 X9.1974 Y25.4712
G01 X9.1904 Y25.4602
G01 X9.1828 Y25.4495
G01 X9.1331 Y25.3825
G01 X9.1209 Y25.3672
G01 X9.0605 Y25.3005
G01 X9.0515 Y25.2910
G01 X9.0420 Y25.2820
G01 X8.9802 Y25.2260
G01 X8.9703 Y25.2174
G01 X8.9600 Y25.2094
G01 X8.8930 Y25.1597
G01 X8.8823 Y25.1521
G01 X8.8713 Y25.1451
G01 X8.8037 Y25.1046
G01 X8.8037 Y21.7364
G01 X8.8713 Y21.6959
G01 X8.8823 Y21.6889
G01 X8.8930 Y21.6813
G01 X8.9600 Y21.6316
G01 X8.9703 Y21.6236
G01 X8.9802 Y21.6150
G01 X9.0420 Y21.5590
G01 X9.0515 Y21.5500
G01 X9.0605 Y21.5405
G01 X9.1165 Y21.4787
G01 X9.1251 Y21.4688
G01 X9.1331 Y21.4585
G01 X9.1828 Y21.3915
G01 X9.1904 Y21.3808
G01 X9.1974 Y21.3698
G01 X9.2402 Y21.2982
G01 X9.2467 Y21.2868
G01 X9.2526 Y21.2751
G01 X9.2882 Y21.1997
G01 X9.2935 Y21.1878
G01 X9.2982 Y21.1756
G01 X9.3263 Y21.0970
G01 X9.3305 Y21.0846
G01 X9.3339 Y21.0720
G01 X9.3542 Y20.9911
G01 X9.3571 Y20.9783
G01 X9.3593 Y20.9654
G01 X9.3716 Y20.8829
G01 X9.3732 Y20.8699
G01 X9.3741 Y20.8569
G01 X9.3782 Y20.7736
G01 X9.3785 Y20.7605
G01 X9.3785 Y20.1047
G01 X9.7165 Y20.1047
G01 X9.7165 Y20.7130
G01 X9.7168 Y20.7261
G01 X9.7209 Y20.8094
G01 X9.7218 Y20.8224
G01 X9.7234 Y20.8354
G01 X9.7357 Y20.9179
G01 X9.7379 Y20.9308
G01 X9.7408 Y20.9436
G01 X9.7611 Y21.0245
G01 X9.7665 Y21.0433
G01 X9.7968 Y21.1281
G01 X9.8015 Y21.1403
G01 X9.8068 Y21.1522
G01 X9.8424 Y21.2276
G01 X9.8483 Y21.2393
G01 X9.8548 Y21.2507
G01 X9.8976 Y21.3223
G01 X9.9046 Y21.3333
G01 X9.9122 Y21.3440
G01 X9.9619 Y21.4110
G01 X9.9699 Y21.4213
G01 X9.9785 Y21.4312
G01 X10.0345 Y21.4930
G01 X10.0435 Y21.5025
G01 X10.0530 Y21.5115
G01 X10.1148 Y21.5675
G01 X10.1247 Y21.5761
G01 X10.1350 Y21.5841
G01 X10.2020 Y21.6338
G01 X10.2127 Y21.6414
G01 X10.2237 Y21.6484
G01 X10.2953 Y21.6912
G01 X10.3067 Y21.6977
G01 X10.3184 Y21.7036
G01 X10.3938 Y21.7392
G01 X10.4057 Y21.7445
G01 X10.4179 Y21.7492
G01 X10.4965 Y21.7773
G01 X10.5089 Y21.7815
G01 X10.5215 Y21.7849
G01 X10.6024 Y21.8052
G01 X10.6152 Y21.8081
G01 X10.6281 Y21.8103
G01 X10.7106 Y21.8226
G01 X10.7236 Y21.8242
G01 X10.7366 Y21.8251
G01 X10.8199 Y21.8292
G01 X10.8330 Y21.8295
G01 X10.8461 Y21.8292
G01 X10.9294 Y21.8251
G01 X10.9424 Y21.8242
G01 X10.9554 Y21.8226
G01 X11.0379 Y21.8103
G01 X11.0508 Y21.8081
G01 X11.0636 Y21.8052
G01 X11.1445 Y21.7849
G01 X11.1571 Y21.7815
G01 X11.1695 Y21.7773
G01 X11.2481 Y21.7492
G01 X11.2603 Y21.7445
G01 X11.2722 Y21.7392
G01 X11.3476 Y21.7036
G01 X11.3593 Y21.6977
G01 X11.3707 Y21.6912
G01 X11.4423 Y21.6484
G01 X11.4533 Y21.6414
G01 X11.4640 Y21.6338
G01 X11.5310 Y21.5841
G01 X11.5413 Y21.5761
G01 X11.5512 Y21.5675
G01 X11.6130 Y21.5115
G01 X11.6225 Y21.5025
G01 X11.6315 Y21.4930
G01 X11.6875 Y21.4312
G01 X11.6961 Y21.4213
G01 X11.7041 Y21.4110
G01 X11.7538 Y21.3440
G01 X11.7614 Y21.3333
G01 X11.7684 Y21.3223
G01 X11.8112 Y21.2507
G01 X11.8177 Y21.2393
G01 X11.8236 Y21.2276
G01 X11.8592 Y21.1522
G01 X11.8645 Y21.1403
G01 X11.8692 Y21.1281
G01 X11.8973 Y21.0495
G01 X11.9015 Y21.0371
G01 X11.9049 Y21.0245
G01 X11.9252 Y20.9436
G01 X11.9281 Y20.9308
G01 X11.9303 Y20.9179
G01 X11.9426 Y20.8354
G01 X11.9447 Y20.8159
G01 X11.9492 Y20.7261
G01 X11.9495 Y20.7130
G01 X11.9495 Y18.4130
G01 X11.9492 Y18.3999
G01 X11.9451 Y18.3166
G01 X11.9442 Y18.3036
G01 X11.9426 Y18.2906
G01 X11.9303 Y18.2081
G01 X11.9281 Y18.1952
G01 X11.9252 Y18.1824
G01 X11.9049 Y18.1015
G01 X11.9015 Y18.0889
G01 X11.8973 Y18.0765
G01 X11.8692 Y17.9979
G01 X11.8645 Y17.9857
G01 X11.8592 Y17.9738
G01 X11.8353 Y17.9231
G00 Z2.0000
G00 X12.0727 Y18.1782
G01 F50.00
G01 Z-0.1200
G01 F60.00
G01 X12.0945 Y18.1798
G01 X12.1124 Y18.1803
G01 X12.1064 Y18.2044
G01 X12.1025 Y18.2243
G01 X12.0901 Y18.3066
G01 X12.0877 Y18.2793
G01 X12.0727 Y18.1782
G00 Z2.0000
G00 X14.3440 Y17.9701
G01 F50.00
G01 Z-0.1200
G01 F60.00
G01 X14.3777 Y18.0021
G01 X14.3879 Y18.0106
G01 X14.3985 Y18.0185
G01 X14.4094 Y18.0260
G01 X14.4266 Y18.0360
G01 X14.4444 Y18.0448
G01 X14.4566 Y18.0499
G01 X14.4753 Y18.0564
G01 X14.4945 Y18.0614
G01 X14.5772 Y18.0779
G01 X14.5902 Y18.0798
G01 X14.6034 Y18.0811
G01 X14.6166 Y18.0817
G01 X14.6299 Y18.0817
G01 X14.6431 Y18.0810
G01 X14.6628 Y18.0788
G01 X14.6759 Y18.0765
G01 X14.6952 Y18.0718
G01 X14.7078 Y18.0679
G01 X14.7202 Y18.0633
G01 X14.7863 Y18.0373
G01 X14.7983 Y18.0323
G01 X14.8100 Y18.0267
G01 X14.8214 Y18.0205
G01 X14.8379 Y18.0102
G01 X14.8485 Y18.0027
G01 X14.8636 Y17.9905
G01 X14.8732 Y17.9817
G01 X14.8823 Y17.9725
G01 X14.8930 Y17.9606
G01 X14.8840 Y17.9797
G01 X14.8790 Y17.9918
G01 X14.8487 Y18.0765
G01 X14.8427 Y18.0952
G01 X14.8208 Y18.1824
G01 X14.8179 Y18.1952
G01 X14.8157 Y18.2081
G01 X14.8034 Y18.2906
G01 X14.8018 Y18.3036
G01 X14.8009 Y18.3166
G01 X14.7968 Y18.3999
G01 X14.7965 Y18.4130
G01 X14.7965 Y19.0688
G01 X14.4585 Y19.0688
G01 X14.4585 Y18.4605
G01 X14.4582 Y18.4474
G01 X14.4541 Y18.3641
G01 X14.4532 Y18.3511
G01 X14.4516 Y18.3381
G01 X14.4393 Y18.2556
G01 X14.4371 Y18.2427
G01 X14.4342 Y18.2299
G01 X14.4123 Y18.1427
G01 X14.4063 Y18.1240
G01 X14.3760 Y18.0393
G01 X14.3682 Y18.0213
G01 X14.3440 Y17.9701
G00 Z2.0000
G00 X14.5817 Y18.2251
G01 F50.00
G01 Z-0.1200
G01 F60.00
G01 X14.6031 Y18.2267
G01 X14.6236 Y18.2272
G01 X14.6440 Y18.2266
G01 X14.6662 Y18.2249
G01 X14.6583 Y18.2793
G01 X14.6563 Y18.2994
G01 X14.6512 Y18.4029
G01 X14.6511 Y18.9235
G01 X14.6039 Y18.9235
G01 X14.6038 Y18.4504
G01 X14.5993 Y18.3570
G01 X14.5978 Y18.3368
G01 X14.5954 Y18.3167
G01 X14.5817 Y18.2251
G00 Z2.0000
G00 X16.9153 Y17.9231
G01 F50.00
G01 Z-0.1200
G01 F60.00
G01 X16.9491 Y17.9553
G01 X16.9592 Y17.9637
G01 X16.9698 Y17.9717
G01 X16.9808 Y17.9791
G01 X16.9921 Y17.9859
G01 X17.0097 Y17.9951
G01 X17.0218 Y18.0005
G01 X17.0341 Y18.0053
G01 X17.0467 Y18.0095
G01 X17.0659 Y18.0146
G01 X17.1485 Y18.0310
G01 X17.1682 Y18.0337
G01 X17.1814 Y18.0346
G01 X17.1946 Y18.0349
G01 X17.2079 Y18.0346
G01 X17.2211 Y18.0336
G01 X17.2342 Y18.0319
G01 X17.2472 Y18.0296
G01 X17.2601 Y18.0266
G01 X17.2729 Y18.0230
G01 X17.2854 Y18.0188
G01 X17.3577 Y17.9905
G01 X17.3758 Y17.9825
G01 X17.3875 Y17.9765
G01 X17.4045 Y17.9665
G01 X17.4153 Y17.9591
G01 X17.4309 Y17.9471
G01 X17.3958 Y18.0213
G01 X17.3905 Y18.0332
G01 X17.3858 Y18.0454
G01 X17.3577 Y18.1240
G01 X17.3535 Y18.1364
G01 X17.3501 Y18.1490
G01 X17.3298 Y18.2299
G01 X17.3269 Y18.2427
G01 X17.3247 Y18.2556
G01 X17.3124 Y18.3381
G01 X17.3108 Y18.3511
G01 X17.3099 Y18.3641
G01 X17.3058 Y18.4474
G01 X17.3055 Y18.4605
G01 X17.3055 Y20.7605
G01 X17.3058 Y20.7736
G01 X17.3099 Y20.8569
G01 X17.3116 Y20.8764
G01 X17.3247 Y20.9654
G01 X17.3269 Y20.9783
G01 X17.3298 Y20.9911
G01 X17.3501 Y21.0720
G01 X17.3535 Y21.0846
G01 X17.3577 Y21.0970
G01 X17.3858 Y21.1756
G01 X17.3905 Y21.1878
G01 X17.3958 Y21.1997
G01 X17.4314 Y21.2751
G01 X17.4373 Y21.2868
G01 X17.4438 Y21.2982
G01 X17.4866 Y21.3698
G01 X17.4936 Y21.3808
G01 X17.5012 Y21.3915
G01 X17.5509 Y21.4585
G01 X17.5589 Y21.4688
G01 X17.5675 Y21.4787
G01 X17.6235 Y21.5405
G01 X17.6325 Y21.5500
G01 X17.6420 Y21.5590
G01 X17.7038 Y21.6150
G01 X17.7137 Y21.6236
G01 X17.7240 Y21.6316
G01 X17.7910 Y21.6813
G01 X17.8017 Y21.6889
G01 X17.8127 Y21.6959
G01 X17.8803 Y21.7364
G01 X17.8803 Y25.1046
G01 X17.8127 Y25.1451
G01 X17.8017 Y25.1521
G01 X17.7910 Y25.1597
G01 X17.7240 Y25.2094
G01 X17.7137 Y25.2174
G01 X17.7038 Y25.2260
G01 X17.6420 Y25.2820
G01 X17.6325 Y25.2910
G01 X17.6235 Y25.3005
G01 X17.5675 Y25.3623
G01 X17.5589 Y25.3722
G01 X17.5509 Y25.3825
G01 X17.5012 Y25.4495
G01 X17.4936 Y25.4602
G01 X17.4866 Y25.4712
G01 X17.4438 Y25.5428
G01 X17.4373 Y25.5542
G01 X17.4314 Y25.5659
G01 X17.3958 Y25.6413
G01 X17.3905 Y25.6532
G01 X17.3858 Y25.6654
G01 X17.3577 Y25.7440
G01 X17.3535 Y25.7564
G01 X17.3501 Y25.7690
G01 X17.3298 Y25.8499
G01 X17.3269 Y25.8627
G01 X17.3247 Y25.8756
G01 X17.3124 Y25.9581
G01 X17.3108 Y25.9711
G01 X17.3099 Y25.9841
G01 X17.3058 Y26.0674
G01 X17.3055 Y26.0805
G01 X17.3056 Y28.3870
G01 X17.3099 Y28.4769
G01 X17.3108 Y28.4899
G01 X17.3124 Y28.5029
G01 X17.3247 Y28.5854
G01 X17.3269 Y28.5983
G01 X17.3298 Y28.6111
G01 X17.3501 Y28.6920
G01 X17.3535 Y28.7046
G01 X17.3577 Y28.7170
G01 X17.3858 Y28.7956
G01 X17.3905 Y28.8078
G01 X17.3958 Y28.8197
G01 X17.4314 Y28.8951
G01 X17.4373 Y28.9068
G01 X17.4438 Y28.9182
G01 X17.4866 Y28.9898
G01 X17.4936 Y29.0008
G01 X17.5012 Y29.0115
G01 X17.5509 Y29.0785
G01 X17.5589 Y29.0888
G01 X17.5675 Y29.0987
G01 X17.6235 Y29.1605
G01 X17.6325 Y29.1700
G01 X17.6420 Y29.1790
G01 X17.7038 Y29.2350
G01 X17.7137 Y29.2436
G01 X17.7240 Y29.2516
G01 X17.7910 Y29.3013
G01 X17.8017 Y29.3089
G01 X17.8127 Y29.3159
G01 X17.8843 Y29.3587
G01 X17.8957 Y29.3652
G01 X17.9074 Y29.3711
G01 X17.9828 Y29.4067
G01 X17.9947 Y29.4120
G01 X18.0069 Y29.4167
G01 X18.0855 Y29.4448
G01 X18.0979 Y29.4490
G01 X18.1105 Y29.4524
G01 X18.1914 Y29.4727
G01 X18.2042 Y29.4756
G01 X18.2171 Y29.4778
G01 X18.2996 Y29.4901
G01 X18.3126 Y29.4917
G01 X18.3256 Y29.4926
G01 X18.4089 Y29.4967
G01 X18.4220 Y29.4970
G01 X18.4351 Y29.4967
G01 X18.5184 Y29.4926
G01 X18.5314 Y29.4917
G01 X18.5444 Y29.4901
G01 X18.6269 Y29.4778
G01 X18.6398 Y29.4756
G01 X18.6526 Y29.4727
G01 X18.7335 Y29.4524
G01 X18.7461 Y29.4490
G01 X18.7585 Y29.4448
G01 X18.8371 Y29.4167
G01 X18.8493 Y29.4120
G01 X18.8612 Y29.4067
G01 X18.9366 Y29.3711
G01 X18.9483 Y29.3652
G01 X18.9597 Y29.3587
G01 X19.0313 Y29.3159
G01 X19.0423 Y29.3089
G01 X19.0530 Y29.3013
G01 X19.1200 Y29.2516
G01 X19.1303 Y29.2436
G01 X19.1402 Y29.2350
G01 X19.2020 Y29.1790
G01 X19.2115 Y29.1700
G01 X19.2205 Y29.1605
G01 X19.2765 Y29.0987
G01 X19.2851 Y29.0888
G01 X19.2931 Y29.0785
G01 X19.3428 Y29.0115
G01 X19.3504 Y29.0008
G01 X19.3574 Y28.9898
G01 X19.4002 Y28.9182
G01 X19.4067 Y28.9068
G01 X19.4126 Y28.8951
G01 X19.4482 Y28.8197
G01 X19.4535 Y28.8078
G01 X19.4582 Y28.7956
G01 X19.4863 Y28.7170
G01 X19.4905 Y28.7046
G01 X19.4939 Y28.6920
G01 X19.5142 Y28.6111
G01 X19.5171 Y28.5983
G01 X19.5193 Y28.5854
G01 X19.5316 Y28.5029
G01 X19.5337 Y28.4834
G01 X19.5382 Y28.3936
G01 X19.5385 Y28.3805
G01 X19.5385 Y27.7722
G01 X19.8765 Y27.7722
G01 X19.8766 Y28.3395
G01 X19.8809 Y28.4294
G01 X19.8818 Y28.4424
G01 X19.8834 Y28.4554
G01 X19.8957 Y28.5379
G01 X19.8993 Y28.5572
G01 X19.9211 Y28.6445
G01 X19.9245 Y28.6571
G01 X19.9287 Y28.6695
G01 X19.9568 Y28.7481
G01 X19.9615 Y28.7603
G01 X19.9668 Y28.7722
G01 X20.0024 Y28.8476
G01 X20.0083 Y28.8593
G01 X20.0148 Y28.8707
G01 X20.0576 Y28.9423
G01 X20.0646 Y28.9533
G01 X20.0722 Y28.9640
G01 X20.1219 Y29.0310
G01 X20.1299 Y29.0413
G01 X20.1385 Y29.0512
G01 X20.1945 Y29.1130
G01 X20.2035 Y29.1225
G01 X20.2130 Y29.1315
G01 X20.2748 Y29.1875
G01 X20.2847 Y29.1961
G01 X20.2950 Y29.2041
G01 X20.3620 Y29.2538
G01 X20.3727 Y29.2614
G01 X20.3837 Y29.2684
G01 X20.4553 Y29.3112
G01 X20.4667 Y29.3177
G01 X20.4784 Y29.3236
G01 X20.5538 Y29.3592
G01 X20.5657 Y29.3645
G01 X20.5779 Y29.3692
G01 X20.6565 Y29.3973
G01 X20.6689 Y29.4015
G01 X20.6815 Y29.4049
G01 X20.7688 Y29.4267
G01 X20.7881 Y29.4303
G01 X20.8706 Y29.4426
G01 X20.8836 Y29.4442
G01 X20.8966 Y29.4451
G01 X20.9799 Y29.4492
G01 X20.9930 Y29.4495
G01 X21.0061 Y29.4492
G01 X21.0959 Y29.4447
G01 X21.1154 Y29.4426
G01 X21.1979 Y29.4303
G01 X21.2172 Y29.4267
G01 X21.3108 Y29.4033
G01 X21.3233 Y29.3995
G01 X21.3568 Y29.3876
G01 X21.3060 Y29.4356
G01 X21.2968 Y29.4452
G01 X21.2881 Y29.4552
G01 X21.2799 Y29.4656
G01 X21.2687 Y29.4819
G01 X21.2587 Y29.4991
G01 X21.2499 Y29.5169
G01 X21.2426 Y29.5353
G01 X21.2366 Y29.5543
G01 X21.2178 Y29.6296
G01 X21.2149 Y29.6425
G01 X21.2127 Y29.6555
G01 X21.2106 Y29.6753
G01 X21.2100 Y29.6885
G01 X21.2103 Y29.7084
G01 X21.2114 Y29.7216
G01 X21.2142 Y29.7412
G01 X21.2184 Y29.7606
G01 X21.2220 Y29.7733
G01 X21.2469 Y29.8468
G01 X21.2515 Y29.8594
G01 X21.2596 Y29.8777
G01 X21.2691 Y29.8954
G01 X21.2798 Y29.9123
G01 X21.2918 Y29.9284
G01 X21.3004 Y29.9385
G01 X21.3143 Y29.9530
G01 X21.3241 Y29.9620
G01 X21.3344 Y29.9705
G01 X21.3965 Y30.0193
G01 X21.3778 Y30.0149
G01 X21.3649 Y30.0127
G01 X21.2824 Y30.0004
G01 X21.2694 Y29.9988
G01 X21.2564 Y29.9979
G01 X21.1731 Y29.9938
G01 X21.1600 Y29.9935
G01 X21.1469 Y29.9938
G01 X21.0636 Y29.9979
G01 X21.0506 Y29.9988
G01 X21.0376 Y30.0004
G01 X20.9551 Y30.0127
G01 X20.9422 Y30.0149
G01 X20.9294 Y30.0178
G01 X20.8485 Y30.0381
G01 X20.8359 Y30.0415
G01 X20.8235 Y30.0457
G01 X20.7449 Y30.0738
G01 X20.7267 Y30.0810
G01 X20.6454 Y30.1194
G01 X20.6337 Y30.1253
G01 X20.6223 Y30.1318
G01 X20.5507 Y30.1746
G01 X20.5397 Y30.1816
G01 X20.5290 Y30.1892
G01 X20.4620 Y30.2389
G01 X20.4467 Y30.2511
G01 X20.3800 Y30.3115
G01 X20.3705 Y30.3205
G01 X20.3615 Y30.3300
G01 X20.3011 Y30.3967
G01 X20.2889 Y30.4120
G01 X20.2353 Y30.4843
G01 X20.2246 Y30.5007
G01 X20.2022 Y30.5382
G01 X20.1936 Y30.5305
G01 X20.1835 Y30.5222
G01 X20.1566 Y30.5022
G01 X20.1405 Y30.4911
G01 X20.1117 Y30.4737
G01 X20.1003 Y30.4673
G01 X20.0887 Y30.4614
G01 X20.0523 Y30.4446
G01 X20.0401 Y30.4399
G01 X20.0022 Y30.4267
G01 X19.9634 Y30.4166
G01 X19.9507 Y30.4137
G01 X19.9378 Y30.4115
G01 X19.9046 Y30.4067
G01 X19.8916 Y30.4054
G01 X19.8581 Y30.4037
G01 X19.8450 Y30.4033
G01 X18.5886 Y30.4033
G01 X18.5786 Y30.3823
G01 X18.5724 Y30.3708
G01 X18.5530 Y30.3385
G01 X18.5458 Y30.3276
G01 X18.5193 Y30.2923
G01 X18.4898 Y30.2594
G01 X18.4806 Y30.2502
G01 X18.4576 Y30.2293
G01 X18.4477 Y30.2207
G01 X18.4374 Y30.2127
G01 X18.4124 Y30.1942
G01 X18.4015 Y30.1870
G01 X18.3692 Y30.1676
G01 X18.3577 Y30.1614
G01 X18.3177 Y30.1428
G01 X18.2762 Y30.1277
G01 X18.2637 Y30.1239
G01 X18.2335 Y30.1163
G01 X18.2143 Y30.1122
G01 X18.1706 Y30.1060
G01 X18.1331 Y30.1038
G01 X18.1200 Y30.1035
G01 X18.0074 Y30.1035
G01 X18.0013 Y30.0643
G01 X17.9984 Y30.0516
G01 X17.9902 Y30.0190
G01 X17.9842 Y30.0003
G01 X17.9729 Y29.9688
G01 X17.9679 Y29.9567
G01 X17.9536 Y29.9263
G01 X17.9477 Y29.9147
G01 X17.9274 Y29.8801
G01 X17.9204 Y29.8691
G01 X17.9128 Y29.8584
G01 X17.8928 Y29.8315
G01 X17.8845 Y29.8214
G01 X17.8620 Y29.7965
G01 X17.8530 Y29.7870
G01 X16.9068 Y28.8408
G01 X16.9392 Y28.7722
G01 X16.9445 Y28.7603
G01 X16.9492 Y28.7481
G01 X16.9773 Y28.6695
G01 X16.9815 Y28.6571
G01 X16.9849 Y28.6445
G01 X17.0052 Y28.5636
G01 X17.0081 Y28.5508
G01 X17.0103 Y28.5379
G01 X17.0226 Y28.4554
G01 X17.0242 Y28.4424
G01 X17.0251 Y28.4294
G01 X17.0292 Y28.3461
G01 X17.0295 Y28.3330
G01 X17.0295 Y26.0330
G01 X17.0292 Y26.0199
G01 X17.0247 Y25.9301
G01 X17.0226 Y25.9106
G01 X17.0103 Y25.8281
G01 X17.0081 Y25.8152
G01 X17.0052 Y25.8024
G01 X16.9849 Y25.7215
G01 X16.9815 Y25.7089
G01 X16.9773 Y25.6965
G01 X16.9492 Y25.6179
G01 X16.9445 Y25.6057
G01 X16.9392 Y25.5938
G01 X16.9036 Y25.5184
G01 X16.8977 Y25.5067
G01 X16.8912 Y25.4953
G01 X16.8484 Y25.4237
G01 X16.8414 Y25.4127
G01 X16.8338 Y25.4020
G01 X16.7841 Y25.3350
G01 X16.7761 Y25.3247
G01 X16.7675 Y25.3148
G01 X16.7115 Y25.2530
G01 X16.7025 Y25.2435
G01 X16.6930 Y25.2345
G01 X16.6263 Y25.1741
G01 X16.6110 Y25.1619
G01 X16.5440 Y25.1122
G01 X16.5333 Y25.1046
G01 X16.5223 Y25.0976
G01 X16.4507 Y25.0548
G01 X16.4393 Y25.0483
G01 X16.4276 Y25.0424
G01 X16.3522 Y25.0068
G01 X16.3403 Y25.0015
G01 X16.3281 Y24.9968
G01 X16.2495 Y24.9687
G01 X16.2371 Y24.9645
G01 X16.2245 Y24.9611
G01 X16.1436 Y24.9408
G01 X16.1308 Y24.9379
G01 X16.1179 Y24.9357
G01 X16.0354 Y24.9234
G01 X16.0224 Y24.9218
G01 X16.0094 Y24.9209
G01 X15.9261 Y24.9168
G01 X15.9130 Y24.9165
G01 X15.8999 Y24.9168
G01 X15.8166 Y24.9209
G01 X15.8036 Y24.9218
G01 X15.7906 Y24.9234
G01 X15.7081 Y24.9357
G01 X15.6952 Y24.9379
G01 X15.6824 Y24.9408
G01 X15.6015 Y24.9611
G01 X15.5889 Y24.9645
G01 X15.5765 Y24.9687
G01 X15.4979 Y24.9968
G01 X15.4857 Y25.0015
G01 X15.4738 Y25.0068
G01 X15.3984 Y25.0424
G01 X15.3867 Y25.0483
G01 X15.3753 Y25.0548
G01 X15.3037 Y25.0976
G01 X15.2873 Y25.1083
G01 X15.2150 Y25.1619
G01 X15.2047 Y25.1699
G01 X15.1948 Y25.1785
G01 X15.1330 Y25.2345
G01 X15.1235 Y25.2435
G01 X15.1145 Y25.2530
G01 X15.0585 Y25.3148
G01 X15.0499 Y25.3247
G01 X15.0419 Y25.3350
G01 X14.9922 Y25.4020
G01 X14.9846 Y25.4127
G01 X14.9776 Y25.4237
G01 X14.9348 Y25.4953
G01 X14.9283 Y25.5067
G01 X14.9224 Y25.5184
G01 X14.8868 Y25.5938
G01 X14.8815 Y25.6057
G01 X14.8768 Y25.6179
G01 X14.8487 Y25.6965
G01 X14.8445 Y25.7089
G01 X14.8411 Y25.7215
G01 X14.8208 Y25.8024
G01 X14.8179 Y25.8152
G01 X14.8157 Y25.8281
G01 X14.8034 Y25.9106
G01 X14.8018 Y25.9236
G01 X14.8009 Y25.9366
G01 X14.7968 Y26.0199
G01 X14.7965 Y26.0330
G01 X14.7965 Y26.6888
G01 X14.4585 Y26.6888
G01 X14.4585 Y26.0805
G01 X14.4582 Y26.0674
G01 X14.4537 Y25.9776
G01 X14.4516 Y25.9581
G01 X14.4393 Y25.8756
G01 X14.4371 Y25.8627
G01 X14.4342 Y25.8499
G01 X14.4139 Y25.7690
G01 X14.4105 Y25.7564
G01 X14.4063 Y25.7440
G01 X14.3782 Y25.6654
G01 X14.3735 Y25.6532
G01 X14.3682 Y25.6413
G01 X14.3326 Y25.5659
G01 X14.3267 Y25.5542
G01 X14.3202 Y25.5428
G01 X14.2774 Y25.4712
G01 X14.2704 Y25.4602
G01 X14.2628 Y25.4495
G01 X14.2131 Y25.3825
G01 X14.2009 Y25.3672
G01 X14.1405 Y25.3005
G01 X14.1315 Y25.2910
G01 X14.1220 Y25.2820
G01 X14.0602 Y25.2260
G01 X14.0503 Y25.2174
G01 X14.0400 Y25.2094
G01 X13.9730 Y25.1597
G01 X13.9623 Y25.1521
G01 X13.9513 Y25.1451
G01 X13.8837 Y25.1046
G01 X13.8837 Y21.7364
G01 X13.9513 Y21.6959
G01 X13.9623 Y21.6889
G01 X13.9730 Y21.6813
G01 X14.0400 Y21.6316
G01 X14.0503 Y21.6236
G01 X14.0602 Y21.6150
G01 X14.1220 Y21.5590
G01 X14.1315 Y21.5500
G01 X14.1405 Y21.5405
G01 X14.2009 Y21.4738
G01 X14.2131 Y21.4585
G01 X14.2628 Y21.3915
G01 X14.2704 Y21.3808
G01 X14.2774 Y21.3698
G01 X14.3202 Y21.2982
G01 X14.3267 Y21.2868
G01 X14.3326 Y21.2751
G01 X14.3682 Y21.1997
G01 X14.3735 Y21.1878
G01 X14.3782 Y21.1756
G01 X14.4063 Y21.0970
G01 X14.4105 Y21.0846
G01 X14.4139 Y21.0720
G01 X14.4342 Y20.9911
G01 X14.4371 Y20.9783
G01 X14.4393 Y20.9654
G01 X14.4516 Y20.8829
G01 X14.4537 Y20.8634
G01 X14.4582 Y20.7736
G01 X14.4585 Y20.7605
G01 X14.4585 Y20.1522
G01 X14.7965 Y20.1522
G01 X14.7965 Y20.7130
G01 X14.7968 Y20.7261
G01 X14.8009 Y20.8094
G01 X14.8018 Y20.8224
G01 X14.8034 Y20.8354
G01 X14.8157 Y20.9179
G01 X14.8179 Y20.9308
G01 X14.8208 Y20.9436
G01 X14.8411 Y21.0245
G01 X14.8465 Y21.0433
G01 X14.8768 Y21.1281
G01 X14.8815 Y21.1403
G01 X14.8868 Y21.1522
G01 X14.9224 Y21.2276
G01 X14.9283 Y21.2393
G01 X14.9348 Y21.2507
G01 X14.9776 Y21.3223
G01 X14.9846 Y21.3333
G01 X14.9922 Y21.3440
G01 X15.0419 Y21.4110
G01 X15.0499 Y21.4213
G01 X15.0585 Y21.4312
G01 X15.1145 Y21.4930
G01 X15.1235 Y21.5025
G01 X15.1330 Y21.5115
G01 X15.1948 Y21.5675
G01 X15.2047 Y21.5761
G01 X15.2150 Y21.5841
G01 X15.2820 Y21.6338
G01 X15.2927 Y21.6414
G01 X15.3037 Y21.6484
G01 X15.3753 Y21.6912
G01 X15.3867 Y21.6977
G01 X15.3984 Y21.7036
G01 X15.4738 Y21.7392
G01 X15.4857 Y21.7445
G01 X15.4979 Y21.7492
G01 X15.5765 Y21.7773
G01 X15.5889 Y21.7815
G01 X15.6015 Y21.7849
G01 X15.6824 Y21.8052
G01 X15.6952 Y21.8081
G01 X15.7081 Y21.8103
G01 X15.7906 Y21.8226
G01 X15.8036 Y21.8242
G01 X15.8166 Y21.8251
G01 X15.8999 Y21.8292
G01 X15.9130 Y21.8295
G01 X15.9261 Y21.8292
G01 X16.0094 Y21.8251
G01 X16.0224 Y21.8242
G01 X16.0354 Y21.8226
G01 X16.1179 Y21.8103
G01 X16.1308 Y21.8081
G01 X16.1436 Y21.8052
G01 X16.2245 Y21.7849
G01 X16.2371 Y21.7815
G01 X16.2495 Y21.7773
G01 X16.3281 Y21.7492
G01 X16.3403 Y21.7445
G01 X16.3522 Y21.7392
G01 X16.4276 Y21.7036
G01 X16.4393 Y21.6977
G01 X16.4507 Y21.6912
G01 X16.5223 Y21.6484
G01 X16.5333 Y21.6414
G01 X16.5440 Y21.6338
G01 X16.6110 Y21.5841
G01 X16.6213 Y21.5761
G01 X16.6312 Y21.5675
G01 X16.6930 Y21.5115
G01 X16.7025 Y21.5025
G01 X16.7115 Y21.4930
G01 X16.7675 Y21.4312
G01 X16.7761 Y21.4213
G01 X16.7841 Y21.4110
G01 X16.8338 Y21.3440
G01 X16.8414 Y21.3333
G01 X16.8484 Y21.3223
G01 X16.8912 Y21.2507
G01 X16.8977 Y21.2393
G01 X16.9036 Y21.2276
G01 X16.9392 Y21.1522
G01 X16.9445 Y21.1403
G01 X16.9492 Y21.1281
G01 X16.9773 Y21.0495
G01 X16.9815 Y21.0371
G01 X16.9849 Y21.0245
G01 X17.0052 Y20.9436
G01 X17.0081 Y20.9308
G01 X17.0103 Y20.9179
G01 X17.0226 Y20.8354
G01 X17.0247 Y20.8159
G01 X17.0292 Y20.7261
G01 X17.0295 Y20.7130
G01 X17.0295 Y18.4130
G01 X17.0292 Y18.3999
G01 X17.0251 Y18.3166
G01 X17.0242 Y18.3036
G01 X17.0226 Y18.2906
G01 X17.0103 Y18.2081
G01 X17.0081 Y18.1952
G01 X17.0052 Y18.1824
G01 X16.9849 Y18.1015
G01 X16.9815 Y18.0889
G01 X16.9773 Y18.0765
G01 X16.9492 Y17.9979
G01 X16.9445 Y17.9857
G01 X16.9392 Y17.9738
G01 X16.9153 Y17.9231
G00 Z2.0000
G00 X17.1527 Y18.1782
G01 F50.00
G01 Z-0.1200
G01 F60.00
G01 X17.1745 Y18.1798
G01 X17.1924 Y18.1803
G01 X17.1864 Y18.2044
G01 X17.1825 Y18.2243
G01 X17.1701 Y18.3066
G01 X17.1677 Y18.2793
G01 X17.1527 Y18.1782
G00 Z2.0000
G00 X17.8224 Y17.5194
G01 F50.00
G01 Z-0.1200
G01 F60.00
G01 X17.8472 Y17.4863
G01 X17.8580 Y17.4700
G01 X17.8645 Y17.4586
G01 X17.8705 Y17.4470
G01 X17.8759 Y17.4351
G01 X17.8803 Y17.4238
G01 X17.8803 Y17.4846
G01 X17.8224 Y17.5194
G00 Z2.0000
G00 X17.8803 Y16.8721
G01 F50.00
G01 Z-0.1200
G01 F60.00
G01 X17.8723 Y16.8450
G01 X17.8679 Y16.8325
G01 X17.8630 Y16.8202
G01 X17.8544 Y16.8023
G01 X17.8445 Y16.7851
G01 X17.8333 Y16.7686
G01 X17.8252 Y16.7582
G01 X17.8122 Y16.7433
G01 X17.7980 Y16.7293
G01 X17.7394 Y16.6785
G01 X17.7291 Y16.6700
G01 X17.7184 Y16.6620
G01 X17.7017 Y16.6512
G01 X17.6841 Y16.6415
G01 X17.6660 Y16.6333
G01 X17.6476 Y16.6265
G01 X17.6665 Y16.6264
G01 X17.7041 Y16.6246
G01 X17.7171 Y16.6233
G01 X17.7304 Y16.6214
G01 X17.8803 Y16.7714
G01 X17.8803 Y16.8721
G00 Z2.0000
G00 X18.8711 Y16.2443
G01 F50.00
G01 Z-0.1200
G01 F60.00
G01 X18.9311 Y16.2761
G01 X18.9431 Y16.2817
G01 X18.9553 Y16.2868
G01 X18.9678 Y16.2912
G01 X18.9869 Y16.2966
G01 X19.0063 Y16.3007
G01 X19.0194 Y16.3025
G01 X19.0392 Y16.3041
G01 X19.0591 Y16.3042
G01 X19.0723 Y16.3034
G01 X19.1496 Y16.2970
G01 X19.1693 Y16.2942
G01 X19.1823 Y16.2915
G01 X19.2014 Y16.2862
G01 X19.2139 Y16.2819
G01 X19.2262 Y16.2770
G01 X19.2442 Y16.2685
G01 X19.2557 Y16.2621
G01 X19.2725 Y16.2515
G01 X19.2832 Y16.2437
G01 X19.3448 Y16.1965
G01 X19.3598 Y16.1834
G01 X19.3738 Y16.1693
G01 X19.3825 Y16.1594
G01 X19.3946 Y16.1437
G01 X19.4055 Y16.1271
G01 X19.4121 Y16.1156
G01 X19.4181 Y16.1038
G01 X19.4260 Y16.0856
G01 X19.4435 Y16.0375
G01 X19.4436 Y16.1165
G01 X19.4454 Y16.1541
G01 X19.4467 Y16.1671
G01 X19.4512 Y16.1979
G01 X19.4534 Y16.2108
G01 X19.4563 Y16.2235
G01 X19.4639 Y16.2537
G01 X19.4677 Y16.2662
G01 X19.4804 Y16.3016
G01 X19.4854 Y16.3137
G01 X19.5045 Y16.3535
G01 X19.5235 Y16.3859
G01 X19.5327 Y16.4002
G01 X19.4805 Y16.3717
G01 X19.4686 Y16.3659
G01 X19.4564 Y16.3607
G01 X19.4377 Y16.3541
G01 X19.4249 Y16.3505
G01 X19.4055 Y16.3463
G01 X19.3859 Y16.3435
G01 X19.3661 Y16.3422
G01 X19.3462 Y16.3423
G01 X19.2622 Y16.3483
G01 X19.2490 Y16.3499
G01 X19.2295 Y16.3535
G01 X19.2103 Y16.3585
G01 X19.1978 Y16.3627
G01 X19.1854 Y16.3674
G01 X19.1674 Y16.3757
G01 X19.1557 Y16.3820
G01 X19.1388 Y16.3924
G01 X19.1280 Y16.4001
G01 X19.0659 Y16.4466
G01 X19.0508 Y16.4595
G01 X19.0366 Y16.4734
G01 X19.0236 Y16.4884
G01 X19.0155 Y16.4989
G01 X19.0044 Y16.5153
G01 X18.9945 Y16.5325
G01 X18.9887 Y16.5444
G01 X18.9834 Y16.5566
G01 X18.9637 Y16.6092
G01 X18.9636 Y16.5405
G01 X18.9620 Y16.5070
G01 X18.9611 Y16.4939
G01 X18.9555 Y16.4542
G01 X18.9533 Y16.4413
G01 X18.9438 Y16.4024
G01 X18.9403 Y16.3898
G01 X18.9362 Y16.3773
