(G-CODE GENERATED BY FLATCAM v8.992 - www.flatcam.org - Version Date: 2020/05/03)

(Name: Genesis_PA_Testing_v1-F_Cu.gbr_iso_cnc)
(Type: G-code from Geometry)
(Units: MM)

(Created on Sunday, 12 February 2023 at 14:52)

(This preprocessor is the default preprocessor used by FlatCAM.)
(It is made to work with MACH3 compatible motion controllers.)

(TOOL DIAMETER: 0.2423 mm)
(Feedrate_XY: 60.0 mm/min)
(Feedrate_Z: 40.0 mm/min)
(Feedrate rapids 1500.0 mm/min)

(Z_Cut: -0.12 mm)
(Z_Move: 2.0 mm)
(Z Start: None mm)
(Z End: 10.0 mm)
(Steps per circle: 64)
(Preprocessor Geometry: default)

(X range:   -0.4890 ...  111.0610  mm)
(Y range:   -0.4850 ...   65.2180  mm)

(Spindle Speed: None RPM)
G21
G90
G94



G01 F60.00
G00 Z2.0000

M03
G00 X1.3046 Y9.2394
G01 F40.00
G01 Z-0.1200
G01 F60.00
G01 X1.3074 Y9.1896
G01 X1.3144 Y9.1402
G01 X1.3166 Y9.1273
G01 X1.3195 Y9.1145
G01 X1.3319 Y9.0662
G01 X1.3484 Y9.0191
G01 X1.3531 Y9.0069
G01 X1.3742 Y8.9617
G01 X1.3801 Y8.9500
G01 X1.3865 Y8.9386
G01 X1.4124 Y8.8960
G01 X1.4200 Y8.8853
G01 X1.4499 Y8.8454
G01 X1.4832 Y8.8082
G01 X1.4922 Y8.7987
G01 X6.1959 Y4.0952
G01 X6.2280 Y4.0660
G01 X6.2379 Y4.0574
G01 X6.2778 Y4.0275
G01 X6.2885 Y4.0199
G01 X6.2995 Y4.0129
G01 X6.3368 Y3.9907
G01 X6.3483 Y3.9845
G01 X6.3875 Y3.9659
G01 X6.3994 Y3.9606
G01 X6.4116 Y3.9559
G01 X6.4525 Y3.9414
G01 X6.4650 Y3.9376
G01 X6.5070 Y3.9270
G01 X6.5198 Y3.9241
G01 X6.5327 Y3.9219
G01 X6.5821 Y3.9149
G01 X6.5951 Y3.9139
G01 X6.6450 Y3.9118
G01 X21.0477 Y3.9118
G01 X23.0822 Y1.8772
G01 X23.0917 Y1.8682
G01 X23.1289 Y1.8349
G01 X23.1392 Y1.8269
G01 X23.1795 Y1.7974
G01 X23.2221 Y1.7715
G01 X23.2335 Y1.7651
G01 X23.2452 Y1.7592
G01 X23.2844 Y1.7407
G01 X23.3026 Y1.7334
G01 X23.3435 Y1.7189
G01 X23.3560 Y1.7151
G01 X23.3980 Y1.7045
G01 X23.4108 Y1.7016
G01 X23.4237 Y1.6994
G01 X23.4671 Y1.6930
G01 X23.4861 Y1.6914
G01 X23.5360 Y1.6893
G01 X36.6902 Y1.6887
G01 X36.7110 Y1.6609
G01 X36.7193 Y1.6508
G01 X36.7808 Y1.5829
G01 X36.7948 Y1.5692
G01 X36.8579 Y1.5122
G01 X36.8732 Y1.4999
G01 X36.9363 Y1.4531
G01 X36.9470 Y1.4456
G01 X36.9580 Y1.4386
G01 X37.0310 Y1.3949
G01 X37.0484 Y1.3859
G01 X37.1194 Y1.3523
G01 X37.1314 Y1.3470
G01 X37.1436 Y1.3423
G01 X37.2175 Y1.3159
G01 X37.2299 Y1.3118
G01 X37.2425 Y1.3083
G01 X37.3187 Y1.2892
G01 X37.3314 Y1.2864
G01 X37.3443 Y1.2841
G01 X37.4285 Y1.2717
G01 X37.4480 Y1.2700
G01 X37.5264 Y1.2662
G01 X37.5395 Y1.2659
G01 X40.1395 Y1.2659
G01 X40.1526 Y1.2662
G01 X40.2310 Y1.2700
G01 X40.2440 Y1.2710
G01 X40.2570 Y1.2726
G01 X40.3347 Y1.2841
G01 X40.3476 Y1.2864
G01 X40.3603 Y1.2892
G01 X40.4365 Y1.3083
G01 X40.4491 Y1.3118
G01 X40.4615 Y1.3159
G01 X40.5354 Y1.3423
G01 X40.5476 Y1.3470
G01 X40.5596 Y1.3523
G01 X40.6365 Y1.3888
G01 X40.6536 Y1.3982
G01 X40.7210 Y1.4386
G01 X40.7320 Y1.4456
G01 X40.7427 Y1.4531
G01 X40.8058 Y1.4999
G01 X40.8211 Y1.5122
G01 X40.8842 Y1.5692
G01 X40.8982 Y1.5829
G01 X40.9597 Y1.6508
G01 X40.9680 Y1.6609
G01 X40.9892 Y1.6893
G01 X47.7995 Y1.6894
G01 X47.8429 Y1.6914
G01 X47.8559 Y1.6924
G01 X47.9053 Y1.6994
G01 X47.9182 Y1.7016
G01 X47.9310 Y1.7045
G01 X47.9793 Y1.7169
G01 X48.0264 Y1.7334
G01 X48.0446 Y1.7407
G01 X48.0838 Y1.7592
G01 X48.0955 Y1.7651
G01 X48.1069 Y1.7715
G01 X48.1495 Y1.7974
G01 X48.1602 Y1.8050
G01 X48.2001 Y1.8349
G01 X48.2373 Y1.8682
G01 X48.2468 Y1.8772
G01 X52.7110 Y6.3415
G01 X52.9265 Y6.3415
G01 X52.9641 Y6.3430
G01 X52.9836 Y6.3447
G01 X53.0208 Y6.3502
G01 X53.0400 Y6.3543
G01 X53.0764 Y6.3637
G01 X53.1181 Y6.3784
G01 X53.1361 Y6.3861
G01 X53.1700 Y6.4025
G01 X53.1814 Y6.4089
G01 X53.2135 Y6.4285
G01 X53.2491 Y6.4546
G01 X53.2641 Y6.4673
G01 X53.2917 Y6.4928
G01 X53.3216 Y6.5253
G01 X53.3299 Y6.5354
G01 X53.3484 Y6.5603
G01 X53.3560 Y6.5710
G01 X53.3630 Y6.5821
G01 X53.3820 Y6.6145
G01 X53.3879 Y6.6262
G01 X53.4037 Y6.6603
G01 X53.4084 Y6.6725
G01 X53.4208 Y6.7081
G01 X53.4302 Y6.7445
G01 X53.4343 Y6.7637
G01 X53.4405 Y6.8074
G01 X53.4415 Y6.8204
G01 X53.4430 Y6.8580
G01 X53.4430 Y7.7830
G01 X53.4415 Y7.8206
G01 X53.4405 Y7.8336
G01 X53.4389 Y7.8466
G01 X53.4331 Y7.8838
G01 X53.4226 Y7.9267
G01 X53.4188 Y7.9392
G01 X53.4084 Y7.9685
G01 X53.4037 Y7.9807
G01 X53.3984 Y7.9926
G01 X53.3820 Y8.0265
G01 X53.3756 Y8.0379
G01 X53.3560 Y8.0700
G01 X53.3338 Y8.1004
G01 X53.3258 Y8.1107
G01 X53.3008 Y8.1388
G01 X53.2917 Y8.1482
G01 X53.2823 Y8.1573
G01 X53.2592 Y8.1781
G01 X53.2491 Y8.1864
G01 X53.2135 Y8.2125
G01 X53.1757 Y8.2354
G01 X53.1642 Y8.2416
G01 X53.1361 Y8.2549
G01 X53.1239 Y8.2603
G01 X53.1120 Y8.2649
G01 X53.0764 Y8.2773
G01 X53.0400 Y8.2867
G01 X53.0273 Y8.2896
G01 X52.9901 Y8.2954
G01 X52.9771 Y8.2970
G01 X52.9641 Y8.2980
G01 X52.9265 Y8.2995
G01 X51.6700 Y8.2994
G01 X51.6324 Y8.2976
G01 X51.6129 Y8.2954
G01 X51.5757 Y8.2896
G01 X51.5328 Y8.2791
G01 X51.5141 Y8.2732
G01 X51.4788 Y8.2602
G01 X51.4388 Y8.2416
G01 X51.4216 Y8.2321
G01 X51.3895 Y8.2125
G01 X51.3591 Y8.1903
G01 X51.3438 Y8.1781
G01 X51.3207 Y8.1573
G01 X51.3067 Y8.1436
G01 X51.2814 Y8.1157
G01 X51.2692 Y8.1004
G01 X51.2470 Y8.0700
G01 X51.2274 Y8.0379
G01 X51.2210 Y8.0265
G01 X51.2046 Y7.9926
G01 X51.1967 Y7.9742
G01 X51.1842 Y7.9392
G01 X51.1787 Y7.9203
G01 X51.1699 Y7.8838
G01 X51.1641 Y7.8466
G01 X51.1619 Y7.8271
G01 X51.1600 Y7.7830
G01 X51.1601 Y6.8515
G01 X51.1619 Y6.8139
G01 X51.1632 Y6.8009
G01 X51.1687 Y6.7637
G01 X51.1712 Y6.7508
G01 X51.1804 Y6.7143
G01 X51.1842 Y6.7018
G01 X51.1969 Y6.6664
G01 X51.2040 Y6.6496
G01 X47.5272 Y2.9727
G01 X45.2597 Y2.9727
G01 X45.2597 Y21.8137
G01 X45.6798 Y22.2337
G01 X45.6888 Y22.2432
G01 X45.7178 Y22.2754
G01 X45.7301 Y22.2907
G01 X45.7596 Y22.3310
G01 X45.7855 Y22.3736
G01 X45.7919 Y22.3850
G01 X45.7978 Y22.3967
G01 X45.8189 Y22.4419
G01 X45.8236 Y22.4541
G01 X45.8381 Y22.4950
G01 X45.8419 Y22.5075
G01 X45.8525 Y22.5495
G01 X45.8554 Y22.5623
G01 X45.8576 Y22.5752
G01 X45.8630 Y22.6116
G01 X45.8647 Y22.6255
G01 X45.8676 Y22.6810
G01 X45.8677 Y24.1453
G01 X45.8801 Y24.1499
G01 X45.8922 Y24.1549
G01 X45.9262 Y24.1709
G01 X45.9377 Y24.1771
G01 X45.9755 Y24.2000
G01 X46.0111 Y24.2261
G01 X46.0212 Y24.2344
G01 X46.0443 Y24.2552
G01 X46.0583 Y24.2689
G01 X46.0878 Y24.3018
G01 X46.1143 Y24.3371
G01 X46.1215 Y24.3480
G01 X46.1376 Y24.3746
G01 X46.1471 Y24.3918
G01 X46.1657 Y24.4318
G01 X46.1808 Y24.4733
G01 X46.1846 Y24.4858
G01 X46.1922 Y24.5160
G01 X46.1963 Y24.5352
G01 X46.2025 Y24.5789
G01 X46.2049 Y24.6230
G01 X46.2049 Y25.8860
G01 X46.2031 Y25.9236
G01 X46.2009 Y25.9431
G01 X46.1951 Y25.9803
G01 X46.1846 Y26.0232
G01 X46.1808 Y26.0357
G01 X46.1704 Y26.0650
G01 X46.1657 Y26.0772
G01 X46.1604 Y26.0891
G01 X46.1440 Y26.1230
G01 X46.1376 Y26.1344
G01 X46.1180 Y26.1665
G01 X46.0958 Y26.1969
G01 X46.0878 Y26.2072
G01 X46.0628 Y26.2353
G01 X46.0491 Y26.2493
G01 X46.0162 Y26.2788
G01 X46.0059 Y26.2868
G01 X45.9755 Y26.3090
G01 X45.9434 Y26.3286
G01 X45.9262 Y26.3381
G01 X45.8981 Y26.3514
G01 X45.8859 Y26.3568
G01 X45.8509 Y26.3697
G01 X45.8384 Y26.3738
G01 X45.8020 Y26.3832
G01 X45.7893 Y26.3861
G01 X45.7764 Y26.3883
G01 X45.7456 Y26.3928
G01 X45.7326 Y26.3941
G01 X45.6885 Y26.3960
G01 X44.7570 Y26.3959
G01 X44.7129 Y26.3935
G01 X44.6692 Y26.3873
G01 X44.6500 Y26.3832
G01 X44.6198 Y26.3756
G01 X44.6073 Y26.3718
G01 X44.5658 Y26.3567
G01 X44.5258 Y26.3381
G01 X44.5086 Y26.3286
G01 X44.4820 Y26.3125
G01 X44.4711 Y26.3053
G01 X44.4358 Y26.2788
G01 X44.4029 Y26.2493
G01 X44.3892 Y26.2353
G01 X44.3684 Y26.2122
G01 X44.3601 Y26.2021
G01 X44.3340 Y26.1665
G01 X44.3144 Y26.1344
G01 X44.3049 Y26.1172
G01 X44.2916 Y26.0891
G01 X44.2862 Y26.0769
G01 X44.2733 Y26.0419
G01 X44.2692 Y26.0294
G01 X44.2598 Y25.9930
G01 X44.2569 Y25.9803
G01 X44.2547 Y25.9674
G01 X44.2502 Y25.9366
G01 X44.2489 Y25.9236
G01 X44.2470 Y25.8795
G01 X44.2470 Y24.6295
G01 X44.2485 Y24.5919
G01 X44.2502 Y24.5724
G01 X44.2569 Y24.5287
G01 X44.2657 Y24.4922
G01 X44.2712 Y24.4733
G01 X44.2863 Y24.4318
G01 X44.3049 Y24.3918
G01 X44.3144 Y24.3746
G01 X44.3340 Y24.3425
G01 X44.3601 Y24.3069
G01 X44.3684 Y24.2968
G01 X44.3892 Y24.2737
G01 X44.4029 Y24.2597
G01 X44.4358 Y24.2302
G01 X44.4711 Y24.2037
G01 X44.4820 Y24.1965
G01 X44.5086 Y24.1804
G01 X44.5258 Y24.1709
G01 X44.5598 Y24.1549
G01 X44.5719 Y24.1499
G01 X44.5843 Y24.1453
G01 X44.5843 Y22.9533
G01 X44.1597 Y22.5286
G01 X44.1305 Y22.4965
G01 X44.1219 Y22.4866
G01 X44.1139 Y22.4763
G01 X44.0881 Y22.4414
G01 X44.0808 Y22.4304
G01 X44.0585 Y22.3934
G01 X44.0521 Y22.3820
G01 X44.0462 Y22.3703
G01 X44.0251 Y22.3251
G01 X44.0204 Y22.3129
G01 X44.0039 Y22.2658
G01 X44.0004 Y22.2532
G01 X43.9900 Y22.2111
G01 X43.9864 Y22.1918
G01 X43.9794 Y22.1424
G01 X43.9784 Y22.1294
G01 X43.9764 Y22.0860
G01 X43.9763 Y2.9741
G01 X40.9888 Y2.9759
G01 X40.9680 Y3.0039
G01 X40.9597 Y3.0140
G01 X40.8982 Y3.0819
G01 X40.8842 Y3.0956
G01 X40.8211 Y3.1526
G01 X40.8058 Y3.1649
G01 X40.7427 Y3.2116
G01 X40.7320 Y3.2192
G01 X40.7210 Y3.2262
G01 X40.6480 Y3.2698
G01 X40.6306 Y3.2789
G01 X40.5596 Y3.3124
G01 X40.5476 Y3.3177
G01 X40.5354 Y3.3224
G01 X40.4615 Y3.3489
G01 X40.4485 Y3.3532
G01 X40.4365 Y3.3565
G01 X40.3603 Y3.3756
G01 X40.3476 Y3.3784
G01 X40.3347 Y3.3807
G01 X40.2505 Y3.3931
G01 X40.2310 Y3.3947
G01 X40.1526 Y3.3986
G01 X40.1395 Y3.3989
G01 X37.5395 Y3.3989
G01 X37.5264 Y3.3986
G01 X37.4480 Y3.3947
G01 X37.4350 Y3.3938
G01 X37.4220 Y3.3922
G01 X37.3443 Y3.3807
G01 X37.3314 Y3.3784
G01 X37.3187 Y3.3756
G01 X37.2425 Y3.3565
G01 X37.2299 Y3.3530
G01 X37.2175 Y3.3489
G01 X37.1436 Y3.3224
G01 X37.1314 Y3.3177
G01 X37.1194 Y3.3124
G01 X37.0425 Y3.2760
G01 X37.0254 Y3.2665
G01 X36.9580 Y3.2262
G01 X36.9470 Y3.2192
G01 X36.9363 Y3.2116
G01 X36.8732 Y3.1649
G01 X36.8579 Y3.1526
G01 X36.7948 Y3.0956
G01 X36.7808 Y3.0819
G01 X36.7193 Y3.0140
G01 X36.7110 Y3.0039
G01 X36.6878 Y2.9727
G01 X30.9632 Y2.9727
G01 X30.9696 Y2.9910
G01 X30.9734 Y3.0035
G01 X30.9840 Y3.0455
G01 X30.9881 Y3.0647
G01 X30.9945 Y3.1076
G01 X30.9962 Y3.1215
G01 X30.9991 Y3.1770
G01 X30.9992 Y5.4763
G01 X31.0116 Y5.4809
G01 X31.0237 Y5.4859
G01 X31.0577 Y5.5019
G01 X31.0749 Y5.5114
G01 X31.1015 Y5.5275
G01 X31.1124 Y5.5347
G01 X31.1477 Y5.5612
G01 X31.1758 Y5.5862
G01 X31.1898 Y5.5999
G01 X31.2151 Y5.6278
G01 X31.2273 Y5.6431
G01 X31.2458 Y5.6681
G01 X31.2530 Y5.6790
G01 X31.2755 Y5.7170
G01 X31.2919 Y5.7509
G01 X31.2998 Y5.7693
G01 X31.3143 Y5.8106
G01 X31.3237 Y5.8470
G01 X31.3278 Y5.8662
G01 X31.3340 Y5.9099
G01 X31.3350 Y5.9229
G01 X31.3365 Y5.9605
G01 X31.3365 Y7.2105
G01 X31.3350 Y7.2481
G01 X31.3340 Y7.2611
G01 X31.3288 Y7.2984
G01 X31.3253 Y7.3177
G01 X31.3143 Y7.3604
G01 X31.3019 Y7.3960
G01 X31.2946 Y7.4142
G01 X31.2755 Y7.4540
G01 X31.2530 Y7.4920
G01 X31.2419 Y7.5082
G01 X31.2193 Y7.5382
G01 X31.1898 Y7.5711
G01 X31.1758 Y7.5848
G01 X31.1527 Y7.6056
G01 X31.1426 Y7.6139
G01 X31.1070 Y7.6400
G01 X31.0749 Y7.6596
G01 X31.0577 Y7.6691
G01 X31.0296 Y7.6824
G01 X31.0174 Y7.6878
G01 X30.9824 Y7.7007
G01 X30.9637 Y7.7066
G01 X30.9208 Y7.7171
G01 X30.8836 Y7.7229
G01 X30.8641 Y7.7251
G01 X30.8265 Y7.7269
G01 X29.8950 Y7.7270
G01 X29.8574 Y7.7255
G01 X29.8444 Y7.7245
G01 X29.8314 Y7.7229
G01 X29.7942 Y7.7171
G01 X29.7815 Y7.7142
G01 X29.7451 Y7.7048
G01 X29.7095 Y7.6924
G01 X29.6913 Y7.6851
G01 X29.6632 Y7.6719
G01 X29.6515 Y7.6660
G01 X29.6401 Y7.6596
G01 X29.6135 Y7.6435
G01 X29.6026 Y7.6363
G01 X29.5724 Y7.6139
G01 X29.5623 Y7.6056
G01 X29.5298 Y7.5757
G01 X29.5207 Y7.5663
G01 X29.4957 Y7.5382
G01 X29.4877 Y7.5279
G01 X29.4655 Y7.4975
G01 X29.4459 Y7.4654
G01 X29.4395 Y7.4540
G01 X29.4231 Y7.4201
G01 X29.4177 Y7.4079
G01 X29.4048 Y7.3729
G01 X29.4007 Y7.3604
G01 X29.3913 Y7.3240
G01 X29.3884 Y7.3113
G01 X29.3826 Y7.2741
G01 X29.3804 Y7.2546
G01 X29.3785 Y7.2105
G01 X29.3785 Y5.9605
G01 X29.3800 Y5.9229
G01 X29.3810 Y5.9099
G01 X29.3872 Y5.8662
G01 X29.3913 Y5.8470
G01 X29.4007 Y5.8106
G01 X29.4154 Y5.7689
G01 X29.4231 Y5.7509
G01 X29.4395 Y5.7170
G01 X29.4620 Y5.6790
G01 X29.4692 Y5.6681
G01 X29.4877 Y5.6431
G01 X29.4999 Y5.6278
G01 X29.5252 Y5.5999
G01 X29.5392 Y5.5862
G01 X29.5673 Y5.5612
G01 X29.6026 Y5.5347
G01 X29.6135 Y5.5275
G01 X29.6401 Y5.5114
G01 X29.6573 Y5.5019
G01 X29.6913 Y5.4859
G01 X29.7034 Y5.4809
G01 X29.7158 Y5.4763
G01 X29.7158 Y3.4493
G01 X29.2392 Y2.9727
G01 X23.8018 Y2.9727
G01 X21.8917 Y4.8828
G01 X21.8917 Y9.3858
G01 X21.9199 Y9.3960
G01 X21.9320 Y9.4010
G01 X22.0711 Y9.4667
G01 X22.0885 Y9.4757
G01 X22.2204 Y9.5547
G01 X22.2314 Y9.5617
G01 X22.2421 Y9.5692
G01 X22.3604 Y9.6569
G01 X22.3707 Y9.6650
G01 X22.3806 Y9.6735
G01 X22.4897 Y9.7724
G01 X22.4991 Y9.7814
G01 X22.5081 Y9.7908
G01 X22.6070 Y9.8999
G01 X22.6155 Y9.9098
G01 X22.6236 Y9.9201
G01 X22.7113 Y10.0384
G01 X22.7189 Y10.0492
G01 X22.7258 Y10.0601
G01 X22.8015 Y10.1864
G01 X22.8079 Y10.1978
G01 X22.8138 Y10.2094
G01 X22.8768 Y10.3425
G01 X22.8821 Y10.3545
G01 X22.8868 Y10.3667
G01 X22.9364 Y10.5053
G01 X22.9405 Y10.5177
G01 X22.9440 Y10.5303
G01 X22.9797 Y10.6731
G01 X22.9826 Y10.6859
G01 X22.9848 Y10.6988
G01 X23.0064 Y10.8444
G01 X23.0080 Y10.8573
G01 X23.0090 Y10.8704
G01 X23.0162 Y11.0174
G01 X23.0164 Y11.0370
G01 X23.0090 Y11.1906
G01 X23.0080 Y11.2037
G01 X23.0064 Y11.2166
G01 X22.9848 Y11.3622
G01 X22.9826 Y11.3751
G01 X22.9797 Y11.3879
G01 X22.9440 Y11.5307
G01 X22.9405 Y11.5433
G01 X22.9364 Y11.5557
G01 X22.8868 Y11.6943
G01 X22.8821 Y11.7065
G01 X22.8768 Y11.7185
G01 X22.8138 Y11.8516
G01 X22.8079 Y11.8632
G01 X22.8015 Y11.8746
G01 X22.7258 Y12.0009
G01 X22.7188 Y12.0119
G01 X22.7113 Y12.0226
G01 X22.6236 Y12.1409
G01 X22.6155 Y12.1512
G01 X22.6070 Y12.1611
G01 X22.5081 Y12.2702
G01 X22.4991 Y12.2796
G01 X22.4897 Y12.2886
G01 X22.3806 Y12.3875
G01 X22.3707 Y12.3960
G01 X22.3604 Y12.4041
G01 X22.2679 Y12.4727
G01 X22.2695 Y14.0246
G01 X22.2975 Y14.0455
G01 X22.3076 Y14.0538
G01 X22.3755 Y14.1153
G01 X22.3892 Y14.1293
G01 X22.4462 Y14.1924
G01 X22.4585 Y14.2077
G01 X22.5053 Y14.2708
G01 X22.5128 Y14.2815
G01 X22.5198 Y14.2925
G01 X22.5634 Y14.3655
G01 X22.5725 Y14.3829
G01 X22.6060 Y14.4539
G01 X22.6113 Y14.4659
G01 X22.6161 Y14.4781
G01 X22.6425 Y14.5520
G01 X22.6466 Y14.5644
G01 X22.6501 Y14.5770
G01 X22.6692 Y14.6532
G01 X22.6720 Y14.6659
G01 X22.6743 Y14.6788
G01 X22.6858 Y14.7565
G01 X22.6880 Y14.7760
G01 X22.6922 Y14.8609
G01 X22.6925 Y14.8740
G01 X22.6925 Y17.4740
G01 X22.6922 Y17.4871
G01 X22.6884 Y17.5655
G01 X22.6874 Y17.5785
G01 X22.6858 Y17.5915
G01 X22.6732 Y17.6756
G01 X22.6692 Y17.6948
G01 X22.6501 Y17.7710
G01 X22.6466 Y17.7836
G01 X22.6425 Y17.7960
G01 X22.6161 Y17.8699
G01 X22.6113 Y17.8821
G01 X22.6060 Y17.8941
G01 X22.5725 Y17.9651
G01 X22.5666 Y17.9768
G01 X22.5601 Y17.9881
G01 X22.5198 Y18.0555
G01 X22.5128 Y18.0665
G01 X22.5053 Y18.0772
G01 X22.4585 Y18.1403
G01 X22.4504 Y18.1506
G01 X22.4419 Y18.1605
G01 X22.3892 Y18.2187
G01 X22.3802 Y18.2282
G01 X22.3707 Y18.2372
G01 X22.3125 Y18.2899
G01 X22.3026 Y18.2984
G01 X22.2923 Y18.3065
G01 X22.2292 Y18.3533
G01 X22.2185 Y18.3608
G01 X22.2075 Y18.3678
G01 X22.1401 Y18.4081
G01 X22.1288 Y18.4146
G01 X22.1171 Y18.4205
G01 X22.0461 Y18.4540
G01 X22.0341 Y18.4593
G01 X22.0219 Y18.4641
G01 X21.9480 Y18.4905
G01 X21.9350 Y18.4948
G01 X21.9230 Y18.4981
G01 X21.8468 Y18.5172
G01 X21.8341 Y18.5200
G01 X21.8212 Y18.5223
G01 X21.7435 Y18.5338
G01 X21.7305 Y18.5354
G01 X21.7175 Y18.5364
G01 X21.6391 Y18.5402
G01 X21.6260 Y18.5405
G01 X21.6129 Y18.5402
G01 X21.5345 Y18.5364
G01 X21.5215 Y18.5354
G01 X21.5085 Y18.5338
G01 X21.4308 Y18.5223
G01 X21.4179 Y18.5200
G01 X21.4052 Y18.5172
G01 X21.3290 Y18.4981
G01 X21.3164 Y18.4946
G01 X21.3040 Y18.4905
G01 X21.2301 Y18.4641
G01 X21.2179 Y18.4593
G01 X21.2059 Y18.4540
G01 X21.1349 Y18.4205
G01 X21.1232 Y18.4146
G01 X21.1119 Y18.4081
G01 X21.0445 Y18.3678
G01 X21.0335 Y18.3608
G01 X21.0228 Y18.3533
G01 X20.9597 Y18.3065
G01 X20.9494 Y18.2984
G01 X20.9395 Y18.2899
G01 X20.8813 Y18.2372
G01 X20.8718 Y18.2282
G01 X20.8628 Y18.2187
G01 X20.8101 Y18.1605
G01 X20.8016 Y18.1506
G01 X20.7935 Y18.1403
G01 X20.7467 Y18.0772
G01 X20.7392 Y18.0665
G01 X20.7322 Y18.0555
G01 X20.6919 Y17.9881
G01 X20.6854 Y17.9768
G01 X20.6795 Y17.9651
G01 X20.6460 Y17.8941
G01 X20.6407 Y17.8821
G01 X20.6359 Y17.8699
G01 X20.6056 Y17.7843
G01 X20.6019 Y17.7710
G01 X20.5828 Y17.6948
G01 X20.5800 Y17.6821
G01 X20.5777 Y17.6692
G01 X20.5653 Y17.5850
G01 X20.5636 Y17.5655
G01 X20.5598 Y17.4871
G01 X20.5595 Y17.4740
G01 X20.5595 Y14.8740
G01 X20.5598 Y14.8609
G01 X20.5636 Y14.7825
G01 X20.5646 Y14.7695
G01 X20.5662 Y14.7565
G01 X20.5777 Y14.6788
G01 X20.5800 Y14.6659
G01 X20.5828 Y14.6532
G01 X20.6019 Y14.5770
G01 X20.6054 Y14.5644
G01 X20.6095 Y14.5520
G01 X20.6359 Y14.4781
G01 X20.6407 Y14.4659
G01 X20.6460 Y14.4539
G01 X20.6795 Y14.3829
G01 X20.6886 Y14.3655
G01 X20.7322 Y14.2925
G01 X20.7392 Y14.2815
G01 X20.7467 Y14.2708
G01 X20.7935 Y14.2077
G01 X20.8058 Y14.1924
G01 X20.8628 Y14.1293
G01 X20.8765 Y14.1153
G01 X20.9444 Y14.0538
G01 X20.9545 Y14.0455
G01 X20.9842 Y14.0233
G01 X20.9836 Y12.7750
G01 X20.9183 Y12.7653
G01 X20.8990 Y12.7617
G01 X20.7498 Y12.7245
G01 X20.7310 Y12.7190
G01 X20.5862 Y12.6673
G01 X20.5740 Y12.6626
G01 X20.5620 Y12.6573
G01 X20.4231 Y12.5915
G01 X20.4059 Y12.5820
G01 X20.2796 Y12.5063
G01 X20.2686 Y12.4993
G01 X20.2579 Y12.4918
G01 X20.1396 Y12.4041
G01 X20.1293 Y12.3960
G01 X20.1194 Y12.3875
G01 X20.0103 Y12.2886
G01 X19.9963 Y12.2749
G01 X19.8930 Y12.1611
G01 X19.8845 Y12.1512
G01 X19.8764 Y12.1409
G01 X19.7887 Y12.0226
G01 X19.7812 Y12.0119
G01 X19.7742 Y12.0009
G01 X19.6985 Y11.8746
G01 X19.6921 Y11.8632
G01 X19.6862 Y11.8516
G01 X19.6232 Y11.7185
G01 X19.6179 Y11.7065
G01 X19.6132 Y11.6943
G01 X19.5636 Y11.5557
G01 X19.5595 Y11.5433
G01 X19.5560 Y11.5307
G01 X19.5203 Y11.3879
G01 X19.5175 Y11.3758
G01 X19.5152 Y11.3622
G01 X19.4936 Y11.2166
G01 X19.4914 Y11.1971
G01 X19.4838 Y11.0436
G01 X19.4835 Y11.0305
G01 X19.4838 Y11.0174
G01 X19.4910 Y10.8704
G01 X19.4920 Y10.8573
G01 X19.4936 Y10.8444
G01 X19.5152 Y10.6988
G01 X19.5174 Y10.6859
G01 X19.5203 Y10.6731
G01 X19.5560 Y10.5303
G01 X19.5595 Y10.5177
G01 X19.5636 Y10.5053
G01 X19.6132 Y10.3667
G01 X19.6179 Y10.3545
G01 X19.6232 Y10.3425
G01 X19.6862 Y10.2094
G01 X19.6921 Y10.1978
G01 X19.6985 Y10.1864
G01 X19.7776 Y10.0546
G01 X19.7887 Y10.0384
G01 X19.8764 Y9.9201
G01 X19.8845 Y9.9098
G01 X19.8930 Y9.8999
G01 X19.9919 Y9.7908
G01 X20.0009 Y9.7814
G01 X20.0103 Y9.7724
G01 X20.1194 Y9.6735
G01 X20.1293 Y9.6650
G01 X20.1396 Y9.6569
G01 X20.2579 Y9.5692
G01 X20.2687 Y9.5616
G01 X20.2796 Y9.5547
G01 X20.4115 Y9.4757
G01 X20.4289 Y9.4667
G01 X20.5680 Y9.4010
G01 X20.5801 Y9.3960
G01 X20.6083 Y9.3858
G01 X20.6083 Y5.1952
G01 X6.9108 Y5.1952
G01 X2.5877 Y9.5183
G01 X2.5877 Y42.7687
G01 X15.6883 Y55.8693
G01 X45.0842 Y55.8693
G01 X45.0927 Y55.8583
G01 X45.1013 Y55.8484
G01 X45.1222 Y55.8254
G01 X45.1314 Y55.8162
G01 X45.1643 Y55.7867
G01 X45.1746 Y55.7787
G01 X45.2050 Y55.7565
G01 X45.2371 Y55.7369
G01 X45.2485 Y55.7305
G01 X45.2824 Y55.7141
G01 X45.2943 Y55.7088
G01 X45.3065 Y55.7041
G01 X45.3358 Y55.6937
G01 X45.3483 Y55.6899
G01 X45.3848 Y55.6807
G01 X45.4041 Y55.6772
G01 X45.4423 Y55.6719
G01 X45.4855 Y55.6696
G01 X46.0761 Y55.6695
G01 X46.1108 Y55.6376
G01 X46.1207 Y55.6291
G01 X46.1311 Y55.6210
G01 X46.1713 Y55.5916
G01 X46.2140 Y55.5657
G01 X46.2253 Y55.5592
G01 X46.2703 Y55.5376
G01 X46.2823 Y55.5323
G01 X46.2945 Y55.5276
G01 X46.3353 Y55.5130
G01 X46.3542 Y55.5076
G01 X46.3963 Y55.4971
G01 X46.4091 Y55.4946
G01 X46.4520 Y55.4881
G01 X46.4728 Y55.4859
G01 X46.5148 Y55.4838
G01 X46.5277 Y55.4834
G01 X50.4062 Y55.4816
G01 X50.4270 Y55.4537
G01 X50.4353 Y55.4435
G01 X50.4968 Y55.3757
G01 X50.5108 Y55.3620
G01 X50.5739 Y55.3049
G01 X50.5892 Y55.2927
G01 X50.6523 Y55.2459
G01 X50.6630 Y55.2384
G01 X50.6740 Y55.2314
G01 X50.7414 Y55.1910
G01 X50.7585 Y55.1815
G01 X50.8354 Y55.1451
G01 X50.8474 Y55.1398
G01 X50.8596 Y55.1351
G01 X50.9335 Y55.1086
G01 X50.9459 Y55.1045
G01 X50.9585 Y55.1011
G01 X51.0347 Y55.0820
G01 X51.0474 Y55.0791
G01 X51.0603 Y55.0769
G01 X51.1380 Y55.0654
G01 X51.1510 Y55.0638
G01 X51.1640 Y55.0628
G01 X51.2424 Y55.0589
G01 X51.2555 Y55.0586
G01 X53.8555 Y55.0586
G01 X53.8686 Y55.0589
G01 X53.9470 Y55.0628
G01 X53.9600 Y55.0638
G01 X53.9730 Y55.0654
G01 X54.0507 Y55.0769
G01 X54.0636 Y55.0791
G01 X54.0763 Y55.0820
G01 X54.1525 Y55.1011
G01 X54.1651 Y55.1045
G01 X54.1775 Y55.1086
G01 X54.2514 Y55.1351
G01 X54.2636 Y55.1398
G01 X54.2756 Y55.1451
G01 X54.3466 Y55.1787
G01 X54.3583 Y55.1846
G01 X54.3696 Y55.1910
G01 X54.4370 Y55.2314
G01 X54.4480 Y55.2384
G01 X54.4587 Y55.2459
G01 X54.5218 Y55.2927
G01 X54.5321 Y55.3007
G01 X54.5420 Y55.3093
G01 X54.6002 Y55.3620
G01 X54.6097 Y55.3710
G01 X54.6187 Y55.3805
G01 X54.6714 Y55.4386
G01 X54.6799 Y55.4486
G01 X54.6880 Y55.4589
G01 X54.7348 Y55.5219
G01 X54.7453 Y55.5373
G01 X58.1428 Y55.5373
G01 X58.1530 Y55.5091
G01 X58.1580 Y55.4970
G01 X58.2237 Y55.3579
G01 X58.2327 Y55.3405
G01 X58.3117 Y55.2086
G01 X58.3187 Y55.1976
G01 X58.3262 Y55.1869
G01 X58.4139 Y55.0686
G01 X58.4220 Y55.0583
G01 X58.4305 Y55.0484
G01 X58.5294 Y54.9393
G01 X58.5384 Y54.9299
G01 X58.5478 Y54.9209
G01 X58.6569 Y54.8220
G01 X58.6668 Y54.8135
G01 X58.6771 Y54.8054
G01 X58.7954 Y54.7177
G01 X58.8062 Y54.7101
G01 X58.8171 Y54.7032
G01 X58.9434 Y54.6275
G01 X58.9548 Y54.6211
G01 X58.9664 Y54.6152
G01 X59.0995 Y54.5522
G01 X59.1115 Y54.5469
G01 X59.1237 Y54.5422
G01 X59.2623 Y54.4926
G01 X59.2747 Y54.4885
G01 X59.2873 Y54.4850
G01 X59.4301 Y54.4493
G01 X59.4422 Y54.4465
G01 X59.4558 Y54.4442
G01 X59.6014 Y54.4226
G01 X59.6143 Y54.4210
G01 X59.6274 Y54.4200
G01 X59.7744 Y54.4128
G01 X59.7940 Y54.4126
G01 X59.9476 Y54.4200
G01 X59.9607 Y54.4210
G01 X59.9736 Y54.4226
G01 X60.1192 Y54.4442
G01 X60.1321 Y54.4464
G01 X60.1449 Y54.4493
G01 X60.2877 Y54.4850
G01 X60.3003 Y54.4885
G01 X60.3127 Y54.4926
G01 X60.4513 Y54.5422
G01 X60.4635 Y54.5469
G01 X60.4755 Y54.5522
G01 X60.6086 Y54.6152
G01 X60.6202 Y54.6211
G01 X60.6316 Y54.6275
G01 X60.7579 Y54.7032
G01 X60.7689 Y54.7102
G01 X60.7796 Y54.7177
G01 X60.8979 Y54.8054
G01 X60.9082 Y54.8135
G01 X60.9181 Y54.8220
G01 X61.0272 Y54.9209
G01 X61.0366 Y54.9299
G01 X61.0456 Y54.9393
G01 X61.1445 Y55.0484
G01 X61.1530 Y55.0583
G01 X61.1611 Y55.0686
G01 X61.2488 Y55.1869
G01 X61.2564 Y55.1977
G01 X61.2633 Y55.2086
G01 X61.3390 Y55.3349
G01 X61.3454 Y55.3463
G01 X61.3513 Y55.3579
G01 X61.4143 Y55.4910
G01 X61.4196 Y55.5030
G01 X61.4243 Y55.5152
G01 X61.4739 Y55.6538
G01 X61.4780 Y55.6662
G01 X61.4815 Y55.6788
G01 X61.5172 Y55.8216
G01 X61.5201 Y55.8344
G01 X61.5223 Y55.8473
G01 X61.5439 Y55.9929
G01 X61.5455 Y56.0058
G01 X61.5465 Y56.0189
G01 X61.5537 Y56.1659
G01 X61.5540 Y56.1790
G01 X61.5537 Y56.1921
G01 X61.5465 Y56.3391
G01 X61.5455 Y56.3522
G01 X61.5439 Y56.3651
G01 X61.5223 Y56.5107
G01 X61.5201 Y56.5236
G01 X61.5172 Y56.5364
G01 X61.4815 Y56.6792
G01 X61.4780 Y56.6918
G01 X61.4739 Y56.7042
G01 X61.4243 Y56.8428
G01 X61.4196 Y56.8550
G01 X61.4143 Y56.8670
G01 X61.3513 Y57.0001
G01 X61.3454 Y57.0117
G01 X61.3390 Y57.0231
G01 X61.2633 Y57.1494
G01 X61.2563 Y57.1604
G01 X61.2488 Y57.1711
G01 X61.1611 Y57.2894
G01 X61.1530 Y57.2997
G01 X61.1445 Y57.3096
G01 X61.0456 Y57.4187
G01 X61.0366 Y57.4281
G01 X61.0272 Y57.4371
G01 X60.9181 Y57.5360
G01 X60.9082 Y57.5445
G01 X60.8979 Y57.5526
G01 X60.7796 Y57.6403
G01 X60.7689 Y57.6478
G01 X60.7579 Y57.6548
G01 X60.6316 Y57.7305
G01 X60.6202 Y57.7369
G01 X60.6086 Y57.7428
G01 X60.4755 Y57.8058
G01 X60.4635 Y57.8111
G01 X60.4513 Y57.8158
G01 X60.3127 Y57.8654
G01 X60.3003 Y57.8695
G01 X60.2877 Y57.8730
G01 X60.1449 Y57.9087
G01 X60.1328 Y57.9115
G01 X60.1205 Y57.9136
G01 X59.9736 Y57.9354
G01 X59.9607 Y57.9370
G01 X59.9476 Y57.9380
G01 X59.8006 Y57.9452
G01 X59.7875 Y57.9455
G01 X59.7744 Y57.9452
G01 X59.6274 Y57.9380
G01 X59.6143 Y57.9370
G01 X59.6014 Y57.9354
G01 X59.4558 Y57.9138
G01 X59.4429 Y57.9116
G01 X59.4301 Y57.9087
G01 X59.2873 Y57.8730
G01 X59.2747 Y57.8695
G01 X59.2623 Y57.8654
G01 X59.1237 Y57.8158
G01 X59.1115 Y57.8111
G01 X59.0995 Y57.8058
G01 X58.9664 Y57.7428
G01 X58.9548 Y57.7369
G01 X58.9434 Y57.7305
G01 X58.8171 Y57.6548
G01 X58.8061 Y57.6478
G01 X58.7954 Y57.6403
G01 X58.6771 Y57.5526
G01 X58.6668 Y57.5445
G01 X58.6569 Y57.5360
G01 X58.5478 Y57.4371
G01 X58.5384 Y57.4281
G01 X58.5294 Y57.4187
G01 X58.4305 Y57.3096
G01 X58.4220 Y57.2997
G01 X58.4139 Y57.2894
G01 X58.3262 Y57.1711
G01 X58.3187 Y57.1604
G01 X58.3117 Y57.1494
G01 X58.2327 Y57.0175
G01 X58.2237 Y57.0001
G01 X58.1580 Y56.8610
G01 X58.1530 Y56.8489
G01 X58.1428 Y56.8207
G01 X54.6632 Y56.8207
G01 X54.6187 Y56.8698
G01 X54.6097 Y56.8793
G01 X54.6002 Y56.8883
G01 X54.5420 Y56.9410
G01 X54.5321 Y56.9496
G01 X54.5218 Y56.9576
G01 X54.4587 Y57.0044
G01 X54.4480 Y57.0119
G01 X54.4370 Y57.0189
G01 X54.3696 Y57.0593
G01 X54.3583 Y57.0657
G01 X54.3466 Y57.0716
G01 X54.2756 Y57.1052
G01 X54.2636 Y57.1105
G01 X54.2514 Y57.1152
G01 X54.1658 Y57.1456
G01 X54.1525 Y57.1492
G01 X54.0763 Y57.1683
G01 X54.0636 Y57.1712
G01 X54.0507 Y57.1734
G01 X53.9730 Y57.1849
G01 X53.9600 Y57.1865
G01 X53.9470 Y57.1875
G01 X53.8686 Y57.1914
G01 X53.8555 Y57.1917
G01 X51.2555 Y57.1917
G01 X51.2424 Y57.1914
G01 X51.1640 Y57.1875
G01 X51.1510 Y57.1865
G01 X51.1380 Y57.1849
G01 X51.0603 Y57.1734
G01 X51.0474 Y57.1712
G01 X51.0347 Y57.1683
G01 X50.9585 Y57.1492
G01 X50.9459 Y57.1458
G01 X50.9335 Y57.1417
G01 X50.8596 Y57.1152
G01 X50.8474 Y57.1105
G01 X50.8354 Y57.1052
G01 X50.7585 Y57.0688
G01 X50.7414 Y57.0593
G01 X50.6740 Y57.0189
G01 X50.6630 Y57.0119
G01 X50.6523 Y57.0044
G01 X50.5892 Y56.9576
G01 X50.5739 Y56.9454
G01 X50.5108 Y56.8883
G01 X50.4968 Y56.8746
G01 X50.4353 Y56.8068
G01 X50.4270 Y56.7966
G01 X50.4048 Y56.7669
G01 X47.3085 Y56.7669
G01 X47.3084 Y56.8425
G01 X47.3060 Y56.8866
G01 X47.3008 Y56.9239
G01 X47.2986 Y56.9368
G01 X47.2957 Y56.9495
G01 X47.2863 Y56.9859
G01 X47.2822 Y56.9984
G01 X47.2692 Y57.0337
G01 X47.2534 Y57.0678
G01 X47.2475 Y57.0795
G01 X47.2411 Y57.0909
G01 X47.2215 Y57.1230
G01 X47.1993 Y57.1534
G01 X47.1871 Y57.1687
G01 X47.1618 Y57.1966
G01 X47.1526 Y57.2058
G01 X47.1247 Y57.2311
G01 X47.1094 Y57.2433
G01 X47.0790 Y57.2655
G01 X47.0469 Y57.2851
G01 X47.0297 Y57.2946
G01 X47.0016 Y57.3079
G01 X46.9836 Y57.3156
G01 X46.9482 Y57.3283
G01 X46.9357 Y57.3321
G01 X46.8992 Y57.3413
G01 X46.8799 Y57.3448
G01 X46.8426 Y57.3500
G01 X46.8051 Y57.3522
G01 X46.7920 Y57.3525
G01 X45.4920 Y57.3525
G01 X45.4544 Y57.3510
G01 X45.4349 Y57.3493
G01 X45.3977 Y57.3438
G01 X45.3848 Y57.3413
G01 X45.3483 Y57.3321
G01 X45.3358 Y57.3283
G01 X45.3004 Y57.3156
G01 X45.2883 Y57.3106
G01 X45.2543 Y57.2946
G01 X45.2428 Y57.2884
G01 X45.2105 Y57.2690
G01 X45.1996 Y57.2618
G01 X45.1694 Y57.2394
G01 X45.1593 Y57.2311
G01 X45.1314 Y57.2058
G01 X45.1222 Y57.1966
G01 X45.0969 Y57.1687
G01 X45.0842 Y57.1527
G01 X15.4225 Y57.1527
G01 X15.4094 Y57.1524
G01 X15.3596 Y57.1496
G01 X15.3102 Y57.1426
G01 X15.2973 Y57.1404
G01 X15.2845 Y57.1375
G01 X15.2362 Y57.1251
G01 X15.1891 Y57.1086
G01 X15.1709 Y57.1013
G01 X15.1317 Y57.0828
G01 X15.1200 Y57.0769
G01 X15.1086 Y57.0705
G01 X15.0660 Y57.0446
G01 X15.0257 Y57.0151
G01 X15.0154 Y57.0071
G01 X15.0055 Y56.9985
G01 X14.9687 Y56.9648
G01 X1.4922 Y43.4883
G01 X1.4832 Y43.4788
G01 X1.4542 Y43.4466
G01 X1.4419 Y43.4313
G01 X1.4124 Y43.3909
G01 X1.3865 Y43.3484
G01 X1.3770 Y43.3312
G01 X1.3584 Y43.2920
G01 X1.3531 Y43.2801
G01 X1.3360 Y43.2332
G01 X1.3301 Y43.2145
G01 X1.3195 Y43.1725
G01 X1.3166 Y43.1597
G01 X1.3090 Y43.1104
G01 X1.3068 Y43.0909
G01 X1.3046 Y43.0476
G01 X1.3043 Y43.0345
G01 X1.3043 Y9.2525
G01 X1.3046 Y9.2394
G00 Z2.0000
G00 X1.4498 Y9.2466
G01 F40.00
G01 Z-0.1200
G01 F60.00
G01 X1.4521 Y9.2039
G01 X1.4592 Y9.1557
G01 X1.4710 Y9.1084
G01 X1.4874 Y9.0626
G01 X1.5083 Y9.0185
G01 X1.5333 Y8.9767
G01 X1.5623 Y8.9376
G01 X1.5950 Y8.9015
G01 X6.2962 Y4.2005
G01 X6.3301 Y4.1698
G01 X6.3644 Y4.1442
G01 X6.3743 Y4.1376
G01 X6.4110 Y4.1158
G01 X6.4551 Y4.0949
G01 X6.4953 Y4.0804
G01 X6.5067 Y4.0769
G01 X6.5424 Y4.0680
G01 X6.5540 Y4.0657
G01 X6.5964 Y4.0596
G01 X6.6450 Y4.0572
G01 X21.1079 Y4.0572
G01 X23.1872 Y1.9780
G01 X23.2211 Y1.9473
G01 X23.2602 Y1.9183
G01 X23.3020 Y1.8933
G01 X23.3406 Y1.8749
G01 X23.3516 Y1.8703
G01 X23.3919 Y1.8560
G01 X23.4334 Y1.8455
G01 X23.4450 Y1.8432
G01 X23.4814 Y1.8378
G01 X23.4933 Y1.8366
G01 X23.5360 Y1.8347
G01 X36.7653 Y1.8341
G01 X36.7753 Y1.8182
G01 X36.8274 Y1.7480
G01 X36.8881 Y1.6810
G01 X36.9551 Y1.6203
G01 X37.0229 Y1.5699
G01 X37.0328 Y1.5633
G01 X37.1001 Y1.5229
G01 X37.1106 Y1.5173
G01 X37.1870 Y1.4814
G01 X37.2665 Y1.4528
G01 X37.2778 Y1.4493
G01 X37.3598 Y1.4289
G01 X37.4463 Y1.4160
G01 X37.4551 Y1.4152
G01 X37.5395 Y1.4112
G01 X40.1395 Y1.4112
G01 X40.2239 Y1.4152
G01 X40.2357 Y1.4164
G01 X40.3192 Y1.4289
G01 X40.4012 Y1.4493
G01 X40.4125 Y1.4528
G01 X40.4920 Y1.4814
G01 X40.5737 Y1.5200
G01 X40.6462 Y1.5633
G01 X40.6561 Y1.5699
G01 X40.7239 Y1.6203
G01 X40.7865 Y1.6769
G01 X40.7950 Y1.6853
G01 X40.8516 Y1.7480
G01 X40.9037 Y1.8182
G01 X40.9140 Y1.8347
G01 X47.7960 Y1.8347
G01 X47.8416 Y1.8371
G01 X47.8898 Y1.8442
G01 X47.9371 Y1.8560
G01 X47.9774 Y1.8703
G01 X47.9884 Y1.8749
G01 X48.0217 Y1.8906
G01 X48.0321 Y1.8962
G01 X48.0688 Y1.9183
G01 X48.1079 Y1.9473
G01 X48.1440 Y1.9800
G01 X52.6508 Y6.4869
G01 X52.9295 Y6.4869
G01 X52.9569 Y6.4882
G01 X52.9658 Y6.4890
G01 X52.9960 Y6.4934
G01 X53.0047 Y6.4953
G01 X53.0342 Y6.5028
G01 X53.0685 Y6.5151
G01 X53.1015 Y6.5307
G01 X53.1277 Y6.5462
G01 X53.1376 Y6.5528
G01 X53.1642 Y6.5730
G01 X53.1889 Y6.5956
G01 X53.2115 Y6.6203
G01 X53.2317 Y6.6469
G01 X53.2383 Y6.6568
G01 X53.2538 Y6.6830
G01 X53.2694 Y6.7160
G01 X53.2817 Y6.7503
G01 X53.2892 Y6.7798
G01 X53.2915 Y6.7915
G01 X53.2961 Y6.8246
G01 X53.2976 Y6.8580
G01 X53.2976 Y7.7830
G01 X53.2959 Y7.8194
G01 X53.2905 Y7.8554
G01 X53.2833 Y7.8850
G01 X53.2808 Y7.8936
G01 X53.2715 Y7.9195
G01 X53.2670 Y7.9305
G01 X53.2538 Y7.9580
G01 X53.2351 Y7.9892
G01 X53.2134 Y8.0185
G01 X53.1889 Y8.0454
G01 X53.1620 Y8.0699
G01 X53.1376 Y8.0882
G01 X53.1302 Y8.0932
G01 X53.1066 Y8.1074
G01 X53.0961 Y8.1130
G01 X53.0684 Y8.1260
G01 X53.0342 Y8.1382
G01 X52.9989 Y8.1470
G01 X52.9658 Y8.1520
G01 X52.9569 Y8.1528
G01 X52.9265 Y8.1541
G01 X51.6765 Y8.1541
G01 X51.6461 Y8.1528
G01 X51.6342 Y8.1516
G01 X51.6070 Y8.1476
G01 X51.5983 Y8.1457
G01 X51.5688 Y8.1382
G01 X51.5345 Y8.1259
G01 X51.5015 Y8.1103
G01 X51.4753 Y8.0948
G01 X51.4654 Y8.0882
G01 X51.4388 Y8.0680
G01 X51.4184 Y8.0495
G01 X51.4120 Y8.0433
G01 X51.3915 Y8.0207
G01 X51.3859 Y8.0138
G01 X51.3679 Y7.9892
G01 X51.3521 Y7.9631
G01 X51.3478 Y7.9553
G01 X51.3360 Y7.9305
G01 X51.3324 Y7.9221
G01 X51.3222 Y7.8936
G01 X51.3197 Y7.8850
G01 X51.3131 Y7.8583
G01 X51.3115 Y7.8495
G01 X51.3071 Y7.8194
G01 X51.3054 Y7.7860
G01 X51.3054 Y6.8580
G01 X51.3069 Y6.8246
G01 X51.3115 Y6.7915
G01 X51.3138 Y6.7798
G01 X51.3213 Y6.7503
G01 X51.3336 Y6.7160
G01 X51.3465 Y6.6884
G01 X51.3521 Y6.6779
G01 X51.3679 Y6.6518
G01 X51.3865 Y6.6265
G01 X47.5874 Y2.8273
G01 X45.1143 Y2.8273
G01 X45.1143 Y21.8739
G01 X45.5770 Y22.3365
G01 X45.6078 Y22.3704
G01 X45.6133 Y22.3773
G01 X45.6387 Y22.4117
G01 X45.6637 Y22.4535
G01 X45.6846 Y22.4976
G01 X45.6991 Y22.5378
G01 X45.7026 Y22.5492
G01 X45.7115 Y22.5849
G01 X45.7138 Y22.5965
G01 X45.7200 Y22.6393
G01 X45.7223 Y22.6845
G01 X45.7223 Y24.2599
G01 X45.7308 Y24.2609
G01 X45.7609 Y24.2655
G01 X45.7905 Y24.2727
G01 X45.7991 Y24.2752
G01 X45.8250 Y24.2845
G01 X45.8360 Y24.2890
G01 X45.8635 Y24.3022
G01 X45.8947 Y24.3209
G01 X45.9240 Y24.3426
G01 X45.9509 Y24.3671
G01 X45.9754 Y24.3940
G01 X45.9937 Y24.4184
G01 X45.9987 Y24.4258
G01 X46.0129 Y24.4494
G01 X46.0185 Y24.4599
G01 X46.0314 Y24.4875
G01 X46.0437 Y24.5218
G01 X46.0525 Y24.5571
G01 X46.0571 Y24.5872
G01 X46.0583 Y24.5991
G01 X46.0596 Y24.6295
G01 X46.0596 Y25.8795
G01 X46.0579 Y25.9159
G01 X46.0525 Y25.9519
G01 X46.0437 Y25.9872
G01 X46.0335 Y26.0160
G01 X46.0290 Y26.0270
G01 X46.0172 Y26.0518
G01 X46.0129 Y26.0596
G01 X45.9971 Y26.0857
G01 X45.9754 Y26.1150
G01 X45.9509 Y26.1419
G01 X45.9285 Y26.1625
G01 X45.9193 Y26.1701
G01 X45.8972 Y26.1864
G01 X45.8897 Y26.1913
G01 X45.8635 Y26.2068
G01 X45.8304 Y26.2225
G01 X45.7962 Y26.2347
G01 X45.7667 Y26.2422
G01 X45.7550 Y26.2445
G01 X45.7219 Y26.2491
G01 X45.6885 Y26.2506
G01 X44.7635 Y26.2506
G01 X44.7271 Y26.2489
G01 X44.6940 Y26.2441
G01 X44.6853 Y26.2422
G01 X44.6558 Y26.2347
G01 X44.6270 Y26.2245
G01 X44.6160 Y26.2200
G01 X44.5885 Y26.2068
G01 X44.5623 Y26.1913
G01 X44.5524 Y26.1847
G01 X44.5280 Y26.1664
G01 X44.5054 Y26.1460
G01 X44.4970 Y26.1376
G01 X44.4766 Y26.1150
G01 X44.4583 Y26.0906
G01 X44.4517 Y26.0807
G01 X44.4362 Y26.0545
G01 X44.4230 Y26.0270
G01 X44.4194 Y26.0186
G01 X44.4083 Y25.9872
G01 X44.3995 Y25.9519
G01 X44.3941 Y25.9159
G01 X44.3924 Y25.8825
G01 X44.3924 Y24.6295
G01 X44.3941 Y24.5931
G01 X44.3995 Y24.5571
G01 X44.4083 Y24.5218
G01 X44.4206 Y24.4875
G01 X44.4335 Y24.4599
G01 X44.4391 Y24.4494
G01 X44.4533 Y24.4258
G01 X44.4583 Y24.4184
G01 X44.4766 Y24.3940
G01 X44.5011 Y24.3671
G01 X44.5280 Y24.3426
G01 X44.5573 Y24.3209
G01 X44.5885 Y24.3022
G01 X44.6160 Y24.2890
G01 X44.6270 Y24.2845
G01 X44.6529 Y24.2752
G01 X44.6615 Y24.2727
G01 X44.6911 Y24.2655
G01 X44.7212 Y24.2609
G01 X44.7297 Y24.2599
G01 X44.7297 Y22.8931
G01 X44.2670 Y22.4305
G01 X44.2382 Y22.3989
G01 X44.2325 Y22.3921
G01 X44.2053 Y22.3552
G01 X44.1832 Y22.3186
G01 X44.1776 Y22.3082
G01 X44.1594 Y22.2694
G01 X44.1430 Y22.2236
G01 X44.1325 Y22.1821
G01 X44.1302 Y22.1705
G01 X44.1248 Y22.1341
G01 X44.1238 Y22.1252
G01 X44.1217 Y22.0795
G01 X44.1217 Y2.8273
G01 X44.0128 Y2.8273
G01 X43.9816 Y2.8287
G01 X40.9148 Y2.8287
G01 X40.9037 Y2.8466
G01 X40.8516 Y2.9168
G01 X40.7950 Y2.9794
G01 X40.7865 Y2.9878
G01 X40.7239 Y3.0444
G01 X40.6561 Y3.0949
G01 X40.6462 Y3.1015
G01 X40.5737 Y3.1448
G01 X40.4920 Y3.1834
G01 X40.4125 Y3.2120
G01 X40.4012 Y3.2155
G01 X40.3192 Y3.2358
G01 X40.2357 Y3.2484
G01 X40.2239 Y3.2495
G01 X40.1395 Y3.2535
G01 X37.5395 Y3.2535
G01 X37.4551 Y3.2495
G01 X37.4463 Y3.2488
G01 X37.3657 Y3.2369
G01 X37.3540 Y3.2345
G01 X37.2721 Y3.2139
G01 X37.1925 Y3.1856
G01 X37.1816 Y3.1810
G01 X37.1053 Y3.1448
G01 X37.0302 Y3.0999
G01 X37.0229 Y3.0949
G01 X36.9551 Y3.0444
G01 X36.8881 Y2.9837
G01 X36.8313 Y2.9213
G01 X36.8256 Y2.9144
G01 X36.7753 Y2.8466
G01 X36.7633 Y2.8273
G01 X30.7033 Y2.8273
G01 X30.7126 Y2.8368
G01 X30.7373 Y2.8641
G01 X30.7448 Y2.8733
G01 X30.7702 Y2.9077
G01 X30.7923 Y2.9444
G01 X30.7979 Y2.9548
G01 X30.8161 Y2.9936
G01 X30.8325 Y3.0394
G01 X30.8443 Y3.0867
G01 X30.8507 Y3.1289
G01 X30.8519 Y3.1408
G01 X30.8538 Y3.1835
G01 X30.8538 Y5.5909
G01 X30.8623 Y5.5919
G01 X30.8924 Y5.5965
G01 X30.9277 Y5.6053
G01 X30.9620 Y5.6176
G01 X30.9896 Y5.6305
G01 X30.9976 Y5.6346
G01 X31.0237 Y5.6503
G01 X31.0508 Y5.6699
G01 X31.0577 Y5.6755
G01 X31.0781 Y5.6940
G01 X31.0865 Y5.7024
G01 X31.1069 Y5.7250
G01 X31.1286 Y5.7543
G01 X31.1473 Y5.7855
G01 X31.1630 Y5.8186
G01 X31.1752 Y5.8528
G01 X31.1840 Y5.8881
G01 X31.1894 Y5.9241
G01 X31.1911 Y5.9575
G01 X31.1911 Y7.2105
G01 X31.1894 Y7.2469
G01 X31.1850 Y7.2770
G01 X31.1834 Y7.2858
G01 X31.1752 Y7.3182
G01 X31.1629 Y7.3525
G01 X31.1473 Y7.3855
G01 X31.1318 Y7.4117
G01 X31.1269 Y7.4192
G01 X31.1106 Y7.4413
G01 X31.1030 Y7.4505
G01 X31.0824 Y7.4729
G01 X31.0555 Y7.4974
G01 X31.0262 Y7.5191
G01 X31.0001 Y7.5349
G01 X30.9923 Y7.5392
G01 X30.9675 Y7.5510
G01 X30.9565 Y7.5555
G01 X30.9277 Y7.5657
G01 X30.8924 Y7.5745
G01 X30.8564 Y7.5799
G01 X30.8200 Y7.5816
G01 X29.8950 Y7.5816
G01 X29.8586 Y7.5799
G01 X29.8226 Y7.5745
G01 X29.7930 Y7.5673
G01 X29.7816 Y7.5638
G01 X29.7530 Y7.5534
G01 X29.7254 Y7.5405
G01 X29.7149 Y7.5349
G01 X29.6888 Y7.5191
G01 X29.6642 Y7.5011
G01 X29.6550 Y7.4935
G01 X29.6326 Y7.4729
G01 X29.6120 Y7.4505
G01 X29.6044 Y7.4413
G01 X29.5864 Y7.4167
G01 X29.5706 Y7.3906
G01 X29.5650 Y7.3801
G01 X29.5520 Y7.3524
G01 X29.5407 Y7.3211
G01 X29.5323 Y7.2887
G01 X29.5300 Y7.2770
G01 X29.5256 Y7.2469
G01 X29.5239 Y7.2105
G01 X29.5239 Y5.9605
G01 X29.5256 Y5.9241
G01 X29.5304 Y5.8910
G01 X29.5382 Y5.8585
G01 X29.5417 Y5.8471
G01 X29.5521 Y5.8185
G01 X29.5677 Y5.7855
G01 X29.5864 Y5.7543
G01 X29.6044 Y5.7297
G01 X29.6100 Y5.7228
G01 X29.6285 Y5.7024
G01 X29.6369 Y5.6940
G01 X29.6595 Y5.6736
G01 X29.6888 Y5.6519
G01 X29.7200 Y5.6332
G01 X29.7475 Y5.6200
G01 X29.7585 Y5.6155
G01 X29.7844 Y5.6062
G01 X29.7930 Y5.6037
G01 X29.8226 Y5.5965
G01 X29.8527 Y5.5919
G01 X29.8612 Y5.5909
G01 X29.8612 Y3.3891
G01 X29.2994 Y2.8273
G01 X23.7416 Y2.8273
G01 X21.7463 Y4.8226
G01 X21.7463 Y9.4882
G01 X21.8704 Y9.5328
G01 X22.0142 Y9.6008
G01 X22.1507 Y9.6826
G01 X22.2738 Y9.7737
G01 X22.2829 Y9.7812
G01 X22.3920 Y9.8801
G01 X22.4004 Y9.8885
G01 X22.5032 Y10.0021
G01 X22.5945 Y10.1250
G01 X22.6011 Y10.1349
G01 X22.6768 Y10.2611
G01 X22.6824 Y10.2716
G01 X22.7477 Y10.4101
G01 X22.8013 Y10.5599
G01 X22.8400 Y10.7142
G01 X22.8626 Y10.8657
G01 X22.8638 Y10.8775
G01 X22.8711 Y11.0305
G01 X22.8633 Y11.1894
G01 X22.8410 Y11.3409
G01 X22.8387 Y11.3526
G01 X22.8013 Y11.5011
G01 X22.7499 Y11.6453
G01 X22.7453 Y11.6563
G01 X22.6797 Y11.7947
G01 X22.6011 Y11.9261
G01 X22.5945 Y11.9360
G01 X22.5032 Y12.0589
G01 X22.4004 Y12.1725
G01 X22.3920 Y12.1809
G01 X22.2784 Y12.2837
G01 X22.1531 Y12.3768
G01 X22.1223 Y12.3956
G01 X22.1223 Y14.0987
G01 X22.1402 Y14.1098
G01 X22.2080 Y14.1601
G01 X22.2149 Y14.1658
G01 X22.2774 Y14.2226
G01 X22.3381 Y14.2896
G01 X22.3885 Y14.3574
G01 X22.3951 Y14.3673
G01 X22.4384 Y14.4398
G01 X22.4746 Y14.5161
G01 X22.4792 Y14.5270
G01 X22.5056 Y14.6010
G01 X22.5091 Y14.6123
G01 X22.5295 Y14.6943
G01 X22.5420 Y14.7778
G01 X22.5430 Y14.7867
G01 X22.5471 Y14.8740
G01 X22.5471 Y17.4740
G01 X22.5427 Y17.5643
G01 X22.5305 Y17.6478
G01 X22.5281 Y17.6595
G01 X22.5075 Y17.7414
G01 X22.4792 Y17.8210
G01 X22.4746 Y17.8319
G01 X22.4411 Y17.9029
G01 X22.4355 Y17.9134
G01 X22.3919 Y17.9858
G01 X22.3381 Y18.0584
G01 X22.2774 Y18.1254
G01 X22.2149 Y18.1822
G01 X22.2057 Y18.1897
G01 X22.1426 Y18.2365
G01 X22.1327 Y18.2431
G01 X22.0602 Y18.2864
G01 X21.9785 Y18.3250
G01 X21.8931 Y18.3556
G01 X21.8115 Y18.3761
G01 X21.7998 Y18.3785
G01 X21.7222 Y18.3900
G01 X21.7104 Y18.3912
G01 X21.6260 Y18.3951
G01 X21.5357 Y18.3907
G01 X21.4463 Y18.3775
G01 X21.3586 Y18.3555
G01 X21.2735 Y18.3250
G01 X21.1918 Y18.2864
G01 X21.1142 Y18.2399
G01 X21.0416 Y18.1861
G01 X20.9746 Y18.1254
G01 X20.9139 Y18.0584
G01 X20.8601 Y17.9858
G01 X20.8136 Y17.9082
G01 X20.7750 Y17.8265
G01 X20.7446 Y17.7417
G01 X20.7225 Y17.6537
G01 X20.7093 Y17.5643
G01 X20.7049 Y17.4740
G01 X20.7049 Y14.8740
G01 X20.7090 Y14.7867
G01 X20.7100 Y14.7778
G01 X20.7225 Y14.6943
G01 X20.7429 Y14.6123
G01 X20.7464 Y14.6010
G01 X20.7750 Y14.5215
G01 X20.8109 Y14.4451
G01 X20.8165 Y14.4346
G01 X20.8569 Y14.3673
G01 X20.8635 Y14.3574
G01 X20.9139 Y14.2896
G01 X20.9746 Y14.2226
G01 X21.0371 Y14.1658
G01 X21.0440 Y14.1601
G01 X21.1118 Y14.1098
G01 X21.1296 Y14.0987
G01 X21.1289 Y12.6458
G01 X21.0970 Y12.6443
G01 X21.0881 Y12.6435
G01 X20.9396 Y12.6215
G01 X20.9308 Y12.6199
G01 X20.7794 Y12.5818
G01 X20.6352 Y12.5304
G01 X20.6269 Y12.5271
G01 X20.4858 Y12.4602
G01 X20.3493 Y12.3784
G01 X20.2216 Y12.2837
G01 X20.1037 Y12.1768
G01 X19.9968 Y12.0589
G01 X19.9021 Y11.9312
G01 X19.8203 Y11.7947
G01 X19.7547 Y11.6563
G01 X19.7501 Y11.6453
G01 X19.7005 Y11.5067
G01 X19.6971 Y11.4954
G01 X19.6601 Y11.3471
G01 X19.6374 Y11.1953
G01 X19.6364 Y11.1864
G01 X19.6289 Y11.0305
G01 X19.6367 Y10.8716
G01 X19.6600 Y10.7142
G01 X19.6971 Y10.5656
G01 X19.7005 Y10.5543
G01 X19.7501 Y10.4157
G01 X19.7547 Y10.4047
G01 X19.8203 Y10.2663
G01 X19.9021 Y10.1298
G01 X19.9968 Y10.0021
G01 X20.0996 Y9.8885
G01 X20.1080 Y9.8801
G01 X20.2171 Y9.7812
G01 X20.2262 Y9.7737
G01 X20.3494 Y9.6825
G01 X20.4858 Y9.6008
G01 X20.6296 Y9.5328
G01 X20.7537 Y9.4882
G01 X20.7537 Y5.0498
G01 X6.8506 Y5.0498
G01 X2.4423 Y9.4581
G01 X2.4423 Y42.8289
G01 X15.6281 Y56.0147
G01 X45.1628 Y56.0147
G01 X45.1676 Y56.0059
G01 X45.1834 Y55.9798
G01 X45.2051 Y55.9505
G01 X45.2296 Y55.9236
G01 X45.2565 Y55.8991
G01 X45.2858 Y55.8774
G01 X45.3170 Y55.8587
G01 X45.3500 Y55.8431
G01 X45.3843 Y55.8308
G01 X45.4138 Y55.8233
G01 X45.4255 Y55.8210
G01 X45.4560 Y55.8166
G01 X45.4890 Y55.8149
G01 X46.1362 Y55.8149
G01 X46.1790 Y55.7721
G01 X46.2130 Y55.7415
G01 X46.2521 Y55.7125
G01 X46.2939 Y55.6874
G01 X46.3379 Y55.6666
G01 X46.3838 Y55.6502
G01 X46.4310 Y55.6384
G01 X46.4733 Y55.6319
G01 X46.4828 Y55.6309
G01 X46.5278 Y55.6288
G01 X50.4802 Y55.6288
G01 X50.4913 Y55.6109
G01 X50.5434 Y55.5408
G01 X50.6000 Y55.4781
G01 X50.6085 Y55.4697
G01 X50.6711 Y55.4131
G01 X50.7389 Y55.3627
G01 X50.7488 Y55.3561
G01 X50.8213 Y55.3128
G01 X50.9030 Y55.2741
G01 X50.9825 Y55.2455
G01 X50.9938 Y55.2421
G01 X51.0758 Y55.2217
G01 X51.1593 Y55.2092
G01 X51.1711 Y55.2080
G01 X51.2555 Y55.2040
G01 X53.8555 Y55.2040
G01 X53.9399 Y55.2080
G01 X53.9517 Y55.2092
G01 X54.0352 Y55.2217
G01 X54.1172 Y55.2421
G01 X54.1285 Y55.2455
G01 X54.2025 Y55.2720
G01 X54.2134 Y55.2765
G01 X54.2897 Y55.3128
G01 X54.3673 Y55.3592
G01 X54.4399 Y55.4131
G01 X54.5025 Y55.4697
G01 X54.5110 Y55.4781
G01 X54.5637 Y55.5363
G01 X54.5712 Y55.5455
G01 X54.6214 Y55.6134
G01 X54.6631 Y55.6827
G01 X58.2452 Y55.6827
G01 X58.2898 Y55.5586
G01 X58.3578 Y55.4148
G01 X58.4396 Y55.2783
G01 X58.5307 Y55.1552
G01 X58.5382 Y55.1461
G01 X58.6371 Y55.0370
G01 X58.6455 Y55.0286
G01 X58.7591 Y54.9258
G01 X58.8820 Y54.8345
G01 X58.8919 Y54.8279
G01 X59.0181 Y54.7522
G01 X59.0286 Y54.7466
G01 X59.1671 Y54.6813
G01 X59.3169 Y54.6277
G01 X59.4709 Y54.5891
G01 X59.6227 Y54.5664
G01 X59.6345 Y54.5652
G01 X59.7816 Y54.5580
G01 X59.7905 Y54.5579
G01 X59.9464 Y54.5657
G01 X60.0979 Y54.5880
G01 X60.1096 Y54.5903
G01 X60.2581 Y54.6277
G01 X60.4079 Y54.6813
G01 X60.5464 Y54.7466
G01 X60.5569 Y54.7522
G01 X60.6882 Y54.8311
G01 X60.8159 Y54.9258
G01 X60.9295 Y55.0286
G01 X60.9379 Y55.0370
G01 X61.0407 Y55.1506
G01 X61.1320 Y55.2735
G01 X61.1386 Y55.2834
G01 X61.2172 Y55.4148
G01 X61.2828 Y55.5532
G01 X61.2874 Y55.5642
G01 X61.3370 Y55.7028
G01 X61.3404 Y55.7141
G01 X61.3775 Y55.8627
G01 X61.4001 Y56.0142
G01 X61.4013 Y56.0260
G01 X61.4086 Y56.1790
G01 X61.4013 Y56.3320
G01 X61.4001 Y56.3438
G01 X61.3775 Y56.4953
G01 X61.3404 Y56.6439
G01 X61.3370 Y56.6552
G01 X61.2852 Y56.7994
G01 X61.2199 Y56.9379
G01 X61.2143 Y56.9484
G01 X61.1354 Y57.0797
G01 X61.0407 Y57.2074
G01 X60.9338 Y57.3253
G01 X60.8159 Y57.4322
G01 X60.6882 Y57.5269
G01 X60.5569 Y57.6058
G01 X60.5464 Y57.6114
G01 X60.4133 Y57.6743
G01 X60.4023 Y57.6789
G01 X60.2581 Y57.7303
G01 X60.1096 Y57.7677
G01 X60.0985 Y57.7699
G01 X59.9464 Y57.7923
G01 X59.7875 Y57.8001
G01 X59.6286 Y57.7923
G01 X59.4771 Y57.7700
G01 X59.4654 Y57.7677
G01 X59.3169 Y57.7303
G01 X59.1671 Y57.6767
G01 X59.0286 Y57.6114
G01 X59.0181 Y57.6058
G01 X58.8919 Y57.5301
G01 X58.8820 Y57.5235
G01 X58.7591 Y57.4322
G01 X58.6455 Y57.3294
G01 X58.6371 Y57.3210
G01 X58.5382 Y57.2119
G01 X58.5307 Y57.2028
G01 X58.4396 Y57.0797
G01 X58.3578 Y56.9432
G01 X58.2898 Y56.7994
G01 X58.2452 Y56.6753
G01 X54.5931 Y56.6753
G01 X54.5712 Y56.7048
G01 X54.5656 Y56.7118
G01 X54.5089 Y56.7744
G01 X54.5025 Y56.7806
G01 X54.4421 Y56.8353
G01 X54.4352 Y56.8409
G01 X54.3673 Y56.8911
G01 X54.2923 Y56.9361
G01 X54.2844 Y56.9402
G01 X54.2080 Y56.9762
G01 X54.1232 Y57.0065
G01 X54.0352 Y57.0286
G01 X53.9487 Y57.0415
G01 X53.9399 Y57.0423
G01 X53.8555 Y57.0463
G01 X51.2555 Y57.0463
G01 X51.1711 Y57.0423
G01 X51.1593 Y57.0411
G01 X51.0758 Y57.0286
G01 X50.9938 Y57.0082
G01 X50.9825 Y57.0048
G01 X50.9030 Y56.9762
G01 X50.8213 Y56.9375
G01 X50.7488 Y56.8942
G01 X50.7389 Y56.8876
G01 X50.6711 Y56.8372
G01 X50.6085 Y56.7806
G01 X50.6000 Y56.7722
G01 X50.5434 Y56.7095
G01 X50.4913 Y56.6394
G01 X50.4802 Y56.6215
G01 X47.1631 Y56.6215
G01 X47.1631 Y56.8360
G01 X47.1618 Y56.8664
G01 X47.1606 Y56.8783
G01 X47.1566 Y56.9055
G01 X47.1547 Y56.9142
G01 X47.1472 Y56.9437
G01 X47.1370 Y56.9725
G01 X47.1337 Y56.9808
G01 X47.1207 Y57.0083
G01 X47.1164 Y57.0161
G01 X47.1022 Y57.0397
G01 X47.0972 Y57.0471
G01 X47.0789 Y57.0715
G01 X47.0585 Y57.0941
G01 X47.0501 Y57.1025
G01 X47.0275 Y57.1229
G01 X47.0031 Y57.1412
G01 X46.9932 Y57.1478
G01 X46.9670 Y57.1633
G01 X46.9395 Y57.1765
G01 X46.9285 Y57.1810
G01 X46.8997 Y57.1912
G01 X46.8702 Y57.1987
G01 X46.8585 Y57.2010
G01 X46.8284 Y57.2054
G01 X46.7920 Y57.2071
G01 X45.4920 Y57.2071
G01 X45.4616 Y57.2058
G01 X45.4527 Y57.2050
G01 X45.4225 Y57.2006
G01 X45.4138 Y57.1987
G01 X45.3843 Y57.1912
G01 X45.3555 Y57.1810
G01 X45.3445 Y57.1765
G01 X45.3170 Y57.1633
G01 X45.2858 Y57.1446
G01 X45.2612 Y57.1266
G01 X45.2520 Y57.1190
G01 X45.2296 Y57.0984
G01 X45.2090 Y57.0760
G01 X45.2014 Y57.0668
G01 X45.1834 Y57.0422
G01 X45.1676 Y57.0161
G01 X45.1628 Y57.0073
G01 X15.4225 Y57.0073
G01 X15.3739 Y57.0049
G01 X15.3257 Y56.9978
G01 X15.2784 Y56.9860
G01 X15.2381 Y56.9717
G01 X15.2271 Y56.9671
G01 X15.1938 Y56.9514
G01 X15.1834 Y56.9458
G01 X15.1467 Y56.9237
G01 X15.1076 Y56.8947
G01 X15.0715 Y56.8620
G01 X1.5950 Y43.3855
G01 X1.5662 Y43.3539
G01 X1.5587 Y43.3447
G01 X1.5333 Y43.3102
G01 X1.5112 Y43.2736
G01 X1.5056 Y43.2632
G01 X1.4874 Y43.2244
G01 X1.4729 Y43.1842
G01 X1.4702 Y43.1757
G01 X1.4592 Y43.1313
G01 X1.4528 Y43.0891
G01 X1.4516 Y43.0772
G01 X1.4497 Y43.0345
G01 X1.4498 Y9.2466
G00 Z2.0000
G00 X2.8739 Y15.5188
G01 F40.00
G01 Z-0.1200
G01 F60.00
G01 X2.8734 Y15.5390
G01 X2.8734 Y18.2695
G01 X2.8739 Y18.2897
G01 X2.8763 Y18.3366
G01 X2.8783 Y18.3567
G01 X2.8867 Y18.4131
G01 X2.8906 Y18.4329
G01 X2.9019 Y18.4785
G01 X2.9103 Y18.5076
G01 X2.9260 Y18.5518
G01 X2.9333 Y18.5707
G01 X2.9415 Y18.5892
G01 X2.9573 Y18.6225
G01 X2.9663 Y18.6405
G01 X2.9763 Y18.6581
G01 X2.9952 Y18.6897
G01 X3.0060 Y18.7066
G01 X3.0177 Y18.7233
G01 X3.0396 Y18.7529
G01 X3.0521 Y18.7688
G01 X3.0653 Y18.7841
G01 X3.0900 Y18.8114
G01 X3.1031 Y18.8253
G01 X3.0239 Y18.8310
G01 X3.0137 Y18.8322
G01 X2.9935 Y18.8351
G01 X2.9734 Y18.8391
G01 X2.9536 Y18.8441
G01 X2.9437 Y18.8469
G01 X2.9243 Y18.8534
G01 X2.9052 Y18.8607
G01 X2.8866 Y18.8691
G01 X2.8683 Y18.8783
G01 X2.8505 Y18.8884
G01 X2.8333 Y18.8995
G01 X2.8166 Y18.9113
G01 X2.7598 Y18.9538
G01 X2.7437 Y18.9665
G01 X2.7331 Y18.9757
G01 X2.7331 Y14.8300
G01 X2.7932 Y14.8819
G01 X2.8093 Y14.8945
G01 X2.8176 Y14.9005
G01 X2.8346 Y14.9119
G01 X2.8433 Y14.9173
G01 X2.8611 Y14.9274
G01 X2.8794 Y14.9365
G01 X2.8981 Y14.9448
G01 X2.9172 Y14.9521
G01 X2.9367 Y14.9585
G01 X2.9564 Y14.9639
G01 X2.9764 Y14.9683
G01 X2.9965 Y14.9717
G01 X3.0668 Y14.9818
G01 X3.0871 Y14.9842
G01 X3.1012 Y14.9853
G01 X3.0653 Y15.0244
G01 X3.0521 Y15.0397
G01 X3.0396 Y15.0556
G01 X3.0177 Y15.0852
G01 X3.0061 Y15.1017
G01 X2.9952 Y15.1188
G01 X2.9763 Y15.1504
G01 X2.9663 Y15.1680
G01 X2.9573 Y15.1860
G01 X2.9415 Y15.2193
G01 X2.9333 Y15.2378
G01 X2.9260 Y15.2567
G01 X2.9136 Y15.2913
G01 X2.9073 Y15.3105
G01 X2.9019 Y15.3300
G01 X2.8930 Y15.3657
G01 X2.8885 Y15.3854
G01 X2.8851 Y15.4054
G01 X2.8797 Y15.4418
G01 X2.8772 Y15.4619
G01 X2.8757 Y15.4820
G01 X2.8739 Y15.5188
G00 Z2.0000
G00 X3.0191 Y15.5259
G01 F40.00
G01 Z-0.1200
G01 F60.00
G01 X3.0219 Y15.4761
G01 X3.0289 Y15.4267
G01 X3.0311 Y15.4138
G01 X3.0340 Y15.4010
G01 X3.0464 Y15.3527
G01 X3.0629 Y15.3056
G01 X3.0676 Y15.2934
G01 X3.0887 Y15.2482
G01 X3.0946 Y15.2365
G01 X3.1010 Y15.2251
G01 X3.1269 Y15.1825
G01 X3.1564 Y15.1422
G01 X3.1644 Y15.1319
G01 X3.1730 Y15.1220
G01 X3.2022 Y15.0899
G01 X7.7152 Y10.5767
G01 X7.7247 Y10.5677
G01 X7.7569 Y10.5387
G01 X7.7722 Y10.5264
G01 X7.8125 Y10.4969
G01 X7.8235 Y10.4899
G01 X7.8608 Y10.4677
G01 X7.8782 Y10.4587
G01 X7.9234 Y10.4376
G01 X7.9356 Y10.4329
G01 X7.9827 Y10.4164
G01 X8.0310 Y10.4040
G01 X8.0438 Y10.4011
G01 X8.0931 Y10.3935
G01 X8.1070 Y10.3918
G01 X8.1191 Y10.3909
G01 X8.1690 Y10.3888
G01 X9.4453 Y10.3888
G01 X9.4555 Y10.3606
G01 X9.4605 Y10.3485
G01 X9.5262 Y10.2094
G01 X9.5321 Y10.1978
G01 X9.5385 Y10.1864
G01 X9.6142 Y10.0601
G01 X9.6212 Y10.0491
G01 X9.6287 Y10.0384
G01 X9.7164 Y9.9201
G01 X9.7245 Y9.9098
G01 X9.7330 Y9.8999
G01 X9.8319 Y9.7908
G01 X9.8409 Y9.7814
G01 X9.8503 Y9.7724
G01 X9.9594 Y9.6735
G01 X9.9693 Y9.6650
G01 X9.9796 Y9.6569
G01 X10.0979 Y9.5692
G01 X10.1086 Y9.5617
G01 X10.1196 Y9.5547
G01 X10.2459 Y9.4790
G01 X10.2573 Y9.4726
G01 X10.2689 Y9.4667
G01 X10.4020 Y9.4037
G01 X10.4140 Y9.3984
G01 X10.4262 Y9.3937
G01 X10.5648 Y9.3441
G01 X10.5772 Y9.3400
G01 X10.5898 Y9.3365
G01 X10.7326 Y9.3008
G01 X10.7454 Y9.2979
G01 X10.7583 Y9.2957
G01 X10.9039 Y9.2741
G01 X10.9168 Y9.2725
G01 X10.9299 Y9.2715
G01 X11.0769 Y9.2643
G01 X11.0900 Y9.2640
G01 X11.1031 Y9.2643
G01 X11.2501 Y9.2715
G01 X11.2632 Y9.2725
G01 X11.2761 Y9.2741
G01 X11.4217 Y9.2957
G01 X11.4346 Y9.2979
G01 X11.4474 Y9.3008
G01 X11.5902 Y9.3365
G01 X11.6028 Y9.3400
G01 X11.6152 Y9.3441
G01 X11.7538 Y9.3937
G01 X11.7660 Y9.3984
G01 X11.7780 Y9.4037
G01 X11.9111 Y9.4667
G01 X11.9227 Y9.4726
G01 X11.9341 Y9.4790
G01 X12.0604 Y9.5547
G01 X12.0714 Y9.5617
G01 X12.0821 Y9.5692
G01 X12.2004 Y9.6569
G01 X12.2107 Y9.6650
G01 X12.2206 Y9.6735
G01 X12.3297 Y9.7724
G01 X12.3391 Y9.7814
G01 X12.3481 Y9.7908
G01 X12.4470 Y9.8999
G01 X12.4555 Y9.9098
G01 X12.4636 Y9.9201
G01 X12.5513 Y10.0384
G01 X12.5589 Y10.0492
G01 X12.5658 Y10.0601
G01 X12.6448 Y10.1920
G01 X12.6538 Y10.2094
G01 X12.7168 Y10.3425
G01 X12.7221 Y10.3545
G01 X12.7268 Y10.3667
G01 X12.7764 Y10.5053
G01 X12.7805 Y10.5177
G01 X12.7840 Y10.5303
G01 X12.8197 Y10.6731
G01 X12.8226 Y10.6859
G01 X12.8248 Y10.6988
G01 X12.8464 Y10.8444
G01 X12.8480 Y10.8573
G01 X12.8490 Y10.8704
G01 X12.8562 Y11.0174
G01 X12.8565 Y11.0305
G01 X12.8562 Y11.0436
G01 X12.8490 Y11.1906
G01 X12.8480 Y11.2037
G01 X12.8464 Y11.2166
G01 X12.8248 Y11.3622
G01 X12.8226 Y11.3751
G01 X12.8197 Y11.3879
G01 X12.7840 Y11.5307
G01 X12.7805 Y11.5433
G01 X12.7764 Y11.5557
G01 X12.7268 Y11.6943
G01 X12.7221 Y11.7065
G01 X12.7168 Y11.7185
G01 X12.6538 Y11.8516
G01 X12.6479 Y11.8632
G01 X12.6415 Y11.8746
G01 X12.5658 Y12.0009
G01 X12.5588 Y12.0119
G01 X12.5513 Y12.0226
G01 X12.4636 Y12.1409
G01 X12.4555 Y12.1512
G01 X12.4470 Y12.1611
G01 X12.3481 Y12.2702
G01 X12.3391 Y12.2796
G01 X12.3297 Y12.2886
G01 X12.2206 Y12.3875
G01 X12.2107 Y12.3960
G01 X12.2004 Y12.4041
G01 X12.0821 Y12.4918
G01 X12.0714 Y12.4993
G01 X12.0604 Y12.5063
G01 X11.9341 Y12.5820
G01 X11.9227 Y12.5884
G01 X11.9111 Y12.5943
G01 X11.7780 Y12.6573
G01 X11.7660 Y12.6626
G01 X11.7538 Y12.6673
G01 X11.6152 Y12.7169
G01 X11.6028 Y12.7210
G01 X11.5902 Y12.7245
G01 X11.4474 Y12.7602
G01 X11.4346 Y12.7631
G01 X11.4217 Y12.7653
G01 X11.2761 Y12.7869
G01 X11.2632 Y12.7885
G01 X11.2501 Y12.7895
G01 X11.1031 Y12.7967
G01 X11.0900 Y12.7970
G01 X11.0769 Y12.7967
G01 X10.9299 Y12.7895
G01 X10.9168 Y12.7885
G01 X10.9039 Y12.7869
G01 X10.7583 Y12.7653
G01 X10.7390 Y12.7617
G01 X10.5898 Y12.7245
G01 X10.5772 Y12.7210
G01 X10.5648 Y12.7169
G01 X10.4262 Y12.6673
G01 X10.4140 Y12.6626
G01 X10.4020 Y12.6573
G01 X10.2689 Y12.5943
G01 X10.2573 Y12.5884
G01 X10.2459 Y12.5820
G01 X10.1196 Y12.5063
G01 X10.1086 Y12.4993
G01 X10.0979 Y12.4918
G01 X9.9796 Y12.4041
G01 X9.9643 Y12.3918
G01 X9.8503 Y12.2886
G01 X9.8409 Y12.2796
G01 X9.8319 Y12.2702
G01 X9.7330 Y12.1611
G01 X9.7245 Y12.1512
G01 X9.7164 Y12.1409
G01 X9.6249 Y12.0173
G01 X9.6142 Y12.0009
G01 X9.5385 Y11.8746
G01 X9.5321 Y11.8632
G01 X9.5262 Y11.8516
G01 X9.4605 Y11.7125
G01 X9.4555 Y11.7004
G01 X9.4453 Y11.6722
G01 X8.4348 Y11.6722
G01 X4.3022 Y15.8048
G01 X4.3022 Y18.0037
G01 X5.2445 Y18.9460
G01 X5.6384 Y18.9448
G01 X5.6595 Y18.9165
G01 X5.6678 Y18.9064
G01 X5.7293 Y18.8385
G01 X5.7433 Y18.8248
G01 X5.8064 Y18.7678
G01 X5.8217 Y18.7555
G01 X5.8848 Y18.7087
G01 X5.8955 Y18.7012
G01 X5.9065 Y18.6942
G01 X5.9795 Y18.6506
G01 X5.9969 Y18.6415
G01 X6.0679 Y18.6080
G01 X6.0799 Y18.6027
G01 X6.0921 Y18.5979
G01 X6.1660 Y18.5715
G01 X6.1784 Y18.5674
G01 X6.1910 Y18.5639
G01 X6.2672 Y18.5448
G01 X6.2799 Y18.5420
G01 X6.2928 Y18.5397
G01 X6.3705 Y18.5282
G01 X6.3900 Y18.5260
G01 X6.4749 Y18.5218
G01 X6.4880 Y18.5215
G01 X9.0945 Y18.5216
G01 X9.1795 Y18.5256
G01 X9.1925 Y18.5266
G01 X9.2055 Y18.5282
G01 X9.2832 Y18.5397
G01 X9.2961 Y18.5420
G01 X9.3088 Y18.5448
G01 X9.3850 Y18.5639
G01 X9.3976 Y18.5674
G01 X9.4100 Y18.5715
G01 X9.4839 Y18.5979
G01 X9.4961 Y18.6027
G01 X9.5081 Y18.6080
G01 X9.5791 Y18.6415
G01 X9.5908 Y18.6474
G01 X9.6021 Y18.6539
G01 X9.6695 Y18.6942
G01 X9.6805 Y18.7012
G01 X9.6912 Y18.7087
G01 X9.7543 Y18.7555
G01 X9.7646 Y18.7636
G01 X9.7745 Y18.7721
G01 X9.8327 Y18.8248
G01 X9.8422 Y18.8338
G01 X9.8512 Y18.8433
G01 X9.9039 Y18.9015
G01 X9.9124 Y18.9114
G01 X9.9205 Y18.9217
G01 X9.9673 Y18.9848
G01 X9.9748 Y18.9955
G01 X9.9818 Y19.0065
G01 X10.0221 Y19.0739
G01 X10.0286 Y19.0852
G01 X10.0345 Y19.0969
G01 X10.0680 Y19.1679
G01 X10.0733 Y19.1799
G01 X10.0781 Y19.1921
G01 X10.1045 Y19.2660
G01 X10.1086 Y19.2784
G01 X10.1121 Y19.2910
G01 X10.1312 Y19.3672
G01 X10.1340 Y19.3799
G01 X10.1363 Y19.3928
G01 X10.1478 Y19.4705
G01 X10.1494 Y19.4835
G01 X10.1504 Y19.4965
G01 X10.1542 Y19.5749
G01 X10.1545 Y19.5880
G01 X10.1542 Y19.6011
G01 X10.1504 Y19.6795
G01 X10.1494 Y19.6925
G01 X10.1478 Y19.7055
G01 X10.1363 Y19.7832
G01 X10.1340 Y19.7961
G01 X10.1312 Y19.8088
G01 X10.1121 Y19.8850
G01 X10.1086 Y19.8976
G01 X10.1045 Y19.9100
G01 X10.0781 Y19.9839
G01 X10.0733 Y19.9961
G01 X10.0680 Y20.0081
G01 X10.0345 Y20.0791
G01 X10.0286 Y20.0908
G01 X10.0221 Y20.1021
G01 X9.9818 Y20.1695
G01 X9.9748 Y20.1805
G01 X9.9673 Y20.1912
G01 X9.9205 Y20.2543
G01 X9.9124 Y20.2646
G01 X9.9039 Y20.2745
G01 X9.8512 Y20.3327
G01 X9.8422 Y20.3422
G01 X9.8327 Y20.3512
G01 X9.7745 Y20.4039
G01 X9.7646 Y20.4124
G01 X9.7543 Y20.4205
G01 X9.6912 Y20.4673
G01 X9.6805 Y20.4748
G01 X9.6695 Y20.4818
G01 X9.5965 Y20.5254
G01 X9.5791 Y20.5345
G01 X9.5081 Y20.5680
G01 X9.4961 Y20.5733
G01 X9.4839 Y20.5781
G01 X9.4100 Y20.6045
G01 X9.3970 Y20.6088
G01 X9.3850 Y20.6121
G01 X9.3088 Y20.6312
G01 X9.2961 Y20.6340
G01 X9.2832 Y20.6363
G01 X9.2055 Y20.6478
G01 X9.1925 Y20.6494
G01 X9.1795 Y20.6504
G01 X9.1011 Y20.6542
G01 X9.0880 Y20.6545
G01 X6.4880 Y20.6545
G01 X6.4749 Y20.6542
G01 X6.3965 Y20.6504
G01 X6.3835 Y20.6494
G01 X6.3705 Y20.6478
G01 X6.2928 Y20.6363
G01 X6.2799 Y20.6340
G01 X6.2672 Y20.6312
G01 X6.1910 Y20.6121
G01 X6.1784 Y20.6086
G01 X6.1660 Y20.6045
G01 X6.0921 Y20.5781
G01 X6.0799 Y20.5733
G01 X6.0679 Y20.5680
G01 X5.9969 Y20.5345
G01 X5.9795 Y20.5254
G01 X5.9065 Y20.4818
G01 X5.8955 Y20.4748
G01 X5.8848 Y20.4673
G01 X5.8217 Y20.4205
G01 X5.8064 Y20.4082
G01 X5.7433 Y20.3512
G01 X5.7293 Y20.3375
G01 X5.6678 Y20.2696
G01 X5.6595 Y20.2595
G01 X5.6373 Y20.2297
G01 X4.9790 Y20.2297
G01 X4.9291 Y20.2276
G01 X4.9096 Y20.2259
G01 X4.8667 Y20.2196
G01 X4.8538 Y20.2174
G01 X4.8053 Y20.2056
G01 X4.7865 Y20.2001
G01 X4.7456 Y20.1856
G01 X4.7334 Y20.1809
G01 X4.7215 Y20.1756
G01 X4.6823 Y20.1570
G01 X4.6651 Y20.1475
G01 X4.6225 Y20.1216
G01 X4.5822 Y20.0921
G01 X4.5669 Y20.0798
G01 X4.5347 Y20.0508
G01 X4.5252 Y20.0418
G01 X3.2022 Y18.7186
G01 X3.1687 Y18.6816
G01 X3.1564 Y18.6663
G01 X3.1269 Y18.6259
G01 X3.1010 Y18.5834
G01 X3.0915 Y18.5662
G01 X3.0702 Y18.5211
G01 X3.0629 Y18.5029
G01 X3.0484 Y18.4620
G01 X3.0446 Y18.4495
G01 X3.0340 Y18.4075
G01 X3.0311 Y18.3947
G01 X3.0289 Y18.3818
G01 X3.0219 Y18.3324
G01 X3.0209 Y18.3194
G01 X3.0188 Y18.2695
G01 X3.0188 Y15.5390
G01 X3.0191 Y15.5259
G00 Z2.0000
G00 X3.1643 Y15.5331
G01 F40.00
G01 Z-0.1200
G01 F60.00
G01 X3.1666 Y15.4904
G01 X3.1737 Y15.4422
G01 X3.1855 Y15.3949
G01 X3.2019 Y15.3491
G01 X3.2228 Y15.3050
G01 X3.2478 Y15.2632
G01 X3.2768 Y15.2241
G01 X3.3075 Y15.1902
G01 X7.8180 Y10.6795
G01 X7.8496 Y10.6507
G01 X7.8588 Y10.6432
G01 X7.8932 Y10.6178
G01 X7.9324 Y10.5942
G01 X7.9403 Y10.5901
G01 X7.9791 Y10.5719
G01 X8.0193 Y10.5574
G01 X8.0307 Y10.5539
G01 X8.0664 Y10.5450
G01 X8.0780 Y10.5427
G01 X8.1208 Y10.5365
G01 X8.1631 Y10.5343
G01 X9.5477 Y10.5342
G01 X9.5923 Y10.4101
G01 X9.6576 Y10.2716
G01 X9.6632 Y10.2611
G01 X9.7421 Y10.1298
G01 X9.8368 Y10.0021
G01 X9.9396 Y9.8885
G01 X9.9480 Y9.8801
G01 X10.0616 Y9.7773
G01 X10.1893 Y9.6826
G01 X10.3206 Y9.6037
G01 X10.3311 Y9.5981
G01 X10.4696 Y9.5328
G01 X10.6194 Y9.4792
G01 X10.7679 Y9.4418
G01 X10.7796 Y9.4395
G01 X10.9252 Y9.4179
G01 X10.9341 Y9.4169
G01 X11.0900 Y9.4094
G01 X11.2430 Y9.4167
G01 X11.2548 Y9.4179
G01 X11.4063 Y9.4405
G01 X11.5606 Y9.4792
G01 X11.7048 Y9.5306
G01 X11.7158 Y9.5352
G01 X11.8542 Y9.6008
G01 X11.9856 Y9.6794
G01 X11.9955 Y9.6860
G01 X12.1184 Y9.7773
G01 X12.2363 Y9.8842
G01 X12.3393 Y9.9976
G01 X12.3468 Y10.0067
G01 X12.4380 Y10.1299
G01 X12.5183 Y10.2637
G01 X12.5224 Y10.2716
G01 X12.5877 Y10.4101
G01 X12.6413 Y10.5599
G01 X12.6800 Y10.7142
G01 X12.7026 Y10.8657
G01 X12.7038 Y10.8775
G01 X12.7111 Y11.0305
G01 X12.7038 Y11.1835
G01 X12.7026 Y11.1953
G01 X12.6810 Y11.3409
G01 X12.6787 Y11.3526
G01 X12.6413 Y11.5011
G01 X12.5877 Y11.6509
G01 X12.5197 Y11.7947
G01 X12.4379 Y11.9312
G01 X12.3432 Y12.0589
G01 X12.2363 Y12.1768
G01 X12.1184 Y12.2837
G01 X11.9907 Y12.3784
G01 X11.8542 Y12.4602
G01 X11.7104 Y12.5282
G01 X11.5606 Y12.5818
G01 X11.4063 Y12.6205
G01 X11.2489 Y12.6438
G01 X11.0900 Y12.6516
G01 X10.9311 Y12.6438
G01 X10.7796 Y12.6215
G01 X10.7708 Y12.6199
G01 X10.6251 Y12.5834
G01 X10.6138 Y12.5800
G01 X10.4696 Y12.5282
G01 X10.3311 Y12.4629
G01 X10.3206 Y12.4573
G01 X10.1893 Y12.3784
G01 X10.0662 Y12.2873
G01 X10.0571 Y12.2798
G01 X9.9437 Y12.1768
G01 X9.8407 Y12.0634
G01 X9.8332 Y12.0543
G01 X9.7421 Y11.9312
G01 X9.6632 Y11.7999
G01 X9.6576 Y11.7894
G01 X9.5923 Y11.6509
G01 X9.5477 Y11.5268
G01 X8.3746 Y11.5268
G01 X4.1568 Y15.7446
G01 X4.1568 Y18.0639
G01 X5.1846 Y19.0917
G01 X5.7127 Y19.0917
G01 X5.7238 Y19.0738
G01 X5.7741 Y19.0060
G01 X5.7798 Y18.9991
G01 X5.8366 Y18.9366
G01 X5.9036 Y18.8759
G01 X5.9714 Y18.8255
G01 X5.9813 Y18.8189
G01 X6.0486 Y18.7785
G01 X6.0591 Y18.7729
G01 X6.1355 Y18.7370
G01 X6.2150 Y18.7084
G01 X6.2263 Y18.7049
G01 X6.3083 Y18.6845
G01 X6.3977 Y18.6713
G01 X6.4880 Y18.6669
G01 X9.0880 Y18.6669
G01 X9.1724 Y18.6708
G01 X9.1842 Y18.6720
G01 X9.2677 Y18.6845
G01 X9.3554 Y18.7065
G01 X9.4405 Y18.7370
G01 X9.5169 Y18.7729
G01 X9.5274 Y18.7785
G01 X9.5998 Y18.8221
G01 X9.6724 Y18.8759
G01 X9.7350 Y18.9325
G01 X9.7435 Y18.9410
G01 X9.8001 Y19.0036
G01 X9.8505 Y19.0714
G01 X9.8571 Y19.0813
G01 X9.9004 Y19.1538
G01 X9.9390 Y19.2355
G01 X9.9676 Y19.3150
G01 X9.9711 Y19.3263
G01 X9.9915 Y19.4083
G01 X10.0047 Y19.4977
G01 X10.0090 Y19.5821
G01 X10.0090 Y19.5939
G01 X10.0047 Y19.6783
G01 X9.9915 Y19.7677
G01 X9.9695 Y19.8554
G01 X9.9412 Y19.9350
G01 X9.9366 Y19.9459
G01 X9.9004 Y20.0222
G01 X9.8571 Y20.0947
G01 X9.8505 Y20.1046
G01 X9.8001 Y20.1724
G01 X9.7394 Y20.2394
G01 X9.6769 Y20.2962
G01 X9.6677 Y20.3037
G01 X9.5998 Y20.3539
G01 X9.5248 Y20.3989
G01 X9.5169 Y20.4031
G01 X9.4405 Y20.4390
G01 X9.3610 Y20.4676
G01 X9.3497 Y20.4711
G01 X9.2677 Y20.4915
G01 X9.1842 Y20.5040
G01 X9.1724 Y20.5052
G01 X9.0910 Y20.5091
G01 X6.4880 Y20.5091
G01 X6.3977 Y20.5047
G01 X6.3083 Y20.4915
G01 X6.2263 Y20.4711
G01 X6.2150 Y20.4676
G01 X6.1410 Y20.4412
G01 X6.1301 Y20.4366
G01 X6.0538 Y20.4004
G01 X5.9813 Y20.3571
G01 X5.9714 Y20.3505
G01 X5.9036 Y20.3001
G01 X5.8366 Y20.2394
G01 X5.7798 Y20.1769
G01 X5.7741 Y20.1700
G01 X5.7238 Y20.1022
G01 X5.7127 Y20.0843
G01 X4.9790 Y20.0843
G01 X4.9304 Y20.0819
G01 X4.8880 Y20.0758
G01 X4.8764 Y20.0735
G01 X4.8349 Y20.0630
G01 X4.7891 Y20.0466
G01 X4.7503 Y20.0284
G01 X4.7399 Y20.0228
G01 X4.7032 Y20.0007
G01 X4.6664 Y19.9735
G01 X4.6596 Y19.9678
G01 X4.6280 Y19.9390
G01 X3.3075 Y18.6183
G01 X3.2807 Y18.5889
G01 X3.2732 Y18.5797
G01 X3.2478 Y18.5452
G01 X3.2257 Y18.5086
G01 X3.2201 Y18.4982
G01 X3.2019 Y18.4594
G01 X3.1864 Y18.4164
G01 X3.1839 Y18.4078
G01 X3.1750 Y18.3721
G01 X3.1727 Y18.3605
G01 X3.1666 Y18.3181
G01 X3.1642 Y18.2695
G01 X3.1643 Y15.5331
G00 Z2.0000
G00 X5.3598 Y16.6729
G01 F40.00
G01 Z-0.1200
G01 F60.00
G01 X5.3685 Y16.6404
G01 X5.4561 Y16.4525
G01 X5.5755 Y16.2821
G01 X5.7224 Y16.1352
G01 X5.8922 Y16.0163
G01 X6.0804 Y15.9285
G01 X6.2809 Y15.8748
G01 X6.4361 Y15.8612
G01 X7.4129 Y15.8611
G01 X7.4129 Y16.1269
G01 X6.4850 Y16.1269
G01 X6.4036 Y16.1308
G01 X6.3918 Y16.1320
G01 X6.3083 Y16.1445
G01 X6.2235 Y16.1657
G01 X6.2150 Y16.1684
G01 X6.1355 Y16.1970
G01 X6.0538 Y16.2356
G01 X5.9762 Y16.2821
G01 X5.9083 Y16.3323
G01 X5.9014 Y16.3379
G01 X5.8366 Y16.3966
G01 X5.7798 Y16.4591
G01 X5.7723 Y16.4683
G01 X5.7255 Y16.5314
G01 X5.7189 Y16.5413
G01 X5.6756 Y16.6138
G01 X5.6475 Y16.6729
G01 X5.3598 Y16.6729
G00 Z2.0000
G00 X8.1631 Y16.1269
G01 F40.00
G01 Z-0.1200
G01 F60.00
G01 X8.1631 Y15.8611
G01 X9.1397 Y15.8611
G01 X9.2951 Y15.8748
G01 X9.4953 Y15.9284
G01 X9.6835 Y16.0161
G01 X9.8539 Y16.1355
G01 X10.0008 Y16.2824
G01 X10.1197 Y16.4522
G01 X10.2075 Y16.6404
G01 X10.2162 Y16.6729
G01 X9.9285 Y16.6729
G01 X9.9004 Y16.6138
G01 X9.8571 Y16.5413
G01 X9.8505 Y16.5314
G01 X9.8037 Y16.4683
G01 X9.7962 Y16.4591
G01 X9.7394 Y16.3966
G01 X9.6746 Y16.3379
G01 X9.6677 Y16.3323
G01 X9.5998 Y16.2821
G01 X9.5222 Y16.2356
G01 X9.4405 Y16.1970
G01 X9.3610 Y16.1684
G01 X9.3525 Y16.1657
G01 X9.2677 Y16.1445
G01 X9.1842 Y16.1320
G01 X9.1724 Y16.1308
G01 X9.0910 Y16.1269
G01 X8.1631 Y16.1269
G00 Z2.0000
G00 X9.4054 Y18.4192
G01 F40.00
G01 Z-0.1200
G01 F60.00
G01 X9.3442 Y18.4038
G01 X9.3244 Y18.3994
G01 X9.3045 Y18.3959
G01 X9.2168 Y18.3830
G01 X9.1866 Y18.3804
G01 X9.1082 Y18.3766
G01 X9.0880 Y18.3761
G01 X6.4779 Y18.3762
G01 X6.3793 Y18.3811
G01 X6.3491 Y18.3844
G01 X6.2715 Y18.3959
G01 X6.2516 Y18.3994
G01 X6.2318 Y18.4038
G01 X6.1716 Y18.4189
G01 X6.1775 Y18.4020
G01 X6.1833 Y18.3824
G01 X6.1882 Y18.3626
G01 X6.1920 Y18.3425
G01 X6.1949 Y18.3222
G01 X6.2031 Y18.2517
G01 X6.2052 Y18.2255
G01 X6.2417 Y18.2345
G01 X6.2615 Y18.2385
G01 X6.3592 Y18.2530
G01 X6.3894 Y18.2556
G01 X6.4678 Y18.2594
G01 X6.4880 Y18.2599
G01 X9.0880 Y18.2599
G01 X9.1082 Y18.2594
G01 X9.1866 Y18.2556
G01 X9.2168 Y18.2530
G01 X9.3145 Y18.2385
G01 X9.3343 Y18.2345
G01 X9.3696 Y18.2258
G01 X9.3689 Y18.2480
G01 X9.3693 Y18.2685
G01 X9.3699 Y18.2787
G01 X9.3708 Y18.2889
G01 X9.3732 Y18.3092
G01 X9.3767 Y18.3294
G01 X9.3812 Y18.3493
G01 X9.3866 Y18.3690
G01 X9.3897 Y18.3788
G01 X9.3966 Y18.3980
G01 X9.4054 Y18.4192
G00 Z2.0000
G00 X12.1071 Y16.4221
G01 F40.00
G01 Z-0.1200
G01 F60.00
G01 X12.3729 Y16.4221
G01 X12.3729 Y16.6720
G01 X12.3742 Y16.7024
G01 X12.3754 Y16.7143
G01 X12.3800 Y16.7444
G01 X12.3872 Y16.7740
G01 X12.3907 Y16.7854
G01 X12.4011 Y16.8140
G01 X12.4140 Y16.8416
G01 X12.4196 Y16.8521
G01 X12.4354 Y16.8782
G01 X12.4534 Y16.9028
G01 X12.4610 Y16.9120
G01 X12.4816 Y16.9344
G01 X12.5063 Y16.9570
G01 X12.5329 Y16.9772
G01 X12.5428 Y16.9838
G01 X12.5690 Y16.9993
G01 X12.5965 Y17.0125
G01 X12.6075 Y17.0170
G01 X12.6363 Y17.0272
G01 X12.6687 Y17.0354
G01 X12.6814 Y17.0376
G01 X12.6814 Y17.3069
G01 X12.6135 Y17.2998
G01 X12.4718 Y17.2525
G01 X12.3456 Y17.1743
G01 X12.2407 Y17.0692
G01 X12.1628 Y16.9428
G01 X12.1158 Y16.8010
G01 X12.1071 Y16.7161
G01 X12.1071 Y16.4221
G00 Z2.0000
G00 X12.1072 Y15.6719
G01 F40.00
G01 Z-0.1200
G01 F60.00
G01 X12.1072 Y15.3780
G01 X12.1161 Y15.2919
G01 X12.1633 Y15.1502
G01 X12.2414 Y15.0239
G01 X12.3464 Y14.9190
G01 X12.4728 Y14.8410
G01 X12.6146 Y14.7939
G01 X12.6814 Y14.7870
G01 X12.6814 Y15.0564
G01 X12.6687 Y15.0586
G01 X12.6363 Y15.0668
G01 X12.6075 Y15.0770
G01 X12.5965 Y15.0815
G01 X12.5690 Y15.0947
G01 X12.5428 Y15.1102
G01 X12.5329 Y15.1168
G01 X12.5063 Y15.1370
G01 X12.4816 Y15.1596
G01 X12.4610 Y15.1820
G01 X12.4534 Y15.1912
G01 X12.4354 Y15.2158
G01 X12.4196 Y15.2419
G01 X12.4140 Y15.2524
G01 X12.4011 Y15.2800
G01 X12.3907 Y15.3086
G01 X12.3872 Y15.3200
G01 X12.3800 Y15.3496
G01 X12.3754 Y15.3797
G01 X12.3742 Y15.3916
G01 X12.3729 Y15.4220
G01 X12.3729 Y15.6719
G01 X12.1072 Y15.6719
G00 Z2.0000
G00 X13.4316 Y15.0564
G01 F40.00
G01 Z-0.1200
G01 F60.00
G01 X13.4316 Y14.7871
G01 X13.4995 Y14.7942
G01 X13.6412 Y14.8415
G01 X13.7674 Y14.9197
G01 X13.8720 Y15.0244
G01 X13.9502 Y15.1512
G01 X13.9972 Y15.2930
G01 X14.0059 Y15.3779
G01 X14.0059 Y15.6719
G01 X13.7401 Y15.6719
G01 X13.7401 Y15.4220
G01 X13.7384 Y15.3860
G01 X13.7330 Y15.3496
G01 X13.7242 Y15.3143
G01 X13.7119 Y15.2800
G01 X13.6977 Y15.2497
G01 X13.6934 Y15.2419
G01 X13.6776 Y15.2158
G01 X13.6596 Y15.1912
G01 X13.6520 Y15.1820
G01 X13.6314 Y15.1596
G01 X13.6090 Y15.1390
G01 X13.6021 Y15.1332
G01 X13.5801 Y15.1168
G01 X13.5702 Y15.1102
G01 X13.5440 Y15.0947
G01 X13.5110 Y15.0791
G01 X13.4824 Y15.0687
G01 X13.4739 Y15.0660
G01 X13.4443 Y15.0586
G01 X13.4316 Y15.0564
G00 Z2.0000
G00 X15.6314 Y14.9070
G01 F40.00
G01 Z-0.1200
G01 F60.00
G01 X15.6690 Y14.9055
G01 X16.2940 Y14.9055
G01 X16.3071 Y14.9058
G01 X16.3446 Y14.9080
G01 X16.3819 Y14.9132
G01 X16.3948 Y14.9154
G01 X16.4075 Y14.9183
G01 X16.4439 Y14.9277
G01 X16.4795 Y14.9401
G01 X16.4977 Y14.9474
G01 X16.5375 Y14.9665
G01 X16.5699 Y14.9855
G01 X16.5864 Y14.9962
G01 X16.6217 Y15.0227
G01 X16.6498 Y15.0477
G01 X16.6638 Y15.0614
G01 X16.6933 Y15.0943
G01 X16.7198 Y15.1296
G01 X16.7305 Y15.1461
G01 X16.7495 Y15.1785
G01 X16.7686 Y15.2183
G01 X16.7736 Y15.2304
G01 X16.7842 Y15.2596
G01 X16.7901 Y15.2783
G01 X16.7993 Y15.3148
G01 X16.8018 Y15.3277
G01 X16.8040 Y15.3418
G01 X18.0195 Y15.3418
G01 X18.0195 Y14.8740
G01 X18.0198 Y14.8609
G01 X18.0236 Y14.7825
G01 X18.0246 Y14.7695
G01 X18.0262 Y14.7565
G01 X18.0377 Y14.6788
G01 X18.0400 Y14.6659
G01 X18.0428 Y14.6532
G01 X18.0619 Y14.5770
G01 X18.0654 Y14.5644
G01 X18.0695 Y14.5520
G01 X18.0959 Y14.4781
G01 X18.1007 Y14.4659
G01 X18.1060 Y14.4539
G01 X18.1395 Y14.3829
G01 X18.1454 Y14.3712
G01 X18.1519 Y14.3599
G01 X18.1922 Y14.2925
G01 X18.1992 Y14.2815
G01 X18.2067 Y14.2708
G01 X18.2535 Y14.2077
G01 X18.2616 Y14.1974
G01 X18.2701 Y14.1875
G01 X18.3228 Y14.1293
G01 X18.3318 Y14.1198
G01 X18.3413 Y14.1108
G01 X18.3995 Y14.0581
G01 X18.4094 Y14.0496
G01 X18.4197 Y14.0415
G01 X18.4828 Y13.9947
G01 X18.4935 Y13.9872
G01 X18.5045 Y13.9802
G01 X18.5719 Y13.9399
G01 X18.5832 Y13.9334
G01 X18.5949 Y13.9275
G01 X18.6659 Y13.8940
G01 X18.6779 Y13.8887
G01 X18.6901 Y13.8839
G01 X18.7640 Y13.8575
G01 X18.7764 Y13.8534
G01 X18.7890 Y13.8499
G01 X18.8652 Y13.8308
G01 X18.8779 Y13.8280
G01 X18.8908 Y13.8257
G01 X18.9685 Y13.8142
G01 X18.9815 Y13.8126
G01 X18.9945 Y13.8116
G01 X19.0729 Y13.8078
G01 X19.0860 Y13.8075
G01 X19.0991 Y13.8078
G01 X19.1775 Y13.8116
G01 X19.1905 Y13.8126
G01 X19.2035 Y13.8142
G01 X19.2812 Y13.8257
G01 X19.2941 Y13.8280
G01 X19.3068 Y13.8308
G01 X19.3830 Y13.8499
G01 X19.3956 Y13.8534
G01 X19.4080 Y13.8575
G01 X19.4819 Y13.8839
G01 X19.4941 Y13.8887
G01 X19.5061 Y13.8940
G01 X19.5771 Y13.9275
G01 X19.5888 Y13.9334
G01 X19.6001 Y13.9399
G01 X19.6675 Y13.9802
G01 X19.6785 Y13.9872
G01 X19.6892 Y13.9947
G01 X19.7523 Y14.0415
G01 X19.7626 Y14.0496
G01 X19.7725 Y14.0581
G01 X19.8307 Y14.1108
G01 X19.8402 Y14.1198
G01 X19.8492 Y14.1293
G01 X19.9019 Y14.1875
G01 X19.9104 Y14.1974
G01 X19.9185 Y14.2077
G01 X19.9653 Y14.2708
G01 X19.9728 Y14.2815
G01 X19.9798 Y14.2925
G01 X20.0201 Y14.3599
G01 X20.0266 Y14.3712
G01 X20.0325 Y14.3829
G01 X20.0660 Y14.4539
G01 X20.0713 Y14.4659
G01 X20.0761 Y14.4781
G01 X20.1025 Y14.5520
G01 X20.1066 Y14.5644
G01 X20.1101 Y14.5770
G01 X20.1292 Y14.6532
G01 X20.1320 Y14.6659
G01 X20.1343 Y14.6788
G01 X20.1458 Y14.7565
G01 X20.1474 Y14.7695
G01 X20.1484 Y14.7825
G01 X20.1522 Y14.8609
G01 X20.1525 Y14.8740
G01 X20.1525 Y17.4740
G01 X20.1522 Y17.4871
G01 X20.1480 Y17.5720
G01 X20.1458 Y17.5915
G01 X20.1343 Y17.6692
G01 X20.1320 Y17.6821
G01 X20.1292 Y17.6948
G01 X20.1101 Y17.7710
G01 X20.1066 Y17.7836
G01 X20.1025 Y17.7960
G01 X20.0761 Y17.8699
G01 X20.0713 Y17.8821
G01 X20.0660 Y17.8941
G01 X20.0325 Y17.9651
G01 X20.0266 Y17.9768
G01 X20.0201 Y17.9881
G01 X19.9798 Y18.0555
G01 X19.9728 Y18.0665
G01 X19.9653 Y18.0772
G01 X19.9185 Y18.1403
G01 X19.9104 Y18.1506
G01 X19.9019 Y18.1605
G01 X19.8492 Y18.2187
G01 X19.8402 Y18.2282
G01 X19.8307 Y18.2372
G01 X19.7725 Y18.2899
G01 X19.7626 Y18.2984
G01 X19.7523 Y18.3065
G01 X19.6892 Y18.3533
G01 X19.6785 Y18.3608
G01 X19.6675 Y18.3678
G01 X19.6001 Y18.4081
G01 X19.5888 Y18.4146
G01 X19.5771 Y18.4205
G01 X19.5061 Y18.4540
G01 X19.4941 Y18.4593
G01 X19.4819 Y18.4641
G01 X19.4080 Y18.4905
G01 X19.3950 Y18.4948
G01 X19.3830 Y18.4981
G01 X19.3068 Y18.5172
G01 X19.2941 Y18.5200
G01 X19.2812 Y18.5223
G01 X19.2035 Y18.5338
G01 X19.1905 Y18.5354
G01 X19.1775 Y18.5364
G01 X19.0991 Y18.5402
G01 X19.0860 Y18.5405
G01 X19.0729 Y18.5402
G01 X18.9945 Y18.5364
G01 X18.9815 Y18.5354
G01 X18.9685 Y18.5338
G01 X18.8908 Y18.5223
G01 X18.8779 Y18.5200
G01 X18.8652 Y18.5172
G01 X18.7890 Y18.4981
G01 X18.7764 Y18.4946
G01 X18.7640 Y18.4905
G01 X18.6901 Y18.4641
G01 X18.6779 Y18.4593
G01 X18.6659 Y18.4540
G01 X18.5949 Y18.4205
G01 X18.5832 Y18.4146
G01 X18.5719 Y18.4081
G01 X18.5045 Y18.3678
G01 X18.4935 Y18.3608
G01 X18.4828 Y18.3533
G01 X18.4145 Y18.3025
G01 X18.3995 Y18.2899
G01 X18.3413 Y18.2372
G01 X18.3318 Y18.2282
G01 X18.3228 Y18.2187
G01 X18.2701 Y18.1605
G01 X18.2616 Y18.1506
G01 X18.2535 Y18.1403
G01 X18.2067 Y18.0772
G01 X18.1992 Y18.0665
G01 X18.1922 Y18.0555
G01 X18.1519 Y17.9881
G01 X18.1454 Y17.9768
G01 X18.1395 Y17.9651
G01 X18.1060 Y17.8941
G01 X18.1007 Y17.8821
G01 X18.0959 Y17.8699
G01 X18.0656 Y17.7843
G01 X18.0622 Y17.7723
G01 X18.0413 Y17.6885
G01 X18.0377 Y17.6692
G01 X18.0262 Y17.5915
G01 X18.0246 Y17.5785
G01 X18.0236 Y17.5655
G01 X18.0196 Y17.4805
G01 X18.0195 Y16.6252
G01 X16.8105 Y16.6252
G01 X16.8104 Y16.6785
G01 X16.8086 Y16.7161
G01 X16.8073 Y16.7291
G01 X16.8006 Y16.7728
G01 X16.7977 Y16.7855
G01 X16.7883 Y16.8219
G01 X16.7842 Y16.8344
G01 X16.7712 Y16.8697
G01 X16.7554 Y16.9038
G01 X16.7495 Y16.9155
G01 X16.7431 Y16.9269
G01 X16.7235 Y16.9590
G01 X16.6974 Y16.9946
G01 X16.6891 Y17.0047
G01 X16.6638 Y17.0326
G01 X16.6546 Y17.0418
G01 X16.6267 Y17.0671
G01 X16.6166 Y17.0754
G01 X16.5864 Y17.0978
G01 X16.5755 Y17.1050
G01 X16.5489 Y17.1211
G01 X16.5375 Y17.1275
G01 X16.5258 Y17.1334
G01 X16.4977 Y17.1466
G01 X16.4795 Y17.1539
G01 X16.4502 Y17.1643
G01 X16.4377 Y17.1681
G01 X16.4012 Y17.1773
G01 X16.3883 Y17.1798
G01 X16.3446 Y17.1860
G01 X16.3071 Y17.1882
G01 X16.2940 Y17.1885
G01 X15.6690 Y17.1885
G01 X15.6559 Y17.1882
G01 X15.6184 Y17.1860
G01 X15.5747 Y17.1798
G01 X15.5555 Y17.1757
G01 X15.5191 Y17.1663
G01 X15.5066 Y17.1622
G01 X15.4713 Y17.1492
G01 X15.4313 Y17.1306
G01 X15.4141 Y17.1211
G01 X15.3820 Y17.1015
G01 X15.3516 Y17.0793
G01 X15.3363 Y17.0671
G01 X15.3084 Y17.0418
G01 X15.2992 Y17.0326
G01 X15.2739 Y17.0047
G01 X15.2656 Y16.9946
G01 X15.2432 Y16.9644
G01 X15.2360 Y16.9535
G01 X15.2166 Y16.9212
G01 X15.2104 Y16.9097
G01 X15.1944 Y16.8757
G01 X15.1894 Y16.8636
G01 X15.1767 Y16.8282
G01 X15.1729 Y16.8157
G01 X15.1637 Y16.7792
G01 X15.1612 Y16.7663
G01 X15.1557 Y16.7291
G01 X15.1540 Y16.7096
G01 X15.1525 Y16.6720
G01 X15.1525 Y15.4220
G01 X15.1540 Y15.3844
G01 X15.1557 Y15.3649
G01 X15.1624 Y15.3212
G01 X15.1653 Y15.3085
G01 X15.1747 Y15.2721
G01 X15.1871 Y15.2365
G01 X15.1918 Y15.2243
G01 X15.2104 Y15.1843
G01 X15.2166 Y15.1728
G01 X15.2360 Y15.1405
G01 X15.2432 Y15.1296
G01 X15.2617 Y15.1046
G01 X15.2697 Y15.0943
G01 X15.2783 Y15.0844
G01 X15.2992 Y15.0614
G01 X15.3084 Y15.0522
G01 X15.3413 Y15.0227
G01 X15.3516 Y15.0147
G01 X15.3820 Y14.9925
G01 X15.4141 Y14.9729
G01 X15.4255 Y14.9665
G01 X15.4653 Y14.9474
G01 X15.4774 Y14.9424
G01 X15.5128 Y14.9297
G01 X15.5253 Y14.9259
G01 X15.5555 Y14.9183
G01 X15.5747 Y14.9142
G01 X15.6054 Y14.9096
G01 X15.6193 Y14.9079
G01 X15.6314 Y14.9070
G00 Z2.0000
G00 X15.6386 Y15.0522
G01 F40.00
G01 Z-0.1200
G01 F60.00
G01 X15.6690 Y15.0509
G01 X16.2970 Y15.0509
G01 X16.3304 Y15.0526
G01 X16.3664 Y15.0580
G01 X16.4017 Y15.0668
G01 X16.4360 Y15.0791
G01 X16.4690 Y15.0947
G01 X16.4952 Y15.1102
G01 X16.5027 Y15.1151
G01 X16.5248 Y15.1314
G01 X16.5340 Y15.1390
G01 X16.5564 Y15.1596
G01 X16.5809 Y15.1865
G01 X16.6026 Y15.2158
G01 X16.6199 Y15.2444
G01 X16.6345 Y15.2745
G01 X16.6390 Y15.2855
G01 X16.6492 Y15.3143
G01 X16.6580 Y15.3496
G01 X16.6626 Y15.3797
G01 X16.6638 Y15.3916
G01 X16.6651 Y15.4190
G01 X16.6651 Y15.4872
G01 X18.1649 Y15.4872
G01 X18.1649 Y14.8710
G01 X18.1693 Y14.7837
G01 X18.1815 Y14.7002
G01 X18.1832 Y14.6914
G01 X18.2045 Y14.6066
G01 X18.2328 Y14.5270
G01 X18.2374 Y14.5161
G01 X18.2736 Y14.4398
G01 X18.3201 Y14.3622
G01 X18.3703 Y14.2943
G01 X18.3778 Y14.2851
G01 X18.4305 Y14.2270
G01 X18.4368 Y14.2206
G01 X18.5016 Y14.1619
G01 X18.5742 Y14.1081
G01 X18.6518 Y14.0616
G01 X18.7281 Y14.0254
G01 X18.7390 Y14.0208
G01 X18.8130 Y13.9944
G01 X18.8243 Y13.9909
G01 X18.9063 Y13.9705
G01 X18.9957 Y13.9573
G01 X19.0860 Y13.9529
G01 X19.1763 Y13.9573
G01 X19.2657 Y13.9705
G01 X19.3477 Y13.9909
G01 X19.3590 Y13.9944
G01 X19.4330 Y14.0208
G01 X19.4439 Y14.0254
G01 X19.5202 Y14.0616
G01 X19.5927 Y14.1049
G01 X19.6002 Y14.1098
G01 X19.6704 Y14.1619
G01 X19.7330 Y14.2185
G01 X19.7415 Y14.2270
G01 X19.7981 Y14.2896
G01 X19.8485 Y14.3574
G01 X19.8551 Y14.3673
G01 X19.8955 Y14.4346
G01 X19.9011 Y14.4451
G01 X19.9370 Y14.5215
G01 X19.9675 Y14.6066
G01 X19.9895 Y14.6943
G01 X20.0020 Y14.7778
G01 X20.0030 Y14.7867
G01 X20.0071 Y14.8740
G01 X20.0070 Y17.4799
G01 X20.0027 Y17.5643
G01 X19.9905 Y17.6478
G01 X19.9881 Y17.6595
G01 X19.9675 Y17.7414
G01 X19.9370 Y17.8265
G01 X19.9011 Y17.9029
G01 X19.8955 Y17.9134
G01 X19.8551 Y17.9807
G01 X19.8502 Y17.9882
G01 X19.7981 Y18.0584
G01 X19.7374 Y18.1254
G01 X19.6704 Y18.1861
G01 X19.6026 Y18.2365
G01 X19.5927 Y18.2431
G01 X19.5202 Y18.2864
G01 X19.4439 Y18.3226
G01 X19.4330 Y18.3272
G01 X19.3590 Y18.3536
G01 X19.3477 Y18.3571
G01 X19.2657 Y18.3775
G01 X19.1822 Y18.3900
G01 X19.1704 Y18.3912
G01 X19.0860 Y18.3951
G01 X18.9957 Y18.3907
G01 X18.9063 Y18.3775
G01 X18.8186 Y18.3555
G01 X18.7335 Y18.3250
G01 X18.6518 Y18.2864
G01 X18.5742 Y18.2399
G01 X18.5063 Y18.1897
G01 X18.4971 Y18.1822
G01 X18.4346 Y18.1254
G01 X18.3739 Y18.0584
G01 X18.3201 Y17.9858
G01 X18.2765 Y17.9134
G01 X18.2709 Y17.9029
G01 X18.2374 Y17.8319
G01 X18.2328 Y17.8210
G01 X18.2046 Y17.7417
G01 X18.1825 Y17.6537
G01 X18.1693 Y17.5643
G01 X18.1649 Y17.4770
G01 X18.1649 Y16.4798
G01 X16.6651 Y16.4798
G01 X16.6651 Y16.6720
G01 X16.6636 Y16.7054
G01 X16.6590 Y16.7385
G01 X16.6567 Y16.7502
G01 X16.6492 Y16.7797
G01 X16.6369 Y16.8140
G01 X16.6213 Y16.8470
G01 X16.6026 Y16.8782
G01 X16.5809 Y16.9075
G01 X16.5564 Y16.9344
G01 X16.5295 Y16.9589
G01 X16.5002 Y16.9806
G01 X16.4690 Y16.9993
G01 X16.4360 Y17.0149
G01 X16.4017 Y17.0272
G01 X16.3664 Y17.0360
G01 X16.3304 Y17.0414
G01 X16.2970 Y17.0431
G01 X15.6631 Y17.0430
G01 X15.6326 Y17.0414
G01 X15.6025 Y17.0370
G01 X15.5908 Y17.0347
G01 X15.5613 Y17.0272
G01 X15.5270 Y17.0149
G01 X15.4994 Y17.0020
G01 X15.4889 Y16.9964
G01 X15.4603 Y16.9789
G01 X15.4382 Y16.9626
G01 X15.4313 Y16.9570
G01 X15.4087 Y16.9365
G01 X15.4025 Y16.9301
G01 X15.3840 Y16.9097
G01 X15.3784 Y16.9028
G01 X15.3604 Y16.8782
G01 X15.3446 Y16.8521
G01 X15.3390 Y16.8416
G01 X15.3261 Y16.8140
G01 X15.3138 Y16.7797
G01 X15.3050 Y16.7444
G01 X15.2996 Y16.7084
G01 X15.2979 Y16.6720
G01 X15.2979 Y15.4220
G01 X15.2996 Y15.3856
G01 X15.3050 Y15.3496
G01 X15.3122 Y15.3200
G01 X15.3147 Y15.3114
G01 X15.3240 Y15.2855
G01 X15.3285 Y15.2745
G01 X15.3417 Y15.2470
G01 X15.3604 Y15.2158
G01 X15.3821 Y15.1865
G01 X15.4066 Y15.1596
G01 X15.4335 Y15.1351
G01 X15.4628 Y15.1134
G01 X15.4940 Y15.0947
G01 X15.5215 Y15.0815
G01 X15.5297 Y15.0780
G01 X15.5584 Y15.0677
G01 X15.5908 Y15.0593
G01 X15.5995 Y15.0574
G01 X15.6267 Y15.0534
G01 X15.6386 Y15.0522
G00 Z2.0000
G00 X13.4316 Y17.3070
G01 F40.00
G01 Z-0.1200
G01 F60.00
G01 X13.4316 Y17.0376
G01 X13.4443 Y17.0354
G01 X13.4767 Y17.0272
G01 X13.5055 Y17.0170
G01 X13.5165 Y17.0125
G01 X13.5440 Y16.9993
G01 X13.5702 Y16.9838
G01 X13.5801 Y16.9772
G01 X13.6067 Y16.9570
G01 X13.6314 Y16.9344
G01 X13.6520 Y16.9120
G01 X13.6596 Y16.9028
G01 X13.6776 Y16.8782
G01 X13.6934 Y16.8521
G01 X13.6990 Y16.8416
G01 X13.7119 Y16.8140
G01 X13.7223 Y16.7854
G01 X13.7258 Y16.7740
G01 X13.7330 Y16.7444
G01 X13.7376 Y16.7143
G01 X13.7388 Y16.7024
G01 X13.7401 Y16.6720
G01 X13.7401 Y16.4221
G01 X14.0058 Y16.4221
G01 X14.0058 Y16.7160
G01 X13.9969 Y16.8021
G01 X13.9497 Y16.9438
G01 X13.8716 Y17.0701
G01 X13.7666 Y17.1750
G01 X13.6402 Y17.2530
G01 X13.4984 Y17.3001
G01 X13.4316 Y17.3070
G00 Z2.0000
G00 X20.2155 Y17.9117
G01 F40.00
G01 Z-0.1200
G01 F60.00
G01 X20.2394 Y17.8450
G01 X20.2457 Y17.8258
G01 X20.2511 Y17.8063
G01 X20.2702 Y17.7302
G01 X20.2746 Y17.7104
G01 X20.2781 Y17.6905
G01 X20.2896 Y17.6129
G01 X20.2921 Y17.5928
G01 X20.2936 Y17.5726
G01 X20.2978 Y17.4841
G01 X20.2979 Y14.8740
G01 X20.2974 Y14.8538
G01 X20.2936 Y14.7754
G01 X20.2921 Y14.7552
G01 X20.2896 Y14.7351
G01 X20.2781 Y14.6575
G01 X20.2746 Y14.6376
G01 X20.2702 Y14.6178
G01 X20.2511 Y14.5417
G01 X20.2457 Y14.5222
G01 X20.2394 Y14.5030
G01 X20.2155 Y14.4363
G01 X20.2277 Y14.4388
G01 X20.2479 Y14.4422
G01 X20.3286 Y14.4517
G01 X20.3489 Y14.4535
G01 X20.3694 Y14.4543
G01 X20.3796 Y14.4544
G01 X20.4001 Y14.4537
G01 X20.4103 Y14.4530
G01 X20.4204 Y14.4520
G01 X20.4407 Y14.4493
G01 X20.4508 Y14.4475
G01 X20.4708 Y14.4433
G01 X20.4965 Y14.4363
G01 X20.4726 Y14.5030
G01 X20.4663 Y14.5222
G01 X20.4609 Y14.5417
G01 X20.4418 Y14.6178
G01 X20.4374 Y14.6376
G01 X20.4339 Y14.6575
G01 X20.4224 Y14.7351
G01 X20.4199 Y14.7552
G01 X20.4184 Y14.7754
G01 X20.4142 Y14.8639
G01 X20.4141 Y17.4740
G01 X20.4146 Y17.4942
G01 X20.4184 Y17.5726
G01 X20.4199 Y17.5928
G01 X20.4224 Y17.6129
G01 X20.4339 Y17.6905
G01 X20.4374 Y17.7104
G01 X20.4418 Y17.7302
G01 X20.4609 Y17.8063
G01 X20.4666 Y17.8268
G01 X20.4726 Y17.8450
G01 X20.4965 Y17.9117
G01 X20.4843 Y17.9092
G01 X20.4641 Y17.9058
G01 X20.3834 Y17.8963
G01 X20.3631 Y17.8945
G01 X20.3528 Y17.8940
G01 X20.3324 Y17.8936
G01 X20.3222 Y17.8938
G01 X20.3017 Y17.8950
G01 X20.2814 Y17.8972
G01 X20.2713 Y17.8987
G01 X20.2612 Y17.9005
G01 X20.2412 Y17.9047
G01 X20.2155 Y17.9117
G00 Z2.0000
G00 X26.5788 Y18.0731
G01 F40.00
G01 Z-0.1200
G01 F60.00
G01 X26.8445 Y18.0731
G01 X26.8445 Y19.0010
G01 X26.8485 Y19.0824
G01 X26.8496 Y19.0942
G01 X26.8622 Y19.1777
G01 X26.8827 Y19.2603
G01 X26.8860 Y19.2710
G01 X26.9146 Y19.3505
G01 X26.9532 Y19.4322
G01 X26.9997 Y19.5098
G01 X27.0499 Y19.5777
G01 X27.0555 Y19.5846
G01 X27.1143 Y19.6494
G01 X27.1767 Y19.7062
G01 X27.1859 Y19.7137
G01 X27.2490 Y19.7605
G01 X27.2589 Y19.7671
G01 X27.3314 Y19.8104
G01 X27.3905 Y19.8385
G01 X27.3905 Y20.1262
G01 X27.3580 Y20.1175
G01 X27.1701 Y20.0299
G01 X26.9997 Y19.9105
G01 X26.8528 Y19.7636
G01 X26.7340 Y19.5938
G01 X26.6462 Y19.4056
G01 X26.5924 Y19.2051
G01 X26.5788 Y19.0499
G01 X26.5788 Y18.0731
G00 Z2.0000
G00 X26.5788 Y17.3229
G01 F40.00
G01 Z-0.1200
G01 F60.00
G01 X26.5788 Y16.3461
G01 X26.5924 Y16.1909
G01 X26.6462 Y15.9904
G01 X26.7340 Y15.8022
G01 X26.8528 Y15.6324
G01 X26.9997 Y15.4855
G01 X27.1701 Y15.3661
G01 X27.3580 Y15.2785
G01 X27.3905 Y15.2698
G01 X27.3905 Y15.5575
G01 X27.3314 Y15.5856
G01 X27.2589 Y15.6289
G01 X27.2490 Y15.6355
G01 X27.1859 Y15.6823
G01 X27.1767 Y15.6898
G01 X27.1143 Y15.7466
G01 X27.0555 Y15.8114
G01 X27.0499 Y15.8183
G01 X26.9997 Y15.8862
G01 X26.9532 Y15.9638
G01 X26.9146 Y16.0455
G01 X26.8860 Y16.1250
G01 X26.8833 Y16.1335
G01 X26.8622 Y16.2183
G01 X26.8496 Y16.3018
G01 X26.8485 Y16.3136
G01 X26.8445 Y16.3950
G01 X26.8445 Y17.3229
G01 X26.5788 Y17.3229
G00 Z2.0000
G00 X29.1029 Y16.0565
G01 F40.00
G01 Z-0.1200
G01 F60.00
G01 X29.0814 Y16.1418
G01 X29.0770 Y16.1616
G01 X29.0735 Y16.1815
G01 X29.0620 Y16.2591
G01 X29.0595 Y16.2792
G01 X29.0581 Y16.2994
G01 X29.0542 Y16.3778
G01 X29.0537 Y16.3980
G01 X29.0538 Y19.0081
G01 X29.0587 Y19.1067
G01 X29.0620 Y19.1369
G01 X29.0735 Y19.2145
G01 X29.0770 Y19.2344
G01 X29.0814 Y19.2542
G01 X29.1027 Y19.3386
G01 X29.0896 Y19.3344
G01 X29.0699 Y19.3291
G01 X29.0499 Y19.3247
G01 X29.0398 Y19.3229
G01 X29.0196 Y19.3200
G01 X28.9357 Y19.3106
G01 X28.9498 Y19.2542
G01 X28.9542 Y19.2344
G01 X28.9577 Y19.2145
G01 X28.9706 Y19.1268
G01 X28.9732 Y19.0966
G01 X28.9770 Y19.0182
G01 X28.9775 Y18.9980
G01 X28.9774 Y16.3879
G01 X28.9726 Y16.2893
G01 X28.9692 Y16.2591
G01 X28.9577 Y16.1815
G01 X28.9542 Y16.1616
G01 X28.9498 Y16.1418
G01 X28.9361 Y16.0873
G01 X28.9551 Y16.0873
G01 X28.9755 Y16.0864
G01 X28.9959 Y16.0844
G01 X29.0161 Y16.0815
G01 X29.0362 Y16.0775
G01 X29.0560 Y16.0726
G01 X29.0756 Y16.0666
G01 X29.1029 Y16.0565
G00 Z2.0000
G00 X27.7191 Y14.5130
G01 F40.00
G01 Z-0.1200
G01 F60.00
G01 X27.7191 Y14.2436
G01 X27.7318 Y14.2414
G01 X27.7642 Y14.2332
G01 X27.7930 Y14.2230
G01 X27.8040 Y14.2185
G01 X27.8315 Y14.2053
G01 X27.8577 Y14.1898
G01 X27.8676 Y14.1832
G01 X27.8942 Y14.1630
G01 X27.9189 Y14.1404
G01 X27.9395 Y14.1180
G01 X27.9471 Y14.1088
G01 X27.9651 Y14.0842
G01 X27.9809 Y14.0581
G01 X27.9865 Y14.0476
G01 X27.9994 Y14.0200
G01 X28.0098 Y13.9914
G01 X28.0133 Y13.9800
G01 X28.0205 Y13.9504
G01 X28.0251 Y13.9203
G01 X28.0263 Y13.9084
G01 X28.0276 Y13.8780
G01 X28.0276 Y13.6281
G01 X28.2933 Y13.6281
G01 X28.2933 Y13.9220
G01 X28.2844 Y14.0081
G01 X28.2372 Y14.1498
G01 X28.1591 Y14.2761
G01 X28.0541 Y14.3810
G01 X27.9277 Y14.4590
G01 X27.7859 Y14.5061
G01 X27.7191 Y14.5130
G00 Z2.0000
G00 X26.3946 Y13.6281
G01 F40.00
G01 Z-0.1200
G01 F60.00
G01 X26.6604 Y13.6281
G01 X26.6604 Y13.8780
G01 X26.6617 Y13.9084
G01 X26.6629 Y13.9203
G01 X26.6675 Y13.9504
G01 X26.6747 Y13.9800
G01 X26.6782 Y13.9914
G01 X26.6886 Y14.0200
G01 X26.7015 Y14.0476
G01 X26.7071 Y14.0581
G01 X26.7229 Y14.0842
G01 X26.7409 Y14.1088
G01 X26.7485 Y14.1180
G01 X26.7691 Y14.1404
G01 X26.7938 Y14.1630
G01 X26.8204 Y14.1832
G01 X26.8303 Y14.1898
G01 X26.8565 Y14.2053
G01 X26.8840 Y14.2185
G01 X26.8950 Y14.2230
G01 X26.9238 Y14.2332
G01 X26.9562 Y14.2414
G01 X26.9689 Y14.2436
G01 X26.9689 Y14.5129
G01 X26.9010 Y14.5058
G01 X26.7593 Y14.4585
G01 X26.6331 Y14.3803
G01 X26.5282 Y14.2752
G01 X26.4503 Y14.1488
G01 X26.4033 Y14.0070
G01 X26.3946 Y13.9221
G01 X26.3946 Y13.6281
G00 Z2.0000
G00 X26.3947 Y12.8779
G01 F40.00
G01 Z-0.1200
G01 F60.00
G01 X26.3947 Y12.5840
G01 X26.4036 Y12.4979
G01 X26.4508 Y12.3562
G01 X26.5289 Y12.2299
G01 X26.6339 Y12.1250
G01 X26.7603 Y12.0470
G01 X26.9021 Y11.9999
G01 X26.9689 Y11.9930
G01 X26.9689 Y12.2624
G01 X26.9562 Y12.2646
G01 X26.9238 Y12.2728
G01 X26.8950 Y12.2830
G01 X26.8840 Y12.2875
G01 X26.8565 Y12.3007
G01 X26.8303 Y12.3162
G01 X26.8204 Y12.3228
G01 X26.7938 Y12.3430
G01 X26.7691 Y12.3656
G01 X26.7485 Y12.3880
G01 X26.7409 Y12.3972
G01 X26.7229 Y12.4218
G01 X26.7071 Y12.4479
G01 X26.7015 Y12.4584
G01 X26.6886 Y12.4860
G01 X26.6782 Y12.5146
G01 X26.6747 Y12.5260
G01 X26.6675 Y12.5556
G01 X26.6629 Y12.5857
G01 X26.6617 Y12.5976
G01 X26.6604 Y12.6280
G01 X26.6604 Y12.8779
G01 X26.3947 Y12.8779
G00 Z2.0000
G00 X27.7191 Y12.2624
G01 F40.00
G01 Z-0.1200
G01 F60.00
G01 X27.7191 Y11.9931
G01 X27.7870 Y12.0002
G01 X27.9287 Y12.0475
G01 X28.0549 Y12.1257
G01 X28.1595 Y12.2304
G01 X28.2377 Y12.3572
G01 X28.2847 Y12.4990
G01 X28.2934 Y12.5839
G01 X28.2934 Y12.8779
G01 X28.0276 Y12.8779
G01 X28.0276 Y12.6280
G01 X28.0259 Y12.5920
G01 X28.0205 Y12.5556
G01 X28.0117 Y12.5203
G01 X27.9994 Y12.4860
G01 X27.9852 Y12.4557
G01 X27.9809 Y12.4479
G01 X27.9651 Y12.4218
G01 X27.9471 Y12.3972
G01 X27.9395 Y12.3880
G01 X27.9189 Y12.3656
G01 X27.8965 Y12.3450
G01 X27.8896 Y12.3392
G01 X27.8676 Y12.3228
G01 X27.8577 Y12.3162
G01 X27.8315 Y12.3007
G01 X27.7985 Y12.2851
G01 X27.7699 Y12.2747
G01 X27.7614 Y12.2720
G01 X27.7318 Y12.2646
G01 X27.7191 Y12.2624
G00 Z2.0000
G00 X26.5489 Y7.2105
G01 F40.00
G01 Z-0.1200
G01 F60.00
G01 X26.5489 Y5.9605
G01 X26.5504 Y5.9271
G01 X26.5514 Y5.9182
G01 X26.5560 Y5.8881
G01 X26.5632 Y5.8585
G01 X26.5657 Y5.8499
G01 X26.5750 Y5.8240
G01 X26.5795 Y5.8130
G01 X26.5927 Y5.7855
G01 X26.6114 Y5.7543
G01 X26.6331 Y5.7250
G01 X26.6535 Y5.7024
G01 X26.6597 Y5.6960
G01 X26.6845 Y5.6736
G01 X26.7138 Y5.6519
G01 X26.7450 Y5.6332
G01 X26.7725 Y5.6200
G01 X26.7835 Y5.6155
G01 X26.8094 Y5.6062
G01 X26.8180 Y5.6037
G01 X26.8476 Y5.5965
G01 X26.8836 Y5.5911
G01 X26.9200 Y5.5894
G01 X27.8450 Y5.5894
G01 X27.8814 Y5.5911
G01 X27.9174 Y5.5965
G01 X27.9527 Y5.6053
G01 X27.9870 Y5.6176
G01 X28.0200 Y5.6332
G01 X28.0512 Y5.6519
G01 X28.0805 Y5.6736
G01 X28.1031 Y5.6940
G01 X28.1095 Y5.7002
G01 X28.1319 Y5.7250
G01 X28.1536 Y5.7543
G01 X28.1723 Y5.7855
G01 X28.1855 Y5.8130
G01 X28.1900 Y5.8240
G01 X28.1993 Y5.8499
G01 X28.2018 Y5.8585
G01 X28.2090 Y5.8881
G01 X28.2136 Y5.9182
G01 X28.2146 Y5.9271
G01 X28.2161 Y5.9605
G01 X28.2161 Y7.2105
G01 X28.2144 Y7.2469
G01 X28.2096 Y7.2800
G01 X28.2018 Y7.3125
G01 X28.1983 Y7.3239
G01 X28.1879 Y7.3525
G01 X28.1723 Y7.3855
G01 X28.1536 Y7.4167
G01 X28.1356 Y7.4413
G01 X28.1280 Y7.4505
G01 X28.1074 Y7.4729
G01 X28.0805 Y7.4974
G01 X28.0512 Y7.5191
G01 X28.0200 Y7.5378
G01 X27.9869 Y7.5535
G01 X27.9527 Y7.5657
G01 X27.9174 Y7.5745
G01 X27.8814 Y7.5799
G01 X27.8481 Y7.5816
G01 X27.8399 Y7.6037
G01 X27.8202 Y7.6450
G01 X27.7968 Y7.6843
G01 X27.7768 Y7.7117
G01 X27.7768 Y9.0673
G01 X27.7992 Y9.0809
G01 X27.8238 Y9.0989
G01 X27.8307 Y9.1045
G01 X27.8533 Y9.1250
G01 X27.8595 Y9.1314
G01 X27.8799 Y9.1540
G01 X27.9016 Y9.1833
G01 X27.9203 Y9.2145
G01 X27.9335 Y9.2420
G01 X27.9380 Y9.2530
G01 X27.9482 Y9.2818
G01 X27.9557 Y9.3113
G01 X27.9576 Y9.3200
G01 X27.9621 Y9.3504
G01 X27.9628 Y9.3591
G01 X27.9641 Y9.3895
G01 X27.9641 Y10.6395
G01 X27.9626 Y10.6729
G01 X27.9580 Y10.7060
G01 X27.9557 Y10.7177
G01 X27.9482 Y10.7472
G01 X27.9359 Y10.7815
G01 X27.9230 Y10.8091
G01 X27.9174 Y10.8196
G01 X27.9016 Y10.8457
G01 X27.8799 Y10.8750
G01 X27.8554 Y10.9019
G01 X27.8330 Y10.9225
G01 X27.8238 Y10.9301
G01 X27.7992 Y10.9481
G01 X27.7731 Y10.9639
G01 X27.7626 Y10.9695
G01 X27.7350 Y10.9824
G01 X27.7007 Y10.9947
G01 X27.6712 Y11.0022
G01 X27.6595 Y11.0045
G01 X27.6294 Y11.0089
G01 X27.5930 Y11.0106
G01 X26.9680 Y11.0106
G01 X26.9316 Y11.0089
G01 X26.9015 Y11.0045
G01 X26.8927 Y11.0029
G01 X26.8603 Y10.9947
G01 X26.8315 Y10.9845
G01 X26.8205 Y10.9800
G01 X26.7930 Y10.9668
G01 X26.7668 Y10.9513
G01 X26.7569 Y10.9447
G01 X26.7325 Y10.9264
G01 X26.7099 Y10.9060
G01 X26.7015 Y10.8976
G01 X26.6811 Y10.8750
G01 X26.6628 Y10.8506
G01 X26.6562 Y10.8407
G01 X26.6407 Y10.8145
G01 X26.6275 Y10.7870
G01 X26.6230 Y10.7760
G01 X26.6128 Y10.7472
G01 X26.6053 Y10.7177
G01 X26.6030 Y10.7060
G01 X26.5986 Y10.6759
G01 X26.5969 Y10.6395
G01 X26.5969 Y9.3895
G01 X26.5982 Y9.3591
G01 X26.5994 Y9.3472
G01 X26.6040 Y9.3171
G01 X26.6112 Y9.2875
G01 X26.6137 Y9.2789
G01 X26.6251 Y9.2475
G01 X26.6380 Y9.2199
G01 X26.6421 Y9.2119
G01 X26.6578 Y9.1858
G01 X26.6628 Y9.1784
G01 X26.6811 Y9.1540
G01 X26.7015 Y9.1314
G01 X26.7077 Y9.1250
G01 X26.7303 Y9.1045
G01 X26.7372 Y9.0989
G01 X26.7618 Y9.0809
G01 X26.7842 Y9.0673
G01 X26.7842 Y7.5558
G01 X26.7725 Y7.5510
G01 X26.7477 Y7.5392
G01 X26.7399 Y7.5349
G01 X26.7138 Y7.5191
G01 X26.6845 Y7.4974
G01 X26.6619 Y7.4770
G01 X26.6535 Y7.4686
G01 X26.6331 Y7.4460
G01 X26.6114 Y7.4167
G01 X26.5927 Y7.3855
G01 X26.5795 Y7.3580
G01 X26.5750 Y7.3470
G01 X26.5648 Y7.3182
G01 X26.5560 Y7.2829
G01 X26.5514 Y7.2528
G01 X26.5502 Y7.2409
G01 X26.5489 Y7.2105
G00 Z2.0000
G00 X26.4035 Y7.2105
G01 F40.00
G01 Z-0.1200
G01 F60.00
G01 X26.4035 Y5.9605
G01 X26.4050 Y5.9229
G01 X26.4067 Y5.9034
G01 X26.4134 Y5.8597
G01 X26.4163 Y5.8470
G01 X26.4257 Y5.8106
G01 X26.4381 Y5.7750
G01 X26.4428 Y5.7628
G01 X26.4481 Y5.7509
G01 X26.4645 Y5.7170
G01 X26.4709 Y5.7056
G01 X26.4905 Y5.6735
G01 X26.5127 Y5.6431
G01 X26.5207 Y5.6328
G01 X26.5457 Y5.6047
G01 X26.5548 Y5.5953
G01 X26.5873 Y5.5654
G01 X26.5974 Y5.5571
G01 X26.6223 Y5.5386
G01 X26.6330 Y5.5310
G01 X26.6441 Y5.5240
G01 X26.6765 Y5.5050
G01 X26.6882 Y5.4991
G01 X26.7223 Y5.4833
G01 X26.7345 Y5.4786
G01 X26.7701 Y5.4662
G01 X26.8065 Y5.4568
G01 X26.8257 Y5.4527
G01 X26.8694 Y5.4465
G01 X26.8824 Y5.4455
G01 X26.9200 Y5.4440
G01 X27.8450 Y5.4440
G01 X27.8581 Y5.4443
G01 X27.8891 Y5.4459
G01 X27.9021 Y5.4472
G01 X27.9393 Y5.4527
G01 X27.9585 Y5.4568
G01 X27.9949 Y5.4662
G01 X28.0305 Y5.4786
G01 X28.0487 Y5.4859
G01 X28.0768 Y5.4991
G01 X28.0942 Y5.5081
G01 X28.1265 Y5.5275
G01 X28.1374 Y5.5347
G01 X28.1676 Y5.5571
G01 X28.1777 Y5.5654
G01 X28.2056 Y5.5907
G01 X28.2148 Y5.5999
G01 X28.2401 Y5.6278
G01 X28.2484 Y5.6379
G01 X28.2669 Y5.6628
G01 X28.2745 Y5.6735
G01 X28.2815 Y5.6846
G01 X28.3005 Y5.7170
G01 X28.3169 Y5.7509
G01 X28.3223 Y5.7631
G01 X28.3352 Y5.7981
G01 X28.3393 Y5.8106
G01 X28.3487 Y5.8470
G01 X28.3516 Y5.8597
G01 X28.3538 Y5.8726
G01 X28.3583 Y5.9034
G01 X28.3596 Y5.9164
G01 X28.3615 Y5.9605
G01 X28.3615 Y7.2105
G01 X28.3600 Y7.2481
G01 X28.3590 Y7.2611
G01 X28.3538 Y7.2984
G01 X28.3516 Y7.3113
G01 X28.3487 Y7.3240
G01 X28.3411 Y7.3542
G01 X28.3373 Y7.3667
G01 X28.3222 Y7.4082
G01 X28.3036 Y7.4482
G01 X28.2941 Y7.4654
G01 X28.2780 Y7.4920
G01 X28.2708 Y7.5029
G01 X28.2443 Y7.5382
G01 X28.2148 Y7.5711
G01 X28.2056 Y7.5803
G01 X28.1826 Y7.6012
G01 X28.1727 Y7.6098
G01 X28.1624 Y7.6178
G01 X28.1320 Y7.6400
G01 X28.0999 Y7.6596
G01 X28.0885 Y7.6660
G01 X28.0768 Y7.6719
G01 X28.0485 Y7.6852
G01 X28.0305 Y7.6924
G01 X27.9949 Y7.7048
G01 X27.9823 Y7.7083
G01 X27.9466 Y7.7169
G01 X27.9222 Y7.7578
G01 X27.9222 Y8.9915
G01 X27.9488 Y9.0152
G01 X27.9582 Y9.0243
G01 X27.9837 Y9.0519
G01 X27.9923 Y9.0618
G01 X28.0003 Y9.0721
G01 X28.0225 Y9.1025
G01 X28.0421 Y9.1346
G01 X28.0485 Y9.1460
G01 X28.0544 Y9.1577
G01 X28.0702 Y9.1918
G01 X28.0832 Y9.2271
G01 X28.0873 Y9.2396
G01 X28.0967 Y9.2760
G01 X28.0996 Y9.2887
G01 X28.1054 Y9.3259
G01 X28.1077 Y9.3468
G01 X28.1095 Y9.3895
G01 X28.1095 Y10.6395
G01 X28.1092 Y10.6526
G01 X28.1070 Y10.6901
G01 X28.1008 Y10.7338
G01 X28.0967 Y10.7530
G01 X28.0873 Y10.7894
G01 X28.0832 Y10.8019
G01 X28.0702 Y10.8372
G01 X28.0516 Y10.8772
G01 X28.0421 Y10.8944
G01 X28.0225 Y10.9265
G01 X27.9964 Y10.9621
G01 X27.9837 Y10.9771
G01 X27.9628 Y11.0001
G01 X27.9536 Y11.0093
G01 X27.9207 Y11.0388
G01 X27.8854 Y11.0653
G01 X27.8745 Y11.0725
G01 X27.8479 Y11.0886
G01 X27.8307 Y11.0981
G01 X27.7907 Y11.1167
G01 X27.7554 Y11.1297
G01 X27.7429 Y11.1338
G01 X27.7303 Y11.1373
G01 X27.7002 Y11.1448
G01 X27.6873 Y11.1473
G01 X27.6436 Y11.1535
G01 X27.6061 Y11.1557
G01 X27.5930 Y11.1560
G01 X26.9615 Y11.1559
G01 X26.9239 Y11.1541
G01 X26.9044 Y11.1519
G01 X26.8672 Y11.1461
G01 X26.8307 Y11.1373
G01 X26.8118 Y11.1318
G01 X26.7703 Y11.1167
G01 X26.7362 Y11.1009
G01 X26.7188 Y11.0919
G01 X26.6810 Y11.0690
G01 X26.6506 Y11.0468
G01 X26.6353 Y11.0346
G01 X26.6074 Y11.0093
G01 X26.5937 Y10.9953
G01 X26.5687 Y10.9672
G01 X26.5461 Y10.9372
G01 X26.5350 Y10.9210
G01 X26.5156 Y10.8887
G01 X26.5066 Y10.8713
G01 X26.4908 Y10.8372
G01 X26.4778 Y10.8019
G01 X26.4737 Y10.7894
G01 X26.4702 Y10.7768
G01 X26.4627 Y10.7467
G01 X26.4602 Y10.7338
G01 X26.4540 Y10.6901
G01 X26.4516 Y10.6460
G01 X26.4515 Y9.3895
G01 X26.4530 Y9.3519
G01 X26.4547 Y9.3324
G01 X26.4602 Y9.2952
G01 X26.4627 Y9.2823
G01 X26.4719 Y9.2458
G01 X26.4757 Y9.2333
G01 X26.4884 Y9.1979
G01 X26.4934 Y9.1858
G01 X26.5094 Y9.1518
G01 X26.5189 Y9.1346
G01 X26.5385 Y9.1025
G01 X26.5607 Y9.0721
G01 X26.5687 Y9.0618
G01 X26.5773 Y9.0519
G01 X26.6028 Y9.0243
G01 X26.6122 Y9.0152
G01 X26.6388 Y8.9915
G01 X26.6388 Y7.6437
G01 X26.6223 Y7.6324
G01 X26.5923 Y7.6098
G01 X26.5594 Y7.5803
G01 X26.5457 Y7.5663
G01 X26.5207 Y7.5382
G01 X26.4981 Y7.5082
G01 X26.4870 Y7.4920
G01 X26.4645 Y7.4540
G01 X26.4481 Y7.4201
G01 X26.4402 Y7.4017
G01 X26.4277 Y7.3667
G01 X26.4222 Y7.3478
G01 X26.4134 Y7.3113
G01 X26.4076 Y7.2741
G01 X26.4054 Y7.2546
G01 X26.4035 Y7.2105
G00 Z2.0000
G00 X28.5069 Y6.9987
G01 F40.00
G01 Z-0.1200
G01 F60.00
G01 X28.5069 Y6.1780
G01 X28.5276 Y6.1958
G01 X28.5439 Y6.2082
G01 X28.5608 Y6.2197
G01 X28.5782 Y6.2304
G01 X28.5871 Y6.2355
G01 X28.6053 Y6.2449
G01 X28.6691 Y6.2759
G01 X28.6784 Y6.2802
G01 X28.6972 Y6.2883
G01 X28.7164 Y6.2953
G01 X28.7359 Y6.3014
G01 X28.7557 Y6.3066
G01 X28.7758 Y6.3107
G01 X28.7960 Y6.3138
G01 X28.8163 Y6.3160
G01 X28.8367 Y6.3171
G01 X28.8572 Y6.3172
G01 X28.8776 Y6.3163
G01 X28.8980 Y6.3144
G01 X28.9685 Y6.3060
G01 X28.9887 Y6.3030
G01 X29.0088 Y6.2991
G01 X29.0287 Y6.2942
G01 X29.0483 Y6.2883
G01 X29.0675 Y6.2814
G01 X29.0864 Y6.2736
G01 X29.0957 Y6.2693
G01 X29.1140 Y6.2601
G01 X29.1318 Y6.2500
G01 X29.1491 Y6.2390
G01 X29.1575 Y6.2332
G01 X29.1739 Y6.2210
G01 X29.2331 Y6.1723
G01 X29.2331 Y6.9930
G01 X29.2124 Y6.9752
G01 X29.1961 Y6.9628
G01 X29.1792 Y6.9513
G01 X29.1618 Y6.9406
G01 X29.1439 Y6.9307
G01 X29.1347 Y6.9261
G01 X29.0709 Y6.8951
G01 X29.0616 Y6.8908
G01 X29.0428 Y6.8827
G01 X29.0236 Y6.8757
G01 X29.0041 Y6.8696
G01 X28.9843 Y6.8644
G01 X28.9642 Y6.8603
G01 X28.9440 Y6.8572
G01 X28.9237 Y6.8550
G01 X28.9033 Y6.8539
G01 X28.8828 Y6.8538
G01 X28.8624 Y6.8547
G01 X28.8420 Y6.8566
G01 X28.7715 Y6.8650
G01 X28.7513 Y6.8680
G01 X28.7312 Y6.8719
G01 X28.7113 Y6.8768
G01 X28.6917 Y6.8827
G01 X28.6725 Y6.8896
G01 X28.6536 Y6.8974
G01 X28.6443 Y6.9017
G01 X28.6260 Y6.9109
G01 X28.6082 Y6.9210
G01 X28.5909 Y6.9320
G01 X28.5742 Y6.9438
G01 X28.5661 Y6.9500
G01 X28.5069 Y6.9987
G00 Z2.0000
G00 X29.0877 Y6.4282
G01 F40.00
G01 Z-0.1200
G01 F60.00
G01 X29.0877 Y6.7443
G01 X29.0704 Y6.7380
G01 X29.0440 Y6.7298
G01 X29.0172 Y6.7228
G01 X28.9901 Y6.7172
G01 X28.9765 Y6.7149
G01 X28.9490 Y6.7114
G01 X28.9214 Y6.7092
G01 X28.8938 Y6.7083
G01 X28.8661 Y6.7089
G01 X28.8385 Y6.7108
G01 X28.7405 Y6.7225
G01 X28.7132 Y6.7272
G01 X28.6997 Y6.7300
G01 X28.6728 Y6.7367
G01 X28.6523 Y6.7428
G01 X28.6523 Y6.4267
G01 X28.6696 Y6.4330
G01 X28.6960 Y6.4412
G01 X28.7228 Y6.4482
G01 X28.7499 Y6.4538
G01 X28.7772 Y6.4580
G01 X28.7910 Y6.4596
G01 X28.8186 Y6.4618
G01 X28.8462 Y6.4627
G01 X28.8739 Y6.4621
G01 X28.9015 Y6.4602
G01 X28.9995 Y6.4485
G01 X29.0268 Y6.4438
G01 X29.0403 Y6.4410
G01 X29.0672 Y6.4343
G01 X29.0877 Y6.4282
G00 Z2.0000
G00 X36.4113 Y5.2075
G01 F40.00
G01 Z-0.1200
G01 F60.00
G01 X36.6990 Y5.2075
G01 X36.7271 Y5.2666
G01 X36.7704 Y5.3391
G01 X36.7770 Y5.3490
G01 X36.8238 Y5.4121
G01 X36.8313 Y5.4213
G01 X36.8881 Y5.4837
G01 X36.9529 Y5.5425
G01 X36.9598 Y5.5481
G01 X37.0277 Y5.5983
G01 X37.1053 Y5.6448
G01 X37.1870 Y5.6834
G01 X37.2665 Y5.7120
G01 X37.2750 Y5.7147
G01 X37.3598 Y5.7358
G01 X37.4433 Y5.7484
G01 X37.4551 Y5.7495
G01 X37.5365 Y5.7535
G01 X38.4644 Y5.7535
G01 X38.4644 Y6.0192
G01 X37.4876 Y6.0192
G01 X37.3324 Y6.0056
G01 X37.1319 Y5.9518
G01 X36.9437 Y5.8640
G01 X36.7739 Y5.7452
G01 X36.6270 Y5.5983
G01 X36.5076 Y5.4279
G01 X36.4200 Y5.2400
G01 X36.4113 Y5.2075
G00 Z2.0000
G00 X37.1980 Y3.4951
G01 F40.00
G01 Z-0.1200
G01 F60.00
G01 X37.2833 Y3.5166
G01 X37.3031 Y3.5210
G01 X37.3230 Y3.5245
G01 X37.4006 Y3.5360
G01 X37.4207 Y3.5385
G01 X37.4409 Y3.5399
G01 X37.5193 Y3.5438
G01 X37.5395 Y3.5443
G01 X40.1496 Y3.5442
G01 X40.2482 Y3.5393
G01 X40.2784 Y3.5360
G01 X40.3560 Y3.5245
G01 X40.3759 Y3.5210
G01 X40.3957 Y3.5166
G01 X40.4800 Y3.4953
G01 X40.4759 Y3.5084
G01 X40.4706 Y3.5281
G01 X40.4662 Y3.5481
G01 X40.4644 Y3.5582
G01 X40.4615 Y3.5784
G01 X40.4521 Y3.6623
G01 X40.3957 Y3.6482
G01 X40.3759 Y3.6438
G01 X40.3560 Y3.6403
G01 X40.2683 Y3.6274
G01 X40.2381 Y3.6248
G01 X40.1597 Y3.6210
G01 X40.1395 Y3.6205
G01 X37.5294 Y3.6206
G01 X37.4308 Y3.6254
G01 X37.4006 Y3.6288
G01 X37.3230 Y3.6403
G01 X37.3031 Y3.6438
G01 X37.2833 Y3.6482
G01 X37.2288 Y3.6619
G01 X37.2288 Y3.6429
G01 X37.2279 Y3.6225
G01 X37.2259 Y3.6021
G01 X37.2230 Y3.5819
G01 X37.2190 Y3.5618
G01 X37.2141 Y3.5420
G01 X37.2081 Y3.5224
G01 X37.1980 Y3.4951
G00 Z2.0000
G00 X39.2146 Y6.0192
G01 F40.00
G01 Z-0.1200
G01 F60.00
G01 X39.2146 Y5.7535
G01 X40.1425 Y5.7535
G01 X40.2239 Y5.7495
G01 X40.2357 Y5.7484
G01 X40.3192 Y5.7358
G01 X40.4037 Y5.7148
G01 X40.4125 Y5.7120
G01 X40.4920 Y5.6834
G01 X40.5737 Y5.6448
G01 X40.6513 Y5.5983
G01 X40.7192 Y5.5481
G01 X40.7261 Y5.5425
G01 X40.7909 Y5.4837
G01 X40.8477 Y5.4213
G01 X40.8552 Y5.4121
G01 X40.9020 Y5.3490
G01 X40.9086 Y5.3391
G01 X40.9519 Y5.2666
G01 X40.9800 Y5.2075
G01 X41.2677 Y5.2075
G01 X41.2590 Y5.2400
G01 X41.1714 Y5.4279
G01 X41.0520 Y5.5983
G01 X40.9051 Y5.7452
G01 X40.7353 Y5.8640
G01 X40.5471 Y5.9518
G01 X40.3466 Y6.0056
G01 X40.1914 Y6.0192
G01 X39.2146 Y6.0192
G00 Z2.0000
G00 X43.6855 Y13.3807
G01 F40.00
G01 Z-0.1200
G01 F60.00
G01 X43.6855 Y13.6847
G01 X43.6695 Y13.6214
G01 X43.6616 Y13.5953
G01 X43.6075 Y13.4437
G01 X43.6028 Y13.4309
G01 X43.5933 Y13.4079
G01 X43.6159 Y13.4028
G01 X43.6426 Y13.3955
G01 X43.6689 Y13.3869
G01 X43.6855 Y13.3807
G00 Z2.0000
G00 X41.7693 Y16.2599
G01 F40.00
G01 Z-0.1200
G01 F60.00
G01 X41.8714 Y16.2549
G01 X41.8986 Y16.2529
G01 X41.9122 Y16.2514
G01 X42.0741 Y16.2275
G01 X42.0997 Y16.2230
G01 X42.1250 Y16.2173
G01 X42.2678 Y16.1815
G01 X42.2942 Y16.1742
G01 X42.3202 Y16.1656
G01 X42.4716 Y16.1113
G01 X42.4843 Y16.1062
G01 X42.5093 Y16.0951
G01 X42.6424 Y16.0322
G01 X42.6668 Y16.0199
G01 X42.6906 Y16.0064
G01 X42.8169 Y15.9307
G01 X42.8400 Y15.9161
G01 X42.8623 Y15.9003
G01 X42.9915 Y15.8044
G01 X43.0126 Y15.7870
G01 X43.0228 Y15.7779
G01 X43.1319 Y15.6791
G01 X43.1517 Y15.6602
G01 X43.1706 Y15.6404
G01 X43.2694 Y15.5313
G01 X43.2873 Y15.5106
G01 X43.3041 Y15.4891
G01 X43.3918 Y15.3708
G01 X43.3998 Y15.3597
G01 X43.4150 Y15.3370
G01 X43.4979 Y15.1991
G01 X43.5114 Y15.1753
G01 X43.5237 Y15.1509
G01 X43.5923 Y15.0054
G01 X43.5977 Y14.9928
G01 X43.6075 Y14.9673
G01 X43.6616 Y14.8157
G01 X43.6695 Y14.7896
G01 X43.6855 Y14.7263
G01 X43.6855 Y17.7153
G01 X43.6447 Y17.6293
G01 X43.6318 Y17.6052
G01 X43.5423 Y17.4559
G01 X43.5269 Y17.4329
G01 X43.5188 Y17.4217
G01 X43.4229 Y17.2925
G01 X43.4143 Y17.2819
G01 X43.3964 Y17.2612
G01 X43.2976 Y17.1521
G01 X43.2787 Y17.1323
G01 X43.2589 Y17.1134
G01 X43.1498 Y17.0146
G01 X43.1291 Y16.9967
G01 X43.1076 Y16.9799
G01 X42.9893 Y16.8922
G01 X42.9670 Y16.8764
G01 X42.9439 Y16.8618
G01 X42.8176 Y16.7861
G01 X42.7938 Y16.7726
G01 X42.7694 Y16.7603
G01 X42.6363 Y16.6974
G01 X42.6113 Y16.6863
G01 X42.5858 Y16.6765
G01 X42.4342 Y16.6224
G01 X42.4081 Y16.6145
G01 X42.3948 Y16.6110
G01 X42.2520 Y16.5752
G01 X42.2254 Y16.5692
G01 X42.1984 Y16.5646
G01 X42.0528 Y16.5430
G01 X42.0256 Y16.5396
G01 X42.0120 Y16.5384
G01 X41.8513 Y16.5304
G01 X41.8240 Y16.5297
G01 X41.8103 Y16.5299
G01 X41.7802 Y16.5312
G01 X41.7845 Y16.5034
G01 X41.7873 Y16.4759
G01 X41.7888 Y16.4483
G01 X41.7891 Y16.4344
G01 X41.7885 Y16.4067
G01 X41.7865 Y16.3791
G01 X41.7850 Y16.3654
G01 X41.7729 Y16.2814
G01 X41.7693 Y16.2599
G00 Z2.0000
G00 X41.5477 Y16.1106
G01 F40.00
G01 Z-0.1200
G01 F60.00
G01 X41.6768 Y16.1169
G01 X41.6970 Y16.1174
G01 X41.7172 Y16.1169
G01 X41.8642 Y16.1097
G01 X41.8844 Y16.1082
G01 X41.9045 Y16.1057
G01 X42.0520 Y16.0838
G01 X42.0710 Y16.0805
G01 X42.0897 Y16.0762
G01 X42.2325 Y16.0405
G01 X42.2520 Y16.0351
G01 X42.2712 Y16.0287
G01 X42.4098 Y15.9792
G01 X42.4287 Y15.9719
G01 X42.4471 Y15.9637
G01 X42.5802 Y15.9007
G01 X42.5983 Y15.8917
G01 X42.6159 Y15.8817
G01 X42.7421 Y15.8060
G01 X42.7592 Y15.7952
G01 X42.7757 Y15.7836
G01 X42.8940 Y15.6959
G01 X42.9099 Y15.6834
G01 X42.9252 Y15.6702
G01 X43.0343 Y15.5714
G01 X43.0489 Y15.5574
G01 X43.0629 Y15.5428
G01 X43.1617 Y15.4337
G01 X43.1812 Y15.4105
G01 X43.2751 Y15.2842
G01 X43.2867 Y15.2677
G01 X43.2975 Y15.2506
G01 X43.3732 Y15.1244
G01 X43.3832 Y15.1068
G01 X43.3922 Y15.0887
G01 X43.4552 Y14.9556
G01 X43.4634 Y14.9372
G01 X43.4707 Y14.9183
G01 X43.5202 Y14.7797
G01 X43.5266 Y14.7605
G01 X43.5320 Y14.7410
G01 X43.5677 Y14.5982
G01 X43.5722 Y14.5785
G01 X43.5756 Y14.5586
G01 X43.5972 Y14.4130
G01 X43.6006 Y14.3828
G01 X43.6084 Y14.2257
G01 X43.6089 Y14.2055
G01 X43.6084 Y14.1853
G01 X43.6012 Y14.0383
G01 X43.5997 Y14.0181
G01 X43.5972 Y13.9980
G01 X43.5756 Y13.8524
G01 X43.5701 Y13.8226
G01 X43.5320 Y13.6700
G01 X43.5266 Y13.6505
G01 X43.5202 Y13.6313
G01 X43.4671 Y13.4832
G01 X43.4552 Y13.4554
G01 X43.3878 Y13.3132
G01 X43.3783 Y13.2954
G01 X43.3601 Y13.2648
G01 X43.3783 Y13.2667
G01 X43.4593 Y13.2731
G01 X43.4797 Y13.2737
G01 X43.5002 Y13.2733
G01 X43.5206 Y13.2719
G01 X43.5409 Y13.2695
G01 X43.5510 Y13.2679
G01 X43.5711 Y13.2640
G01 X43.5810 Y13.2617
G01 X43.6008 Y13.2563
G01 X43.6202 Y13.2499
G01 X43.6298 Y13.2464
G01 X43.6487 Y13.2386
G01 X43.6580 Y13.2343
G01 X43.6763 Y13.2251
G01 X43.7479 Y13.1867
G01 X43.7654 Y13.1762
G01 X43.7824 Y13.1648
G01 X43.7907 Y13.1588
G01 X43.8068 Y13.1462
G01 X43.8146 Y13.1396
G01 X43.8309 Y13.1247
G01 X43.8309 Y22.0795
G01 X43.8314 Y22.0997
G01 X43.8338 Y22.1466
G01 X43.8372 Y22.1767
G01 X43.8426 Y22.2131
G01 X43.8460 Y22.2331
G01 X43.8505 Y22.2528
G01 X43.8620 Y22.2983
G01 X43.8711 Y22.3272
G01 X43.8835 Y22.3618
G01 X43.8908 Y22.3807
G01 X43.8990 Y22.3992
G01 X43.9192 Y22.4416
G01 X43.9338 Y22.4681
G01 X43.9579 Y22.5081
G01 X43.9692 Y22.5251
G01 X43.9971 Y22.5629
G01 X44.0096 Y22.5788
G01 X44.0228 Y22.5941
G01 X44.0544 Y22.6288
G01 X44.4389 Y23.0135
G01 X44.4389 Y24.0528
G01 X44.4042 Y24.0736
G01 X44.3792 Y24.0908
G01 X44.3595 Y24.1054
G01 X44.3436 Y24.1178
G01 X44.3283 Y24.1310
G01 X44.3101 Y24.1475
G01 X44.2884 Y24.1687
G01 X44.2583 Y24.2019
G01 X44.2394 Y24.2255
G01 X44.2248 Y24.2452
G01 X44.2131 Y24.2618
G01 X44.2023 Y24.2788
