(G-CODE GENERATED BY FLATCAM v8.992 - www.flatcam.org - Version Date: 2020/05/03)

(Name: Genesis_PA_Testing_v1-F_Cu_fast.gbr_iso_1_cnc)
(Type: G-code from Geometry)
(Units: MM)

(Created on Sunday, 12 February 2023 at 14:54)

(This preprocessor is the default preprocessor used by FlatCAM.)
(It is made to work with MACH3 compatible motion controllers.)

(TOOL DIAMETER: 0.2423 mm)
(Feedrate_XY: 120.0 mm/min)
(Feedrate_Z: 60.0 mm/min)
(Feedrate rapids 1500.0 mm/min)

(Z_Cut: -0.12 mm)
(Z_Move: 2.0 mm)
(Z Start: None mm)
(Z End: 10.0 mm)
(Steps per circle: 64)
(Preprocessor Geometry: default)

(X range:   -0.3800 ...  110.9520  mm)
(Y range:   -0.3760 ...   65.1090  mm)

(Spindle Speed: None RPM)
G21
G90
G94



G01 F120.00
G00 Z2.0000

M03
G00 X1.2441 Y9.2364
G01 F60.00
G01 Z-0.1200
G01 F120.00
G01 X1.2459 Y9.1997
G01 X1.2471 Y9.1837
G01 X1.2491 Y9.1677
G01 X1.2545 Y9.1313
G01 X1.2572 Y9.1155
G01 X1.2607 Y9.0998
G01 X1.2697 Y9.0641
G01 X1.2739 Y9.0486
G01 X1.2790 Y9.0334
G01 X1.2914 Y8.9987
G01 X1.2972 Y8.9837
G01 X1.3037 Y8.9691
G01 X1.3194 Y8.9358
G01 X1.3266 Y8.9214
G01 X1.3345 Y8.9075
G01 X1.3535 Y8.8759
G01 X1.3621 Y8.8623
G01 X1.3713 Y8.8492
G01 X1.3932 Y8.8196
G01 X1.4031 Y8.8070
G01 X1.4136 Y8.7948
G01 X1.4383 Y8.7675
G01 X1.4494 Y8.7559
G01 X6.1542 Y4.0513
G01 X6.1873 Y4.0211
G01 X6.1995 Y4.0106
G01 X6.2121 Y4.0007
G01 X6.2417 Y3.9788
G01 X6.2548 Y3.9696
G01 X6.2684 Y3.9610
G01 X6.3069 Y3.9380
G01 X6.3211 Y3.9304
G01 X6.3616 Y3.9112
G01 X6.3762 Y3.9047
G01 X6.3912 Y3.8989
G01 X6.4335 Y3.8839
G01 X6.4488 Y3.8792
G01 X6.4923 Y3.8682
G01 X6.5080 Y3.8647
G01 X6.5238 Y3.8620
G01 X6.5602 Y3.8566
G01 X6.5762 Y3.8546
G01 X6.5922 Y3.8534
G01 X6.6289 Y3.8516
G01 X6.6450 Y3.8512
G01 X21.0226 Y3.8512
G01 X23.0394 Y1.8344
G01 X23.0510 Y1.8233
G01 X23.0783 Y1.7986
G01 X23.0905 Y1.7881
G01 X23.1031 Y1.7782
G01 X23.1392 Y1.7516
G01 X23.1526 Y1.7427
G01 X23.1910 Y1.7195
G01 X23.2049 Y1.7116
G01 X23.2193 Y1.7044
G01 X23.2526 Y1.6887
G01 X23.2672 Y1.6822
G01 X23.2822 Y1.6764
G01 X23.3169 Y1.6640
G01 X23.3321 Y1.6589
G01 X23.3476 Y1.6547
G01 X23.3911 Y1.6439
G01 X23.4069 Y1.6407
G01 X23.4512 Y1.6341
G01 X23.4683 Y1.6320
G01 X23.4832 Y1.6309
G01 X23.5199 Y1.6291
G01 X23.5360 Y1.6287
G01 X36.6598 Y1.6282
G01 X36.6682 Y1.6174
G01 X36.6787 Y1.6052
G01 X36.7314 Y1.5470
G01 X36.7425 Y1.5354
G01 X36.7541 Y1.5243
G01 X36.8123 Y1.4716
G01 X36.8245 Y1.4611
G01 X36.8371 Y1.4512
G01 X36.9002 Y1.4045
G01 X36.9133 Y1.3952
G01 X36.9269 Y1.3866
G01 X36.9942 Y1.3463
G01 X37.0082 Y1.3384
G01 X37.0225 Y1.3312
G01 X37.0935 Y1.2976
G01 X37.1082 Y1.2911
G01 X37.1232 Y1.2853
G01 X37.1971 Y1.2589
G01 X37.2123 Y1.2538
G01 X37.2278 Y1.2495
G01 X37.3039 Y1.2305
G01 X37.3196 Y1.2269
G01 X37.3354 Y1.2242
G01 X37.4210 Y1.2116
G01 X37.4450 Y1.2095
G01 X37.5234 Y1.2057
G01 X37.5395 Y1.2053
G01 X40.1395 Y1.2053
G01 X40.1556 Y1.2057
G01 X40.2340 Y1.2095
G01 X40.2500 Y1.2107
G01 X40.2659 Y1.2127
G01 X40.3436 Y1.2242
G01 X40.3594 Y1.2269
G01 X40.3751 Y1.2305
G01 X40.4590 Y1.2516
G01 X40.4819 Y1.2589
G01 X40.5558 Y1.2853
G01 X40.5708 Y1.2911
G01 X40.5855 Y1.2976
G01 X40.6565 Y1.3312
G01 X40.6708 Y1.3384
G01 X40.6848 Y1.3463
G01 X40.7521 Y1.3866
G01 X40.7657 Y1.3952
G01 X40.7788 Y1.4045
G01 X40.8419 Y1.4512
G01 X40.8545 Y1.4611
G01 X40.8667 Y1.4716
G01 X40.9249 Y1.5243
G01 X40.9365 Y1.5354
G01 X40.9476 Y1.5470
G01 X41.0003 Y1.6052
G01 X41.0108 Y1.6174
G01 X41.0196 Y1.6287
G01 X47.8010 Y1.6288
G01 X47.8458 Y1.6309
G01 X47.8618 Y1.6321
G01 X47.8778 Y1.6341
G01 X47.9142 Y1.6395
G01 X47.9300 Y1.6422
G01 X47.9457 Y1.6457
G01 X47.9814 Y1.6547
G01 X47.9969 Y1.6589
G01 X48.0121 Y1.6640
G01 X48.0468 Y1.6764
G01 X48.0618 Y1.6822
G01 X48.0764 Y1.6887
G01 X48.1169 Y1.7079
G01 X48.1311 Y1.7155
G01 X48.1696 Y1.7385
G01 X48.1832 Y1.7471
G01 X48.1963 Y1.7563
G01 X48.2259 Y1.7782
G01 X48.2385 Y1.7881
G01 X48.2507 Y1.7986
G01 X48.2780 Y1.8233
G01 X48.2896 Y1.8344
G01 X52.7361 Y6.2809
G01 X52.9265 Y6.2809
G01 X52.9425 Y6.2813
G01 X52.9751 Y6.2830
G01 X52.9990 Y6.2856
G01 X53.0391 Y6.2920
G01 X53.0786 Y6.3015
G01 X53.1017 Y6.3082
G01 X53.1324 Y6.3190
G01 X53.1473 Y6.3248
G01 X53.1842 Y6.3418
G01 X53.2056 Y6.3529
G01 X53.2336 Y6.3696
G01 X53.2471 Y6.3782
G01 X53.2602 Y6.3874
G01 X53.2863 Y6.4069
G01 X53.3048 Y6.4224
G01 X53.3346 Y6.4499
G01 X53.3456 Y6.4616
G01 X53.3674 Y6.4857
G01 X53.3776 Y6.4982
G01 X53.3971 Y6.5243
G01 X53.4063 Y6.5374
G01 X53.4149 Y6.5509
G01 X53.4355 Y6.5860
G01 X53.4427 Y6.6003
G01 X53.4597 Y6.6372
G01 X53.4655 Y6.6521
G01 X53.4788 Y6.6905
G01 X53.4890 Y6.7297
G01 X53.4940 Y6.7533
G01 X53.4989 Y6.7855
G01 X53.5008 Y6.8014
G01 X53.5020 Y6.8174
G01 X53.5036 Y6.8580
G01 X53.5036 Y7.7830
G01 X53.5020 Y7.8236
G01 X53.5008 Y7.8396
G01 X53.4989 Y7.8555
G01 X53.4925 Y7.8956
G01 X53.4830 Y7.9351
G01 X53.4788 Y7.9505
G01 X53.4737 Y7.9658
G01 X53.4627 Y7.9964
G01 X53.4565 Y8.0112
G01 X53.4427 Y8.0407
G01 X53.4355 Y8.0550
G01 X53.4275 Y8.0690
G01 X53.4063 Y8.1036
G01 X53.3825 Y8.1365
G01 X53.3726 Y8.1491
G01 X53.3456 Y8.1794
G01 X53.3346 Y8.1911
G01 X53.3229 Y8.2021
G01 X53.2988 Y8.2239
G01 X53.2863 Y8.2341
G01 X53.2602 Y8.2536
G01 X53.2471 Y8.2628
G01 X53.2336 Y8.2714
G01 X53.2056 Y8.2881
G01 X53.1914 Y8.2957
G01 X53.1620 Y8.3097
G01 X53.1470 Y8.3163
G01 X53.1324 Y8.3220
G01 X53.0940 Y8.3353
G01 X53.0548 Y8.3455
G01 X53.0391 Y8.3490
G01 X52.9990 Y8.3554
G01 X52.9831 Y8.3573
G01 X52.9671 Y8.3585
G01 X52.9265 Y8.3601
G01 X51.6765 Y8.3601
G01 X51.6605 Y8.3597
G01 X51.6199 Y8.3573
G01 X51.5797 Y8.3518
G01 X51.5561 Y8.3474
G01 X51.5167 Y8.3375
G01 X51.4937 Y8.3302
G01 X51.4557 Y8.3162
G01 X51.4410 Y8.3097
G01 X51.4116 Y8.2957
G01 X51.3905 Y8.2840
G01 X51.3559 Y8.2628
G01 X51.3230 Y8.2390
G01 X51.3042 Y8.2239
G01 X51.2801 Y8.2021
G01 X51.2628 Y8.1853
G01 X51.2356 Y8.1553
G01 X51.2254 Y8.1428
G01 X51.2012 Y8.1102
G01 X51.1881 Y8.0901
G01 X51.1675 Y8.0550
G01 X51.1498 Y8.0185
G01 X51.1432 Y8.0035
G01 X51.1293 Y7.9658
G01 X51.1220 Y7.9428
G01 X51.1121 Y7.9034
G01 X51.1077 Y7.8798
G01 X51.1022 Y7.8396
G01 X51.1010 Y7.8236
G01 X51.0994 Y7.7830
G01 X51.0995 Y6.8500
G01 X51.1010 Y6.8174
G01 X51.1022 Y6.8014
G01 X51.1041 Y6.7855
G01 X51.1090 Y6.7533
G01 X51.1121 Y6.7376
G01 X51.1220 Y6.6982
G01 X51.1267 Y6.6828
G01 X51.1332 Y6.6644
G01 X47.5021 Y3.0333
G01 X45.3203 Y3.0333
G01 X45.3203 Y21.7886
G01 X45.7226 Y22.1909
G01 X45.7337 Y22.2025
G01 X45.7584 Y22.2298
G01 X45.7689 Y22.2420
G01 X45.7788 Y22.2546
G01 X45.8007 Y22.2842
G01 X45.8099 Y22.2973
G01 X45.8185 Y22.3109
G01 X45.8375 Y22.3425
G01 X45.8454 Y22.3564
G01 X45.8526 Y22.3708
G01 X45.8683 Y22.4041
G01 X45.8748 Y22.4187
G01 X45.8806 Y22.4337
G01 X45.8956 Y22.4760
G01 X45.9003 Y22.4913
G01 X45.9113 Y22.5348
G01 X45.9148 Y22.5505
G01 X45.9175 Y22.5663
G01 X45.9229 Y22.6027
G01 X45.9250 Y22.6198
G01 X45.9261 Y22.6347
G01 X45.9282 Y22.6795
G01 X45.9283 Y24.1048
G01 X45.9605 Y24.1205
G01 X45.9745 Y24.1285
G01 X46.0024 Y24.1453
G01 X46.0157 Y24.1542
G01 X46.0420 Y24.1735
G01 X46.0608 Y24.1886
G01 X46.0849 Y24.2104
G01 X46.0966 Y24.2214
G01 X46.1241 Y24.2512
G01 X46.1396 Y24.2697
G01 X46.1591 Y24.2958
G01 X46.1683 Y24.3089
G01 X46.1769 Y24.3224
G01 X46.1936 Y24.3504
G01 X46.2047 Y24.3718
G01 X46.2217 Y24.4087
G01 X46.2275 Y24.4236
G01 X46.2408 Y24.4620
G01 X46.2450 Y24.4774
G01 X46.2529 Y24.5091
G01 X46.2573 Y24.5327
G01 X46.2628 Y24.5729
G01 X46.2640 Y24.5889
G01 X46.2655 Y24.6215
G01 X46.2655 Y25.8875
G01 X46.2635 Y25.9281
G01 X46.2609 Y25.9520
G01 X46.2545 Y25.9921
G01 X46.2510 Y26.0078
G01 X46.2430 Y26.0393
G01 X46.2383 Y26.0547
G01 X46.2275 Y26.0854
G01 X46.2217 Y26.1003
G01 X46.2152 Y26.1150
G01 X46.1975 Y26.1515
G01 X46.1895 Y26.1655
G01 X46.1683 Y26.2001
G01 X46.1445 Y26.2330
G01 X46.1346 Y26.2456
G01 X46.1076 Y26.2759
G01 X46.0908 Y26.2932
G01 X46.0668 Y26.3151
G01 X46.0546 Y26.3256
G01 X46.0420 Y26.3355
G01 X46.0091 Y26.3593
G01 X45.9745 Y26.3805
G01 X45.9534 Y26.3922
G01 X45.9240 Y26.4062
G01 X45.9090 Y26.4128
G01 X45.8713 Y26.4267
G01 X45.8560 Y26.4318
G01 X45.8168 Y26.4420
G01 X45.8011 Y26.4455
G01 X45.7853 Y26.4483
G01 X45.7530 Y26.4529
G01 X45.7371 Y26.4545
G01 X45.7045 Y26.4562
G01 X45.6885 Y26.4566
G01 X44.7555 Y26.4565
G01 X44.7229 Y26.4550
G01 X44.7069 Y26.4538
G01 X44.6910 Y26.4519
G01 X44.6588 Y26.4470
G01 X44.6352 Y26.4420
G01 X44.6037 Y26.4340
G01 X44.5883 Y26.4293
G01 X44.5576 Y26.4185
G01 X44.5427 Y26.4127
G01 X44.5280 Y26.4062
G01 X44.4986 Y26.3922
G01 X44.4775 Y26.3805
G01 X44.4496 Y26.3637
G01 X44.4363 Y26.3548
G01 X44.4100 Y26.3355
G01 X44.3974 Y26.3256
G01 X44.3852 Y26.3151
G01 X44.3612 Y26.2932
G01 X44.3444 Y26.2759
G01 X44.3226 Y26.2518
G01 X44.3124 Y26.2393
G01 X44.2929 Y26.2132
G01 X44.2837 Y26.2001
G01 X44.2751 Y26.1866
G01 X44.2584 Y26.1586
G01 X44.2508 Y26.1444
G01 X44.2368 Y26.1150
G01 X44.2271 Y26.0924
G01 X44.2163 Y26.0623
G01 X44.2112 Y26.0470
G01 X44.2070 Y26.0316
G01 X44.1991 Y25.9999
G01 X44.1960 Y25.9842
G01 X44.1911 Y25.9520
G01 X44.1885 Y25.9281
G01 X44.1868 Y25.8955
G01 X44.1864 Y25.8795
G01 X44.1864 Y24.6295
G01 X44.1880 Y24.5889
G01 X44.1901 Y24.5650
G01 X44.1960 Y24.5248
G01 X44.2010 Y24.5012
G01 X44.2112 Y24.4620
G01 X44.2163 Y24.4467
G01 X44.2273 Y24.4161
G01 X44.2368 Y24.3940
G01 X44.2545 Y24.3575
G01 X44.2625 Y24.3435
G01 X44.2793 Y24.3156
G01 X44.2929 Y24.2958
G01 X44.3174 Y24.2634
G01 X44.3279 Y24.2512
G01 X44.3498 Y24.2272
G01 X44.3671 Y24.2104
G01 X44.3974 Y24.1834
G01 X44.4298 Y24.1589
G01 X44.4496 Y24.1453
G01 X44.4775 Y24.1285
G01 X44.4915 Y24.1205
G01 X44.5237 Y24.1048
G01 X44.5237 Y22.9784
G01 X44.1158 Y22.5703
G01 X44.0856 Y22.5372
G01 X44.0751 Y22.5250
G01 X44.0652 Y22.5124
G01 X44.0433 Y22.4828
G01 X44.0340 Y22.4696
G01 X44.0255 Y22.4561
G01 X44.0065 Y22.4245
G01 X43.9986 Y22.4106
G01 X43.9914 Y22.3962
G01 X43.9757 Y22.3629
G01 X43.9662 Y22.3408
G01 X43.9510 Y22.2986
G01 X43.9459 Y22.2834
G01 X43.9417 Y22.2679
G01 X43.9309 Y22.2244
G01 X43.9265 Y22.2007
G01 X43.9211 Y22.1643
G01 X43.9191 Y22.1483
G01 X43.9179 Y22.1323
G01 X43.9158 Y22.0875
G01 X43.9157 Y3.0347
G01 X41.0193 Y3.0365
G01 X41.0108 Y3.0474
G01 X41.0003 Y3.0596
G01 X40.9476 Y3.1177
G01 X40.9365 Y3.1294
G01 X40.9249 Y3.1404
G01 X40.8667 Y3.1932
G01 X40.8545 Y3.2037
G01 X40.8419 Y3.2135
G01 X40.7788 Y3.2603
G01 X40.7657 Y3.2695
G01 X40.7521 Y3.2781
G01 X40.6848 Y3.3185
G01 X40.6708 Y3.3264
G01 X40.6565 Y3.3336
G01 X40.5855 Y3.3672
G01 X40.5708 Y3.3737
G01 X40.5558 Y3.3795
G01 X40.4819 Y3.4059
G01 X40.4660 Y3.4112
G01 X40.4512 Y3.4152
G01 X40.3751 Y3.4343
G01 X40.3594 Y3.4378
G01 X40.3436 Y3.4406
G01 X40.2580 Y3.4532
G01 X40.2340 Y3.4552
G01 X40.1556 Y3.4591
G01 X40.1395 Y3.4595
G01 X37.5395 Y3.4595
G01 X37.5234 Y3.4591
G01 X37.4450 Y3.4552
G01 X37.4290 Y3.4541
G01 X37.4131 Y3.4521
G01 X37.3354 Y3.4406
G01 X37.3196 Y3.4378
G01 X37.3039 Y3.4343
G01 X37.2278 Y3.4152
G01 X37.2123 Y3.4110
G01 X37.1971 Y3.4059
G01 X37.1232 Y3.3795
G01 X37.1008 Y3.3705
G01 X37.0225 Y3.3336
G01 X37.0082 Y3.3264
G01 X36.9942 Y3.3185
G01 X36.9269 Y3.2781
G01 X36.9133 Y3.2695
G01 X36.9002 Y3.2603
G01 X36.8371 Y3.2135
G01 X36.8245 Y3.2037
G01 X36.8123 Y3.1932
G01 X36.7541 Y3.1404
G01 X36.7425 Y3.1294
G01 X36.7314 Y3.1177
G01 X36.6787 Y3.0596
G01 X36.6682 Y3.0474
G01 X36.6573 Y3.0333
G01 X31.0434 Y3.0333
G01 X31.0478 Y3.0544
G01 X31.0556 Y3.1072
G01 X31.0576 Y3.1307
G01 X31.0594 Y3.1674
G01 X31.0598 Y3.1835
G01 X31.0598 Y5.4358
G01 X31.0920 Y5.4515
G01 X31.1271 Y5.4721
G01 X31.1472 Y5.4852
G01 X31.1798 Y5.5094
G01 X31.1983 Y5.5249
G01 X31.2281 Y5.5524
G01 X31.2556 Y5.5822
G01 X31.2711 Y5.6007
G01 X31.2906 Y5.6268
G01 X31.2998 Y5.6399
G01 X31.3210 Y5.6745
G01 X31.3327 Y5.6956
G01 X31.3501 Y5.7324
G01 X31.3590 Y5.7546
G01 X31.3723 Y5.7930
G01 X31.3825 Y5.8322
G01 X31.3875 Y5.8558
G01 X31.3924 Y5.8880
G01 X31.3943 Y5.9039
G01 X31.3955 Y5.9199
G01 X31.3971 Y5.9605
G01 X31.3971 Y7.2105
G01 X31.3955 Y7.2511
G01 X31.3934 Y7.2750
G01 X31.3875 Y7.3152
G01 X31.3825 Y7.3388
G01 X31.3723 Y7.3780
G01 X31.3672 Y7.3933
G01 X31.3562 Y7.4239
G01 X31.3467 Y7.4460
G01 X31.3290 Y7.4825
G01 X31.3210 Y7.4965
G01 X31.3042 Y7.5244
G01 X31.2906 Y7.5442
G01 X31.2661 Y7.5766
G01 X31.2556 Y7.5888
G01 X31.2337 Y7.6128
G01 X31.2164 Y7.6296
G01 X31.1861 Y7.6566
G01 X31.1735 Y7.6665
G01 X31.1472 Y7.6858
G01 X31.1271 Y7.6989
G01 X31.0920 Y7.7195
G01 X31.0777 Y7.7267
G01 X31.0481 Y7.7406
G01 X31.0259 Y7.7495
G01 X30.9875 Y7.7628
G01 X30.9721 Y7.7670
G01 X30.9404 Y7.7749
G01 X30.9168 Y7.7793
G01 X30.8766 Y7.7848
G01 X30.8606 Y7.7860
G01 X30.8280 Y7.7875
G01 X29.8950 Y7.7876
G01 X29.8544 Y7.7860
G01 X29.8384 Y7.7848
G01 X29.8225 Y7.7829
G01 X29.7903 Y7.7780
G01 X29.7746 Y7.7749
G01 X29.7352 Y7.7650
G01 X29.7198 Y7.7603
G01 X29.6891 Y7.7495
G01 X29.6668 Y7.7405
G01 X29.6373 Y7.7267
G01 X29.6230 Y7.7195
G01 X29.6090 Y7.7115
G01 X29.5811 Y7.6947
G01 X29.5678 Y7.6858
G01 X29.5352 Y7.6616
G01 X29.5227 Y7.6514
G01 X29.4986 Y7.6296
G01 X29.4869 Y7.6186
G01 X29.4759 Y7.6069
G01 X29.4489 Y7.5766
G01 X29.4390 Y7.5640
G01 X29.4152 Y7.5311
G01 X29.3940 Y7.4965
G01 X29.3860 Y7.4825
G01 X29.3683 Y7.4460
G01 X29.3617 Y7.4310
G01 X29.3560 Y7.4164
G01 X29.3452 Y7.3857
G01 X29.3405 Y7.3703
G01 X29.3306 Y7.3309
G01 X29.3275 Y7.3152
G01 X29.3226 Y7.2830
G01 X29.3200 Y7.2591
G01 X29.3183 Y7.2265
G01 X29.3179 Y7.2105
G01 X29.3179 Y5.9605
G01 X29.3195 Y5.9199
G01 X29.3207 Y5.9039
G01 X29.3226 Y5.8880
G01 X29.3275 Y5.8558
G01 X29.3325 Y5.8322
G01 X29.3427 Y5.7930
G01 X29.3560 Y5.7546
G01 X29.3650 Y5.7323
G01 X29.3823 Y5.6956
G01 X29.3940 Y5.6745
G01 X29.4152 Y5.6399
G01 X29.4244 Y5.6268
G01 X29.4439 Y5.6007
G01 X29.4594 Y5.5822
G01 X29.4869 Y5.5524
G01 X29.5167 Y5.5249
G01 X29.5352 Y5.5094
G01 X29.5678 Y5.4852
G01 X29.5879 Y5.4721
G01 X29.6230 Y5.4515
G01 X29.6552 Y5.4358
G01 X29.6552 Y3.4744
G01 X29.2141 Y3.0333
G01 X23.8269 Y3.0333
G01 X21.9523 Y4.9079
G01 X21.9523 Y9.3438
G01 X22.0970 Y9.4119
G01 X22.1113 Y9.4191
G01 X22.1253 Y9.4271
G01 X22.2515 Y9.5027
G01 X22.2651 Y9.5113
G01 X22.2782 Y9.5206
G01 X22.3964 Y9.6083
G01 X22.4091 Y9.6181
G01 X22.4213 Y9.6286
G01 X22.5303 Y9.7275
G01 X22.5420 Y9.7385
G01 X22.5530 Y9.7502
G01 X22.6519 Y9.8592
G01 X22.6624 Y9.8714
G01 X22.6722 Y9.8841
G01 X22.7599 Y10.0023
G01 X22.7693 Y10.0156
G01 X22.7778 Y10.0290
G01 X22.8534 Y10.1552
G01 X22.8614 Y10.1692
G01 X22.8686 Y10.1835
G01 X22.9315 Y10.3166
G01 X22.9380 Y10.3313
G01 X22.9438 Y10.3463
G01 X22.9934 Y10.4849
G01 X22.9984 Y10.5001
G01 X23.0027 Y10.5156
G01 X23.0385 Y10.6584
G01 X23.0420 Y10.6740
G01 X23.0447 Y10.6899
G01 X23.0663 Y10.8355
G01 X23.0683 Y10.8514
G01 X23.0695 Y10.8674
G01 X23.0767 Y11.0144
G01 X23.0770 Y11.0385
G01 X23.0695 Y11.1936
G01 X23.0683 Y11.2096
G01 X23.0663 Y11.2255
G01 X23.0447 Y11.3711
G01 X23.0420 Y11.3870
G01 X23.0385 Y11.4026
G01 X23.0027 Y11.5454
G01 X22.9984 Y11.5609
G01 X22.9934 Y11.5761
G01 X22.9438 Y11.7147
G01 X22.9380 Y11.7297
G01 X22.9315 Y11.7444
G01 X22.8651 Y11.8847
G01 X22.8534 Y11.9058
G01 X22.7778 Y12.0320
G01 X22.7692 Y12.0456
G01 X22.7599 Y12.0587
G01 X22.6722 Y12.1769
G01 X22.6572 Y12.1957
G01 X22.5530 Y12.3108
G01 X22.5362 Y12.3281
G01 X22.4152 Y12.4377
G01 X22.3964 Y12.4527
G01 X22.3285 Y12.5032
G01 X22.3300 Y13.9941
G01 X22.3410 Y14.0027
G01 X22.3532 Y14.0132
G01 X22.4114 Y14.0659
G01 X22.4230 Y14.0770
G01 X22.4341 Y14.0886
G01 X22.4868 Y14.1468
G01 X22.4973 Y14.1590
G01 X22.5071 Y14.1716
G01 X22.5539 Y14.2347
G01 X22.5632 Y14.2478
G01 X22.5717 Y14.2614
G01 X22.6121 Y14.3287
G01 X22.6200 Y14.3427
G01 X22.6272 Y14.3570
G01 X22.6608 Y14.4280
G01 X22.6673 Y14.4427
G01 X22.6731 Y14.4577
G01 X22.6995 Y14.5316
G01 X22.7046 Y14.5468
G01 X22.7089 Y14.5623
G01 X22.7279 Y14.6384
G01 X22.7314 Y14.6541
G01 X22.7342 Y14.6699
G01 X22.7457 Y14.7476
G01 X22.7484 Y14.7715
G01 X22.7527 Y14.8579
G01 X22.7531 Y14.8740
G01 X22.7531 Y17.4740
G01 X22.7527 Y17.4901
G01 X22.7489 Y17.5685
G01 X22.7477 Y17.5845
G01 X22.7457 Y17.6004
G01 X22.7329 Y17.6860
G01 X22.7279 Y17.7096
G01 X22.7089 Y17.7857
G01 X22.7046 Y17.8012
G01 X22.6995 Y17.8164
G01 X22.6731 Y17.8903
G01 X22.6673 Y17.9053
G01 X22.6608 Y17.9200
G01 X22.6237 Y17.9982
G01 X22.6121 Y18.0193
G01 X22.5717 Y18.0866
G01 X22.5632 Y18.1002
G01 X22.5539 Y18.1133
G01 X22.5071 Y18.1764
G01 X22.4973 Y18.1890
G01 X22.4868 Y18.2012
G01 X22.4341 Y18.2594
G01 X22.4230 Y18.2710
G01 X22.4114 Y18.2821
G01 X22.3532 Y18.3348
G01 X22.3348 Y18.3503
G01 X22.2653 Y18.4019
G01 X22.2522 Y18.4112
G01 X22.2386 Y18.4197
G01 X22.1713 Y18.4601
G01 X22.1573 Y18.4680
G01 X22.1430 Y18.4752
G01 X22.0720 Y18.5088
G01 X22.0573 Y18.5153
G01 X22.0423 Y18.5211
G01 X21.9684 Y18.5475
G01 X21.9525 Y18.5528
G01 X21.9377 Y18.5569
G01 X21.8616 Y18.5759
G01 X21.8380 Y18.5809
G01 X21.7524 Y18.5937
G01 X21.7365 Y18.5957
G01 X21.7205 Y18.5969
G01 X21.6421 Y18.6007
G01 X21.6260 Y18.6011
G01 X21.6099 Y18.6007
G01 X21.5315 Y18.5969
G01 X21.5155 Y18.5957
G01 X21.4996 Y18.5937
G01 X21.4219 Y18.5822
G01 X21.4061 Y18.5794
G01 X21.3904 Y18.5759
G01 X21.3143 Y18.5569
G01 X21.2988 Y18.5526
G01 X21.2836 Y18.5475
G01 X21.2097 Y18.5211
G01 X21.1947 Y18.5153
G01 X21.1800 Y18.5088
G01 X21.1090 Y18.4752
G01 X21.0947 Y18.4680
G01 X21.0807 Y18.4601
G01 X21.0134 Y18.4197
G01 X20.9998 Y18.4112
G01 X20.9867 Y18.4019
G01 X20.9236 Y18.3551
G01 X20.9110 Y18.3453
G01 X20.8988 Y18.3348
G01 X20.8406 Y18.2821
G01 X20.8290 Y18.2710
G01 X20.8179 Y18.2594
G01 X20.7652 Y18.2012
G01 X20.7547 Y18.1890
G01 X20.7449 Y18.1764
G01 X20.6981 Y18.1133
G01 X20.6888 Y18.1002
G01 X20.6803 Y18.0866
G01 X20.6399 Y18.0193
G01 X20.6320 Y18.0053
G01 X20.6248 Y17.9910
G01 X20.5912 Y17.9200
G01 X20.5847 Y17.9053
G01 X20.5789 Y17.8903
G01 X20.5525 Y17.8164
G01 X20.5477 Y17.8020
G01 X20.5431 Y17.7857
G01 X20.5241 Y17.7096
G01 X20.5206 Y17.6939
G01 X20.5178 Y17.6781
G01 X20.5063 Y17.6004
G01 X20.5043 Y17.5845
G01 X20.5031 Y17.5685
G01 X20.4993 Y17.4901
G01 X20.4989 Y17.4740
G01 X20.4989 Y14.8740
G01 X20.4993 Y14.8579
G01 X20.5031 Y14.7795
G01 X20.5043 Y14.7635
G01 X20.5063 Y14.7476
G01 X20.5178 Y14.6699
G01 X20.5206 Y14.6541
G01 X20.5241 Y14.6384
G01 X20.5431 Y14.5623
G01 X20.5474 Y14.5468
G01 X20.5525 Y14.5316
G01 X20.5789 Y14.4577
G01 X20.5847 Y14.4427
G01 X20.5912 Y14.4280
G01 X20.6248 Y14.3570
G01 X20.6320 Y14.3427
G01 X20.6399 Y14.3287
G01 X20.6803 Y14.2614
G01 X20.6888 Y14.2478
G01 X20.6981 Y14.2347
G01 X20.7449 Y14.1716
G01 X20.7547 Y14.1590
G01 X20.7652 Y14.1468
G01 X20.8179 Y14.0886
G01 X20.8290 Y14.0770
G01 X20.8406 Y14.0659
G01 X20.8988 Y14.0132
G01 X20.9110 Y14.0027
G01 X20.9236 Y13.9929
G01 X20.9230 Y12.8273
G01 X20.9014 Y12.8240
G01 X20.8779 Y12.8190
G01 X20.7351 Y12.7832
G01 X20.7196 Y12.7789
G01 X20.7044 Y12.7739
G01 X20.5658 Y12.7243
G01 X20.5508 Y12.7185
G01 X20.5361 Y12.7120
G01 X20.4030 Y12.6491
G01 X20.3887 Y12.6419
G01 X20.3747 Y12.6339
G01 X20.2485 Y12.5583
G01 X20.2349 Y12.5497
G01 X20.2218 Y12.5404
G01 X20.1036 Y12.4527
G01 X20.0909 Y12.4429
G01 X20.0787 Y12.4324
G01 X19.9697 Y12.3335
G01 X19.9580 Y12.3225
G01 X19.9470 Y12.3108
G01 X19.8481 Y12.2018
G01 X19.8376 Y12.1896
G01 X19.8278 Y12.1769
G01 X19.7401 Y12.0587
G01 X19.7308 Y12.0456
G01 X19.7222 Y12.0320
G01 X19.6466 Y11.9058
G01 X19.6386 Y11.8918
G01 X19.6314 Y11.8775
G01 X19.5685 Y11.7444
G01 X19.5620 Y11.7297
G01 X19.5562 Y11.7147
G01 X19.5066 Y11.5761
G01 X19.5016 Y11.5609
G01 X19.4973 Y11.5454
G01 X19.4615 Y11.4026
G01 X19.4582 Y11.3877
G01 X19.4553 Y11.3711
G01 X19.4337 Y11.2255
G01 X19.4317 Y11.2096
G01 X19.4305 Y11.1936
G01 X19.4233 Y11.0466
G01 X19.4229 Y11.0305
G01 X19.4233 Y11.0144
G01 X19.4305 Y10.8674
G01 X19.4317 Y10.8514
G01 X19.4337 Y10.8355
G01 X19.4553 Y10.6899
G01 X19.4580 Y10.6740
G01 X19.4615 Y10.6584
G01 X19.4973 Y10.5156
G01 X19.5016 Y10.5001
G01 X19.5066 Y10.4849
G01 X19.5562 Y10.3463
G01 X19.5620 Y10.3313
G01 X19.5685 Y10.3166
G01 X19.6314 Y10.1835
G01 X19.6386 Y10.1692
G01 X19.6466 Y10.1552
G01 X19.7222 Y10.0290
G01 X19.7308 Y10.0154
G01 X19.7401 Y10.0023
G01 X19.8278 Y9.8841
G01 X19.8376 Y9.8714
G01 X19.8481 Y9.8592
G01 X19.9470 Y9.7502
G01 X19.9580 Y9.7385
G01 X19.9697 Y9.7275
G01 X20.0787 Y9.6286
G01 X20.0909 Y9.6181
G01 X20.1036 Y9.6083
G01 X20.2218 Y9.5206
G01 X20.2350 Y9.5112
G01 X20.2485 Y9.5027
G01 X20.3747 Y9.4271
G01 X20.3887 Y9.4191
G01 X20.4030 Y9.4119
G01 X20.5477 Y9.3438
G01 X20.5477 Y5.2558
G01 X6.9359 Y5.2558
G01 X2.6483 Y9.5434
G01 X2.6483 Y42.7436
G01 X15.7134 Y55.8087
G01 X45.0555 Y55.8087
G01 X45.0839 Y55.7779
G01 X45.0956 Y55.7669
G01 X45.1197 Y55.7451
G01 X45.1385 Y55.7300
G01 X45.1648 Y55.7107
G01 X45.1781 Y55.7018
G01 X45.2060 Y55.6850
G01 X45.2200 Y55.6770
G01 X45.2343 Y55.6698
G01 X45.2638 Y55.6560
G01 X45.2861 Y55.6470
G01 X45.3168 Y55.6362
G01 X45.3322 Y55.6315
G01 X45.3716 Y55.6216
G01 X45.3952 Y55.6172
G01 X45.4195 Y55.6136
G01 X45.4365 Y55.6116
G01 X45.4514 Y55.6105
G01 X45.4840 Y55.6090
G01 X46.0524 Y55.6089
G01 X46.0762 Y55.5874
G01 X46.0886 Y55.5773
G01 X46.1245 Y55.5505
G01 X46.1444 Y55.5368
G01 X46.1828 Y55.5137
G01 X46.1968 Y55.5058
G01 X46.2111 Y55.4986
G01 X46.2517 Y55.4795
G01 X46.2741 Y55.4705
G01 X46.3163 Y55.4555
G01 X46.3317 Y55.4509
G01 X46.3752 Y55.4399
G01 X46.3908 Y55.4364
G01 X46.4067 Y55.4336
G01 X46.4516 Y55.4271
G01 X46.4687 Y55.4254
G01 X46.5118 Y55.4233
G01 X46.5277 Y55.4229
G01 X50.3757 Y55.4210
G01 X50.3842 Y55.4101
G01 X50.3947 Y55.3980
G01 X50.4474 Y55.3398
G01 X50.4585 Y55.3282
G01 X50.4701 Y55.3171
G01 X50.5283 Y55.2644
G01 X50.5405 Y55.2539
G01 X50.5531 Y55.2440
G01 X50.6162 Y55.1972
G01 X50.6293 Y55.1880
G01 X50.6429 Y55.1794
G01 X50.7102 Y55.1390
G01 X50.7242 Y55.1311
G01 X50.7385 Y55.1239
G01 X50.8095 Y55.0903
G01 X50.8242 Y55.0838
G01 X50.8392 Y55.0781
G01 X50.9131 Y55.0516
G01 X50.9360 Y55.0443
G01 X51.0199 Y55.0232
G01 X51.0356 Y55.0197
G01 X51.0514 Y55.0170
G01 X51.1291 Y55.0054
G01 X51.1450 Y55.0035
G01 X51.1610 Y55.0023
G01 X51.2394 Y54.9984
G01 X51.2555 Y54.9980
G01 X53.8555 Y54.9980
G01 X53.8716 Y54.9984
G01 X53.9500 Y55.0023
G01 X53.9660 Y55.0035
G01 X53.9819 Y55.0054
G01 X54.0596 Y55.0170
G01 X54.0754 Y55.0197
G01 X54.0911 Y55.0232
G01 X54.1672 Y55.0423
G01 X54.1903 Y55.0490
G01 X54.2718 Y55.0781
G01 X54.2868 Y55.0838
G01 X54.3015 Y55.0903
G01 X54.3725 Y55.1239
G01 X54.3868 Y55.1311
G01 X54.4008 Y55.1390
G01 X54.4681 Y55.1794
G01 X54.4883 Y55.1925
G01 X54.5643 Y55.2489
G01 X54.5827 Y55.2644
G01 X54.6467 Y55.3226
G01 X54.6636 Y55.3398
G01 X54.7163 Y55.3980
G01 X54.7268 Y55.4101
G01 X54.7366 Y55.4228
G01 X54.7766 Y55.4767
G01 X58.1008 Y55.4767
G01 X58.1689 Y55.3320
G01 X58.1761 Y55.3177
G01 X58.1841 Y55.3037
G01 X58.2597 Y55.1775
G01 X58.2683 Y55.1639
G01 X58.2776 Y55.1508
G01 X58.3653 Y55.0326
G01 X58.3751 Y55.0199
G01 X58.3856 Y55.0077
G01 X58.4845 Y54.8987
G01 X58.4955 Y54.8870
G01 X58.5072 Y54.8760
G01 X58.6162 Y54.7771
G01 X58.6284 Y54.7666
G01 X58.6411 Y54.7568
G01 X58.7593 Y54.6691
G01 X58.7726 Y54.6597
G01 X58.7860 Y54.6512
G01 X58.9122 Y54.5756
G01 X58.9262 Y54.5676
G01 X58.9405 Y54.5604
G01 X59.0736 Y54.4975
G01 X59.0883 Y54.4910
G01 X59.1033 Y54.4852
G01 X59.2419 Y54.4356
G01 X59.2571 Y54.4306
G01 X59.2726 Y54.4263
G01 X59.4154 Y54.3905
G01 X59.4303 Y54.3872
G01 X59.4453 Y54.3845
G01 X59.5925 Y54.3627
G01 X59.6084 Y54.3607
G01 X59.6244 Y54.3595
G01 X59.7714 Y54.3523
G01 X59.7955 Y54.3520
G01 X59.9506 Y54.3595
G01 X59.9666 Y54.3607
G01 X59.9825 Y54.3627
G01 X60.1281 Y54.3843
G01 X60.1440 Y54.3870
G01 X60.1596 Y54.3905
G01 X60.3024 Y54.4263
G01 X60.3179 Y54.4306
G01 X60.3331 Y54.4356
G01 X60.4717 Y54.4852
G01 X60.4867 Y54.4910
G01 X60.5014 Y54.4975
G01 X60.6345 Y54.5604
G01 X60.6488 Y54.5676
G01 X60.6628 Y54.5756
G01 X60.7890 Y54.6512
G01 X60.8026 Y54.6598
G01 X60.8157 Y54.6691
G01 X60.9339 Y54.7568
G01 X60.9466 Y54.7666
G01 X60.9588 Y54.7771
G01 X61.0678 Y54.8760
G01 X61.0795 Y54.8870
G01 X61.0905 Y54.8987
G01 X61.1894 Y55.0077
G01 X61.1999 Y55.0199
G01 X61.2097 Y55.0326
G01 X61.2974 Y55.1508
G01 X61.3068 Y55.1640
G01 X61.3153 Y55.1775
G01 X61.3909 Y55.3037
G01 X61.3989 Y55.3177
G01 X61.4061 Y55.3320
G01 X61.4690 Y55.4651
G01 X61.4755 Y55.4798
G01 X61.4813 Y55.4948
G01 X61.5309 Y55.6334
G01 X61.5359 Y55.6486
G01 X61.5402 Y55.6641
G01 X61.5760 Y55.8069
G01 X61.5795 Y55.8225
G01 X61.5822 Y55.8384
G01 X61.6038 Y55.9840
G01 X61.6058 Y55.9999
G01 X61.6070 Y56.0159
G01 X61.6142 Y56.1629
G01 X61.6146 Y56.1790
G01 X61.6142 Y56.1951
G01 X61.6070 Y56.3421
G01 X61.6058 Y56.3581
G01 X61.6038 Y56.3740
G01 X61.5822 Y56.5196
G01 X61.5795 Y56.5355
G01 X61.5760 Y56.5511
G01 X61.5402 Y56.6939
G01 X61.5359 Y56.7094
G01 X61.5309 Y56.7246
G01 X61.4813 Y56.8632
G01 X61.4755 Y56.8782
G01 X61.4690 Y56.8929
G01 X61.4061 Y57.0260
G01 X61.3989 Y57.0403
G01 X61.3909 Y57.0543
G01 X61.3153 Y57.1805
G01 X61.3067 Y57.1941
G01 X61.2974 Y57.2072
G01 X61.2097 Y57.3254
G01 X61.1999 Y57.3381
G01 X61.1894 Y57.3503
G01 X61.0905 Y57.4593
G01 X61.0795 Y57.4710
G01 X61.0678 Y57.4820
G01 X60.9588 Y57.5809
G01 X60.9466 Y57.5914
G01 X60.9339 Y57.6012
G01 X60.8157 Y57.6889
G01 X60.8026 Y57.6982
G01 X60.7890 Y57.7068
G01 X60.6628 Y57.7824
G01 X60.6488 Y57.7904
G01 X60.6345 Y57.7976
G01 X60.5014 Y57.8605
G01 X60.4867 Y57.8670
G01 X60.4717 Y57.8728
G01 X60.3331 Y57.9224
G01 X60.3179 Y57.9274
G01 X60.3024 Y57.9317
G01 X60.1596 Y57.9675
G01 X60.1447 Y57.9708
G01 X60.1297 Y57.9735
G01 X59.9825 Y57.9953
G01 X59.9666 Y57.9973
G01 X59.9506 Y57.9985
G01 X59.8036 Y58.0057
G01 X59.7875 Y58.0061
G01 X59.7714 Y58.0057
G01 X59.6244 Y57.9985
G01 X59.6084 Y57.9973
G01 X59.5925 Y57.9953
G01 X59.4469 Y57.9737
G01 X59.4310 Y57.9710
G01 X59.4154 Y57.9675
G01 X59.2726 Y57.9317
G01 X59.2571 Y57.9274
G01 X59.2419 Y57.9224
G01 X59.1033 Y57.8728
G01 X59.0883 Y57.8670
G01 X59.0736 Y57.8605
G01 X58.9405 Y57.7976
G01 X58.9262 Y57.7904
G01 X58.9122 Y57.7824
G01 X58.7860 Y57.7068
G01 X58.7724 Y57.6982
G01 X58.7593 Y57.6889
G01 X58.6411 Y57.6012
G01 X58.6284 Y57.5914
G01 X58.6162 Y57.5809
G01 X58.5072 Y57.4820
G01 X58.4955 Y57.4710
G01 X58.4845 Y57.4593
G01 X58.3856 Y57.3503
G01 X58.3751 Y57.3381
G01 X58.3653 Y57.3254
G01 X58.2776 Y57.2072
G01 X58.2683 Y57.1941
G01 X58.2597 Y57.1805
G01 X58.1841 Y57.0543
G01 X58.1761 Y57.0403
G01 X58.1689 Y57.0260
G01 X58.1008 Y56.8813
G01 X54.6900 Y56.8813
G01 X54.6581 Y56.9164
G01 X54.6467 Y56.9277
G01 X54.5827 Y56.9859
G01 X54.5643 Y57.0014
G01 X54.4948 Y57.0531
G01 X54.4817 Y57.0623
G01 X54.4681 Y57.0709
G01 X54.4008 Y57.1113
G01 X54.3797 Y57.1229
G01 X54.3015 Y57.1600
G01 X54.2868 Y57.1665
G01 X54.2718 Y57.1722
G01 X54.1979 Y57.1987
G01 X54.1835 Y57.2035
G01 X54.1672 Y57.2080
G01 X54.0911 Y57.2271
G01 X54.0754 Y57.2306
G01 X54.0596 Y57.2333
G01 X53.9819 Y57.2449
G01 X53.9660 Y57.2468
G01 X53.9500 Y57.2480
G01 X53.8716 Y57.2519
G01 X53.8555 Y57.2523
G01 X51.2555 Y57.2523
G01 X51.2394 Y57.2519
G01 X51.1610 Y57.2480
G01 X51.1450 Y57.2468
G01 X51.1291 Y57.2449
G01 X51.0514 Y57.2333
G01 X51.0356 Y57.2306
G01 X51.0199 Y57.2271
G01 X50.9438 Y57.2080
G01 X50.9283 Y57.2037
G01 X50.9131 Y57.1987
G01 X50.8392 Y57.1722
G01 X50.8168 Y57.1633
G01 X50.7385 Y57.1264
G01 X50.7242 Y57.1192
G01 X50.7102 Y57.1113
G01 X50.6429 Y57.0709
G01 X50.6293 Y57.0623
G01 X50.6162 Y57.0531
G01 X50.5531 Y57.0063
G01 X50.5405 Y56.9964
G01 X50.5283 Y56.9859
G01 X50.4701 Y56.9332
G01 X50.4585 Y56.9221
G01 X50.4474 Y56.9105
G01 X50.3947 Y56.8523
G01 X50.3842 Y56.8402
G01 X50.3743 Y56.8274
G01 X47.3691 Y56.8274
G01 X47.3687 Y56.8521
G01 X47.3663 Y56.8926
G01 X47.3608 Y56.9328
G01 X47.3580 Y56.9486
G01 X47.3545 Y56.9643
G01 X47.3443 Y57.0035
G01 X47.3392 Y57.0188
G01 X47.3252 Y57.0568
G01 X47.3082 Y57.0937
G01 X47.3010 Y57.1080
G01 X47.2930 Y57.1220
G01 X47.2718 Y57.1566
G01 X47.2480 Y57.1895
G01 X47.2381 Y57.2021
G01 X47.2276 Y57.2143
G01 X47.2001 Y57.2441
G01 X47.1703 Y57.2716
G01 X47.1581 Y57.2821
G01 X47.1455 Y57.2920
G01 X47.1126 Y57.3158
G01 X47.0780 Y57.3370
G01 X47.0640 Y57.3450
G01 X47.0497 Y57.3522
G01 X47.0128 Y57.3692
G01 X46.9748 Y57.3832
G01 X46.9595 Y57.3883
G01 X46.9203 Y57.3985
G01 X46.9046 Y57.4020
G01 X46.8888 Y57.4048
G01 X46.8486 Y57.4103
G01 X46.8081 Y57.4127
G01 X46.7920 Y57.4131
G01 X45.4920 Y57.4131
G01 X45.4514 Y57.4115
G01 X45.4275 Y57.4094
G01 X45.3952 Y57.4048
G01 X45.3794 Y57.4020
G01 X45.3637 Y57.3985
G01 X45.3245 Y57.3883
G01 X45.3092 Y57.3832
G01 X45.2712 Y57.3692
G01 X45.2343 Y57.3522
G01 X45.2200 Y57.3450
G01 X45.2060 Y57.3370
G01 X45.1714 Y57.3158
G01 X45.1385 Y57.2920
G01 X45.1259 Y57.2821
G01 X45.1137 Y57.2716
G01 X45.0839 Y57.2441
G01 X45.0555 Y57.2133
G01 X15.4225 Y57.2133
G01 X15.4064 Y57.2129
G01 X15.3697 Y57.2111
G01 X15.3537 Y57.2099
G01 X15.3377 Y57.2079
G01 X15.3013 Y57.2025
G01 X15.2855 Y57.1998
G01 X15.2698 Y57.1963
G01 X15.2341 Y57.1873
G01 X15.2186 Y57.1831
G01 X15.2034 Y57.1780
G01 X15.1687 Y57.1656
G01 X15.1537 Y57.1598
G01 X15.1391 Y57.1533
G01 X15.0986 Y57.1341
G01 X15.0844 Y57.1265
G01 X15.0459 Y57.1035
G01 X15.0323 Y57.0949
G01 X15.0192 Y57.0857
G01 X14.9896 Y57.0638
G01 X14.9770 Y57.0539
G01 X14.9648 Y57.0434
G01 X14.9375 Y57.0187
G01 X14.9259 Y57.0076
G01 X1.4494 Y43.5311
G01 X1.4383 Y43.5195
G01 X1.4083 Y43.4862
G01 X1.3932 Y43.4674
G01 X1.3713 Y43.4378
G01 X1.3620 Y43.4246
G01 X1.3535 Y43.4111
G01 X1.3345 Y43.3795
G01 X1.3229 Y43.3584
G01 X1.3037 Y43.3179
G01 X1.2972 Y43.3033
G01 X1.2914 Y43.2883
G01 X1.2790 Y43.2536
G01 X1.2717 Y43.2307
G01 X1.2607 Y43.1872
G01 X1.2572 Y43.1715
G01 X1.2545 Y43.1557
G01 X1.2491 Y43.1193
G01 X1.2464 Y43.0953
G01 X1.2441 Y43.0506
G01 X1.2437 Y43.0345
G01 X1.2437 Y9.2525
G01 X1.2441 Y9.2364
G00 Z2.0000
G00 X1.4498 Y9.2466
G01 F60.00
G01 Z-0.1200
G01 F120.00
G01 X1.4521 Y9.2039
G01 X1.4592 Y9.1557
G01 X1.4710 Y9.1084
G01 X1.4874 Y9.0626
G01 X1.5083 Y9.0185
G01 X1.5333 Y8.9767
G01 X1.5623 Y8.9376
G01 X1.5950 Y8.9015
G01 X6.2962 Y4.2005
G01 X6.3301 Y4.1698
G01 X6.3644 Y4.1442
G01 X6.3743 Y4.1376
G01 X6.4110 Y4.1158
G01 X6.4551 Y4.0949
G01 X6.4953 Y4.0804
G01 X6.5067 Y4.0769
G01 X6.5424 Y4.0680
G01 X6.5540 Y4.0657
G01 X6.5964 Y4.0596
G01 X6.6450 Y4.0572
G01 X21.1079 Y4.0572
G01 X23.1872 Y1.9780
G01 X23.2211 Y1.9473
G01 X23.2602 Y1.9183
G01 X23.3020 Y1.8933
G01 X23.3406 Y1.8749
G01 X23.3516 Y1.8703
G01 X23.3919 Y1.8560
G01 X23.4334 Y1.8455
G01 X23.4450 Y1.8432
G01 X23.4814 Y1.8378
G01 X23.4933 Y1.8366
G01 X23.5360 Y1.8347
G01 X36.7653 Y1.8341
G01 X36.7753 Y1.8182
G01 X36.8274 Y1.7480
G01 X36.8881 Y1.6810
G01 X36.9551 Y1.6203
G01 X37.0229 Y1.5699
G01 X37.0328 Y1.5633
G01 X37.1001 Y1.5229
G01 X37.1106 Y1.5173
G01 X37.1870 Y1.4814
G01 X37.2665 Y1.4528
G01 X37.2778 Y1.4493
G01 X37.3598 Y1.4289
G01 X37.4463 Y1.4160
G01 X37.4551 Y1.4152
G01 X37.5395 Y1.4112
G01 X40.1395 Y1.4112
G01 X40.2239 Y1.4152
G01 X40.2357 Y1.4164
G01 X40.3192 Y1.4289
G01 X40.4012 Y1.4493
G01 X40.4125 Y1.4528
G01 X40.4920 Y1.4814
G01 X40.5737 Y1.5200
G01 X40.6462 Y1.5633
G01 X40.6561 Y1.5699
G01 X40.7239 Y1.6203
G01 X40.7865 Y1.6769
G01 X40.7950 Y1.6853
G01 X40.8516 Y1.7480
G01 X40.9037 Y1.8182
G01 X40.9140 Y1.8347
G01 X47.7960 Y1.8347
G01 X47.8416 Y1.8371
G01 X47.8898 Y1.8442
G01 X47.9371 Y1.8560
G01 X47.9774 Y1.8703
G01 X47.9884 Y1.8749
G01 X48.0217 Y1.8906
G01 X48.0321 Y1.8962
G01 X48.0688 Y1.9183
G01 X48.1079 Y1.9473
G01 X48.1440 Y1.9800
G01 X52.6508 Y6.4869
G01 X52.9295 Y6.4869
G01 X52.9569 Y6.4882
G01 X52.9658 Y6.4890
G01 X52.9960 Y6.4934
G01 X53.0047 Y6.4953
G01 X53.0342 Y6.5028
G01 X53.0685 Y6.5151
G01 X53.1015 Y6.5307
G01 X53.1277 Y6.5462
G01 X53.1376 Y6.5528
G01 X53.1642 Y6.5730
G01 X53.1889 Y6.5956
G01 X53.2115 Y6.6203
G01 X53.2317 Y6.6469
G01 X53.2383 Y6.6568
G01 X53.2538 Y6.6830
G01 X53.2694 Y6.7160
G01 X53.2817 Y6.7503
G01 X53.2892 Y6.7798
G01 X53.2915 Y6.7915
G01 X53.2961 Y6.8246
G01 X53.2976 Y6.8580
G01 X53.2976 Y7.7830
G01 X53.2959 Y7.8194
G01 X53.2905 Y7.8554
G01 X53.2833 Y7.8850
G01 X53.2808 Y7.8936
G01 X53.2715 Y7.9195
G01 X53.2670 Y7.9305
G01 X53.2538 Y7.9580
G01 X53.2351 Y7.9892
G01 X53.2134 Y8.0185
G01 X53.1889 Y8.0454
G01 X53.1620 Y8.0699
G01 X53.1376 Y8.0882
G01 X53.1302 Y8.0932
G01 X53.1066 Y8.1074
G01 X53.0961 Y8.1130
G01 X53.0684 Y8.1260
G01 X53.0342 Y8.1382
G01 X52.9989 Y8.1470
G01 X52.9658 Y8.1520
G01 X52.9569 Y8.1528
G01 X52.9265 Y8.1541
G01 X51.6765 Y8.1541
G01 X51.6461 Y8.1528
G01 X51.6342 Y8.1516
G01 X51.6070 Y8.1476
G01 X51.5983 Y8.1457
G01 X51.5688 Y8.1382
G01 X51.5345 Y8.1259
G01 X51.5015 Y8.1103
G01 X51.4753 Y8.0948
G01 X51.4654 Y8.0882
G01 X51.4388 Y8.0680
G01 X51.4184 Y8.0495
G01 X51.4120 Y8.0433
G01 X51.3915 Y8.0207
G01 X51.3859 Y8.0138
G01 X51.3679 Y7.9892
G01 X51.3521 Y7.9631
G01 X51.3478 Y7.9553
G01 X51.3360 Y7.9305
G01 X51.3324 Y7.9221
G01 X51.3222 Y7.8936
G01 X51.3197 Y7.8850
G01 X51.3131 Y7.8583
G01 X51.3115 Y7.8495
G01 X51.3071 Y7.8194
G01 X51.3054 Y7.7860
G01 X51.3054 Y6.8580
G01 X51.3069 Y6.8246
G01 X51.3115 Y6.7915
G01 X51.3138 Y6.7798
G01 X51.3213 Y6.7503
G01 X51.3336 Y6.7160
G01 X51.3465 Y6.6884
G01 X51.3521 Y6.6779
G01 X51.3679 Y6.6518
G01 X51.3865 Y6.6265
G01 X47.5874 Y2.8273
G01 X45.1143 Y2.8273
G01 X45.1143 Y21.8739
G01 X45.5770 Y22.3365
G01 X45.6078 Y22.3704
G01 X45.6133 Y22.3773
G01 X45.6387 Y22.4117
G01 X45.6637 Y22.4535
G01 X45.6846 Y22.4976
G01 X45.6991 Y22.5378
G01 X45.7026 Y22.5492
G01 X45.7115 Y22.5849
G01 X45.7138 Y22.5965
G01 X45.7200 Y22.6393
G01 X45.7223 Y22.6845
G01 X45.7223 Y24.2599
G01 X45.7308 Y24.2609
G01 X45.7609 Y24.2655
G01 X45.7905 Y24.2727
G01 X45.7991 Y24.2752
G01 X45.8250 Y24.2845
G01 X45.8360 Y24.2890
G01 X45.8635 Y24.3022
G01 X45.8947 Y24.3209
G01 X45.9240 Y24.3426
G01 X45.9509 Y24.3671
G01 X45.9754 Y24.3940
G01 X45.9937 Y24.4184
G01 X45.9987 Y24.4258
G01 X46.0129 Y24.4494
G01 X46.0185 Y24.4599
G01 X46.0314 Y24.4875
G01 X46.0437 Y24.5218
G01 X46.0525 Y24.5571
G01 X46.0571 Y24.5872
G01 X46.0583 Y24.5991
G01 X46.0596 Y24.6295
G01 X46.0596 Y25.8795
G01 X46.0579 Y25.9159
G01 X46.0525 Y25.9519
G01 X46.0437 Y25.9872
G01 X46.0335 Y26.0160
G01 X46.0290 Y26.0270
G01 X46.0172 Y26.0518
G01 X46.0129 Y26.0596
G01 X45.9971 Y26.0857
G01 X45.9754 Y26.1150
G01 X45.9509 Y26.1419
G01 X45.9285 Y26.1625
G01 X45.9193 Y26.1701
G01 X45.8972 Y26.1864
G01 X45.8897 Y26.1913
G01 X45.8635 Y26.2068
G01 X45.8304 Y26.2225
G01 X45.7962 Y26.2347
G01 X45.7667 Y26.2422
G01 X45.7550 Y26.2445
G01 X45.7219 Y26.2491
G01 X45.6885 Y26.2506
G01 X44.7635 Y26.2506
G01 X44.7271 Y26.2489
G01 X44.6940 Y26.2441
G01 X44.6853 Y26.2422
G01 X44.6558 Y26.2347
G01 X44.6270 Y26.2245
G01 X44.6160 Y26.2200
G01 X44.5885 Y26.2068
G01 X44.5623 Y26.1913
G01 X44.5524 Y26.1847
G01 X44.5280 Y26.1664
G01 X44.5054 Y26.1460
G01 X44.4970 Y26.1376
G01 X44.4766 Y26.1150
G01 X44.4583 Y26.0906
G01 X44.4517 Y26.0807
G01 X44.4362 Y26.0545
G01 X44.4230 Y26.0270
G01 X44.4194 Y26.0186
G01 X44.4083 Y25.9872
G01 X44.3995 Y25.9519
G01 X44.3941 Y25.9159
G01 X44.3924 Y25.8825
G01 X44.3924 Y24.6295
G01 X44.3941 Y24.5931
G01 X44.3995 Y24.5571
G01 X44.4083 Y24.5218
G01 X44.4206 Y24.4875
G01 X44.4335 Y24.4599
G01 X44.4391 Y24.4494
G01 X44.4533 Y24.4258
G01 X44.4583 Y24.4184
G01 X44.4766 Y24.3940
G01 X44.5011 Y24.3671
G01 X44.5280 Y24.3426
G01 X44.5573 Y24.3209
G01 X44.5885 Y24.3022
G01 X44.6160 Y24.2890
G01 X44.6270 Y24.2845
G01 X44.6529 Y24.2752
G01 X44.6615 Y24.2727
G01 X44.6911 Y24.2655
G01 X44.7212 Y24.2609
G01 X44.7297 Y24.2599
G01 X44.7297 Y22.8931
G01 X44.2670 Y22.4305
G01 X44.2382 Y22.3989
G01 X44.2325 Y22.3921
G01 X44.2053 Y22.3552
G01 X44.1832 Y22.3186
G01 X44.1776 Y22.3082
G01 X44.1594 Y22.2694
G01 X44.1430 Y22.2236
G01 X44.1325 Y22.1821
G01 X44.1302 Y22.1705
G01 X44.1248 Y22.1341
G01 X44.1238 Y22.1252
G01 X44.1217 Y22.0795
G01 X44.1217 Y2.8273
G01 X44.0128 Y2.8273
G01 X43.9816 Y2.8287
G01 X40.9148 Y2.8287
G01 X40.9037 Y2.8466
G01 X40.8516 Y2.9168
G01 X40.7950 Y2.9794
G01 X40.7865 Y2.9878
G01 X40.7239 Y3.0444
G01 X40.6561 Y3.0949
G01 X40.6462 Y3.1015
G01 X40.5737 Y3.1448
G01 X40.4920 Y3.1834
G01 X40.4125 Y3.2120
G01 X40.4012 Y3.2155
G01 X40.3192 Y3.2358
G01 X40.2357 Y3.2484
G01 X40.2239 Y3.2495
G01 X40.1395 Y3.2535
G01 X37.5395 Y3.2535
G01 X37.4551 Y3.2495
G01 X37.4463 Y3.2488
G01 X37.3657 Y3.2369
G01 X37.3540 Y3.2345
G01 X37.2721 Y3.2139
G01 X37.1925 Y3.1856
G01 X37.1816 Y3.1810
G01 X37.1053 Y3.1448
G01 X37.0302 Y3.0999
G01 X37.0229 Y3.0949
G01 X36.9551 Y3.0444
G01 X36.8881 Y2.9837
G01 X36.8313 Y2.9213
G01 X36.8256 Y2.9144
G01 X36.7753 Y2.8466
G01 X36.7633 Y2.8273
G01 X30.7033 Y2.8273
G01 X30.7126 Y2.8368
G01 X30.7373 Y2.8641
G01 X30.7448 Y2.8733
G01 X30.7702 Y2.9077
G01 X30.7923 Y2.9444
G01 X30.7979 Y2.9548
G01 X30.8161 Y2.9936
G01 X30.8325 Y3.0394
G01 X30.8443 Y3.0867
G01 X30.8507 Y3.1289
G01 X30.8519 Y3.1408
G01 X30.8538 Y3.1835
G01 X30.8538 Y5.5909
G01 X30.8623 Y5.5919
G01 X30.8924 Y5.5965
G01 X30.9277 Y5.6053
G01 X30.9620 Y5.6176
G01 X30.9896 Y5.6305
G01 X30.9976 Y5.6346
G01 X31.0237 Y5.6503
G01 X31.0508 Y5.6699
G01 X31.0577 Y5.6755
G01 X31.0781 Y5.6940
G01 X31.0865 Y5.7024
G01 X31.1069 Y5.7250
G01 X31.1286 Y5.7543
G01 X31.1473 Y5.7855
G01 X31.1630 Y5.8186
G01 X31.1752 Y5.8528
G01 X31.1840 Y5.8881
G01 X31.1894 Y5.9241
G01 X31.1911 Y5.9575
G01 X31.1911 Y7.2105
G01 X31.1894 Y7.2469
G01 X31.1850 Y7.2770
G01 X31.1834 Y7.2858
G01 X31.1752 Y7.3182
G01 X31.1629 Y7.3525
G01 X31.1473 Y7.3855
G01 X31.1318 Y7.4117
G01 X31.1269 Y7.4192
G01 X31.1106 Y7.4413
G01 X31.1030 Y7.4505
G01 X31.0824 Y7.4729
G01 X31.0555 Y7.4974
G01 X31.0262 Y7.5191
G01 X31.0001 Y7.5349
G01 X30.9923 Y7.5392
G01 X30.9675 Y7.5510
G01 X30.9565 Y7.5555
G01 X30.9277 Y7.5657
G01 X30.8924 Y7.5745
G01 X30.8564 Y7.5799
G01 X30.8200 Y7.5816
G01 X29.8950 Y7.5816
G01 X29.8586 Y7.5799
G01 X29.8226 Y7.5745
G01 X29.7930 Y7.5673
G01 X29.7816 Y7.5638
G01 X29.7530 Y7.5534
G01 X29.7254 Y7.5405
G01 X29.7149 Y7.5349
G01 X29.6888 Y7.5191
G01 X29.6642 Y7.5011
G01 X29.6550 Y7.4935
G01 X29.6326 Y7.4729
G01 X29.6120 Y7.4505
G01 X29.6044 Y7.4413
G01 X29.5864 Y7.4167
G01 X29.5706 Y7.3906
G01 X29.5650 Y7.3801
G01 X29.5520 Y7.3524
G01 X29.5407 Y7.3211
G01 X29.5323 Y7.2887
G01 X29.5300 Y7.2770
G01 X29.5256 Y7.2469
G01 X29.5239 Y7.2105
G01 X29.5239 Y5.9605
G01 X29.5256 Y5.9241
G01 X29.5304 Y5.8910
G01 X29.5382 Y5.8585
G01 X29.5417 Y5.8471
G01 X29.5521 Y5.8185
G01 X29.5677 Y5.7855
G01 X29.5864 Y5.7543
G01 X29.6044 Y5.7297
G01 X29.6100 Y5.7228
G01 X29.6285 Y5.7024
G01 X29.6369 Y5.6940
G01 X29.6595 Y5.6736
G01 X29.6888 Y5.6519
G01 X29.7200 Y5.6332
G01 X29.7475 Y5.6200
G01 X29.7585 Y5.6155
G01 X29.7844 Y5.6062
G01 X29.7930 Y5.6037
G01 X29.8226 Y5.5965
G01 X29.8527 Y5.5919
G01 X29.8612 Y5.5909
G01 X29.8612 Y3.3891
G01 X29.2994 Y2.8273
G01 X23.7416 Y2.8273
G01 X21.7463 Y4.8226
G01 X21.7463 Y9.4882
G01 X21.8704 Y9.5328
G01 X22.0142 Y9.6008
G01 X22.1507 Y9.6826
G01 X22.2738 Y9.7737
G01 X22.2829 Y9.7812
G01 X22.3920 Y9.8801
G01 X22.4004 Y9.8885
G01 X22.5032 Y10.0021
G01 X22.5945 Y10.1250
G01 X22.6011 Y10.1349
G01 X22.6768 Y10.2611
G01 X22.6824 Y10.2716
G01 X22.7477 Y10.4101
G01 X22.8013 Y10.5599
G01 X22.8400 Y10.7142
G01 X22.8626 Y10.8657
G01 X22.8638 Y10.8775
G01 X22.8711 Y11.0305
G01 X22.8633 Y11.1894
G01 X22.8410 Y11.3409
G01 X22.8387 Y11.3526
G01 X22.8013 Y11.5011
G01 X22.7499 Y11.6453
G01 X22.7453 Y11.6563
G01 X22.6797 Y11.7947
G01 X22.6011 Y11.9261
G01 X22.5945 Y11.9360
G01 X22.5032 Y12.0589
G01 X22.4004 Y12.1725
G01 X22.3920 Y12.1809
G01 X22.2784 Y12.2837
G01 X22.1531 Y12.3768
G01 X22.1223 Y12.3956
G01 X22.1223 Y14.0987
G01 X22.1402 Y14.1098
G01 X22.2080 Y14.1601
G01 X22.2149 Y14.1658
G01 X22.2774 Y14.2226
G01 X22.3381 Y14.2896
G01 X22.3885 Y14.3574
G01 X22.3951 Y14.3673
G01 X22.4384 Y14.4398
G01 X22.4746 Y14.5161
G01 X22.4792 Y14.5270
G01 X22.5056 Y14.6010
G01 X22.5091 Y14.6123
G01 X22.5295 Y14.6943
G01 X22.5420 Y14.7778
G01 X22.5430 Y14.7867
G01 X22.5471 Y14.8740
G01 X22.5471 Y17.4740
G01 X22.5427 Y17.5643
G01 X22.5305 Y17.6478
G01 X22.5281 Y17.6595
G01 X22.5075 Y17.7414
G01 X22.4792 Y17.8210
G01 X22.4746 Y17.8319
G01 X22.4411 Y17.9029
G01 X22.4355 Y17.9134
G01 X22.3919 Y17.9858
G01 X22.3381 Y18.0584
G01 X22.2774 Y18.1254
G01 X22.2149 Y18.1822
G01 X22.2057 Y18.1897
G01 X22.1426 Y18.2365
G01 X22.1327 Y18.2431
G01 X22.0602 Y18.2864
G01 X21.9785 Y18.3250
G01 X21.8931 Y18.3556
G01 X21.8115 Y18.3761
G01 X21.7998 Y18.3785
G01 X21.7222 Y18.3900
G01 X21.7104 Y18.3912
G01 X21.6260 Y18.3951
G01 X21.5357 Y18.3907
G01 X21.4463 Y18.3775
G01 X21.3586 Y18.3555
G01 X21.2735 Y18.3250
G01 X21.1918 Y18.2864
G01 X21.1142 Y18.2399
G01 X21.0416 Y18.1861
G01 X20.9746 Y18.1254
G01 X20.9139 Y18.0584
G01 X20.8601 Y17.9858
G01 X20.8136 Y17.9082
G01 X20.7750 Y17.8265
G01 X20.7446 Y17.7417
G01 X20.7225 Y17.6537
G01 X20.7093 Y17.5643
G01 X20.7049 Y17.4740
G01 X20.7049 Y14.8740
G01 X20.7090 Y14.7867
G01 X20.7100 Y14.7778
G01 X20.7225 Y14.6943
G01 X20.7429 Y14.6123
G01 X20.7464 Y14.6010
G01 X20.7750 Y14.5215
G01 X20.8109 Y14.4451
G01 X20.8165 Y14.4346
G01 X20.8569 Y14.3673
G01 X20.8635 Y14.3574
G01 X20.9139 Y14.2896
G01 X20.9746 Y14.2226
G01 X21.0371 Y14.1658
G01 X21.0440 Y14.1601
G01 X21.1118 Y14.1098
G01 X21.1296 Y14.0987
G01 X21.1289 Y12.6458
G01 X21.0970 Y12.6443
G01 X21.0881 Y12.6435
G01 X20.9396 Y12.6215
G01 X20.9308 Y12.6199
G01 X20.7794 Y12.5818
G01 X20.6352 Y12.5304
G01 X20.6269 Y12.5271
G01 X20.4858 Y12.4602
G01 X20.3493 Y12.3784
G01 X20.2216 Y12.2837
G01 X20.1037 Y12.1768
G01 X19.9968 Y12.0589
G01 X19.9021 Y11.9312
G01 X19.8203 Y11.7947
G01 X19.7547 Y11.6563
G01 X19.7501 Y11.6453
G01 X19.7005 Y11.5067
G01 X19.6971 Y11.4954
G01 X19.6601 Y11.3471
G01 X19.6374 Y11.1953
G01 X19.6364 Y11.1864
G01 X19.6289 Y11.0305
G01 X19.6367 Y10.8716
G01 X19.6600 Y10.7142
G01 X19.6971 Y10.5656
G01 X19.7005 Y10.5543
G01 X19.7501 Y10.4157
G01 X19.7547 Y10.4047
G01 X19.8203 Y10.2663
G01 X19.9021 Y10.1298
G01 X19.9968 Y10.0021
G01 X20.0996 Y9.8885
G01 X20.1080 Y9.8801
G01 X20.2171 Y9.7812
G01 X20.2262 Y9.7737
G01 X20.3494 Y9.6825
G01 X20.4858 Y9.6008
G01 X20.6296 Y9.5328
G01 X20.7537 Y9.4882
G01 X20.7537 Y5.0498
G01 X6.8506 Y5.0498
G01 X2.4423 Y9.4581
G01 X2.4423 Y42.8289
G01 X15.6281 Y56.0147
G01 X45.1628 Y56.0147
G01 X45.1676 Y56.0059
G01 X45.1834 Y55.9798
G01 X45.2051 Y55.9505
G01 X45.2296 Y55.9236
G01 X45.2565 Y55.8991
G01 X45.2858 Y55.8774
G01 X45.3170 Y55.8587
G01 X45.3500 Y55.8431
G01 X45.3843 Y55.8308
G01 X45.4138 Y55.8233
G01 X45.4255 Y55.8210
G01 X45.4560 Y55.8166
G01 X45.4890 Y55.8149
G01 X46.1362 Y55.8149
G01 X46.1790 Y55.7721
G01 X46.2130 Y55.7415
G01 X46.2521 Y55.7125
G01 X46.2939 Y55.6874
G01 X46.3379 Y55.6666
G01 X46.3838 Y55.6502
G01 X46.4310 Y55.6384
G01 X46.4733 Y55.6319
G01 X46.4828 Y55.6309
G01 X46.5278 Y55.6288
G01 X50.4802 Y55.6288
G01 X50.4913 Y55.6109
G01 X50.5434 Y55.5408
G01 X50.6000 Y55.4781
G01 X50.6085 Y55.4697
G01 X50.6711 Y55.4131
G01 X50.7389 Y55.3627
G01 X50.7488 Y55.3561
G01 X50.8213 Y55.3128
G01 X50.9030 Y55.2741
G01 X50.9825 Y55.2455
G01 X50.9938 Y55.2421
G01 X51.0758 Y55.2217
G01 X51.1593 Y55.2092
G01 X51.1711 Y55.2080
G01 X51.2555 Y55.2040
G01 X53.8555 Y55.2040
G01 X53.9399 Y55.2080
G01 X53.9517 Y55.2092
G01 X54.0352 Y55.2217
G01 X54.1172 Y55.2421
G01 X54.1285 Y55.2455
G01 X54.2025 Y55.2720
G01 X54.2134 Y55.2765
G01 X54.2897 Y55.3128
G01 X54.3673 Y55.3592
G01 X54.4399 Y55.4131
G01 X54.5025 Y55.4697
G01 X54.5110 Y55.4781
G01 X54.5637 Y55.5363
G01 X54.5712 Y55.5455
G01 X54.6214 Y55.6134
G01 X54.6631 Y55.6827
G01 X58.2452 Y55.6827
G01 X58.2898 Y55.5586
G01 X58.3578 Y55.4148
G01 X58.4396 Y55.2783
G01 X58.5307 Y55.1552
G01 X58.5382 Y55.1461
G01 X58.6371 Y55.0370
G01 X58.6455 Y55.0286
G01 X58.7591 Y54.9258
G01 X58.8820 Y54.8345
G01 X58.8919 Y54.8279
G01 X59.0181 Y54.7522
G01 X59.0286 Y54.7466
G01 X59.1671 Y54.6813
G01 X59.3169 Y54.6277
G01 X59.4709 Y54.5891
G01 X59.6227 Y54.5664
G01 X59.6345 Y54.5652
G01 X59.7816 Y54.5580
G01 X59.7905 Y54.5579
G01 X59.9464 Y54.5657
G01 X60.0979 Y54.5880
G01 X60.1096 Y54.5903
G01 X60.2581 Y54.6277
G01 X60.4079 Y54.6813
G01 X60.5464 Y54.7466
G01 X60.5569 Y54.7522
G01 X60.6882 Y54.8311
G01 X60.8159 Y54.9258
G01 X60.9295 Y55.0286
G01 X60.9379 Y55.0370
G01 X61.0407 Y55.1506
G01 X61.1320 Y55.2735
G01 X61.1386 Y55.2834
G01 X61.2172 Y55.4148
G01 X61.2828 Y55.5532
G01 X61.2874 Y55.5642
G01 X61.3370 Y55.7028
G01 X61.3404 Y55.7141
G01 X61.3775 Y55.8627
G01 X61.4001 Y56.0142
G01 X61.4013 Y56.0260
G01 X61.4086 Y56.1790
G01 X61.4013 Y56.3320
G01 X61.4001 Y56.3438
G01 X61.3775 Y56.4953
G01 X61.3404 Y56.6439
G01 X61.3370 Y56.6552
G01 X61.2852 Y56.7994
G01 X61.2199 Y56.9379
G01 X61.2143 Y56.9484
G01 X61.1354 Y57.0797
G01 X61.0407 Y57.2074
G01 X60.9338 Y57.3253
G01 X60.8159 Y57.4322
G01 X60.6882 Y57.5269
G01 X60.5569 Y57.6058
G01 X60.5464 Y57.6114
G01 X60.4133 Y57.6743
G01 X60.4023 Y57.6789
G01 X60.2581 Y57.7303
G01 X60.1096 Y57.7677
G01 X60.0985 Y57.7699
G01 X59.9464 Y57.7923
G01 X59.7875 Y57.8001
G01 X59.6286 Y57.7923
G01 X59.4771 Y57.7700
G01 X59.4654 Y57.7677
G01 X59.3169 Y57.7303
G01 X59.1671 Y57.6767
G01 X59.0286 Y57.6114
G01 X59.0181 Y57.6058
G01 X58.8919 Y57.5301
G01 X58.8820 Y57.5235
G01 X58.7591 Y57.4322
G01 X58.6455 Y57.3294
G01 X58.6371 Y57.3210
G01 X58.5382 Y57.2119
G01 X58.5307 Y57.2028
G01 X58.4396 Y57.0797
G01 X58.3578 Y56.9432
G01 X58.2898 Y56.7994
G01 X58.2452 Y56.6753
G01 X54.5931 Y56.6753
G01 X54.5712 Y56.7048
G01 X54.5656 Y56.7118
G01 X54.5089 Y56.7744
G01 X54.5025 Y56.7806
G01 X54.4421 Y56.8353
G01 X54.4352 Y56.8409
G01 X54.3673 Y56.8911
G01 X54.2923 Y56.9361
G01 X54.2844 Y56.9402
G01 X54.2080 Y56.9762
G01 X54.1232 Y57.0065
G01 X54.0352 Y57.0286
G01 X53.9487 Y57.0415
G01 X53.9399 Y57.0423
G01 X53.8555 Y57.0463
G01 X51.2555 Y57.0463
G01 X51.1711 Y57.0423
G01 X51.1593 Y57.0411
G01 X51.0758 Y57.0286
G01 X50.9938 Y57.0082
G01 X50.9825 Y57.0048
G01 X50.9030 Y56.9762
G01 X50.8213 Y56.9375
G01 X50.7488 Y56.8942
G01 X50.7389 Y56.8876
G01 X50.6711 Y56.8372
G01 X50.6085 Y56.7806
G01 X50.6000 Y56.7722
G01 X50.5434 Y56.7095
G01 X50.4913 Y56.6394
G01 X50.4802 Y56.6215
G01 X47.1631 Y56.6215
G01 X47.1631 Y56.8360
G01 X47.1618 Y56.8664
G01 X47.1606 Y56.8783
G01 X47.1566 Y56.9055
G01 X47.1547 Y56.9142
G01 X47.1472 Y56.9437
G01 X47.1370 Y56.9725
G01 X47.1337 Y56.9808
G01 X47.1207 Y57.0083
G01 X47.1164 Y57.0161
G01 X47.1022 Y57.0397
G01 X47.0972 Y57.0471
G01 X47.0789 Y57.0715
G01 X47.0585 Y57.0941
G01 X47.0501 Y57.1025
G01 X47.0275 Y57.1229
G01 X47.0031 Y57.1412
G01 X46.9932 Y57.1478
G01 X46.9670 Y57.1633
G01 X46.9395 Y57.1765
G01 X46.9285 Y57.1810
G01 X46.8997 Y57.1912
G01 X46.8702 Y57.1987
G01 X46.8585 Y57.2010
G01 X46.8284 Y57.2054
G01 X46.7920 Y57.2071
G01 X45.4920 Y57.2071
G01 X45.4616 Y57.2058
G01 X45.4527 Y57.2050
G01 X45.4225 Y57.2006
G01 X45.4138 Y57.1987
G01 X45.3843 Y57.1912
G01 X45.3555 Y57.1810
G01 X45.3445 Y57.1765
G01 X45.3170 Y57.1633
G01 X45.2858 Y57.1446
G01 X45.2612 Y57.1266
G01 X45.2520 Y57.1190
G01 X45.2296 Y57.0984
G01 X45.2090 Y57.0760
G01 X45.2014 Y57.0668
G01 X45.1834 Y57.0422
G01 X45.1676 Y57.0161
G01 X45.1628 Y57.0073
G01 X15.4225 Y57.0073
G01 X15.3739 Y57.0049
G01 X15.3257 Y56.9978
G01 X15.2784 Y56.9860
G01 X15.2381 Y56.9717
G01 X15.2271 Y56.9671
G01 X15.1938 Y56.9514
G01 X15.1834 Y56.9458
G01 X15.1467 Y56.9237
G01 X15.1076 Y56.8947
G01 X15.0715 Y56.8620
G01 X1.5950 Y43.3855
G01 X1.5662 Y43.3539
G01 X1.5587 Y43.3447
G01 X1.5333 Y43.3102
G01 X1.5112 Y43.2736
G01 X1.5056 Y43.2632
G01 X1.4874 Y43.2244
G01 X1.4729 Y43.1842
G01 X1.4702 Y43.1757
G01 X1.4592 Y43.1313
G01 X1.4528 Y43.0891
G01 X1.4516 Y43.0772
G01 X1.4497 Y43.0345
G01 X1.4498 Y9.2466
G00 Z2.0000
G00 X2.8840 Y15.0688
G01 F60.00
G01 Z-0.1200
G01 F120.00
G01 X2.8658 Y15.0994
G01 X2.8542 Y15.1210
G01 X2.8542 Y15.0577
G01 X2.8840 Y15.0688
G00 Z2.0000
G00 X2.9586 Y15.5229
G01 F60.00
G01 Z-0.1200
G01 F120.00
G01 X2.9604 Y15.4862
G01 X2.9616 Y15.4702
G01 X2.9636 Y15.4542
G01 X2.9690 Y15.4178
G01 X2.9717 Y15.4020
G01 X2.9752 Y15.3863
G01 X2.9842 Y15.3506
G01 X2.9884 Y15.3351
G01 X2.9935 Y15.3199
G01 X3.0059 Y15.2852
G01 X3.0117 Y15.2702
G01 X3.0182 Y15.2556
G01 X3.0339 Y15.2223
G01 X3.0411 Y15.2079
G01 X3.0490 Y15.1940
G01 X3.0680 Y15.1624
G01 X3.0766 Y15.1488
G01 X3.0858 Y15.1357
G01 X3.1077 Y15.1061
G01 X3.1176 Y15.0935
G01 X3.1281 Y15.0813
G01 X3.1583 Y15.0482
G01 X7.6724 Y10.5339
G01 X7.6840 Y10.5228
G01 X7.7173 Y10.4928
G01 X7.7361 Y10.4777
G01 X7.7657 Y10.4558
G01 X7.7788 Y10.4466
G01 X7.7924 Y10.4380
G01 X7.8240 Y10.4190
G01 X7.8379 Y10.4111
G01 X7.8523 Y10.4039
G01 X7.8856 Y10.3882
G01 X7.9002 Y10.3817
G01 X7.9152 Y10.3759
G01 X7.9499 Y10.3635
G01 X7.9651 Y10.3584
G01 X7.9806 Y10.3542
G01 X8.0163 Y10.3452
G01 X8.0399 Y10.3402
G01 X8.0927 Y10.3324
G01 X8.1162 Y10.3304
G01 X8.1529 Y10.3286
G01 X8.1690 Y10.3282
G01 X9.4033 Y10.3282
G01 X9.4714 Y10.1835
G01 X9.4786 Y10.1692
G01 X9.4866 Y10.1552
G01 X9.5622 Y10.0290
G01 X9.5708 Y10.0154
G01 X9.5801 Y10.0023
G01 X9.6678 Y9.8841
G01 X9.6776 Y9.8714
G01 X9.6881 Y9.8592
G01 X9.7870 Y9.7502
G01 X9.7980 Y9.7385
G01 X9.8097 Y9.7275
G01 X9.9187 Y9.6286
G01 X9.9309 Y9.6181
G01 X9.9436 Y9.6083
G01 X10.0618 Y9.5206
G01 X10.0749 Y9.5113
G01 X10.0885 Y9.5027
G01 X10.2147 Y9.4271
G01 X10.2287 Y9.4191
G01 X10.2430 Y9.4119
G01 X10.3761 Y9.3490
G01 X10.3908 Y9.3425
G01 X10.4058 Y9.3367
G01 X10.5444 Y9.2871
G01 X10.5596 Y9.2821
G01 X10.5751 Y9.2778
G01 X10.7179 Y9.2420
G01 X10.7335 Y9.2385
G01 X10.7494 Y9.2358
G01 X10.8950 Y9.2142
G01 X10.9109 Y9.2122
G01 X10.9269 Y9.2110
G01 X11.0739 Y9.2038
G01 X11.0900 Y9.2034
G01 X11.1061 Y9.2038
G01 X11.2531 Y9.2110
G01 X11.2691 Y9.2122
G01 X11.2850 Y9.2142
G01 X11.4306 Y9.2358
G01 X11.4465 Y9.2385
G01 X11.4621 Y9.2420
G01 X11.6049 Y9.2778
G01 X11.6204 Y9.2821
G01 X11.6356 Y9.2871
G01 X11.7742 Y9.3367
G01 X11.7892 Y9.3425
G01 X11.8039 Y9.3490
G01 X11.9370 Y9.4119
G01 X11.9513 Y9.4191
G01 X11.9653 Y9.4271
G01 X12.0915 Y9.5027
G01 X12.1051 Y9.5113
G01 X12.1182 Y9.5206
G01 X12.2364 Y9.6083
G01 X12.2491 Y9.6181
G01 X12.2613 Y9.6286
G01 X12.3703 Y9.7275
G01 X12.3820 Y9.7385
G01 X12.3930 Y9.7502
G01 X12.4919 Y9.8592
G01 X12.5024 Y9.8714
G01 X12.5122 Y9.8841
G01 X12.5999 Y10.0023
G01 X12.6093 Y10.0156
G01 X12.6178 Y10.0290
G01 X12.6934 Y10.1552
G01 X12.7014 Y10.1692
G01 X12.7086 Y10.1835
G01 X12.7715 Y10.3166
G01 X12.7780 Y10.3313
G01 X12.7838 Y10.3463
G01 X12.8334 Y10.4849
G01 X12.8384 Y10.5001
G01 X12.8427 Y10.5156
G01 X12.8785 Y10.6584
G01 X12.8820 Y10.6740
G01 X12.8847 Y10.6899
G01 X12.9063 Y10.8355
G01 X12.9083 Y10.8514
G01 X12.9095 Y10.8674
G01 X12.9167 Y11.0144
G01 X12.9171 Y11.0305
G01 X12.9167 Y11.0466
G01 X12.9095 Y11.1936
G01 X12.9083 Y11.2096
G01 X12.9063 Y11.2255
G01 X12.8847 Y11.3711
G01 X12.8820 Y11.3870
G01 X12.8785 Y11.4026
G01 X12.8427 Y11.5454
G01 X12.8384 Y11.5609
G01 X12.8334 Y11.5761
G01 X12.7838 Y11.7147
G01 X12.7780 Y11.7297
G01 X12.7715 Y11.7444
G01 X12.7086 Y11.8775
G01 X12.7014 Y11.8918
G01 X12.6934 Y11.9058
G01 X12.6178 Y12.0320
G01 X12.6092 Y12.0456
G01 X12.5999 Y12.0587
G01 X12.5122 Y12.1769
G01 X12.5024 Y12.1896
G01 X12.4919 Y12.2018
G01 X12.3930 Y12.3108
G01 X12.3820 Y12.3225
G01 X12.3703 Y12.3335
G01 X12.2613 Y12.4324
G01 X12.2491 Y12.4429
G01 X12.2364 Y12.4527
G01 X12.1182 Y12.5404
G01 X12.1051 Y12.5497
G01 X12.0915 Y12.5583
G01 X11.9653 Y12.6339
G01 X11.9513 Y12.6419
G01 X11.9370 Y12.6491
G01 X11.8039 Y12.7120
G01 X11.7892 Y12.7185
G01 X11.7742 Y12.7243
G01 X11.6356 Y12.7739
G01 X11.6204 Y12.7789
G01 X11.6049 Y12.7832
G01 X11.4621 Y12.8190
G01 X11.4465 Y12.8225
G01 X11.4306 Y12.8252
G01 X11.2850 Y12.8468
G01 X11.2691 Y12.8488
G01 X11.2531 Y12.8500
G01 X11.1061 Y12.8572
G01 X11.0900 Y12.8576
G01 X11.0739 Y12.8572
G01 X10.9269 Y12.8500
G01 X10.9109 Y12.8488
G01 X10.8950 Y12.8468
G01 X10.7494 Y12.8252
G01 X10.7257 Y12.8208
G01 X10.5751 Y12.7832
G01 X10.5596 Y12.7789
G01 X10.5444 Y12.7739
G01 X10.4058 Y12.7243
G01 X10.3908 Y12.7185
G01 X10.3761 Y12.7120
G01 X10.2430 Y12.6491
G01 X10.2287 Y12.6419
G01 X10.2147 Y12.6339
G01 X10.0885 Y12.5583
G01 X10.0749 Y12.5497
G01 X10.0618 Y12.5404
G01 X9.9436 Y12.4527
G01 X9.9309 Y12.4429
G01 X9.9187 Y12.4324
G01 X9.8097 Y12.3335
G01 X9.7980 Y12.3225
G01 X9.7870 Y12.3108
G01 X9.6881 Y12.2018
G01 X9.6776 Y12.1896
G01 X9.6678 Y12.1769
G01 X9.5801 Y12.0587
G01 X9.5708 Y12.0456
G01 X9.5622 Y12.0320
G01 X9.4866 Y11.9058
G01 X9.4786 Y11.8918
G01 X9.4714 Y11.8775
G01 X9.4033 Y11.7328
G01 X8.4599 Y11.7328
G01 X4.3628 Y15.8299
G01 X4.3628 Y17.9786
G01 X5.2695 Y18.8853
G01 X5.6079 Y18.8843
G01 X5.6167 Y18.8730
G01 X5.6272 Y18.8608
G01 X5.6799 Y18.8026
G01 X5.6910 Y18.7910
G01 X5.7026 Y18.7799
G01 X5.7608 Y18.7272
G01 X5.7730 Y18.7167
G01 X5.7856 Y18.7069
G01 X5.8487 Y18.6601
G01 X5.8618 Y18.6508
G01 X5.8754 Y18.6423
G01 X5.9427 Y18.6019
G01 X5.9567 Y18.5940
G01 X5.9710 Y18.5868
G01 X6.0420 Y18.5532
G01 X6.0567 Y18.5467
G01 X6.0717 Y18.5409
G01 X6.1456 Y18.5145
G01 X6.1608 Y18.5094
G01 X6.1763 Y18.5051
G01 X6.2524 Y18.4861
G01 X6.2681 Y18.4826
G01 X6.2839 Y18.4798
G01 X6.3616 Y18.4683
G01 X6.3855 Y18.4656
G01 X6.4719 Y18.4613
G01 X6.4880 Y18.4609
G01 X9.0960 Y18.4610
G01 X9.1825 Y18.4651
G01 X9.1985 Y18.4663
G01 X9.2144 Y18.4683
G01 X9.2921 Y18.4798
G01 X9.3079 Y18.4826
G01 X9.3236 Y18.4861
G01 X9.3997 Y18.5051
G01 X9.4152 Y18.5094
G01 X9.4304 Y18.5145
G01 X9.5119 Y18.5437
G01 X9.5340 Y18.5532
G01 X9.6050 Y18.5868
G01 X9.6193 Y18.5940
G01 X9.6333 Y18.6019
G01 X9.7006 Y18.6423
G01 X9.7142 Y18.6508
G01 X9.7273 Y18.6601
G01 X9.7904 Y18.7069
G01 X9.8030 Y18.7167
G01 X9.8152 Y18.7272
G01 X9.8734 Y18.7799
G01 X9.8850 Y18.7910
G01 X9.8961 Y18.8026
G01 X9.9488 Y18.8608
G01 X9.9593 Y18.8730
G01 X9.9691 Y18.8856
G01 X10.0159 Y18.9487
G01 X10.0252 Y18.9618
G01 X10.0337 Y18.9754
G01 X10.0741 Y19.0427
G01 X10.0820 Y19.0567
G01 X10.0892 Y19.0710
G01 X10.1228 Y19.1420
G01 X10.1293 Y19.1567
G01 X10.1351 Y19.1717
G01 X10.1615 Y19.2456
G01 X10.1666 Y19.2608
G01 X10.1709 Y19.2763
G01 X10.1918 Y19.3603
G01 X10.1962 Y19.3839
G01 X10.2077 Y19.4616
G01 X10.2097 Y19.4775
G01 X10.2109 Y19.4935
G01 X10.2147 Y19.5719
G01 X10.2151 Y19.5880
G01 X10.2147 Y19.6041
G01 X10.2109 Y19.6825
G01 X10.2097 Y19.6985
G01 X10.2077 Y19.7144
G01 X10.1962 Y19.7921
G01 X10.1934 Y19.8079
G01 X10.1899 Y19.8236
G01 X10.1709 Y19.8997
G01 X10.1666 Y19.9152
G01 X10.1615 Y19.9304
G01 X10.1351 Y20.0043
G01 X10.1293 Y20.0193
G01 X10.1228 Y20.0340
G01 X10.0892 Y20.1050
G01 X10.0820 Y20.1193
G01 X10.0741 Y20.1333
G01 X10.0337 Y20.2006
G01 X10.0252 Y20.2142
G01 X10.0159 Y20.2273
G01 X9.9691 Y20.2904
G01 X9.9593 Y20.3030
G01 X9.9488 Y20.3152
G01 X9.8961 Y20.3734
G01 X9.8850 Y20.3850
G01 X9.8734 Y20.3961
G01 X9.8152 Y20.4488
G01 X9.8030 Y20.4593
G01 X9.7904 Y20.4691
G01 X9.7273 Y20.5159
G01 X9.7142 Y20.5252
G01 X9.7006 Y20.5337
G01 X9.6333 Y20.5741
G01 X9.6193 Y20.5820
G01 X9.6050 Y20.5892
G01 X9.5340 Y20.6228
G01 X9.5193 Y20.6293
G01 X9.5043 Y20.6351
G01 X9.4304 Y20.6615
G01 X9.4145 Y20.6668
G01 X9.3997 Y20.6709
G01 X9.3236 Y20.6899
G01 X9.3079 Y20.6934
G01 X9.2921 Y20.6962
G01 X9.2144 Y20.7077
G01 X9.1905 Y20.7104
G01 X9.1041 Y20.7147
G01 X9.0880 Y20.7151
G01 X6.4880 Y20.7151
G01 X6.4719 Y20.7147
G01 X6.3935 Y20.7109
G01 X6.3775 Y20.7097
G01 X6.3616 Y20.7077
G01 X6.2839 Y20.6962
G01 X6.2681 Y20.6934
G01 X6.2524 Y20.6899
G01 X6.1763 Y20.6709
G01 X6.1608 Y20.6666
G01 X6.1456 Y20.6615
G01 X6.0717 Y20.6351
G01 X6.0567 Y20.6293
G01 X6.0420 Y20.6228
G01 X5.9710 Y20.5892
G01 X5.9567 Y20.5820
G01 X5.9427 Y20.5741
G01 X5.8754 Y20.5337
G01 X5.8618 Y20.5252
G01 X5.8487 Y20.5159
G01 X5.7856 Y20.4691
G01 X5.7730 Y20.4593
G01 X5.7608 Y20.4488
G01 X5.7026 Y20.3961
G01 X5.6910 Y20.3850
G01 X5.6799 Y20.3734
G01 X5.6272 Y20.3152
G01 X5.6167 Y20.3030
G01 X5.6068 Y20.2903
G01 X4.9790 Y20.2903
G01 X4.9629 Y20.2899
G01 X4.9182 Y20.2876
G01 X4.8942 Y20.2849
G01 X4.8578 Y20.2795
G01 X4.8420 Y20.2768
G01 X4.8263 Y20.2733
G01 X4.7906 Y20.2643
G01 X4.7675 Y20.2576
G01 X4.7252 Y20.2426
G01 X4.7102 Y20.2368
G01 X4.6956 Y20.2303
G01 X4.6551 Y20.2111
G01 X4.6340 Y20.1995
G01 X4.6024 Y20.1805
G01 X4.5888 Y20.1719
G01 X4.5757 Y20.1627
G01 X4.5461 Y20.1408
G01 X4.5273 Y20.1257
G01 X4.4940 Y20.0957
G01 X4.4824 Y20.0846
G01 X3.1583 Y18.7603
G01 X3.1228 Y18.7212
G01 X3.1077 Y18.7024
G01 X3.0858 Y18.6728
G01 X3.0765 Y18.6596
G01 X3.0680 Y18.6461
G01 X3.0490 Y18.6145
G01 X3.0374 Y18.5934
G01 X3.0148 Y18.5456
G01 X3.0059 Y18.5233
G01 X2.9909 Y18.4810
G01 X2.9862 Y18.4657
G01 X2.9752 Y18.4222
G01 X2.9717 Y18.4065
G01 X2.9690 Y18.3907
G01 X2.9636 Y18.3543
G01 X2.9616 Y18.3383
G01 X2.9604 Y18.3223
G01 X2.9586 Y18.2856
G01 X2.9582 Y18.2695
G01 X2.9582 Y15.5390
G01 X2.9586 Y15.5229
G00 Z2.0000
G00 X3.1643 Y15.5331
G01 F60.00
G01 Z-0.1200
G01 F120.00
G01 X3.1666 Y15.4904
G01 X3.1737 Y15.4422
G01 X3.1855 Y15.3949
G01 X3.2019 Y15.3491
G01 X3.2228 Y15.3050
G01 X3.2478 Y15.2632
G01 X3.2768 Y15.2241
G01 X3.3075 Y15.1902
G01 X7.8180 Y10.6795
G01 X7.8496 Y10.6507
G01 X7.8588 Y10.6432
G01 X7.8932 Y10.6178
G01 X7.9324 Y10.5942
G01 X7.9403 Y10.5901
G01 X7.9791 Y10.5719
G01 X8.0193 Y10.5574
G01 X8.0307 Y10.5539
G01 X8.0664 Y10.5450
G01 X8.0780 Y10.5427
G01 X8.1208 Y10.5365
G01 X8.1631 Y10.5343
G01 X9.5477 Y10.5342
G01 X9.5923 Y10.4101
G01 X9.6576 Y10.2716
G01 X9.6632 Y10.2611
G01 X9.7421 Y10.1298
G01 X9.8368 Y10.0021
G01 X9.9396 Y9.8885
G01 X9.9480 Y9.8801
G01 X10.0616 Y9.7773
G01 X10.1893 Y9.6826
G01 X10.3206 Y9.6037
G01 X10.3311 Y9.5981
G01 X10.4696 Y9.5328
G01 X10.6194 Y9.4792
G01 X10.7679 Y9.4418
G01 X10.7796 Y9.4395
G01 X10.9252 Y9.4179
G01 X10.9341 Y9.4169
G01 X11.0900 Y9.4094
G01 X11.2430 Y9.4167
G01 X11.2548 Y9.4179
G01 X11.4063 Y9.4405
G01 X11.5606 Y9.4792
G01 X11.7048 Y9.5306
G01 X11.7158 Y9.5352
G01 X11.8542 Y9.6008
G01 X11.9856 Y9.6794
G01 X11.9955 Y9.6860
G01 X12.1184 Y9.7773
G01 X12.2363 Y9.8842
G01 X12.3393 Y9.9976
G01 X12.3468 Y10.0067
G01 X12.4380 Y10.1299
G01 X12.5183 Y10.2637
G01 X12.5224 Y10.2716
G01 X12.5877 Y10.4101
G01 X12.6413 Y10.5599
G01 X12.6800 Y10.7142
G01 X12.7026 Y10.8657
G01 X12.7038 Y10.8775
G01 X12.7111 Y11.0305
G01 X12.7038 Y11.1835
G01 X12.7026 Y11.1953
G01 X12.6810 Y11.3409
G01 X12.6787 Y11.3526
G01 X12.6413 Y11.5011
G01 X12.5877 Y11.6509
G01 X12.5197 Y11.7947
G01 X12.4379 Y11.9312
G01 X12.3432 Y12.0589
G01 X12.2363 Y12.1768
G01 X12.1184 Y12.2837
G01 X11.9907 Y12.3784
G01 X11.8542 Y12.4602
G01 X11.7104 Y12.5282
G01 X11.5606 Y12.5818
G01 X11.4063 Y12.6205
G01 X11.2489 Y12.6438
G01 X11.0900 Y12.6516
G01 X10.9311 Y12.6438
G01 X10.7796 Y12.6215
G01 X10.7708 Y12.6199
G01 X10.6251 Y12.5834
G01 X10.6138 Y12.5800
G01 X10.4696 Y12.5282
G01 X10.3311 Y12.4629
G01 X10.3206 Y12.4573
G01 X10.1893 Y12.3784
G01 X10.0662 Y12.2873
G01 X10.0571 Y12.2798
G01 X9.9437 Y12.1768
G01 X9.8407 Y12.0634
G01 X9.8332 Y12.0543
G01 X9.7421 Y11.9312
G01 X9.6632 Y11.7999
G01 X9.6576 Y11.7894
G01 X9.5923 Y11.6509
G01 X9.5477 Y11.5268
G01 X8.3746 Y11.5268
G01 X4.1568 Y15.7446
G01 X4.1568 Y18.0639
G01 X5.1846 Y19.0917
G01 X5.7127 Y19.0917
G01 X5.7238 Y19.0738
G01 X5.7741 Y19.0060
G01 X5.7798 Y18.9991
G01 X5.8366 Y18.9366
G01 X5.9036 Y18.8759
G01 X5.9714 Y18.8255
G01 X5.9813 Y18.8189
G01 X6.0486 Y18.7785
G01 X6.0591 Y18.7729
G01 X6.1355 Y18.7370
G01 X6.2150 Y18.7084
G01 X6.2263 Y18.7049
G01 X6.3083 Y18.6845
G01 X6.3977 Y18.6713
G01 X6.4880 Y18.6669
G01 X9.0880 Y18.6669
G01 X9.1724 Y18.6708
G01 X9.1842 Y18.6720
G01 X9.2677 Y18.6845
G01 X9.3554 Y18.7065
G01 X9.4405 Y18.7370
G01 X9.5169 Y18.7729
G01 X9.5274 Y18.7785
G01 X9.5998 Y18.8221
G01 X9.6724 Y18.8759
G01 X9.7350 Y18.9325
G01 X9.7435 Y18.9410
G01 X9.8001 Y19.0036
G01 X9.8505 Y19.0714
G01 X9.8571 Y19.0813
G01 X9.9004 Y19.1538
G01 X9.9390 Y19.2355
G01 X9.9676 Y19.3150
G01 X9.9711 Y19.3263
G01 X9.9915 Y19.4083
G01 X10.0047 Y19.4977
G01 X10.0090 Y19.5821
G01 X10.0090 Y19.5939
G01 X10.0047 Y19.6783
G01 X9.9915 Y19.7677
G01 X9.9695 Y19.8554
G01 X9.9412 Y19.9350
G01 X9.9366 Y19.9459
G01 X9.9004 Y20.0222
G01 X9.8571 Y20.0947
G01 X9.8505 Y20.1046
G01 X9.8001 Y20.1724
G01 X9.7394 Y20.2394
G01 X9.6769 Y20.2962
G01 X9.6677 Y20.3037
G01 X9.5998 Y20.3539
G01 X9.5248 Y20.3989
G01 X9.5169 Y20.4031
G01 X9.4405 Y20.4390
G01 X9.3610 Y20.4676
G01 X9.3497 Y20.4711
G01 X9.2677 Y20.4915
G01 X9.1842 Y20.5040
G01 X9.1724 Y20.5052
G01 X9.0910 Y20.5091
G01 X6.4880 Y20.5091
G01 X6.3977 Y20.5047
G01 X6.3083 Y20.4915
G01 X6.2263 Y20.4711
G01 X6.2150 Y20.4676
G01 X6.1410 Y20.4412
G01 X6.1301 Y20.4366
G01 X6.0538 Y20.4004
G01 X5.9813 Y20.3571
G01 X5.9714 Y20.3505
G01 X5.9036 Y20.3001
G01 X5.8366 Y20.2394
G01 X5.7798 Y20.1769
G01 X5.7741 Y20.1700
G01 X5.7238 Y20.1022
G01 X5.7127 Y20.0843
G01 X4.9790 Y20.0843
G01 X4.9304 Y20.0819
G01 X4.8880 Y20.0758
G01 X4.8764 Y20.0735
G01 X4.8349 Y20.0630
G01 X4.7891 Y20.0466
G01 X4.7503 Y20.0284
G01 X4.7399 Y20.0228
G01 X4.7032 Y20.0007
G01 X4.6664 Y19.9735
G01 X4.6596 Y19.9678
G01 X4.6280 Y19.9390
G01 X3.3075 Y18.6183
G01 X3.2807 Y18.5889
G01 X3.2732 Y18.5797
G01 X3.2478 Y18.5452
G01 X3.2257 Y18.5086
G01 X3.2201 Y18.4982
G01 X3.2019 Y18.4594
G01 X3.1864 Y18.4164
G01 X3.1839 Y18.4078
G01 X3.1750 Y18.3721
G01 X3.1727 Y18.3605
G01 X3.1666 Y18.3181
G01 X3.1642 Y18.2695
G01 X3.1643 Y15.5331
G00 Z2.0000
G00 X5.3598 Y16.6729
G01 F60.00
G01 Z-0.1200
G01 F120.00
G01 X5.3685 Y16.6404
G01 X5.4561 Y16.4525
G01 X5.5755 Y16.2821
G01 X5.7224 Y16.1352
G01 X5.8922 Y16.0163
G01 X6.0804 Y15.9285
G01 X6.2809 Y15.8748
G01 X6.4361 Y15.8612
G01 X7.4129 Y15.8611
G01 X7.4129 Y16.1269
G01 X6.4850 Y16.1269
G01 X6.4036 Y16.1308
G01 X6.3918 Y16.1320
G01 X6.3083 Y16.1445
G01 X6.2235 Y16.1657
G01 X6.2150 Y16.1684
G01 X6.1355 Y16.1970
G01 X6.0538 Y16.2356
G01 X5.9762 Y16.2821
G01 X5.9083 Y16.3323
G01 X5.9014 Y16.3379
G01 X5.8366 Y16.3966
G01 X5.7798 Y16.4591
G01 X5.7723 Y16.4683
G01 X5.7255 Y16.5314
G01 X5.7189 Y16.5413
G01 X5.6756 Y16.6138
G01 X5.6475 Y16.6729
G01 X5.3598 Y16.6729
G00 Z2.0000
G00 X8.1631 Y16.1269
G01 F60.00
G01 Z-0.1200
G01 F120.00
G01 X8.1631 Y15.8611
G01 X9.1397 Y15.8611
G01 X9.2951 Y15.8748
G01 X9.4953 Y15.9284
G01 X9.6835 Y16.0161
G01 X9.8539 Y16.1355
G01 X10.0008 Y16.2824
G01 X10.1197 Y16.4522
G01 X10.2075 Y16.6404
G01 X10.2162 Y16.6729
G01 X9.9285 Y16.6729
G01 X9.9004 Y16.6138
G01 X9.8571 Y16.5413
G01 X9.8505 Y16.5314
G01 X9.8037 Y16.4683
G01 X9.7962 Y16.4591
G01 X9.7394 Y16.3966
G01 X9.6746 Y16.3379
G01 X9.6677 Y16.3323
G01 X9.5998 Y16.2821
G01 X9.5222 Y16.2356
G01 X9.4405 Y16.1970
G01 X9.3610 Y16.1684
G01 X9.3525 Y16.1657
G01 X9.2677 Y16.1445
G01 X9.1842 Y16.1320
G01 X9.1724 Y16.1308
G01 X9.0910 Y16.1269
G01 X8.1631 Y16.1269
G00 Z2.0000
G00 X12.1071 Y16.4221
G01 F60.00
G01 Z-0.1200
G01 F120.00
G01 X12.3729 Y16.4221
G01 X12.3729 Y16.6720
G01 X12.3742 Y16.7024
G01 X12.3754 Y16.7143
G01 X12.3800 Y16.7444
G01 X12.3872 Y16.7740
G01 X12.3907 Y16.7854
G01 X12.4011 Y16.8140
G01 X12.4140 Y16.8416
G01 X12.4196 Y16.8521
G01 X12.4354 Y16.8782
G01 X12.4534 Y16.9028
G01 X12.4610 Y16.9120
G01 X12.4816 Y16.9344
G01 X12.5063 Y16.9570
G01 X12.5329 Y16.9772
G01 X12.5428 Y16.9838
G01 X12.5690 Y16.9993
G01 X12.5965 Y17.0125
G01 X12.6075 Y17.0170
G01 X12.6363 Y17.0272
G01 X12.6687 Y17.0354
G01 X12.6814 Y17.0376
G01 X12.6814 Y17.3069
G01 X12.6135 Y17.2998
G01 X12.4718 Y17.2525
G01 X12.3456 Y17.1743
G01 X12.2407 Y17.0692
G01 X12.1628 Y16.9428
G01 X12.1158 Y16.8010
G01 X12.1071 Y16.7161
G01 X12.1071 Y16.4221
G00 Z2.0000
G00 X12.1072 Y15.6719
G01 F60.00
G01 Z-0.1200
G01 F120.00
G01 X12.1072 Y15.3780
G01 X12.1161 Y15.2919
G01 X12.1633 Y15.1502
G01 X12.2414 Y15.0239
G01 X12.3464 Y14.9190
G01 X12.4728 Y14.8410
G01 X12.6146 Y14.7939
G01 X12.6814 Y14.7870
G01 X12.6814 Y15.0564
G01 X12.6687 Y15.0586
G01 X12.6363 Y15.0668
G01 X12.6075 Y15.0770
G01 X12.5965 Y15.0815
G01 X12.5690 Y15.0947
G01 X12.5428 Y15.1102
G01 X12.5329 Y15.1168
G01 X12.5063 Y15.1370
G01 X12.4816 Y15.1596
G01 X12.4610 Y15.1820
G01 X12.4534 Y15.1912
G01 X12.4354 Y15.2158
G01 X12.4196 Y15.2419
G01 X12.4140 Y15.2524
G01 X12.4011 Y15.2800
G01 X12.3907 Y15.3086
G01 X12.3872 Y15.3200
G01 X12.3800 Y15.3496
G01 X12.3754 Y15.3797
G01 X12.3742 Y15.3916
G01 X12.3729 Y15.4220
G01 X12.3729 Y15.6719
G01 X12.1072 Y15.6719
G00 Z2.0000
G00 X13.4316 Y15.0564
G01 F60.00
G01 Z-0.1200
G01 F120.00
G01 X13.4316 Y14.7871
G01 X13.4995 Y14.7942
G01 X13.6412 Y14.8415
G01 X13.7674 Y14.9197
G01 X13.8720 Y15.0244
G01 X13.9502 Y15.1512
G01 X13.9972 Y15.2930
G01 X14.0059 Y15.3779
G01 X14.0059 Y15.6719
G01 X13.7401 Y15.6719
G01 X13.7401 Y15.4220
G01 X13.7384 Y15.3860
G01 X13.7330 Y15.3496
G01 X13.7242 Y15.3143
G01 X13.7119 Y15.2800
G01 X13.6977 Y15.2497
G01 X13.6934 Y15.2419
G01 X13.6776 Y15.2158
G01 X13.6596 Y15.1912
G01 X13.6520 Y15.1820
G01 X13.6314 Y15.1596
G01 X13.6090 Y15.1390
G01 X13.6021 Y15.1332
G01 X13.5801 Y15.1168
G01 X13.5702 Y15.1102
G01 X13.5440 Y15.0947
G01 X13.5110 Y15.0791
G01 X13.4824 Y15.0687
G01 X13.4739 Y15.0660
G01 X13.4443 Y15.0586
G01 X13.4316 Y15.0564
G00 Z2.0000
G00 X15.6284 Y14.8465
G01 F60.00
G01 Z-0.1200
G01 F120.00
G01 X15.6690 Y14.8449
G01 X16.3020 Y14.8450
G01 X16.3346 Y14.8465
G01 X16.3506 Y14.8477
G01 X16.3665 Y14.8496
G01 X16.3987 Y14.8545
G01 X16.4144 Y14.8576
G01 X16.4461 Y14.8655
G01 X16.4615 Y14.8697
G01 X16.4768 Y14.8748
G01 X16.5148 Y14.8888
G01 X16.5517 Y14.9058
G01 X16.5731 Y14.9169
G01 X16.6079 Y14.9378
G01 X16.6277 Y14.9514
G01 X16.6601 Y14.9759
G01 X16.6723 Y14.9864
G01 X16.6963 Y15.0083
G01 X16.7131 Y15.0256
G01 X16.7401 Y15.0559
G01 X16.7500 Y15.0685
G01 X16.7693 Y15.0948
G01 X16.7824 Y15.1149
G01 X16.8030 Y15.1500
G01 X16.8207 Y15.1865
G01 X16.8302 Y15.2086
G01 X16.8438 Y15.2468
G01 X16.8485 Y15.2622
G01 X16.8534 Y15.2812
G01 X17.9589 Y15.2812
G01 X17.9589 Y14.8740
G01 X17.9593 Y14.8579
G01 X17.9631 Y14.7795
G01 X17.9643 Y14.7635
G01 X17.9663 Y14.7476
G01 X17.9778 Y14.6699
G01 X17.9806 Y14.6541
G01 X17.9841 Y14.6384
G01 X18.0031 Y14.5623
G01 X18.0074 Y14.5468
G01 X18.0125 Y14.5316
G01 X18.0389 Y14.4577
G01 X18.0479 Y14.4353
G01 X18.0848 Y14.3570
G01 X18.0920 Y14.3427
G01 X18.0999 Y14.3287
G01 X18.1403 Y14.2614
G01 X18.1488 Y14.2478
G01 X18.1581 Y14.2347
G01 X18.2049 Y14.1716
G01 X18.2147 Y14.1590
G01 X18.2252 Y14.1468
G01 X18.2779 Y14.0886
G01 X18.2890 Y14.0770
G01 X18.3006 Y14.0659
G01 X18.3588 Y14.0132
G01 X18.3710 Y14.0027
G01 X18.3836 Y13.9929
G01 X18.4532 Y13.9414
G01 X18.4734 Y13.9283
G01 X18.5407 Y13.8879
G01 X18.5547 Y13.8800
G01 X18.5690 Y13.8728
G01 X18.6400 Y13.8392
G01 X18.6547 Y13.8327
G01 X18.6697 Y13.8269
G01 X18.7436 Y13.8005
G01 X18.7588 Y13.7954
G01 X18.7743 Y13.7911
G01 X18.8504 Y13.7721
G01 X18.8661 Y13.7686
G01 X18.8819 Y13.7658
G01 X18.9596 Y13.7543
G01 X18.9835 Y13.7516
G01 X19.0699 Y13.7473
G01 X19.0860 Y13.7469
G01 X19.1021 Y13.7473
G01 X19.1805 Y13.7511
G01 X19.1965 Y13.7523
G01 X19.2124 Y13.7543
G01 X19.2901 Y13.7658
G01 X19.3059 Y13.7686
G01 X19.3216 Y13.7721
G01 X19.3977 Y13.7911
G01 X19.4132 Y13.7954
G01 X19.4284 Y13.8005
G01 X19.5023 Y13.8269
G01 X19.5247 Y13.8359
G01 X19.6030 Y13.8728
G01 X19.6173 Y13.8800
G01 X19.6313 Y13.8879
G01 X19.6986 Y13.9283
G01 X19.7122 Y13.9368
G01 X19.7253 Y13.9461
G01 X19.7948 Y13.9977
G01 X19.8132 Y14.0132
G01 X19.8714 Y14.0659
G01 X19.8830 Y14.0770
G01 X19.8941 Y14.0886
G01 X19.9468 Y14.1468
G01 X19.9573 Y14.1590
G01 X19.9671 Y14.1716
G01 X20.0139 Y14.2347
G01 X20.0232 Y14.2478
G01 X20.0317 Y14.2614
G01 X20.0721 Y14.3287
G01 X20.0800 Y14.3427
G01 X20.0872 Y14.3570
G01 X20.1208 Y14.4280
G01 X20.1303 Y14.4501
G01 X20.1621 Y14.5392
G01 X20.1689 Y14.5623
G01 X20.1879 Y14.6384
G01 X20.1914 Y14.6541
G01 X20.1942 Y14.6699
G01 X20.2057 Y14.7476
G01 X20.2084 Y14.7715
G01 X20.2127 Y14.8579
G01 X20.2131 Y14.8740
G01 X20.2131 Y17.4740
G01 X20.2127 Y17.4901
G01 X20.2084 Y17.5765
G01 X20.2057 Y17.6004
G01 X20.1942 Y17.6781
G01 X20.1914 Y17.6939
G01 X20.1879 Y17.7096
G01 X20.1689 Y17.7857
G01 X20.1646 Y17.8012
G01 X20.1595 Y17.8164
G01 X20.1331 Y17.8903
G01 X20.1273 Y17.9053
G01 X20.1208 Y17.9200
G01 X20.0872 Y17.9910
G01 X20.0800 Y18.0053
G01 X20.0721 Y18.0193
G01 X20.0317 Y18.0866
G01 X20.0232 Y18.1002
G01 X20.0139 Y18.1133
G01 X19.9623 Y18.1828
G01 X19.9468 Y18.2012
G01 X19.8941 Y18.2594
G01 X19.8830 Y18.2710
G01 X19.8714 Y18.2821
G01 X19.8132 Y18.3348
G01 X19.8010 Y18.3453
G01 X19.7884 Y18.3551
G01 X19.7253 Y18.4019
G01 X19.7122 Y18.4112
G01 X19.6986 Y18.4197
G01 X19.6313 Y18.4601
G01 X19.6173 Y18.4680
G01 X19.6030 Y18.4752
G01 X19.5320 Y18.5088
G01 X19.5173 Y18.5153
G01 X19.5023 Y18.5211
G01 X19.4284 Y18.5475
G01 X19.4125 Y18.5528
G01 X19.3977 Y18.5569
G01 X19.3216 Y18.5759
G01 X19.3059 Y18.5794
G01 X19.2901 Y18.5822
G01 X19.2124 Y18.5937
G01 X19.1965 Y18.5957
G01 X19.1805 Y18.5969
G01 X19.1021 Y18.6007
G01 X19.0860 Y18.6011
G01 X19.0699 Y18.6007
G01 X18.9915 Y18.5969
G01 X18.9755 Y18.5957
G01 X18.9596 Y18.5937
G01 X18.8819 Y18.5822
G01 X18.8661 Y18.5794
G01 X18.8504 Y18.5759
G01 X18.7743 Y18.5569
G01 X18.7588 Y18.5526
G01 X18.7436 Y18.5475
G01 X18.6697 Y18.5211
G01 X18.6547 Y18.5153
G01 X18.6400 Y18.5088
G01 X18.5690 Y18.4752
G01 X18.5547 Y18.4680
G01 X18.5407 Y18.4601
G01 X18.4734 Y18.4197
G01 X18.4598 Y18.4112
G01 X18.4467 Y18.4019
G01 X18.3836 Y18.3551
G01 X18.3648 Y18.3401
G01 X18.3006 Y18.2821
G01 X18.2890 Y18.2710
G01 X18.2779 Y18.2594
G01 X18.2252 Y18.2012
G01 X18.2147 Y18.1890
G01 X18.2049 Y18.1764
G01 X18.1581 Y18.1133
G01 X18.1488 Y18.1002
G01 X18.1403 Y18.0866
G01 X18.0999 Y18.0193
G01 X18.0920 Y18.0053
G01 X18.0848 Y17.9910
G01 X18.0512 Y17.9200
G01 X18.0447 Y17.9053
G01 X18.0389 Y17.8903
G01 X18.0100 Y17.8092
G01 X18.0036 Y17.7874
G01 X17.9822 Y17.7017
G01 X17.9778 Y17.6781
G01 X17.9663 Y17.6004
G01 X17.9643 Y17.5845
G01 X17.9631 Y17.5685
G01 X17.9593 Y17.4901
G01 X17.9589 Y17.4740
G01 X17.9589 Y16.6858
G01 X16.8708 Y16.6858
G01 X16.8695 Y16.7126
G01 X16.8683 Y16.7286
G01 X16.8628 Y16.7688
G01 X16.8600 Y16.7846
G01 X16.8565 Y16.8003
G01 X16.8463 Y16.8395
G01 X16.8412 Y16.8548
G01 X16.8302 Y16.8854
G01 X16.8240 Y16.9002
G01 X16.8102 Y16.9297
G01 X16.8030 Y16.9440
G01 X16.7950 Y16.9580
G01 X16.7782 Y16.9859
G01 X16.7693 Y16.9992
G01 X16.7451 Y17.0318
G01 X16.7349 Y17.0443
G01 X16.7131 Y17.0684
G01 X16.7021 Y17.0801
G01 X16.6723 Y17.1076
G01 X16.6601 Y17.1181
G01 X16.6475 Y17.1280
G01 X16.6146 Y17.1518
G01 X16.6011 Y17.1604
G01 X16.5731 Y17.1771
G01 X16.5589 Y17.1847
G01 X16.5295 Y17.1987
G01 X16.5148 Y17.2052
G01 X16.4999 Y17.2110
G01 X16.4692 Y17.2218
G01 X16.4538 Y17.2265
G01 X16.4144 Y17.2364
G01 X16.3987 Y17.2395
G01 X16.3665 Y17.2444
G01 X16.3506 Y17.2463
G01 X16.3101 Y17.2487
G01 X16.2940 Y17.2491
G01 X15.6690 Y17.2491
G01 X15.6529 Y17.2487
G01 X15.6124 Y17.2463
G01 X15.5965 Y17.2444
G01 X15.5643 Y17.2395
G01 X15.5407 Y17.2345
G01 X15.5015 Y17.2243
G01 X15.4862 Y17.2192
G01 X15.4482 Y17.2052
G01 X15.4335 Y17.1987
G01 X15.4041 Y17.1847
G01 X15.3830 Y17.1730
G01 X15.3484 Y17.1518
G01 X15.3353 Y17.1426
G01 X15.3092 Y17.1231
G01 X15.2967 Y17.1129
G01 X15.2667 Y17.0857
G01 X15.2553 Y17.0743
G01 X15.2281 Y17.0443
G01 X15.2179 Y17.0318
G01 X15.1937 Y16.9992
G01 X15.1848 Y16.9859
G01 X15.1639 Y16.9511
G01 X15.1563 Y16.9369
G01 X15.1390 Y16.9002
G01 X15.1328 Y16.8854
G01 X15.1192 Y16.8472
G01 X15.1145 Y16.8318
G01 X15.1046 Y16.7924
G01 X15.1015 Y16.7767
G01 X15.0956 Y16.7365
G01 X15.0935 Y16.7126
G01 X15.0919 Y16.6720
G01 X15.0919 Y15.4220
G01 X15.0923 Y15.4059
G01 X15.0940 Y15.3734
G01 X15.0966 Y15.3495
G01 X15.1030 Y15.3094
G01 X15.1065 Y15.2937
G01 X15.1167 Y15.2545
G01 X15.1300 Y15.2161
G01 X15.1358 Y15.2012
G01 X15.1423 Y15.1865
G01 X15.1563 Y15.1571
G01 X15.1639 Y15.1429
G01 X15.1848 Y15.1081
G01 X15.1937 Y15.0948
G01 X15.2130 Y15.0685
G01 X15.2229 Y15.0559
G01 X15.2334 Y15.0437
G01 X15.2553 Y15.0197
G01 X15.2667 Y15.0083
G01 X15.2907 Y14.9864
G01 X15.3029 Y14.9759
G01 X15.3155 Y14.9660
G01 X15.3484 Y14.9422
G01 X15.3830 Y14.9210
G01 X15.3970 Y14.9130
G01 X15.4113 Y14.9058
G01 X15.4408 Y14.8920
G01 X15.4556 Y14.8858
G01 X15.4938 Y14.8722
G01 X15.5092 Y14.8675
G01 X15.5407 Y14.8595
G01 X15.5643 Y14.8545
G01 X15.5965 Y14.8496
G01 X15.6135 Y14.8476
G01 X15.6284 Y14.8465
G00 Z2.0000
G00 X15.6386 Y15.0522
G01 F60.00
G01 Z-0.1200
G01 F120.00
G01 X15.6690 Y15.0509
G01 X16.2970 Y15.0509
G01 X16.3304 Y15.0526
G01 X16.3664 Y15.0580
G01 X16.4017 Y15.0668
G01 X16.4360 Y15.0791
G01 X16.4690 Y15.0947
G01 X16.4952 Y15.1102
G01 X16.5027 Y15.1151
G01 X16.5248 Y15.1314
G01 X16.5340 Y15.1390
G01 X16.5564 Y15.1596
G01 X16.5809 Y15.1865
G01 X16.6026 Y15.2158
G01 X16.6199 Y15.2444
G01 X16.6345 Y15.2745
G01 X16.6390 Y15.2855
G01 X16.6492 Y15.3143
G01 X16.6580 Y15.3496
G01 X16.6626 Y15.3797
G01 X16.6638 Y15.3916
G01 X16.6651 Y15.4190
G01 X16.6651 Y15.4872
G01 X18.1649 Y15.4872
G01 X18.1649 Y14.8710
G01 X18.1693 Y14.7837
G01 X18.1815 Y14.7002
G01 X18.1832 Y14.6914
G01 X18.2045 Y14.6066
G01 X18.2328 Y14.5270
G01 X18.2374 Y14.5161
G01 X18.2736 Y14.4398
G01 X18.3201 Y14.3622
G01 X18.3703 Y14.2943
G01 X18.3778 Y14.2851
G01 X18.4305 Y14.2270
G01 X18.4368 Y14.2206
G01 X18.5016 Y14.1619
G01 X18.5742 Y14.1081
G01 X18.6518 Y14.0616
G01 X18.7281 Y14.0254
G01 X18.7390 Y14.0208
G01 X18.8130 Y13.9944
G01 X18.8243 Y13.9909
G01 X18.9063 Y13.9705
G01 X18.9957 Y13.9573
G01 X19.0860 Y13.9529
G01 X19.1763 Y13.9573
G01 X19.2657 Y13.9705
G01 X19.3477 Y13.9909
G01 X19.3590 Y13.9944
G01 X19.4330 Y14.0208
G01 X19.4439 Y14.0254
G01 X19.5202 Y14.0616
G01 X19.5927 Y14.1049
G01 X19.6002 Y14.1098
G01 X19.6704 Y14.1619
G01 X19.7330 Y14.2185
G01 X19.7415 Y14.2270
G01 X19.7981 Y14.2896
G01 X19.8485 Y14.3574
G01 X19.8551 Y14.3673
G01 X19.8955 Y14.4346
G01 X19.9011 Y14.4451
G01 X19.9370 Y14.5215
G01 X19.9675 Y14.6066
G01 X19.9895 Y14.6943
G01 X20.0020 Y14.7778
G01 X20.0030 Y14.7867
G01 X20.0071 Y14.8740
G01 X20.0070 Y17.4799
G01 X20.0027 Y17.5643
G01 X19.9905 Y17.6478
G01 X19.9881 Y17.6595
G01 X19.9675 Y17.7414
G01 X19.9370 Y17.8265
G01 X19.9011 Y17.9029
G01 X19.8955 Y17.9134
G01 X19.8551 Y17.9807
G01 X19.8502 Y17.9882
G01 X19.7981 Y18.0584
G01 X19.7374 Y18.1254
G01 X19.6704 Y18.1861
G01 X19.6026 Y18.2365
G01 X19.5927 Y18.2431
G01 X19.5202 Y18.2864
G01 X19.4439 Y18.3226
G01 X19.4330 Y18.3272
G01 X19.3590 Y18.3536
G01 X19.3477 Y18.3571
G01 X19.2657 Y18.3775
G01 X19.1822 Y18.3900
G01 X19.1704 Y18.3912
G01 X19.0860 Y18.3951
G01 X18.9957 Y18.3907
G01 X18.9063 Y18.3775
G01 X18.8186 Y18.3555
G01 X18.7335 Y18.3250
G01 X18.6518 Y18.2864
G01 X18.5742 Y18.2399
G01 X18.5063 Y18.1897
G01 X18.4971 Y18.1822
G01 X18.4346 Y18.1254
G01 X18.3739 Y18.0584
G01 X18.3201 Y17.9858
G01 X18.2765 Y17.9134
G01 X18.2709 Y17.9029
G01 X18.2374 Y17.8319
G01 X18.2328 Y17.8210
G01 X18.2046 Y17.7417
G01 X18.1825 Y17.6537
G01 X18.1693 Y17.5643
G01 X18.1649 Y17.4770
G01 X18.1649 Y16.4798
G01 X16.6651 Y16.4798
G01 X16.6651 Y16.6720
G01 X16.6636 Y16.7054
G01 X16.6590 Y16.7385
G01 X16.6567 Y16.7502
G01 X16.6492 Y16.7797
G01 X16.6369 Y16.8140
G01 X16.6213 Y16.8470
G01 X16.6026 Y16.8782
G01 X16.5809 Y16.9075
G01 X16.5564 Y16.9344
G01 X16.5295 Y16.9589
G01 X16.5002 Y16.9806
G01 X16.4690 Y16.9993
G01 X16.4360 Y17.0149
G01 X16.4017 Y17.0272
G01 X16.3664 Y17.0360
G01 X16.3304 Y17.0414
G01 X16.2970 Y17.0431
G01 X15.6631 Y17.0430
G01 X15.6326 Y17.0414
G01 X15.6025 Y17.0370
G01 X15.5908 Y17.0347
G01 X15.5613 Y17.0272
G01 X15.5270 Y17.0149
G01 X15.4994 Y17.0020
G01 X15.4889 Y16.9964
G01 X15.4603 Y16.9789
G01 X15.4382 Y16.9626
G01 X15.4313 Y16.9570
G01 X15.4087 Y16.9365
G01 X15.4025 Y16.9301
G01 X15.3840 Y16.9097
G01 X15.3784 Y16.9028
G01 X15.3604 Y16.8782
G01 X15.3446 Y16.8521
G01 X15.3390 Y16.8416
G01 X15.3261 Y16.8140
G01 X15.3138 Y16.7797
G01 X15.3050 Y16.7444
G01 X15.2996 Y16.7084
G01 X15.2979 Y16.6720
G01 X15.2979 Y15.4220
G01 X15.2996 Y15.3856
G01 X15.3050 Y15.3496
G01 X15.3122 Y15.3200
G01 X15.3147 Y15.3114
G01 X15.3240 Y15.2855
G01 X15.3285 Y15.2745
G01 X15.3417 Y15.2470
G01 X15.3604 Y15.2158
G01 X15.3821 Y15.1865
G01 X15.4066 Y15.1596
G01 X15.4335 Y15.1351
G01 X15.4628 Y15.1134
G01 X15.4940 Y15.0947
G01 X15.5215 Y15.0815
G01 X15.5297 Y15.0780
G01 X15.5584 Y15.0677
G01 X15.5908 Y15.0593
G01 X15.5995 Y15.0574
G01 X15.6267 Y15.0534
G01 X15.6386 Y15.0522
G00 Z2.0000
G00 X13.4316 Y17.3070
G01 F60.00
G01 Z-0.1200
G01 F120.00
G01 X13.4316 Y17.0376
G01 X13.4443 Y17.0354
G01 X13.4767 Y17.0272
G01 X13.5055 Y17.0170
G01 X13.5165 Y17.0125
G01 X13.5440 Y16.9993
G01 X13.5702 Y16.9838
G01 X13.5801 Y16.9772
G01 X13.6067 Y16.9570
G01 X13.6314 Y16.9344
G01 X13.6520 Y16.9120
G01 X13.6596 Y16.9028
G01 X13.6776 Y16.8782
G01 X13.6934 Y16.8521
G01 X13.6990 Y16.8416
G01 X13.7119 Y16.8140
G01 X13.7223 Y16.7854
G01 X13.7258 Y16.7740
G01 X13.7330 Y16.7444
G01 X13.7376 Y16.7143
G01 X13.7388 Y16.7024
G01 X13.7401 Y16.6720
G01 X13.7401 Y16.4221
G01 X14.0058 Y16.4221
G01 X14.0058 Y16.7160
G01 X13.9969 Y16.8021
G01 X13.9497 Y16.9438
G01 X13.8716 Y17.0701
G01 X13.7666 Y17.1750
G01 X13.6402 Y17.2530
G01 X13.4984 Y17.3001
G01 X13.4316 Y17.3070
G00 Z2.0000
G00 X8.1631 Y23.3149
G01 F60.00
G01 Z-0.1200
G01 F120.00
G01 X8.1631 Y23.0491
G01 X9.0910 Y23.0491
G01 X9.1724 Y23.0452
G01 X9.1842 Y23.0440
G01 X9.2677 Y23.0315
G01 X9.3522 Y23.0104
G01 X9.3610 Y23.0076
G01 X9.4405 Y22.9790
G01 X9.5222 Y22.9404
G01 X9.5998 Y22.8939
G01 X9.6677 Y22.8437
G01 X9.6746 Y22.8381
G01 X9.7394 Y22.7794
G01 X9.7962 Y22.7169
G01 X9.8037 Y22.7077
G01 X9.8505 Y22.6446
G01 X9.8571 Y22.6347
G01 X9.9004 Y22.5622
G01 X9.9285 Y22.5031
G01 X10.2162 Y22.5031
G01 X10.2075 Y22.5356
G01 X10.1199 Y22.7235
G01 X10.0005 Y22.8939
G01 X9.8536 Y23.0408
G01 X9.6838 Y23.1597
G01 X9.4956 Y23.2475
G01 X9.2951 Y23.3012
G01 X9.1399 Y23.3148
G01 X8.1631 Y23.3149
G00 Z2.0000
G00 X5.3598 Y22.5031
G01 F60.00
G01 Z-0.1200
G01 F120.00
G01 X5.6475 Y22.5031
G01 X5.6756 Y22.5622
G01 X5.7189 Y22.6347
G01 X5.7255 Y22.6446
G01 X5.7723 Y22.7077
G01 X5.7798 Y22.7169
G01 X5.8366 Y22.7794
G01 X5.9014 Y22.8381
G01 X5.9083 Y22.8437
G01 X5.9762 Y22.8939
G01 X6.0538 Y22.9404
G01 X6.1355 Y22.9790
G01 X6.2150 Y23.0076
G01 X6.2235 Y23.0103
G01 X6.3083 Y23.0315
G01 X6.3918 Y23.0440
G01 X6.4036 Y23.0452
G01 X6.4850 Y23.0491
G01 X7.4129 Y23.0491
G01 X7.4129 Y23.3149
G01 X6.4361 Y23.3148
G01 X6.2809 Y23.3012
G01 X6.0804 Y23.2475
G01 X5.8922 Y23.1597
G01 X5.7224 Y23.0408
G01 X5.5755 Y22.8939
G01 X5.4561 Y22.7235
G01 X5.3685 Y22.5356
G01 X5.3598 Y22.5031
G00 Z2.0000
G00 X2.8542 Y18.6875
G01 F60.00
G01 Z-0.1200
G01 F120.00
G01 X2.8658 Y18.7091
G01 X2.8837 Y18.7392
G01 X2.8542 Y18.7508
G01 X2.8542 Y18.6875
G00 Z2.0000
G00 X6.7331 Y28.4951
G01 F60.00
G01 Z-0.1200
G01 F120.00
G01 X6.9431 Y28.3846
G01 X7.1728 Y28.3045
G01 X7.4115 Y28.2591
G01 X7.6546 Y28.2496
G01 X7.8965 Y28.2760
G01 X8.1317 Y28.3379
G01 X8.3553 Y28.4340
G01 X8.4589 Y28.4981
G01 X8.2642 Y28.6928
G01 X8.2412 Y28.6794
G01 X8.1222 Y28.6232
G01 X8.0012 Y28.5798
G01 X7.9898 Y28.5763
G01 X7.8650 Y28.5452
G01 X7.7378 Y28.5262
G01 X7.7260 Y28.5250
G01 X7.5975 Y28.5189
G01 X7.4690 Y28.5250
G01 X7.4572 Y28.5262
G01 X7.3300 Y28.5452
G01 X7.2052 Y28.5763
G01 X7.1938 Y28.5798
G01 X7.0728 Y28.6232
G01 X6.9560 Y28.6783
G01 X6.9484 Y28.6823
G01 X6.9308 Y28.6928
G01 X6.7331 Y28.4951
G00 Z2.0000
G00 X5.9566 Y29.9328
G01 F60.00
G01 Z-0.1200
G01 F120.00
G01 X5.9683 Y29.6901
G01 X6.0157 Y29.4515
G01 X6.0979 Y29.2225
G01 X6.2033 Y29.0263
G01 X6.4003 Y29.2233
G01 X6.3869 Y29.2463
G01 X6.3307 Y29.3653
G01 X6.2873 Y29.4863
G01 X6.2838 Y29.4977
G01 X6.2527 Y29.6225
G01 X6.2337 Y29.7497
G01 X6.2325 Y29.7615
G01 X6.2264 Y29.8900
G01 X6.2325 Y30.0185
G01 X6.2337 Y30.0303
G01 X6.2528 Y30.1578
G01 X6.2838 Y30.2823
G01 X6.2873 Y30.2937
G01 X6.3307 Y30.4147
G01 X6.3869 Y30.5337
G01 X6.4003 Y30.5567
G01 X6.2055 Y30.7515
G01 X6.1349 Y30.6350
G01 X6.0408 Y30.4107
G01 X5.9810 Y30.1749
G01 X5.9566 Y29.9328
G00 Z2.0000
G00 X6.7357 Y31.2824
G01 F60.00
G01 Z-0.1200
G01 F120.00
G01 X6.9308 Y31.0872
G01 X6.9485 Y31.0978
G01 X6.9565 Y31.1019
G01 X7.0673 Y31.1544
G01 X7.0783 Y31.1589
G01 X7.1995 Y31.2021
G01 X7.3242 Y31.2335
G01 X7.3359 Y31.2358
G01 X7.4631 Y31.2545
G01 X7.5975 Y31.2611
G01 X7.7319 Y31.2545
G01 X7.8591 Y31.2358
G01 X7.8680 Y31.2342
G01 X7.9955 Y31.2021
G01 X8.1167 Y31.1589
G01 X8.1277 Y31.1544
G01 X8.2439 Y31.0992
G01 X8.3593 Y31.0301
G01 X8.4627 Y30.9536
G01 X8.4719 Y30.9460
G01 X8.5670 Y30.8595
G01 X8.6535 Y30.7644
G01 X8.6611 Y30.7552
G01 X8.7376 Y30.6518
G01 X8.8067 Y30.5364
G01 X8.8619 Y30.4202
G01 X8.8664 Y30.4092
G01 X8.9096 Y30.2880
G01 X8.9417 Y30.1604
G01 X8.9433 Y30.1516
G01 X8.9620 Y30.0244
G01 X8.9686 Y29.8900
G01 X8.9621 Y29.7560
G01 X8.9433 Y29.6284
G01 X8.9410 Y29.6167
G01 X8.9096 Y29.4920
G01 X8.8664 Y29.3708
G01 X8.8619 Y29.3598
G01 X8.8092 Y29.2486
G01 X8.8053 Y29.2409
G01 X8.7947 Y29.2233
G01 X8.9896 Y29.0284
G01 X9.0401 Y29.1069
G01 X9.1400 Y29.3288
G01 X9.2060 Y29.5629
G01 X9.2371 Y29.8069
G01 X9.2392 Y29.8872
G01 X9.2209 Y30.1328
G01 X9.1673 Y30.3698
G01 X9.1336 Y30.4563
G01 X9.1308 Y30.4645
G01 X9.1285 Y30.4728
G01 X9.1269 Y30.4813
G01 X9.1258 Y30.4899
G01 X9.1194 Y30.5666
G01 X9.1198 Y30.5817
G01 X9.1221 Y30.5965
G01 X9.1252 Y30.6082
G01 X9.1307 Y30.6222
G01 X9.1665 Y30.6903
G01 X9.1710 Y30.6981
G01 X9.1779 Y30.7080
G01 X9.1837 Y30.7149
G01 X9.1900 Y30.7214
G01 X9.1968 Y30.7274
G01 X9.2039 Y30.7328
G01 X9.2115 Y30.7377
G01 X9.2786 Y30.7756
G01 X9.2895 Y30.7807
G01 X9.3037 Y30.7855
G01 X9.3184 Y30.7886
G01 X9.3274 Y30.7895
G01 X9.3364 Y30.7898
G01 X9.4192 Y30.7850
G01 X9.4279 Y30.7838
G01 X9.4365 Y30.7819
G01 X9.4504 Y30.7774
G01 X9.5564 Y30.7328
G01 X9.8014 Y30.6678
G01 X10.0530 Y30.6381
G01 X10.3063 Y30.6440
G01 X10.5563 Y30.6856
G01 X10.7979 Y30.7620
G01 X10.8081 Y30.7666
G01 X10.8190 Y30.7704
G01 X10.8331 Y30.7735
G01 X10.9091 Y30.7858
G01 X10.9211 Y30.7866
G01 X10.9332 Y30.7861
G01 X10.9451 Y30.7845
G01 X10.9568 Y30.7817
G01 X10.9709 Y30.7766
G01 X11.0415 Y30.7458
G01 X11.0520 Y30.7399
G01 X11.0619 Y30.7331
G01 X11.0732 Y30.7232
G01 X11.0813 Y30.7143
G01 X11.0885 Y30.7046
G01 X11.1280 Y30.6456
G01 X11.1342 Y30.6353
G01 X11.1382 Y30.6272
G01 X11.1415 Y30.6188
G01 X11.1450 Y30.6073
G01 X11.1468 Y30.5985
G01 X11.1480 Y30.5895
G01 X11.1485 Y30.5805
G01 X11.1499 Y30.5065
G01 X11.1489 Y30.4914
G01 X11.1459 Y30.4765
G01 X11.1433 Y30.4678
G01 X11.1361 Y30.4472
G01 X11.1208 Y30.4107
G01 X11.0610 Y30.1749
G01 X11.0366 Y29.9328
G01 X11.0483 Y29.6898
G01 X11.0958 Y29.4512
G01 X11.1779 Y29.2225
G01 X11.2833 Y29.0263
G01 X11.4803 Y29.2233
G01 X11.4669 Y29.2463
G01 X11.4107 Y29.3653
G01 X11.3654 Y29.4920
G01 X11.3327 Y29.6225
G01 X11.3137 Y29.7497
G01 X11.3125 Y29.7615
G01 X11.3064 Y29.8900
G01 X11.3125 Y30.0185
G01 X11.3137 Y30.0303
G01 X11.3328 Y30.1578
G01 X11.3638 Y30.2823
G01 X11.3673 Y30.2937
G01 X11.4086 Y30.4092
G01 X11.4131 Y30.4202
G01 X11.4656 Y30.5310
G01 X11.4712 Y30.5415
G01 X11.5374 Y30.6518
G01 X11.6139 Y30.7552
G01 X11.6215 Y30.7644
G01 X11.7080 Y30.8595
G01 X11.8075 Y30.9498
G01 X11.9157 Y31.0301
G01 X12.0260 Y31.0963
G01 X12.0338 Y31.1006
G01 X12.1473 Y31.1544
G01 X12.1583 Y31.1589
G01 X12.2795 Y31.2021
G01 X12.4042 Y31.2335
G01 X12.4159 Y31.2358
G01 X12.5431 Y31.2545
G01 X12.6775 Y31.2611
G01 X12.8060 Y31.2550
G01 X12.8178 Y31.2538
G01 X12.9453 Y31.2347
G01 X13.0698 Y31.2037
G01 X13.0812 Y31.2002
G01 X13.2022 Y31.1568
G01 X13.3212 Y31.1006
G01 X13.3442 Y31.0872
G01 X13.6179 Y31.3610
G01 X13.6350 Y31.3919
G01 X13.6398 Y31.3992
G01 X13.6450 Y31.4060
G01 X13.6528 Y31.4146
G01 X13.7030 Y31.4648
G01 X13.7095 Y31.4708
G01 X13.7188 Y31.4780
G01 X13.7287 Y31.4844
G01 X13.7392 Y31.4897
G01 X13.7502 Y31.4940
G01 X13.7587 Y31.4965
G01 X13.8191 Y31.5119
G01 X13.8280 Y31.5138
G01 X13.8369 Y31.5150
G01 X13.8490 Y31.5156
G01 X16.2604 Y31.5156
G01 X16.2748 Y31.5148
G01 X16.2890 Y31.5122
G01 X16.3655 Y31.4899
G01 X16.3793 Y31.4845
G01 X16.3899 Y31.4790
G01 X16.3998 Y31.4724
G01 X16.4255 Y31.4519
G01 X16.4328 Y31.4455
G01 X17.0777 Y30.8005
G01 X17.0851 Y30.7916
G01 X17.0930 Y30.7796
G01 X17.1285 Y30.7147
G01 X17.1324 Y30.7068
G01 X17.1358 Y30.6985
G01 X17.1401 Y30.6843
G01 X17.1426 Y30.6696
G01 X17.1458 Y30.6396
G01 X17.1461 Y30.6299
G01 X17.1461 Y30.3891
G01 X17.1449 Y30.3748
G01 X17.1427 Y30.3635
G01 X17.1203 Y30.2869
G01 X17.1173 Y30.2786
G01 X17.1138 Y30.2705
G01 X17.1065 Y30.2578
G01 X17.0951 Y30.2418
G01 X17.0698 Y30.2103
G01 X16.9945 Y30.0624
G01 X16.9512 Y29.9006
G01 X16.9461 Y29.8370
G01 X16.9462 Y28.4190
G01 X16.9512 Y28.3554
G01 X16.9945 Y28.1936
G01 X17.0698 Y28.0457
G01 X17.1743 Y27.9168
G01 X17.3032 Y27.8123
G01 X17.4511 Y27.7370
G01 X17.6129 Y27.6937
G01 X17.6765 Y27.6886
G01 X18.4445 Y27.6887
G01 X18.5081 Y27.6937
G01 X18.6699 Y27.7370
G01 X18.8178 Y27.8123
G01 X18.9467 Y27.9168
G01 X19.0512 Y28.0457
G01 X19.1265 Y28.1936
G01 X19.1698 Y28.3554
G01 X19.1749 Y28.4190
G01 X19.1748 Y29.8370
G01 X19.1698 Y29.9006
G01 X19.1265 Y30.0624
G01 X19.0512 Y30.2103
G01 X19.0264 Y30.2411
G01 X19.0215 Y30.2482
G01 X19.0159 Y30.2582
G01 X19.0123 Y30.2661
G01 X18.9838 Y30.3344
G01 X18.9793 Y30.3484
G01 X18.9770 Y30.3599
G01 X18.9758 Y30.3716
G01 X18.9749 Y30.3920
G01 X18.9749 Y31.0477
G01 X18.9760 Y31.0711
G01 X18.9792 Y31.1014
G01 X18.9758 Y31.1409
G01 X18.9749 Y31.1556
G01 X18.9709 Y31.1961
G01 X18.9635 Y31.2813
G01 X18.9622 Y31.2882
G01 X18.9371 Y31.3713
G01 X18.9132 Y31.4534
G01 X18.9106 Y31.4600
G01 X18.8698 Y31.5366
G01 X18.8305 Y31.6125
G01 X18.8266 Y31.6185
G01 X18.7726 Y31.6847
G01 X18.7431 Y31.7216
G01 X18.7330 Y31.7332
G01 X18.7124 Y31.7584
G01 X18.6830 Y31.7828
G01 X18.6680 Y31.7966
G01 X17.4328 Y33.0318
G01 X17.4170 Y33.0491
G01 X17.3979 Y33.0728
G01 X17.3676 Y33.0983
G01 X17.3565 Y33.1082
G01 X17.3250 Y33.1341
G01 X17.2596 Y33.1889
G01 X17.2538 Y33.1929
G01 X17.1773 Y33.2339
G01 X17.1023 Y33.2751
G01 X17.0958 Y33.2779
G01 X17.0128 Y33.3032
G01 X16.9313 Y33.3291
G01 X16.9244 Y33.3305
G01 X16.8394 Y33.3392
G01 X16.7924 Y33.3444
G01 X16.7770 Y33.3455
G01 X16.7447 Y33.3488
G01 X16.7067 Y33.3452
G01 X16.6863 Y33.3444
G01 X13.8517 Y33.3444
G01 X13.8402 Y33.3449
G01 X13.8316 Y33.3460
G01 X13.8176 Y33.3493
G01 X13.7494 Y33.3693
G01 X13.7409 Y33.3721
G01 X13.7326 Y33.3756
G01 X13.7219 Y33.3812
G01 X13.7143 Y33.3861
G01 X13.7048 Y33.3935
G01 X13.6940 Y33.4039
G01 X13.6699 Y33.4317
G01 X13.6585 Y33.4414
G01 X13.6485 Y33.4524
G01 X13.6400 Y33.4646
G01 X13.6223 Y33.4947
G01 X13.3442 Y33.7728
G01 X13.3212 Y33.7594
G01 X13.2022 Y33.7032
G01 X13.0755 Y33.6579
G01 X12.9450 Y33.6252
G01 X12.8178 Y33.6062
G01 X12.8060 Y33.6050
G01 X12.6775 Y33.5989
G01 X12.5490 Y33.6050
G01 X12.5372 Y33.6062
G01 X12.4159 Y33.6242
G01 X12.4042 Y33.6265
G01 X12.2795 Y33.6579
G01 X12.1583 Y33.7011
G01 X12.1501 Y33.7044
G01 X12.0309 Y33.7609
G01 X11.9157 Y33.8299
G01 X11.8077 Y33.9101
G01 X11.7080 Y34.0005
G01 X11.6177 Y34.1000
G01 X11.5374 Y34.2082
G01 X11.4683 Y34.3236
G01 X11.4107 Y34.4453
G01 X11.3654 Y34.5720
G01 X11.3340 Y34.6967
G01 X11.3317 Y34.7084
G01 X11.3137 Y34.8297
G01 X11.3125 Y34.8415
G01 X11.3064 Y34.9700
G01 X11.3125 Y35.0985
G01 X11.3137 Y35.1103
G01 X11.3328 Y35.2378
G01 X11.3654 Y35.3680
G01 X11.4107 Y35.4947
G01 X11.4669 Y35.6137
G01 X11.4803 Y35.6367
G01 X11.2855 Y35.8315
G01 X11.2149 Y35.7150
G01 X11.1208 Y35.4907
G01 X11.0610 Y35.2549
G01 X11.0366 Y35.0131
G01 X11.0483 Y34.7698
G01 X11.0957 Y34.5315
G01 X11.1436 Y34.3980
G01 X11.1463 Y34.3897
G01 X11.1483 Y34.3813
G01 X11.1504 Y34.3670
G01 X11.1549 Y34.2903
G01 X11.1547 Y34.2783
G01 X11.1528 Y34.2634
G01 X11.1508 Y34.2546
G01 X11.1471 Y34.2431
G01 X11.1435 Y34.2348
G01 X11.1394 Y34.2268
G01 X11.1016 Y34.1597
G01 X11.0965 Y34.1523
G01 X11.0908 Y34.1452
G01 X11.0803 Y34.1344
G01 X11.0686 Y34.1251
G01 X11.0584 Y34.1187
G01 X10.9931 Y34.0840
G01 X10.9849 Y34.0800
G01 X10.9708 Y34.0749
G01 X10.9591 Y34.0720
G01 X10.9472 Y34.0703
G01 X10.9352 Y34.0699
G01 X10.9262 Y34.0703
G01 X10.8526 Y34.0765
G01 X10.8440 Y34.0777
G01 X10.8356 Y34.0795
G01 X10.8219 Y34.0839
G01 X10.6650 Y34.1446
G01 X10.4181 Y34.2018
G01 X10.1657 Y34.2237
G01 X9.9127 Y34.2098
G01 X9.6641 Y34.1603
G01 X9.4496 Y34.0850
G01 X9.4356 Y34.0814
G01 X9.4213 Y34.0795
G01 X9.3415 Y34.0754
G01 X9.3265 Y34.0763
G01 X9.3176 Y34.0777
G01 X9.3088 Y34.0798
G01 X9.2946 Y34.0847
G01 X9.2811 Y34.0914
G01 X9.2169 Y34.1281
G01 X9.2069 Y34.1348
G01 X9.1977 Y34.1425
G01 X9.1913 Y34.1489
G01 X9.1853 Y34.1557
G01 X9.1799 Y34.1629
G01 X9.1751 Y34.1705
G01 X9.1368 Y34.2440
G01 X9.1314 Y34.2577
G01 X9.1278 Y34.2719
G01 X9.1259 Y34.2865
G01 X9.1257 Y34.2982
G01 X9.1315 Y34.3745
G01 X9.1339 Y34.3893
G01 X9.1362 Y34.3980
G01 X9.1400 Y34.4088
G01 X9.2060 Y34.6429
G01 X9.2371 Y34.8869
G01 X9.2392 Y34.9672
G01 X9.2209 Y35.2125
G01 X9.1672 Y35.4501
G01 X9.0791 Y35.6765
G01 X8.9902 Y35.8321
G01 X8.7947 Y35.6367
G01 X8.8053 Y35.6190
G01 X8.8094 Y35.6110
G01 X8.8619 Y35.5002
G01 X8.8664 Y35.4892
G01 X8.9096 Y35.3680
G01 X8.9410 Y35.2433
G01 X8.9433 Y35.2316
G01 X8.9620 Y35.1044
G01 X8.9686 Y34.9700
G01 X8.9621 Y34.8360
G01 X8.9433 Y34.7084
G01 X8.9417 Y34.6996
G01 X8.9096 Y34.5720
G01 X8.8664 Y34.4508
G01 X8.8619 Y34.4398
G01 X8.8066 Y34.3235
G01 X8.7376 Y34.2082
G01 X8.6611 Y34.1048
G01 X8.6535 Y34.0956
G01 X8.5670 Y34.0005
G01 X8.4719 Y33.9140
G01 X8.4627 Y33.9064
G01 X8.3593 Y33.8299
G01 X8.2439 Y33.7608
G01 X8.1277 Y33.7056
G01 X8.1167 Y33.7011
G01 X7.9955 Y33.6579
G01 X7.8679 Y33.6258
G01 X7.8591 Y33.6242
G01 X7.7319 Y33.6055
G01 X7.5975 Y33.5989
G01 X7.4631 Y33.6055
G01 X7.3359 Y33.6242
G01 X7.3242 Y33.6265
G01 X7.1995 Y33.6579
G01 X7.0783 Y33.7011
G01 X7.0673 Y33.7056
G01 X6.9560 Y33.7583
G01 X6.9484 Y33.7623
G01 X6.9308 Y33.7728
G01 X6.7331 Y33.5751
G01 X6.9431 Y33.4646
G01 X7.1725 Y33.3845
G01 X7.4115 Y33.3391
G01 X7.6546 Y33.3296
G01 X7.8965 Y33.3560
G01 X8.1317 Y33.4179
G01 X8.1602 Y33.4300
G01 X8.1739 Y33.4342
G01 X8.1881 Y33.4368
G01 X8.2586 Y33.4453
G01 X8.2676 Y33.4460
G01 X8.2826 Y33.4458
G01 X8.2975 Y33.4437
G01 X8.3120 Y33.4398
G01 X8.3232 Y33.4353
G01 X8.3898 Y33.4031
G01 X8.3978 Y33.3989
G01 X8.4079 Y33.3923
G01 X8.4150 Y33.3868
G01 X8.4217 Y33.3807
G01 X8.4279 Y33.3742
G01 X8.4336 Y33.3672
G01 X8.4388 Y33.3598
G01 X8.4789 Y33.2941
G01 X8.4856 Y33.2806
G01 X8.4906 Y33.2664
G01 X8.4938 Y33.2518
G01 X8.4951 Y33.2368
G01 X8.4935 Y33.1598
G01 X8.4930 Y33.1507
G01 X8.4918 Y33.1418
G01 X8.4899 Y33.1329
G01 X8.4874 Y33.1242
G01 X8.4831 Y33.1123
G01 X8.4314 Y32.9844
G01 X8.3703 Y32.7384
G01 X8.3445 Y32.4863
G01 X8.3544 Y32.2331
G01 X8.3999 Y31.9839
G01 X8.4818 Y31.7384
G01 X8.4849 Y31.7274
G01 X8.4866 Y31.7189
G01 X8.4880 Y31.7045
G01 X8.4905 Y31.6336
G01 X8.4904 Y31.6215
G01 X8.4890 Y31.6096
G01 X8.4865 Y31.5978
G01 X8.4828 Y31.5864
G01 X8.4780 Y31.5753
G01 X8.4737 Y31.5674
G01 X8.4343 Y31.5012
G01 X8.4253 Y31.4892
G01 X8.4191 Y31.4826
G01 X8.4125 Y31.4764
G01 X8.4031 Y31.4690
G01 X8.3903 Y31.4612
G01 X8.3241 Y31.4280
G01 X8.3162 Y31.4243
G01 X8.3080 Y31.4213
G01 X8.2996 Y31.4188
G01 X8.2910 Y31.4170
G01 X8.2765 Y31.4153
G01 X8.2648 Y31.4152
G01 X8.2010 Y31.4193
G01 X8.1864 Y31.4212
G01 X8.1720 Y31.4248
G01 X7.9805 Y31.4861
G01 X7.7407 Y31.5252
G01 X7.4971 Y31.5284
G01 X7.2561 Y31.4955
G01 X7.0228 Y31.4275
G01 X6.8019 Y31.3257
G01 X6.7357 Y31.2824
G00 Z2.0000
G00 X8.9775 Y31.0770
G01 F60.00
G01 Z-0.1200
G01 F120.00
G01 X8.8956 Y31.1511
G01 X8.8767 Y31.1692
G01 X8.8586 Y31.1881
G01 X8.7791 Y31.2759
G01 X8.7704 Y31.2630
G01 X8.7565 Y31.2440
G01 X8.8394 Y31.1689
G01 X8.8583 Y31.1508
G01 X8.8764 Y31.1319
G01 X8.9464 Y31.0545
G01 X8.9670 Y31.0697
G01 X8.9775 Y31.0770
G00 Z2.0000
G00 X8.7917 Y32.6916
G01 F60.00
G01 Z-0.1200
G01 F120.00
G01 X8.7730 Y32.5644
G01 X8.7664 Y32.4300
G01 X8.7730 Y32.2956
G01 X8.7917 Y32.1684
G01 X8.7940 Y32.1567
G01 X8.8254 Y32.0320
G01 X8.8686 Y31.9108
G01 X8.8731 Y31.8998
G01 X8.9256 Y31.7890
G01 X8.9312 Y31.7785
G01 X8.9974 Y31.6682
G01 X9.0739 Y31.5648
G01 X9.0815 Y31.5556
G01 X9.1680 Y31.4605
G01 X9.2677 Y31.3701
G01 X9.3757 Y31.2899
G01 X9.4909 Y31.2209
G01 X9.6128 Y31.1632
G01 X9.7395 Y31.1179
G01 X9.8700 Y31.0852
G01 X10.0035 Y31.0654
G01 X10.1375 Y31.0589
G01 X10.2660 Y31.0650
G01 X10.2778 Y31.0662
G01 X10.3991 Y31.0842
G01 X10.4108 Y31.0865
G01 X10.5355 Y31.1179
G01 X10.6622 Y31.1632
G01 X10.7839 Y31.2208
G01 X10.8942 Y31.2867
G01 X10.9041 Y31.2934
G01 X11.0027 Y31.3664
G01 X11.0119 Y31.3740
G01 X11.1070 Y31.4605
G01 X11.1974 Y31.5602
G01 X11.2776 Y31.6682
G01 X11.3453 Y31.7809
G01 X11.3492 Y31.7886
G01 X11.4031 Y31.9026
G01 X11.4146 Y31.9337
G01 X16.5359 Y31.9337
G01 X17.5642 Y30.9054
G01 X17.5642 Y30.1072
G01 X17.5554 Y30.1024
G01 X17.5293 Y30.0866
G01 X17.5047 Y30.0686
G01 X17.4955 Y30.0610
G01 X17.4731 Y30.0404
G01 X17.4525 Y30.0180
G01 X17.4449 Y30.0088
G01 X17.4269 Y29.9842
G01 X17.4111 Y29.9581
G01 X17.4055 Y29.9476
G01 X17.3926 Y29.9200
G01 X17.3822 Y29.8914
G01 X17.3787 Y29.8800
G01 X17.3715 Y29.8504
G01 X17.3669 Y29.8203
G01 X17.3657 Y29.8084
G01 X17.3644 Y29.7780
G01 X17.3645 Y28.4721
G01 X17.3661 Y28.4416
G01 X17.3705 Y28.4115
G01 X17.3728 Y28.3998
G01 X17.3803 Y28.3703
G01 X17.3905 Y28.3415
G01 X17.3950 Y28.3305
G01 X17.4082 Y28.3030
G01 X17.4237 Y28.2768
G01 X17.4303 Y28.2669
G01 X17.4486 Y28.2425
G01 X17.4731 Y28.2156
G01 X17.5000 Y28.1911
G01 X17.5293 Y28.1694
G01 X17.5605 Y28.1507
G01 X17.5935 Y28.1351
G01 X17.6278 Y28.1228
G01 X17.6573 Y28.1153
G01 X17.6660 Y28.1134
G01 X17.6995 Y28.1086
G01 X17.7355 Y28.1069
G01 X18.3914 Y28.1070
G01 X18.4219 Y28.1086
G01 X18.4520 Y28.1130
G01 X18.4637 Y28.1153
G01 X18.4932 Y28.1228
G01 X18.5220 Y28.1330
G01 X18.5330 Y28.1375
G01 X18.5605 Y28.1507
G01 X18.5917 Y28.1694
G01 X18.6163 Y28.1874
G01 X18.6255 Y28.1950
G01 X18.6479 Y28.2156
G01 X18.6724 Y28.2425
G01 X18.6907 Y28.2669
G01 X18.6973 Y28.2768
G01 X18.7128 Y28.3030
G01 X18.7272 Y28.3332
G01 X18.7305 Y28.3415
G01 X18.7407 Y28.3703
G01 X18.7495 Y28.4056
G01 X18.7549 Y28.4420
G01 X18.7566 Y28.4750
G01 X18.7566 Y29.7780
G01 X18.7551 Y29.8114
G01 X18.7541 Y29.8203
G01 X18.7495 Y29.8504
G01 X18.7423 Y29.8800
G01 X18.7388 Y29.8914
G01 X18.7284 Y29.9200
G01 X18.7155 Y29.9476
G01 X18.7099 Y29.9581
G01 X18.6941 Y29.9842
G01 X18.6761 Y30.0088
G01 X18.6685 Y30.0180
G01 X18.6479 Y30.0404
G01 X18.6255 Y30.0610
G01 X18.6163 Y30.0686
G01 X18.5917 Y30.0866
G01 X18.5656 Y30.1024
G01 X18.5568 Y30.1072
G01 X18.5568 Y31.1140
G01 X18.5544 Y31.1596
G01 X18.5473 Y31.2078
G01 X18.5355 Y31.2551
G01 X18.5202 Y31.2982
G01 X18.5166 Y31.3064
G01 X18.4982 Y31.3450
G01 X18.4732 Y31.3868
G01 X18.4442 Y31.4259
G01 X18.4115 Y31.4620
G01 X17.0903 Y32.7830
G01 X17.0564 Y32.8137
G01 X17.0172 Y32.8427
G01 X16.9755 Y32.8677
G01 X16.9342 Y32.8874
G01 X16.9259 Y32.8907
G01 X16.8856 Y32.9050
G01 X16.8383 Y32.9168
G01 X16.7901 Y32.9239
G01 X16.7415 Y32.9263
G01 X11.4146 Y32.9263
G01 X11.4031 Y32.9574
G01 X11.3494 Y33.0710
G01 X11.3453 Y33.0790
G01 X11.2776 Y33.1918
G01 X11.1992 Y33.2976
G01 X11.1935 Y33.3044
G01 X11.1111 Y33.3952
G01 X11.1027 Y33.4036
G01 X11.0073 Y33.4899
G01 X10.8993 Y33.5701
G01 X10.7890 Y33.6363
G01 X10.7785 Y33.6419
G01 X10.6622 Y33.6968
G01 X10.5355 Y33.7421
G01 X10.4053 Y33.7747
G01 X10.2778 Y33.7938
G01 X10.2660 Y33.7950
G01 X10.1434 Y33.8010
G01 X10.1345 Y33.8011
G01 X10.0031 Y33.7945
G01 X9.8700 Y33.7748
G01 X9.7395 Y33.7421
G01 X9.6183 Y33.6989
G01 X9.6073 Y33.6944
G01 X9.4965 Y33.6419
G01 X9.4860 Y33.6363
G01 X9.3757 Y33.5701
G01 X9.2675 Y33.4898
G01 X9.1680 Y33.3995
G01 X9.0776 Y33.2998
G01 X8.9974 Y33.1918
G01 X8.9312 Y33.0815
G01 X8.9256 Y33.0710
G01 X8.8707 Y32.9547
G01 X8.8273 Y32.8337
G01 X8.8238 Y32.8223
G01 X8.7940 Y32.7033
G01 X8.7917 Y32.6916
G00 Z2.0000
G00 X8.5880 Y32.7219
G01 F60.00
G01 Z-0.1200
G01 F120.00
G01 X8.5700 Y32.6005
G01 X8.5680 Y32.5846
G01 X8.5668 Y32.5686
G01 X8.5608 Y32.4461
G01 X8.5604 Y32.4300
G01 X8.5608 Y32.4139
G01 X8.5668 Y32.2914
G01 X8.5680 Y32.2754
G01 X8.5700 Y32.2595
G01 X8.5880 Y32.1381
G01 X8.5907 Y32.1223
G01 X8.5942 Y32.1067
G01 X8.6240 Y31.9877
G01 X8.6283 Y31.9722
G01 X8.6333 Y31.9569
G01 X8.6747 Y31.8414
G01 X8.6804 Y31.8265
G01 X8.6870 Y31.8118
G01 X8.7394 Y31.7009
G01 X8.7466 Y31.6866
G01 X8.7545 Y31.6726
G01 X8.8176 Y31.5674
G01 X8.8262 Y31.5538
G01 X8.8354 Y31.5407
G01 X8.9085 Y31.4422
G01 X8.9184 Y31.4295
G01 X8.9289 Y31.4173
G01 X9.0112 Y31.3264
G01 X9.0223 Y31.3148
G01 X9.0339 Y31.3037
G01 X9.1248 Y31.2214
G01 X9.1370 Y31.2109
G01 X9.1497 Y31.2010
G01 X9.2482 Y31.1279
G01 X9.2613 Y31.1187
G01 X9.2749 Y31.1101
G01 X9.3801 Y31.0470
G01 X9.3934 Y31.0395
G01 X9.4084 Y31.0319
G01 X9.5193 Y30.9795
G01 X9.5340 Y30.9729
G01 X9.5489 Y30.9672
G01 X9.6644 Y30.9258
G01 X9.6797 Y30.9208
G01 X9.6952 Y30.9165
G01 X9.8142 Y30.8867
G01 X9.8298 Y30.8832
G01 X9.8456 Y30.8805
G01 X9.9755 Y30.8613
G01 X9.9989 Y30.8593
G01 X10.1214 Y30.8533
G01 X10.1375 Y30.8529
G01 X10.1536 Y30.8533
G01 X10.2761 Y30.8593
G01 X10.2921 Y30.8605
G01 X10.3080 Y30.8625
G01 X10.4294 Y30.8805
G01 X10.4452 Y30.8832
G01 X10.4608 Y30.8867
G01 X10.5798 Y30.9165
G01 X10.5953 Y30.9208
G01 X10.6106 Y30.9258
G01 X10.7261 Y30.9672
G01 X10.7410 Y30.9729
G01 X10.7557 Y30.9795
G01 X10.8666 Y31.0319
G01 X10.8880 Y31.0430
G01 X11.0001 Y31.1101
G01 X11.0137 Y31.1187
G01 X11.0268 Y31.1279
G01 X11.1253 Y31.2010
G01 X11.1380 Y31.2109
G01 X11.1502 Y31.2214
G01 X11.2411 Y31.3037
G01 X11.2583 Y31.3206
G01 X11.3461 Y31.4173
G01 X11.3566 Y31.4295
G01 X11.3665 Y31.4422
G01 X11.4443 Y31.5472
G01 X11.4574 Y31.5674
G01 X11.5244 Y31.6793
G01 X11.5317 Y31.6929
G01 X11.5483 Y31.7277
G01 X16.4506 Y31.7277
G01 X17.3582 Y30.8201
G01 X17.3582 Y30.2145
G01 X17.3332 Y30.1917
G01 X17.3218 Y30.1803
G01 X17.2946 Y30.1503
G01 X17.2795 Y30.1315
G01 X17.2557 Y30.0986
G01 X17.2345 Y30.0640
G01 X17.2228 Y30.0429
G01 X17.2088 Y30.0135
G01 X17.1993 Y29.9914
G01 X17.1857 Y29.9532
G01 X17.1810 Y29.9378
G01 X17.1711 Y29.8984
G01 X17.1680 Y29.8827
G01 X17.1621 Y29.8425
G01 X17.1605 Y29.8266
G01 X17.1585 Y29.7860
G01 X17.1584 Y28.4780
G01 X17.1588 Y28.4619
G01 X17.1605 Y28.4294
G01 X17.1621 Y28.4135
G01 X17.1667 Y28.3812
G01 X17.1711 Y28.3576
G01 X17.1790 Y28.3259
G01 X17.1832 Y28.3105
G01 X17.1965 Y28.2721
G01 X17.2055 Y28.2498
G01 X17.2193 Y28.2203
G01 X17.2265 Y28.2060
G01 X17.2471 Y28.1709
G01 X17.2602 Y28.1508
G01 X17.2795 Y28.1245
G01 X17.2894 Y28.1119
G01 X17.2999 Y28.0997
G01 X17.3274 Y28.0699
G01 X17.3572 Y28.0424
G01 X17.3694 Y28.0319
G01 X17.3820 Y28.0220
G01 X17.4149 Y27.9982
G01 X17.4495 Y27.9770
G01 X17.4635 Y27.9690
G01 X17.4778 Y27.9618
G01 X17.5147 Y27.9448
G01 X17.5296 Y27.9390
G01 X17.5680 Y27.9257
G01 X17.5834 Y27.9215
G01 X17.6151 Y27.9136
G01 X17.6308 Y27.9105
G01 X17.6715 Y27.9045
G01 X17.6886 Y27.9029
G01 X17.7275 Y27.9010
G01 X18.3855 Y27.9009
G01 X18.4261 Y27.9025
G01 X18.4500 Y27.9046
G01 X18.4823 Y27.9092
G01 X18.4981 Y27.9120
G01 X18.5138 Y27.9155
G01 X18.5453 Y27.9235
G01 X18.5683 Y27.9308
G01 X18.6063 Y27.9448
G01 X18.6210 Y27.9513
G01 X18.6504 Y27.9653
G01 X18.6715 Y27.9770
G01 X18.6994 Y27.9938
G01 X18.7127 Y28.0027
G01 X18.7390 Y28.0220
G01 X18.7516 Y28.0319
G01 X18.7819 Y28.0589
G01 X18.7992 Y28.0757
G01 X18.8211 Y28.0997
G01 X18.8316 Y28.1119
G01 X18.8415 Y28.1245
G01 X18.8608 Y28.1508
G01 X18.8739 Y28.1709
G01 X18.8945 Y28.2060
G01 X18.9017 Y28.2203
G01 X18.9155 Y28.2498
G01 X18.9217 Y28.2646
G01 X18.9353 Y28.3028
G01 X18.9400 Y28.3182
G01 X18.9499 Y28.3576
G01 X18.9530 Y28.3733
G01 X18.9590 Y28.4140
G01 X18.9606 Y28.4311
G01 X18.9625 Y28.4700
G01 X18.9626 Y29.7780
G01 X18.9622 Y29.7941
G01 X18.9605 Y29.8266
G01 X18.9589 Y29.8425
G01 X18.9530 Y29.8827
G01 X18.9499 Y29.8984
G01 X18.9400 Y29.9378
G01 X18.9353 Y29.9532
G01 X18.9217 Y29.9914
G01 X18.9155 Y30.0062
G01 X18.8982 Y30.0429
G01 X18.8906 Y30.0571
G01 X18.8697 Y30.0919
G01 X18.8608 Y30.1052
G01 X18.8366 Y30.1378
G01 X18.8264 Y30.1503
G01 X18.7992 Y30.1803
G01 X18.7878 Y30.1917
G01 X18.7628 Y30.2145
G01 X18.7628 Y31.1110
G01 X18.7624 Y31.1271
G01 X18.7606 Y31.1638
G01 X18.7594 Y31.1798
G01 X18.7574 Y31.1958
G01 X18.7520 Y31.2322
G01 X18.7493 Y31.2480
G01 X18.7458 Y31.2637
G01 X18.7368 Y31.2994
G01 X18.7326 Y31.3149
G01 X18.7275 Y31.3301
G01 X18.7123 Y31.3723
G01 X18.7028 Y31.3944
G01 X18.6871 Y31.4277
G01 X18.6799 Y31.4421
G01 X18.6720 Y31.4560
G01 X18.6530 Y31.4876
G01 X18.6444 Y31.5012
G01 X18.6352 Y31.5143
G01 X18.6133 Y31.5439
G01 X18.6034 Y31.5565
G01 X18.5929 Y31.5687
G01 X18.5682 Y31.5960
G01 X18.5571 Y31.6076
G01 X17.2323 Y32.9322
G01 X17.1992 Y32.9624
G01 X17.1870 Y32.9729
G01 X17.1744 Y32.9828
G01 X17.1448 Y33.0047
G01 X17.1316 Y33.0140
G01 X17.1181 Y33.0225
G01 X17.0865 Y33.0415
G01 X17.0726 Y33.0494
G01 X17.0582 Y33.0566
G01 X17.0176 Y33.0757
G01 X16.9953 Y33.0846
G01 X16.9606 Y33.0970
G01 X16.9454 Y33.1021
G01 X16.9299 Y33.1063
G01 X16.8942 Y33.1153
G01 X16.8785 Y33.1188
G01 X16.8627 Y33.1215
G01 X16.8263 Y33.1269
G01 X16.8103 Y33.1289
G01 X16.7943 Y33.1301
G01 X16.7576 Y33.1319
G01 X16.7415 Y33.1323
G01 X11.5483 Y33.1323
G01 X11.5321 Y33.1663
G01 X11.5245 Y33.1805
G01 X11.4574 Y33.2926
G01 X11.4488 Y33.3062
G01 X11.4396 Y33.3193
G01 X11.3665 Y33.4178
G01 X11.3563 Y33.4309
G01 X11.3461 Y33.4427
G01 X11.2638 Y33.5336
G01 X11.2527 Y33.5452
G01 X11.2411 Y33.5563
G01 X11.1502 Y33.6386
G01 X11.1380 Y33.6491
G01 X11.1253 Y33.6590
G01 X11.0268 Y33.7321
G01 X11.0137 Y33.7413
G01 X11.0001 Y33.7499
G01 X10.8949 Y33.8130
G01 X10.8809 Y33.8209
G01 X10.8666 Y33.8281
G01 X10.7557 Y33.8805
G01 X10.7410 Y33.8871
G01 X10.7261 Y33.8928
G01 X10.6106 Y33.9342
G01 X10.5953 Y33.9392
G01 X10.5798 Y33.9435
G01 X10.4608 Y33.9733
G01 X10.4459 Y33.9766
G01 X10.4309 Y33.9793
G01 X10.3080 Y33.9975
G01 X10.2921 Y33.9995
G01 X10.2761 Y34.0007
G01 X10.1536 Y34.0067
G01 X10.1375 Y34.0071
G01 X10.1214 Y34.0067
G01 X9.9989 Y34.0007
G01 X9.9829 Y33.9995
G01 X9.9670 Y33.9975
G01 X9.8456 Y33.9795
G01 X9.8298 Y33.9768
G01 X9.8142 Y33.9733
G01 X9.6952 Y33.9435
G01 X9.6797 Y33.9392
G01 X9.6644 Y33.9342
G01 X9.5489 Y33.8928
G01 X9.5340 Y33.8871
G01 X9.5193 Y33.8805
G01 X9.4084 Y33.8281
G01 X9.3941 Y33.8209
G01 X9.3801 Y33.8130
G01 X9.2749 Y33.7499
G01 X9.2613 Y33.7413
G01 X9.2482 Y33.7321
G01 X9.1497 Y33.6590
G01 X9.1366 Y33.6488
