(G-CODE GENERATED BY FLATCAM v8.992 - www.flatcam.org - Version Date: 2020/05/03)

(Name: Genesis_PA_Testing_v1-F_Cu_deeper_fast.gbr_iso_2_cnc)
(Type: G-code from Geometry)
(Units: MM)

(Created on Sunday, 12 February 2023 at 14:59)

(This preprocessor is the default preprocessor used by FlatCAM.)
(It is made to work with MACH3 compatible motion controllers.)

(TOOL DIAMETER: 0.2458 mm)
(Feedrate_XY: 70.0 mm/min)
(Feedrate_Z: 50.0 mm/min)
(Feedrate rapids 1500.0 mm/min)

(Z_Cut: -0.13 mm)
(Z_Move: 2.0 mm)
(Z Start: None mm)
(Z End: 10.0 mm)
(Steps per circle: 64)
(Preprocessor Geometry: default)

(X range:   -0.4030 ...  110.9750  mm)
(Y range:   -0.3990 ...   65.1320  mm)

(Spindle Speed: None RPM)
G21
G90
G94



G01 F70.00
G00 Z2.0000

M03
G00 X1.2885 Y9.2386
G01 F50.00
G01 Z-0.1300
G01 F70.00
G01 X1.2913 Y9.1880
G01 X1.2984 Y9.1378
G01 X1.3008 Y9.1242
G01 X1.3038 Y9.1106
G01 X1.3165 Y9.0615
G01 X1.3332 Y9.0137
G01 X1.3382 Y9.0007
G01 X1.3596 Y8.9548
G01 X1.3658 Y8.9424
G01 X1.3727 Y8.9303
G01 X1.3990 Y8.8870
G01 X1.4070 Y8.8757
G01 X1.4375 Y8.8352
G01 X1.4713 Y8.7974
G01 X1.4808 Y8.7873
G01 X6.1848 Y4.0835
G01 X6.2172 Y4.0540
G01 X6.2277 Y4.0450
G01 X6.2682 Y4.0145
G01 X6.2795 Y4.0065
G01 X6.2912 Y3.9991
G01 X6.3288 Y3.9767
G01 X6.3410 Y3.9701
G01 X6.3806 Y3.9513
G01 X6.3932 Y3.9457
G01 X6.4062 Y3.9407
G01 X6.4474 Y3.9261
G01 X6.4607 Y3.9220
G01 X6.5031 Y3.9113
G01 X6.5167 Y3.9083
G01 X6.5303 Y3.9059
G01 X6.5805 Y3.8988
G01 X6.5944 Y3.8978
G01 X6.6450 Y3.8956
G01 X21.0410 Y3.8956
G01 X23.0708 Y1.8658
G01 X23.0809 Y1.8563
G01 X23.1187 Y1.8225
G01 X23.1296 Y1.8139
G01 X23.1705 Y1.7840
G01 X23.2138 Y1.7577
G01 X23.2259 Y1.7508
G01 X23.2383 Y1.7446
G01 X23.2779 Y1.7260
G01 X23.2972 Y1.7182
G01 X23.3384 Y1.7036
G01 X23.3517 Y1.6995
G01 X23.3941 Y1.6888
G01 X23.4077 Y1.6858
G01 X23.4213 Y1.6834
G01 X23.4651 Y1.6770
G01 X23.4854 Y1.6753
G01 X23.5360 Y1.6731
G01 X36.6821 Y1.6726
G01 X36.6982 Y1.6510
G01 X36.7071 Y1.6402
G01 X36.7691 Y1.5718
G01 X36.7840 Y1.5573
G01 X36.8474 Y1.4999
G01 X36.8636 Y1.4869
G01 X36.9267 Y1.4402
G01 X36.9380 Y1.4322
G01 X36.9497 Y1.4248
G01 X37.0231 Y1.3809
G01 X37.0415 Y1.3713
G01 X37.1125 Y1.3378
G01 X37.1252 Y1.3321
G01 X37.1381 Y1.3271
G01 X37.2120 Y1.3007
G01 X37.2252 Y1.2963
G01 X37.2386 Y1.2926
G01 X37.3147 Y1.2736
G01 X37.3283 Y1.2705
G01 X37.3420 Y1.2681
G01 X37.4265 Y1.2557
G01 X37.4472 Y1.2539
G01 X37.5256 Y1.2501
G01 X37.5395 Y1.2497
G01 X40.1395 Y1.2497
G01 X40.1534 Y1.2501
G01 X40.2318 Y1.2539
G01 X40.2456 Y1.2549
G01 X40.2594 Y1.2566
G01 X40.3370 Y1.2681
G01 X40.3507 Y1.2705
G01 X40.3643 Y1.2736
G01 X40.4404 Y1.2926
G01 X40.4538 Y1.2963
G01 X40.4670 Y1.3007
G01 X40.5409 Y1.3271
G01 X40.5538 Y1.3321
G01 X40.5665 Y1.3378
G01 X40.6437 Y1.3744
G01 X40.6619 Y1.3844
G01 X40.7293 Y1.4248
G01 X40.7410 Y1.4322
G01 X40.7523 Y1.4402
G01 X40.8154 Y1.4869
G01 X40.8316 Y1.4999
G01 X40.8950 Y1.5573
G01 X40.9099 Y1.5718
G01 X40.9719 Y1.6402
G01 X40.9808 Y1.6510
G01 X40.9973 Y1.6731
G01 X47.7999 Y1.6732
G01 X47.8436 Y1.6753
G01 X47.8575 Y1.6763
G01 X47.9077 Y1.6834
G01 X47.9213 Y1.6858
G01 X47.9349 Y1.6888
G01 X47.9840 Y1.7015
G01 X48.0318 Y1.7182
G01 X48.0511 Y1.7260
G01 X48.0907 Y1.7446
G01 X48.1031 Y1.7508
G01 X48.1152 Y1.7577
G01 X48.1585 Y1.7840
G01 X48.1698 Y1.7920
G01 X48.2103 Y1.8225
G01 X48.2481 Y1.8563
G01 X48.2582 Y1.8658
G01 X52.7177 Y6.3253
G01 X52.9265 Y6.3253
G01 X52.9404 Y6.3257
G01 X52.9718 Y6.3273
G01 X52.9925 Y6.3296
G01 X53.0304 Y6.3356
G01 X53.0440 Y6.3386
G01 X53.0811 Y6.3483
G01 X53.0943 Y6.3526
G01 X53.1239 Y6.3633
G01 X53.1430 Y6.3715
G01 X53.1776 Y6.3882
G01 X53.1897 Y6.3951
G01 X53.2224 Y6.4151
G01 X53.2338 Y6.4231
G01 X53.2590 Y6.4419
G01 X53.2749 Y6.4553
G01 X53.3032 Y6.4813
G01 X53.3127 Y6.4914
G01 X53.3338 Y6.5148
G01 X53.3426 Y6.5255
G01 X53.3614 Y6.5507
G01 X53.3694 Y6.5621
G01 X53.3768 Y6.5738
G01 X53.3963 Y6.6069
G01 X53.4025 Y6.6193
G01 X53.4186 Y6.6542
G01 X53.4236 Y6.6671
G01 X53.4362 Y6.7034
G01 X53.4459 Y6.7405
G01 X53.4502 Y6.7609
G01 X53.4549 Y6.7920
G01 X53.4566 Y6.8058
G01 X53.4576 Y6.8196
G01 X53.4592 Y6.8580
G01 X53.4592 Y7.7830
G01 X53.4576 Y7.8214
G01 X53.4566 Y7.8352
G01 X53.4549 Y7.8490
G01 X53.4489 Y7.8869
G01 X53.4399 Y7.9243
G01 X53.4362 Y7.9376
G01 X53.4319 Y7.9508
G01 X53.4212 Y7.9804
G01 X53.4159 Y7.9932
G01 X53.4025 Y8.0217
G01 X53.3963 Y8.0341
G01 X53.3894 Y8.0462
G01 X53.3694 Y8.0789
G01 X53.3468 Y8.1100
G01 X53.3383 Y8.1209
G01 X53.3127 Y8.1496
G01 X53.3032 Y8.1597
G01 X53.2931 Y8.1692
G01 X53.2697 Y8.1903
G01 X53.2590 Y8.1991
G01 X53.2338 Y8.2179
G01 X53.2224 Y8.2259
G01 X53.2107 Y8.2333
G01 X53.1837 Y8.2494
G01 X53.1714 Y8.2560
G01 X53.1430 Y8.2695
G01 X53.1300 Y8.2752
G01 X53.1174 Y8.2801
G01 X53.0811 Y8.2927
G01 X53.0440 Y8.3024
G01 X53.0304 Y8.3054
G01 X52.9925 Y8.3114
G01 X52.9787 Y8.3131
G01 X52.9649 Y8.3141
G01 X52.9265 Y8.3157
G01 X51.6696 Y8.3156
G01 X51.6312 Y8.3137
G01 X51.6105 Y8.3114
G01 X51.5726 Y8.3054
G01 X51.5590 Y8.3024
G01 X51.5285 Y8.2947
G01 X51.5087 Y8.2884
G01 X51.4727 Y8.2751
G01 X51.4600 Y8.2695
G01 X51.4316 Y8.2560
G01 X51.4133 Y8.2459
G01 X51.3806 Y8.2259
G01 X51.3495 Y8.2033
G01 X51.3333 Y8.1903
G01 X51.3048 Y8.1645
G01 X51.2903 Y8.1496
G01 X51.2647 Y8.1209
G01 X51.2562 Y8.1100
G01 X51.2336 Y8.0789
G01 X51.2136 Y8.0462
G01 X51.2067 Y8.0341
G01 X51.1900 Y7.9995
G01 X51.1816 Y7.9799
G01 X51.1689 Y7.9442
G01 X51.1631 Y7.9243
G01 X51.1541 Y7.8869
G01 X51.1481 Y7.8490
G01 X51.1458 Y7.8283
G01 X51.1442 Y7.7969
G01 X51.1438 Y7.7830
G01 X51.1439 Y6.8511
G01 X51.1454 Y6.8196
G01 X51.1464 Y6.8058
G01 X51.1481 Y6.7920
G01 X51.1541 Y6.7541
G01 X51.1571 Y6.7405
G01 X51.1668 Y6.7034
G01 X51.1794 Y6.6671
G01 X51.1848 Y6.6532
G01 X47.5205 Y2.9889
G01 X45.2759 Y2.9889
G01 X45.2759 Y21.8070
G01 X45.6912 Y22.2223
G01 X45.7007 Y22.2324
G01 X45.7301 Y22.2649
G01 X45.7431 Y22.2811
G01 X45.7730 Y22.3220
G01 X45.7993 Y22.3653
G01 X45.8062 Y22.3774
G01 X45.8124 Y22.3898
G01 X45.8338 Y22.4357
G01 X45.8388 Y22.4487
G01 X45.8534 Y22.4899
G01 X45.8575 Y22.5032
G01 X45.8682 Y22.5456
G01 X45.8712 Y22.5592
G01 X45.8736 Y22.5728
G01 X45.8790 Y22.6092
G01 X45.8808 Y22.6240
G01 X45.8838 Y22.6806
G01 X45.8839 Y24.1340
G01 X45.9050 Y24.1430
G01 X45.9334 Y24.1565
G01 X45.9457 Y24.1631
G01 X45.9727 Y24.1792
G01 X45.9844 Y24.1866
G01 X45.9958 Y24.1946
G01 X46.0210 Y24.2134
G01 X46.0317 Y24.2222
G01 X46.0551 Y24.2433
G01 X46.0700 Y24.2578
G01 X46.0912 Y24.2811
G01 X46.1003 Y24.2916
G01 X46.1088 Y24.3025
G01 X46.1275 Y24.3278
G01 X46.1352 Y24.3394
G01 X46.1514 Y24.3663
G01 X46.1615 Y24.3846
G01 X46.1750 Y24.4130
G01 X46.1806 Y24.4257
G01 X46.1856 Y24.4386
G01 X46.1961 Y24.4683
G01 X46.2002 Y24.4815
G01 X46.2079 Y24.5120
G01 X46.2122 Y24.5324
G01 X46.2169 Y24.5635
G01 X46.2186 Y24.5773
G01 X46.2196 Y24.5911
G01 X46.2211 Y24.6226
G01 X46.2211 Y25.8864
G01 X46.2192 Y25.9248
G01 X46.2169 Y25.9455
G01 X46.2109 Y25.9834
G01 X46.2079 Y25.9970
G01 X46.2002 Y26.0275
G01 X46.1961 Y26.0407
G01 X46.1856 Y26.0704
G01 X46.1806 Y26.0833
G01 X46.1750 Y26.0960
G01 X46.1583 Y26.1306
G01 X46.1514 Y26.1427
G01 X46.1314 Y26.1754
G01 X46.1088 Y26.2065
G01 X46.1003 Y26.2174
G01 X46.0747 Y26.2461
G01 X46.0602 Y26.2610
G01 X46.0369 Y26.2822
G01 X46.0264 Y26.2913
G01 X46.0155 Y26.2998
G01 X45.9844 Y26.3224
G01 X45.9517 Y26.3424
G01 X45.9334 Y26.3525
G01 X45.9050 Y26.3660
G01 X45.8920 Y26.3717
G01 X45.8563 Y26.3849
G01 X45.8431 Y26.3892
G01 X45.8060 Y26.3989
G01 X45.7924 Y26.4019
G01 X45.7787 Y26.4043
G01 X45.7476 Y26.4088
G01 X45.7338 Y26.4102
G01 X45.7024 Y26.4118
G01 X45.6885 Y26.4122
G01 X44.7566 Y26.4121
G01 X44.7251 Y26.4106
G01 X44.7113 Y26.4096
G01 X44.6975 Y26.4079
G01 X44.6664 Y26.4032
G01 X44.6460 Y26.3989
G01 X44.6155 Y26.3912
G01 X44.6023 Y26.3871
G01 X44.5726 Y26.3766
G01 X44.5597 Y26.3716
G01 X44.5470 Y26.3660
G01 X44.5186 Y26.3525
G01 X44.5003 Y26.3424
G01 X44.4734 Y26.3262
G01 X44.4618 Y26.3185
G01 X44.4365 Y26.2998
G01 X44.4256 Y26.2913
G01 X44.4151 Y26.2822
G01 X44.3918 Y26.2610
G01 X44.3773 Y26.2461
G01 X44.3562 Y26.2227
G01 X44.3474 Y26.2120
G01 X44.3286 Y26.1868
G01 X44.3206 Y26.1754
G01 X44.3006 Y26.1427
G01 X44.2905 Y26.1244
G01 X44.2770 Y26.0960
G01 X44.2713 Y26.0830
G01 X44.2581 Y26.0473
G01 X44.2538 Y26.0341
G01 X44.2441 Y25.9970
G01 X44.2411 Y25.9834
G01 X44.2387 Y25.9697
G01 X44.2342 Y25.9386
G01 X44.2328 Y25.9248
G01 X44.2312 Y25.8934
G01 X44.2308 Y25.8795
G01 X44.2308 Y24.6295
G01 X44.2324 Y24.5911
G01 X44.2342 Y24.5704
G01 X44.2387 Y24.5393
G01 X44.2411 Y24.5256
G01 X44.2501 Y24.4882
G01 X44.2559 Y24.4683
G01 X44.2664 Y24.4386
G01 X44.2714 Y24.4257
G01 X44.2770 Y24.4130
G01 X44.2905 Y24.3846
G01 X44.3006 Y24.3663
G01 X44.3206 Y24.3336
G01 X44.3286 Y24.3222
G01 X44.3474 Y24.2970
G01 X44.3562 Y24.2863
G01 X44.3773 Y24.2629
G01 X44.3918 Y24.2480
G01 X44.4151 Y24.2268
G01 X44.4256 Y24.2177
G01 X44.4562 Y24.1946
G01 X44.4734 Y24.1828
G01 X44.5003 Y24.1666
G01 X44.5124 Y24.1597
G01 X44.5470 Y24.1430
G01 X44.5681 Y24.1340
G01 X44.5681 Y22.9600
G01 X44.1480 Y22.5397
G01 X44.1185 Y22.5073
G01 X44.1095 Y22.4968
G01 X44.1009 Y22.4859
G01 X44.0749 Y22.4507
G01 X44.0671 Y22.4390
G01 X44.0447 Y22.4017
G01 X44.0378 Y22.3896
G01 X44.0316 Y22.3772
G01 X44.0102 Y22.3313
G01 X44.0052 Y22.3183
G01 X43.9885 Y22.2705
G01 X43.9848 Y22.2571
G01 X43.9742 Y22.2146
G01 X43.9704 Y22.1942
G01 X43.9633 Y22.1440
G01 X43.9623 Y22.1301
G01 X43.9602 Y22.0864
G01 X43.9601 Y2.9903
G01 X40.9970 Y2.9921
G01 X40.9808 Y3.0138
G01 X40.9719 Y3.0245
G01 X40.9099 Y3.0930
G01 X40.8950 Y3.1075
G01 X40.8316 Y3.1648
G01 X40.8154 Y3.1778
G01 X40.7523 Y3.2246
G01 X40.7410 Y3.2326
G01 X40.7293 Y3.2400
G01 X40.6559 Y3.2839
G01 X40.6375 Y3.2935
G01 X40.5665 Y3.3270
G01 X40.5538 Y3.3326
G01 X40.5409 Y3.3376
G01 X40.4670 Y3.3641
G01 X40.4532 Y3.3686
G01 X40.4404 Y3.3721
G01 X40.3643 Y3.3912
G01 X40.3507 Y3.3943
G01 X40.3370 Y3.3966
G01 X40.2525 Y3.4091
G01 X40.2318 Y3.4109
G01 X40.1534 Y3.4147
G01 X40.1395 Y3.4151
G01 X37.5395 Y3.4151
G01 X37.5256 Y3.4147
G01 X37.4472 Y3.4109
G01 X37.4334 Y3.4098
G01 X37.4196 Y3.4081
G01 X37.3420 Y3.3966
G01 X37.3283 Y3.3943
G01 X37.3147 Y3.3912
G01 X37.2386 Y3.3721
G01 X37.2252 Y3.3684
G01 X37.2120 Y3.3641
G01 X37.1381 Y3.3376
G01 X37.1252 Y3.3326
G01 X37.1125 Y3.3270
G01 X37.0353 Y3.2904
G01 X37.0171 Y3.2804
G01 X36.9497 Y3.2400
G01 X36.9380 Y3.2326
G01 X36.9267 Y3.2246
G01 X36.8636 Y3.1778
G01 X36.8474 Y3.1648
G01 X36.7840 Y3.1075
G01 X36.7691 Y3.0930
G01 X36.7071 Y3.0245
G01 X36.6982 Y3.0138
G01 X36.6796 Y2.9889
G01 X30.9859 Y2.9889
G01 X30.9907 Y3.0059
G01 X30.9997 Y3.0416
G01 X31.0027 Y3.0552
G01 X31.0051 Y3.0688
G01 X31.0105 Y3.1052
G01 X31.0123 Y3.1200
G01 X31.0150 Y3.1696
G01 X31.0154 Y3.1835
G01 X31.0154 Y5.4650
G01 X31.0365 Y5.4740
G01 X31.0711 Y5.4907
G01 X31.0832 Y5.4976
G01 X31.1101 Y5.5138
G01 X31.1273 Y5.5256
G01 X31.1579 Y5.5487
G01 X31.1866 Y5.5743
G01 X31.2015 Y5.5888
G01 X31.2227 Y5.6121
G01 X31.2318 Y5.6226
G01 X31.2403 Y5.6335
G01 X31.2590 Y5.6588
G01 X31.2703 Y5.6763
G01 X31.2898 Y5.7094
G01 X31.3065 Y5.7440
G01 X31.3149 Y5.7636
G01 X31.3254 Y5.7927
G01 X31.3297 Y5.8059
G01 X31.3394 Y5.8430
G01 X31.3437 Y5.8634
G01 X31.3484 Y5.8945
G01 X31.3501 Y5.9083
G01 X31.3511 Y5.9221
G01 X31.3527 Y5.9605
G01 X31.3527 Y7.2105
G01 X31.3511 Y7.2489
G01 X31.3501 Y7.2627
G01 X31.3448 Y7.3007
G01 X31.3410 Y7.3212
G01 X31.3334 Y7.3518
G01 X31.3297 Y7.3651
G01 X31.3171 Y7.4014
G01 X31.3094 Y7.4207
G01 X31.2960 Y7.4492
G01 X31.2898 Y7.4616
G01 X31.2829 Y7.4737
G01 X31.2667 Y7.5006
G01 X31.2549 Y7.5178
G01 X31.2318 Y7.5484
G01 X31.2062 Y7.5771
G01 X31.1917 Y7.5920
G01 X31.1684 Y7.6132
G01 X31.1579 Y7.6223
G01 X31.1273 Y7.6454
G01 X31.1101 Y7.6572
G01 X31.0832 Y7.6734
G01 X31.0711 Y7.6803
G01 X31.0365 Y7.6970
G01 X31.0169 Y7.7054
G01 X30.9878 Y7.7159
G01 X30.9746 Y7.7202
G01 X30.9613 Y7.7239
G01 X30.9307 Y7.7315
G01 X30.9102 Y7.7353
G01 X30.8722 Y7.7406
G01 X30.8584 Y7.7416
G01 X30.8269 Y7.7431
G01 X29.8950 Y7.7432
G01 X29.8566 Y7.7416
G01 X29.8428 Y7.7406
G01 X29.8290 Y7.7389
G01 X29.7911 Y7.7329
G01 X29.7775 Y7.7299
G01 X29.7404 Y7.7202
G01 X29.7041 Y7.7076
G01 X29.6848 Y7.6999
G01 X29.6563 Y7.6865
G01 X29.6439 Y7.6803
G01 X29.6318 Y7.6734
G01 X29.6049 Y7.6572
G01 X29.5933 Y7.6495
G01 X29.5625 Y7.6266
G01 X29.5518 Y7.6178
G01 X29.5284 Y7.5967
G01 X29.5183 Y7.5872
G01 X29.5088 Y7.5771
G01 X29.4832 Y7.5484
G01 X29.4747 Y7.5375
G01 X29.4521 Y7.5064
G01 X29.4321 Y7.4737
G01 X29.4252 Y7.4616
G01 X29.4085 Y7.4270
G01 X29.4028 Y7.4140
G01 X29.3896 Y7.3783
G01 X29.3853 Y7.3651
G01 X29.3756 Y7.3280
G01 X29.3726 Y7.3144
G01 X29.3666 Y7.2765
G01 X29.3643 Y7.2558
G01 X29.3627 Y7.2244
G01 X29.3623 Y7.2105
G01 X29.3623 Y5.9605
G01 X29.3639 Y5.9221
G01 X29.3649 Y5.9083
G01 X29.3666 Y5.8945
G01 X29.3713 Y5.8634
G01 X29.3756 Y5.8430
G01 X29.3853 Y5.8059
G01 X29.3896 Y5.7927
G01 X29.4003 Y5.7631
G01 X29.4085 Y5.7440
G01 X29.4252 Y5.7094
G01 X29.4447 Y5.6763
G01 X29.4560 Y5.6588
G01 X29.4747 Y5.6335
G01 X29.4832 Y5.6226
G01 X29.4923 Y5.6121
G01 X29.5135 Y5.5888
G01 X29.5284 Y5.5743
G01 X29.5571 Y5.5487
G01 X29.5877 Y5.5256
G01 X29.6049 Y5.5138
G01 X29.6318 Y5.4976
G01 X29.6439 Y5.4907
G01 X29.6785 Y5.4740
G01 X29.6996 Y5.4650
G01 X29.6996 Y3.4560
G01 X29.2325 Y2.9889
G01 X23.8085 Y2.9889
G01 X21.9079 Y4.8895
G01 X21.9079 Y9.3745
G01 X21.9258 Y9.3810
G01 X21.9449 Y9.3892
G01 X22.0780 Y9.4521
G01 X22.0903 Y9.4583
G01 X22.1024 Y9.4652
G01 X22.2287 Y9.5408
G01 X22.2404 Y9.5483
G01 X22.2517 Y9.5563
G01 X22.3700 Y9.6439
G01 X22.3809 Y9.6525
G01 X22.3914 Y9.6615
G01 X22.5005 Y9.7604
G01 X22.5105 Y9.7700
G01 X22.5201 Y9.7800
G01 X22.6190 Y9.8891
G01 X22.6280 Y9.8996
G01 X22.6366 Y9.9105
G01 X22.7242 Y10.0288
G01 X22.7323 Y10.0402
G01 X22.7397 Y10.0518
G01 X22.8153 Y10.1781
G01 X22.8222 Y10.1902
G01 X22.8284 Y10.2025
G01 X22.8913 Y10.3356
G01 X22.8970 Y10.3483
G01 X22.9020 Y10.3612
G01 X22.9516 Y10.4998
G01 X22.9559 Y10.5130
G01 X22.9596 Y10.5264
G01 X22.9954 Y10.6692
G01 X22.9984 Y10.6827
G01 X23.0008 Y10.6964
G01 X23.0224 Y10.8420
G01 X23.0241 Y10.8558
G01 X23.0251 Y10.8696
G01 X23.0323 Y11.0166
G01 X23.0326 Y11.0374
G01 X23.0251 Y11.1914
G01 X23.0241 Y11.2052
G01 X23.0224 Y11.2190
G01 X23.0008 Y11.3646
G01 X22.9984 Y11.3783
G01 X22.9954 Y11.3918
G01 X22.9596 Y11.5346
G01 X22.9559 Y11.5480
G01 X22.9516 Y11.5612
G01 X22.9020 Y11.6998
G01 X22.8970 Y11.7127
G01 X22.8913 Y11.7254
G01 X22.8254 Y11.8647
G01 X22.8153 Y11.8829
G01 X22.7397 Y12.0092
G01 X22.7322 Y12.0209
G01 X22.7242 Y12.0322
G01 X22.6366 Y12.1505
G01 X22.6236 Y12.1667
G01 X22.5201 Y12.2810
G01 X22.5105 Y12.2910
G01 X22.5005 Y12.3006
G01 X22.3914 Y12.3995
G01 X22.3809 Y12.4085
G01 X22.3700 Y12.4171
G01 X22.2840 Y12.4808
G01 X22.2856 Y14.0165
G01 X22.3074 Y14.0327
G01 X22.3181 Y14.0416
G01 X22.3866 Y14.1036
G01 X22.4011 Y14.1185
G01 X22.4584 Y14.1819
G01 X22.4715 Y14.1981
G01 X22.5182 Y14.2612
G01 X22.5262 Y14.2725
G01 X22.5336 Y14.2842
G01 X22.5775 Y14.3576
G01 X22.5871 Y14.3760
G01 X22.6206 Y14.4470
G01 X22.6263 Y14.4597
G01 X22.6312 Y14.4726
G01 X22.6577 Y14.5465
G01 X22.6621 Y14.5597
G01 X22.6658 Y14.5731
G01 X22.6848 Y14.6492
G01 X22.6879 Y14.6628
G01 X22.6902 Y14.6765
G01 X22.7018 Y14.7541
G01 X22.7041 Y14.7748
G01 X22.7083 Y14.8601
G01 X22.7087 Y14.8740
G01 X22.7087 Y17.4740
G01 X22.7083 Y17.4879
G01 X22.7045 Y17.5663
G01 X22.7035 Y17.5801
G01 X22.7018 Y17.5939
G01 X22.6891 Y17.6784
G01 X22.6848 Y17.6988
G01 X22.6658 Y17.7749
G01 X22.6621 Y17.7883
G01 X22.6577 Y17.8015
G01 X22.6312 Y17.8754
G01 X22.6263 Y17.8883
G01 X22.6206 Y17.9010
G01 X22.5840 Y17.9782
G01 X22.5740 Y17.9964
G01 X22.5336 Y18.0638
G01 X22.5262 Y18.0755
G01 X22.5182 Y18.0868
G01 X22.4715 Y18.1499
G01 X22.4629 Y18.1608
G01 X22.4539 Y18.1713
G01 X22.4011 Y18.2295
G01 X22.3916 Y18.2396
G01 X22.3815 Y18.2491
G01 X22.3233 Y18.3019
G01 X22.3074 Y18.3153
G01 X22.2388 Y18.3662
G01 X22.2275 Y18.3742
G01 X22.2158 Y18.3816
G01 X22.1484 Y18.4220
G01 X22.1364 Y18.4288
G01 X22.1240 Y18.4351
G01 X22.0530 Y18.4686
G01 X22.0403 Y18.4743
G01 X22.0274 Y18.4792
G01 X21.9535 Y18.5057
G01 X21.9397 Y18.5102
G01 X21.9269 Y18.5138
G01 X21.8508 Y18.5328
G01 X21.8304 Y18.5371
G01 X21.7459 Y18.5498
G01 X21.7321 Y18.5515
G01 X21.7183 Y18.5525
G01 X21.6399 Y18.5563
G01 X21.6260 Y18.5567
G01 X21.6121 Y18.5563
G01 X21.5337 Y18.5525
G01 X21.5199 Y18.5515
G01 X21.5061 Y18.5498
G01 X21.4285 Y18.5382
G01 X21.4148 Y18.5359
G01 X21.4012 Y18.5328
G01 X21.3251 Y18.5138
G01 X21.3117 Y18.5101
G01 X21.2985 Y18.5057
G01 X21.2246 Y18.4792
G01 X21.2117 Y18.4743
G01 X21.1990 Y18.4686
G01 X21.1280 Y18.4351
G01 X21.1156 Y18.4288
G01 X21.1036 Y18.4220
G01 X21.0362 Y18.3816
G01 X21.0245 Y18.3742
G01 X21.0132 Y18.3662
G01 X20.9501 Y18.3195
G01 X20.9392 Y18.3109
G01 X20.9287 Y18.3019
G01 X20.8705 Y18.2491
G01 X20.8604 Y18.2396
G01 X20.8509 Y18.2295
G01 X20.7981 Y18.1713
G01 X20.7891 Y18.1608
G01 X20.7805 Y18.1499
G01 X20.7338 Y18.0868
G01 X20.7258 Y18.0755
G01 X20.7184 Y18.0638
G01 X20.6780 Y17.9964
G01 X20.6712 Y17.9844
G01 X20.6649 Y17.9720
G01 X20.6314 Y17.9010
G01 X20.6257 Y17.8883
G01 X20.6208 Y17.8754
G01 X20.5943 Y17.8015
G01 X20.5902 Y17.7890
G01 X20.5862 Y17.7749
G01 X20.5672 Y17.6988
G01 X20.5641 Y17.6852
G01 X20.5618 Y17.6715
G01 X20.5493 Y17.5870
G01 X20.5475 Y17.5663
G01 X20.5437 Y17.4879
G01 X20.5433 Y17.4740
G01 X20.5433 Y14.8740
G01 X20.5437 Y14.8601
G01 X20.5475 Y14.7817
G01 X20.5485 Y14.7679
G01 X20.5502 Y14.7541
G01 X20.5618 Y14.6765
G01 X20.5641 Y14.6628
G01 X20.5672 Y14.6492
G01 X20.5862 Y14.5731
G01 X20.5899 Y14.5597
G01 X20.5943 Y14.5465
G01 X20.6208 Y14.4726
G01 X20.6257 Y14.4597
G01 X20.6314 Y14.4470
G01 X20.6649 Y14.3760
G01 X20.6745 Y14.3576
G01 X20.7184 Y14.2842
G01 X20.7258 Y14.2725
G01 X20.7338 Y14.2612
G01 X20.7805 Y14.1981
G01 X20.7936 Y14.1819
G01 X20.8509 Y14.1185
G01 X20.8654 Y14.1036
G01 X20.9339 Y14.0416
G01 X20.9446 Y14.0327
G01 X20.9681 Y14.0152
G01 X20.9675 Y12.7889
G01 X20.9159 Y12.7813
G01 X20.8954 Y12.7775
G01 X20.7459 Y12.7401
G01 X20.7259 Y12.7343
G01 X20.5807 Y12.6825
G01 X20.5678 Y12.6775
G01 X20.5551 Y12.6718
G01 X20.4158 Y12.6059
G01 X20.3976 Y12.5958
G01 X20.2713 Y12.5202
G01 X20.2596 Y12.5127
G01 X20.2483 Y12.5047
G01 X20.1300 Y12.4171
G01 X20.1191 Y12.4085
G01 X20.1086 Y12.3995
G01 X19.9995 Y12.3006
G01 X19.9846 Y12.2861
G01 X19.8810 Y12.1719
G01 X19.8720 Y12.1614
G01 X19.8634 Y12.1505
G01 X19.7758 Y12.0322
G01 X19.7678 Y12.0209
G01 X19.7603 Y12.0092
G01 X19.6847 Y11.8829
G01 X19.6778 Y11.8708
G01 X19.6716 Y11.8585
G01 X19.6087 Y11.7254
G01 X19.6030 Y11.7127
G01 X19.5980 Y11.6998
G01 X19.5484 Y11.5612
G01 X19.5441 Y11.5480
G01 X19.5404 Y11.5346
G01 X19.5046 Y11.3918
G01 X19.5017 Y11.3789
G01 X19.4992 Y11.3646
G01 X19.4776 Y11.2190
G01 X19.4753 Y11.1983
G01 X19.4677 Y11.0444
G01 X19.4673 Y11.0305
G01 X19.4677 Y11.0166
G01 X19.4749 Y10.8696
G01 X19.4759 Y10.8558
G01 X19.4776 Y10.8420
G01 X19.4992 Y10.6964
G01 X19.5016 Y10.6827
G01 X19.5046 Y10.6692
G01 X19.5404 Y10.5264
G01 X19.5441 Y10.5130
G01 X19.5484 Y10.4998
G01 X19.5980 Y10.3612
G01 X19.6030 Y10.3483
G01 X19.6087 Y10.3356
G01 X19.6716 Y10.2025
G01 X19.6778 Y10.1902
G01 X19.6847 Y10.1781
G01 X19.7603 Y10.0518
G01 X19.7678 Y10.0401
G01 X19.7758 Y10.0288
G01 X19.8634 Y9.9105
G01 X19.8720 Y9.8996
G01 X19.8810 Y9.8891
G01 X19.9799 Y9.7800
G01 X19.9895 Y9.7700
G01 X19.9995 Y9.7604
G01 X20.1086 Y9.6615
G01 X20.1191 Y9.6525
G01 X20.1300 Y9.6439
G01 X20.2483 Y9.5563
G01 X20.2597 Y9.5482
G01 X20.2713 Y9.5408
G01 X20.3976 Y9.4652
G01 X20.4097 Y9.4583
G01 X20.4220 Y9.4521
G01 X20.5551 Y9.3892
G01 X20.5742 Y9.3810
G01 X20.5921 Y9.3745
G01 X20.5921 Y5.2114
G01 X6.9175 Y5.2114
G01 X2.6039 Y9.5250
G01 X2.6039 Y42.7620
G01 X15.6950 Y55.8531
G01 X45.0762 Y55.8531
G01 X45.0847 Y55.8428
G01 X45.1058 Y55.8194
G01 X45.1153 Y55.8093
G01 X45.1254 Y55.7998
G01 X45.1541 Y55.7742
G01 X45.1650 Y55.7657
G01 X45.1961 Y55.7431
G01 X45.2288 Y55.7231
G01 X45.2409 Y55.7162
G01 X45.2755 Y55.6995
G01 X45.2882 Y55.6939
G01 X45.3011 Y55.6889
G01 X45.3308 Y55.6784
G01 X45.3440 Y55.6743
G01 X45.3813 Y55.6650
G01 X45.4018 Y55.6612
G01 X45.4408 Y55.6558
G01 X45.4851 Y55.6534
G01 X46.0696 Y55.6533
G01 X46.1000 Y55.6257
G01 X46.1105 Y55.6166
G01 X46.1214 Y55.6081
G01 X46.1624 Y55.5782
G01 X46.2057 Y55.5518
G01 X46.2177 Y55.5450
G01 X46.2301 Y55.5387
G01 X46.2697 Y55.5201
G01 X46.2890 Y55.5124
G01 X46.3303 Y55.4977
G01 X46.3435 Y55.4937
G01 X46.3860 Y55.4830
G01 X46.3995 Y55.4799
G01 X46.4132 Y55.4776
G01 X46.4570 Y55.4712
G01 X46.4717 Y55.4698
G01 X46.5140 Y55.4676
G01 X46.5277 Y55.4673
G01 X50.3980 Y55.4654
G01 X50.4142 Y55.4437
G01 X50.4231 Y55.4330
G01 X50.4851 Y55.3646
G01 X50.5000 Y55.3500
G01 X50.5634 Y55.2927
G01 X50.5796 Y55.2797
G01 X50.6427 Y55.2329
G01 X50.6540 Y55.2249
G01 X50.6657 Y55.2175
G01 X50.7331 Y55.1772
G01 X50.7513 Y55.1671
G01 X50.8285 Y55.1305
G01 X50.8412 Y55.1249
G01 X50.8541 Y55.1199
G01 X50.9280 Y55.0935
G01 X50.9412 Y55.0891
G01 X50.9546 Y55.0854
G01 X51.0307 Y55.0663
G01 X51.0443 Y55.0633
G01 X51.0580 Y55.0609
G01 X51.1356 Y55.0494
G01 X51.1494 Y55.0477
G01 X51.1632 Y55.0467
G01 X51.2416 Y55.0428
G01 X51.2555 Y55.0425
G01 X53.8555 Y55.0425
G01 X53.8694 Y55.0428
G01 X53.9478 Y55.0467
G01 X53.9616 Y55.0477
G01 X53.9754 Y55.0494
G01 X54.0530 Y55.0609
G01 X54.0735 Y55.0647
G01 X54.1564 Y55.0854
G01 X54.1698 Y55.0891
G01 X54.1830 Y55.0935
G01 X54.2569 Y55.1199
G01 X54.2698 Y55.1249
G01 X54.2825 Y55.1305
G01 X54.3535 Y55.1641
G01 X54.3719 Y55.1737
G01 X54.4453 Y55.2175
G01 X54.4570 Y55.2249
G01 X54.4683 Y55.2329
G01 X54.5314 Y55.2797
G01 X54.5423 Y55.2882
G01 X54.5528 Y55.2973
G01 X54.6110 Y55.3500
G01 X54.6211 Y55.3596
G01 X54.6306 Y55.3696
G01 X54.6834 Y55.4278
G01 X54.6924 Y55.4383
G01 X54.7010 Y55.4493
G01 X54.7540 Y55.5211
G01 X58.1315 Y55.5211
G01 X58.1380 Y55.5032
G01 X58.1462 Y55.4841
G01 X58.2091 Y55.3510
G01 X58.2153 Y55.3387
G01 X58.2222 Y55.3266
G01 X58.2978 Y55.2003
G01 X58.3053 Y55.1886
G01 X58.3133 Y55.1773
G01 X58.4009 Y55.0590
G01 X58.4095 Y55.0481
G01 X58.4185 Y55.0376
G01 X58.5174 Y54.9285
G01 X58.5270 Y54.9185
G01 X58.5370 Y54.9089
G01 X58.6461 Y54.8100
G01 X58.6566 Y54.8010
G01 X58.6675 Y54.7924
G01 X58.7858 Y54.7048
G01 X58.7972 Y54.6967
G01 X58.8088 Y54.6893
G01 X58.9351 Y54.6137
G01 X58.9472 Y54.6068
G01 X58.9595 Y54.6006
G01 X59.0926 Y54.5377
G01 X59.1053 Y54.5320
G01 X59.1182 Y54.5270
G01 X59.2568 Y54.4774
G01 X59.2700 Y54.4731
G01 X59.2834 Y54.4694
G01 X59.4262 Y54.4336
G01 X59.4391 Y54.4307
G01 X59.4534 Y54.4282
G01 X59.5990 Y54.4066
G01 X59.6128 Y54.4049
G01 X59.6266 Y54.4039
G01 X59.7736 Y54.3967
G01 X59.7944 Y54.3964
G01 X59.9484 Y54.4039
G01 X59.9622 Y54.4049
G01 X59.9760 Y54.4066
G01 X60.1216 Y54.4282
G01 X60.1353 Y54.4306
G01 X60.1488 Y54.4336
G01 X60.2916 Y54.4694
G01 X60.3050 Y54.4731
G01 X60.3182 Y54.4774
G01 X60.4568 Y54.5270
G01 X60.4697 Y54.5320
G01 X60.4824 Y54.5377
G01 X60.6155 Y54.6006
G01 X60.6278 Y54.6068
G01 X60.6399 Y54.6137
G01 X60.7662 Y54.6893
G01 X60.7779 Y54.6968
G01 X60.7892 Y54.7048
G01 X60.9075 Y54.7924
G01 X60.9184 Y54.8010
G01 X60.9289 Y54.8100
G01 X61.0380 Y54.9089
G01 X61.0480 Y54.9185
G01 X61.0576 Y54.9285
G01 X61.1565 Y55.0376
G01 X61.1655 Y55.0481
G01 X61.1741 Y55.0590
G01 X61.2617 Y55.1773
G01 X61.2698 Y55.1887
G01 X61.2772 Y55.2003
G01 X61.3528 Y55.3266
G01 X61.3597 Y55.3387
G01 X61.3659 Y55.3510
G01 X61.4288 Y55.4841
G01 X61.4345 Y55.4968
G01 X61.4395 Y55.5097
G01 X61.4891 Y55.6483
G01 X61.4934 Y55.6615
G01 X61.4971 Y55.6749
G01 X61.5329 Y55.8177
G01 X61.5359 Y55.8312
G01 X61.5383 Y55.8449
G01 X61.5599 Y55.9905
G01 X61.5616 Y56.0043
G01 X61.5626 Y56.0181
G01 X61.5698 Y56.1651
G01 X61.5702 Y56.1790
G01 X61.5698 Y56.1929
G01 X61.5626 Y56.3399
G01 X61.5616 Y56.3537
G01 X61.5599 Y56.3675
G01 X61.5383 Y56.5131
G01 X61.5359 Y56.5268
G01 X61.5329 Y56.5403
G01 X61.4971 Y56.6831
G01 X61.4934 Y56.6965
G01 X61.4891 Y56.7097
G01 X61.4395 Y56.8483
G01 X61.4345 Y56.8612
G01 X61.4288 Y56.8739
G01 X61.3659 Y57.0070
G01 X61.3597 Y57.0193
G01 X61.3528 Y57.0314
G01 X61.2772 Y57.1577
G01 X61.2697 Y57.1694
G01 X61.2617 Y57.1807
G01 X61.1741 Y57.2990
G01 X61.1655 Y57.3099
G01 X61.1565 Y57.3204
G01 X61.0576 Y57.4295
G01 X61.0480 Y57.4395
G01 X61.0380 Y57.4491
G01 X60.9289 Y57.5480
G01 X60.9184 Y57.5570
G01 X60.9075 Y57.5656
G01 X60.7892 Y57.6532
G01 X60.7779 Y57.6612
G01 X60.7662 Y57.6687
G01 X60.6399 Y57.7443
G01 X60.6278 Y57.7512
G01 X60.6155 Y57.7574
G01 X60.4824 Y57.8203
G01 X60.4697 Y57.8260
G01 X60.4568 Y57.8310
G01 X60.3182 Y57.8806
G01 X60.3050 Y57.8849
G01 X60.2916 Y57.8886
G01 X60.1488 Y57.9244
G01 X60.1359 Y57.9273
G01 X60.1230 Y57.9296
G01 X59.9760 Y57.9514
G01 X59.9622 Y57.9531
G01 X59.9484 Y57.9541
G01 X59.8014 Y57.9613
G01 X59.7875 Y57.9617
G01 X59.7736 Y57.9613
G01 X59.6266 Y57.9541
G01 X59.6128 Y57.9531
G01 X59.5990 Y57.9514
G01 X59.4534 Y57.9298
G01 X59.4397 Y57.9274
G01 X59.4262 Y57.9244
G01 X59.2834 Y57.8886
G01 X59.2700 Y57.8849
G01 X59.2568 Y57.8806
G01 X59.1182 Y57.8310
G01 X59.1053 Y57.8260
G01 X59.0926 Y57.8203
G01 X58.9595 Y57.7574
G01 X58.9472 Y57.7512
G01 X58.9351 Y57.7443
G01 X58.8088 Y57.6687
G01 X58.7971 Y57.6612
G01 X58.7858 Y57.6532
G01 X58.6675 Y57.5656
G01 X58.6566 Y57.5570
G01 X58.6461 Y57.5480
G01 X58.5370 Y57.4491
G01 X58.5270 Y57.4395
G01 X58.5174 Y57.4295
G01 X58.4185 Y57.3204
G01 X58.4095 Y57.3099
G01 X58.4009 Y57.2990
G01 X58.3133 Y57.1807
G01 X58.3053 Y57.1694
G01 X58.2978 Y57.1577
G01 X58.2222 Y57.0314
G01 X58.2153 Y57.0193
G01 X58.2091 Y57.0070
G01 X58.1462 Y56.8739
G01 X58.1380 Y56.8548
G01 X58.1315 Y56.8369
G01 X54.6703 Y56.8369
G01 X54.6306 Y56.8807
G01 X54.6161 Y56.8956
G01 X54.5528 Y56.9530
G01 X54.5369 Y56.9664
G01 X54.4683 Y57.0174
G01 X54.4570 Y57.0254
G01 X54.4453 Y57.0328
G01 X54.3779 Y57.0731
G01 X54.3597 Y57.0832
G01 X54.2825 Y57.1198
G01 X54.2698 Y57.1254
G01 X54.2569 Y57.1304
G01 X54.1830 Y57.1568
G01 X54.1705 Y57.1610
G01 X54.1564 Y57.1649
G01 X54.0803 Y57.1840
G01 X54.0667 Y57.1870
G01 X54.0530 Y57.1894
G01 X53.9754 Y57.2009
G01 X53.9616 Y57.2026
G01 X53.9478 Y57.2036
G01 X53.8694 Y57.2075
G01 X53.8555 Y57.2078
G01 X51.2555 Y57.2078
G01 X51.2416 Y57.2075
G01 X51.1632 Y57.2036
G01 X51.1494 Y57.2026
G01 X51.1356 Y57.2009
G01 X51.0580 Y57.1894
G01 X51.0443 Y57.1870
G01 X51.0307 Y57.1840
G01 X50.9546 Y57.1649
G01 X50.9412 Y57.1612
G01 X50.9280 Y57.1568
G01 X50.8541 Y57.1304
G01 X50.8412 Y57.1254
G01 X50.8285 Y57.1198
G01 X50.7513 Y57.0832
G01 X50.7331 Y57.0731
G01 X50.6657 Y57.0328
G01 X50.6540 Y57.0254
G01 X50.6427 Y57.0174
G01 X50.5796 Y56.9706
G01 X50.5634 Y56.9576
G01 X50.5000 Y56.9003
G01 X50.4851 Y56.8857
G01 X50.4231 Y56.8173
G01 X50.4142 Y56.8066
G01 X50.3967 Y56.7830
G01 X47.3247 Y56.7830
G01 X47.3246 Y56.8429
G01 X47.3227 Y56.8813
G01 X47.3213 Y56.8951
G01 X47.3157 Y56.9331
G01 X47.3130 Y56.9467
G01 X47.3037 Y56.9840
G01 X47.2974 Y57.0038
G01 X47.2867 Y57.0334
G01 X47.2814 Y57.0462
G01 X47.2650 Y57.0809
G01 X47.2549 Y57.0992
G01 X47.2349 Y57.1319
G01 X47.2123 Y57.1630
G01 X47.1993 Y57.1792
G01 X47.1782 Y57.2026
G01 X47.1637 Y57.2175
G01 X47.1352 Y57.2433
G01 X47.1245 Y57.2521
G01 X47.0937 Y57.2750
G01 X47.0821 Y57.2827
G01 X47.0492 Y57.3024
G01 X47.0369 Y57.3090
G01 X47.0022 Y57.3254
G01 X46.9829 Y57.3331
G01 X46.9466 Y57.3457
G01 X46.9095 Y57.3554
G01 X46.8959 Y57.3584
G01 X46.8822 Y57.3608
G01 X46.8442 Y57.3661
G01 X46.8059 Y57.3683
G01 X46.7920 Y57.3687
G01 X45.4920 Y57.3687
G01 X45.4536 Y57.3671
G01 X45.4329 Y57.3653
G01 X45.3949 Y57.3597
G01 X45.3813 Y57.3570
G01 X45.3440 Y57.3477
G01 X45.3308 Y57.3436
G01 X45.2946 Y57.3307
G01 X45.2818 Y57.3254
G01 X45.2471 Y57.3090
G01 X45.2348 Y57.3024
G01 X45.2019 Y57.2827
G01 X45.1903 Y57.2750
G01 X45.1595 Y57.2521
G01 X45.1488 Y57.2433
G01 X45.1203 Y57.2175
G01 X45.1105 Y57.2077
G01 X45.0847 Y57.1792
G01 X45.0762 Y57.1689
G01 X15.4225 Y57.1689
G01 X15.4086 Y57.1685
G01 X15.3580 Y57.1657
G01 X15.3078 Y57.1586
G01 X15.2942 Y57.1562
G01 X15.2806 Y57.1532
G01 X15.2315 Y57.1405
G01 X15.1837 Y57.1238
G01 X15.1644 Y57.1160
G01 X15.1248 Y57.0974
G01 X15.1124 Y57.0912
G01 X15.1003 Y57.0843
G01 X15.0570 Y57.0580
G01 X15.0161 Y57.0281
G01 X15.0052 Y57.0195
G01 X14.9947 Y57.0105
G01 X14.9573 Y56.9762
G01 X1.4808 Y43.4997
G01 X1.4713 Y43.4896
G01 X1.4419 Y43.4571
G01 X1.4289 Y43.4409
G01 X1.4070 Y43.4113
G01 X1.3989 Y43.3999
G01 X1.3727 Y43.3567
G01 X1.3626 Y43.3385
G01 X1.3438 Y43.2989
G01 X1.3382 Y43.2863
G01 X1.3208 Y43.2386
G01 X1.3145 Y43.2188
G01 X1.3038 Y43.1764
G01 X1.3008 Y43.1628
G01 X1.2930 Y43.1128
G01 X1.2907 Y43.0921
G01 X1.2885 Y43.0484
G01 X1.2881 Y43.0345
G01 X1.2881 Y9.2525
G01 X1.2885 Y9.2386
G00 Z2.0000
G00 X1.4481 Y9.2465
G01 F50.00
G01 Z-0.1300
G01 F70.00
G01 X1.4503 Y9.2037
G01 X1.4575 Y9.1553
G01 X1.4694 Y9.1079
G01 X1.4858 Y9.0619
G01 X1.5067 Y9.0177
G01 X1.5319 Y8.9758
G01 X1.5610 Y8.9365
G01 X1.5938 Y8.9003
G01 X6.2950 Y4.1992
G01 X6.3290 Y4.1685
G01 X6.3633 Y4.1428
G01 X6.3734 Y4.1361
G01 X6.4102 Y4.1142
G01 X6.4544 Y4.0933
G01 X6.4947 Y4.0788
G01 X6.5062 Y4.0753
G01 X6.5419 Y4.0663
G01 X6.5538 Y4.0640
G01 X6.5962 Y4.0578
G01 X6.6450 Y4.0554
G01 X21.1072 Y4.0554
G01 X23.1860 Y1.9767
G01 X23.2200 Y1.9460
G01 X23.2593 Y1.9169
G01 X23.3012 Y1.8917
G01 X23.3399 Y1.8733
G01 X23.3510 Y1.8687
G01 X23.3914 Y1.8544
G01 X23.4329 Y1.8438
G01 X23.4448 Y1.8415
G01 X23.4812 Y1.8360
G01 X23.4932 Y1.8349
G01 X23.5360 Y1.8329
G01 X36.7643 Y1.8324
G01 X36.7738 Y1.8172
G01 X36.8261 Y1.7469
G01 X36.8869 Y1.6798
G01 X36.9540 Y1.6190
G01 X37.0218 Y1.5685
G01 X37.0319 Y1.5618
G01 X37.0992 Y1.5214
G01 X37.1098 Y1.5157
G01 X37.1863 Y1.4797
G01 X37.2659 Y1.4511
G01 X37.2774 Y1.4476
G01 X37.3595 Y1.4272
G01 X37.4460 Y1.4143
G01 X37.4551 Y1.4135
G01 X37.5395 Y1.4095
G01 X40.1395 Y1.4095
G01 X40.2239 Y1.4135
G01 X40.2359 Y1.4147
G01 X40.3195 Y1.4272
G01 X40.4016 Y1.4476
G01 X40.4131 Y1.4511
G01 X40.4927 Y1.4797
G01 X40.5746 Y1.5185
G01 X40.6471 Y1.5618
G01 X40.6572 Y1.5685
G01 X40.7250 Y1.6190
G01 X40.7877 Y1.6756
G01 X40.7962 Y1.6842
G01 X40.8529 Y1.7469
G01 X40.9052 Y1.8172
G01 X40.9150 Y1.8329
G01 X47.7960 Y1.8329
G01 X47.8418 Y1.8353
G01 X47.8902 Y1.8425
G01 X47.9376 Y1.8544
G01 X47.9780 Y1.8687
G01 X47.9891 Y1.8733
G01 X48.0224 Y1.8890
G01 X48.0330 Y1.8947
G01 X48.0697 Y1.9169
G01 X48.1090 Y1.9460
G01 X48.1452 Y1.9788
G01 X52.6515 Y6.4851
G01 X52.9295 Y6.4851
G01 X52.9570 Y6.4865
G01 X52.9660 Y6.4872
G01 X52.9963 Y6.4917
G01 X53.0051 Y6.4936
G01 X53.0347 Y6.5012
G01 X53.0692 Y6.5135
G01 X53.1023 Y6.5291
G01 X53.1286 Y6.5447
G01 X53.1386 Y6.5514
G01 X53.1654 Y6.5717
G01 X53.1902 Y6.5943
G01 X53.2128 Y6.6191
G01 X53.2331 Y6.6459
G01 X53.2398 Y6.6559
G01 X53.2554 Y6.6822
G01 X53.2710 Y6.7153
G01 X53.2833 Y6.7498
G01 X53.2909 Y6.7794
G01 X53.2933 Y6.7912
G01 X53.2979 Y6.8245
G01 X53.2994 Y6.8580
G01 X53.2994 Y7.7830
G01 X53.2976 Y7.8195
G01 X53.2922 Y7.8557
G01 X53.2850 Y7.8854
G01 X53.2824 Y7.8941
G01 X53.2732 Y7.9201
G01 X53.2686 Y7.9312
G01 X53.2554 Y7.9588
G01 X53.2366 Y7.9902
G01 X53.2148 Y8.0196
G01 X53.1902 Y8.0467
G01 X53.1631 Y8.0713
G01 X53.1386 Y8.0896
G01 X53.1311 Y8.0947
G01 X53.1075 Y8.1089
G01 X53.0969 Y8.1146
G01 X53.0691 Y8.1276
G01 X53.0347 Y8.1398
G01 X52.9992 Y8.1487
G01 X52.9660 Y8.1538
G01 X52.9570 Y8.1545
G01 X52.9265 Y8.1559
G01 X51.6765 Y8.1559
G01 X51.6460 Y8.1545
G01 X51.6340 Y8.1534
G01 X51.6067 Y8.1493
G01 X51.5979 Y8.1474
G01 X51.5683 Y8.1398
G01 X51.5338 Y8.1275
G01 X51.5007 Y8.1119
G01 X51.4744 Y8.0963
G01 X51.4644 Y8.0896
G01 X51.4376 Y8.0693
G01 X51.4128 Y8.0467
G01 X51.3922 Y8.0241
G01 X51.3864 Y8.0172
G01 X51.3699 Y7.9951
G01 X51.3648 Y7.9876
G01 X51.3491 Y7.9614
G01 X51.3449 Y7.9534
G01 X51.3331 Y7.9284
G01 X51.3298 Y7.9201
G01 X51.3197 Y7.8912
G01 X51.3121 Y7.8616
G01 X51.3102 Y7.8528
G01 X51.3057 Y7.8225
G01 X51.3037 Y7.7890
G01 X51.3036 Y6.8580
G01 X51.3051 Y6.8245
G01 X51.3097 Y6.7912
G01 X51.3121 Y6.7794
G01 X51.3197 Y6.7498
G01 X51.3309 Y6.7181
G01 X51.3449 Y6.6876
G01 X51.3506 Y6.6770
G01 X51.3664 Y6.6508
G01 X51.3842 Y6.6266
G01 X47.5867 Y2.8291
G01 X45.1161 Y2.8291
G01 X45.1161 Y21.8732
G01 X45.5782 Y22.3353
G01 X45.6091 Y22.3692
G01 X45.6147 Y22.3763
G01 X45.6401 Y22.4108
G01 X45.6653 Y22.4527
G01 X45.6862 Y22.4969
G01 X45.7007 Y22.5372
G01 X45.7042 Y22.5487
G01 X45.7132 Y22.5844
G01 X45.7155 Y22.5963
G01 X45.7217 Y22.6391
G01 X45.7241 Y22.6845
G01 X45.7241 Y24.2583
G01 X45.7612 Y24.2638
G01 X45.7909 Y24.2710
G01 X45.7996 Y24.2736
G01 X45.8256 Y24.2828
G01 X45.8367 Y24.2874
G01 X45.8643 Y24.3006
G01 X45.8957 Y24.3194
G01 X45.9251 Y24.3412
G01 X45.9522 Y24.3658
G01 X45.9768 Y24.3929
G01 X45.9951 Y24.4174
G01 X46.0002 Y24.4249
G01 X46.0144 Y24.4485
G01 X46.0201 Y24.4591
G01 X46.0330 Y24.4868
G01 X46.0453 Y24.5213
G01 X46.0542 Y24.5568
G01 X46.0589 Y24.5870
G01 X46.0600 Y24.5990
G01 X46.0614 Y24.6295
G01 X46.0614 Y25.8795
G01 X46.0596 Y25.9160
G01 X46.0542 Y25.9522
G01 X46.0453 Y25.9877
G01 X46.0352 Y26.0166
G01 X46.0306 Y26.0277
G01 X46.0188 Y26.0526
G01 X46.0144 Y26.0605
G01 X45.9986 Y26.0867
G01 X45.9768 Y26.1161
G01 X45.9522 Y26.1432
G01 X45.9296 Y26.1638
G01 X45.9203 Y26.1715
G01 X45.8982 Y26.1878
G01 X45.8906 Y26.1928
G01 X45.8643 Y26.2084
G01 X45.8311 Y26.2241
G01 X45.7967 Y26.2363
G01 X45.7671 Y26.2439
G01 X45.7553 Y26.2463
G01 X45.7220 Y26.2509
G01 X45.6885 Y26.2524
G01 X44.7635 Y26.2524
G01 X44.7270 Y26.2506
G01 X44.6937 Y26.2458
G01 X44.6849 Y26.2439
G01 X44.6553 Y26.2363
G01 X44.6264 Y26.2262
G01 X44.6153 Y26.2216
G01 X44.5877 Y26.2084
G01 X44.5614 Y26.1928
G01 X44.5514 Y26.1861
G01 X44.5269 Y26.1678
G01 X44.5042 Y26.1473
G01 X44.4957 Y26.1388
G01 X44.4752 Y26.1161
G01 X44.4569 Y26.0916
G01 X44.4502 Y26.0816
G01 X44.4346 Y26.0553
G01 X44.4214 Y26.0277
G01 X44.4178 Y26.0192
G01 X44.4067 Y25.9877
G01 X44.3978 Y25.9522
G01 X44.3924 Y25.9160
G01 X44.3906 Y25.8825
G01 X44.3906 Y24.6295
G01 X44.3924 Y24.5930
G01 X44.3978 Y24.5568
G01 X44.4067 Y24.5213
G01 X44.4190 Y24.4868
G01 X44.4319 Y24.4591
G01 X44.4376 Y24.4485
G01 X44.4518 Y24.4249
G01 X44.4569 Y24.4174
G01 X44.4752 Y24.3929
G01 X44.4998 Y24.3658
G01 X44.5269 Y24.3412
G01 X44.5563 Y24.3194
G01 X44.5877 Y24.3006
G01 X44.6153 Y24.2874
G01 X44.6264 Y24.2828
G01 X44.6524 Y24.2736
G01 X44.6611 Y24.2710
G01 X44.6908 Y24.2638
G01 X44.7279 Y24.2583
G01 X44.7279 Y22.8938
G01 X44.2658 Y22.4317
G01 X44.2369 Y22.4001
G01 X44.2311 Y22.3931
G01 X44.2038 Y22.3562
G01 X44.1817 Y22.3195
G01 X44.1760 Y22.3089
G01 X44.1578 Y22.2701
G01 X44.1414 Y22.2241
G01 X44.1308 Y22.1826
G01 X44.1285 Y22.1707
G01 X44.1230 Y22.1343
G01 X44.1221 Y22.1253
G01 X44.1199 Y22.0795
G01 X44.1199 Y2.8291
G01 X44.0129 Y2.8291
G01 X43.9816 Y2.8305
G01 X40.9158 Y2.8305
G01 X40.9052 Y2.8476
G01 X40.8529 Y2.9179
G01 X40.7962 Y2.9806
G01 X40.7877 Y2.9891
G01 X40.7250 Y3.0458
G01 X40.6572 Y3.0963
G01 X40.6471 Y3.1030
G01 X40.5746 Y3.1463
G01 X40.4927 Y3.1850
G01 X40.4131 Y3.2137
G01 X40.4016 Y3.2172
G01 X40.3195 Y3.2376
G01 X40.2359 Y3.2501
G01 X40.2239 Y3.2513
G01 X40.1395 Y3.2553
G01 X37.5395 Y3.2553
G01 X37.4551 Y3.2513
G01 X37.4460 Y3.2505
G01 X37.3654 Y3.2386
G01 X37.3536 Y3.2362
G01 X37.2716 Y3.2155
G01 X37.1919 Y3.1872
G01 X37.1808 Y3.1826
G01 X37.1044 Y3.1463
G01 X37.0293 Y3.1014
G01 X37.0218 Y3.0963
G01 X36.9540 Y3.0458
G01 X36.8869 Y2.9850
G01 X36.8300 Y2.9224
G01 X36.8242 Y2.9155
G01 X36.7738 Y2.8476
G01 X36.7624 Y2.8291
G01 X30.7075 Y2.8291
G01 X30.7139 Y2.8357
G01 X30.7425 Y2.8675
G01 X30.7716 Y2.9068
G01 X30.7968 Y2.9487
G01 X30.8152 Y2.9874
G01 X30.8198 Y2.9985
G01 X30.8341 Y3.0389
G01 X30.8447 Y3.0804
G01 X30.8470 Y3.0923
G01 X30.8525 Y3.1287
G01 X30.8536 Y3.1407
G01 X30.8556 Y3.1835
G01 X30.8556 Y5.5893
G01 X30.8927 Y5.5948
G01 X30.9282 Y5.6037
G01 X30.9627 Y5.6160
G01 X30.9904 Y5.6289
G01 X30.9984 Y5.6331
G01 X31.0246 Y5.6488
G01 X31.0518 Y5.6685
G01 X31.0589 Y5.6742
G01 X31.0793 Y5.6927
G01 X31.0878 Y5.7012
G01 X31.1083 Y5.7239
G01 X31.1301 Y5.7533
G01 X31.1489 Y5.7847
G01 X31.1646 Y5.8179
G01 X31.1768 Y5.8523
G01 X31.1857 Y5.8878
G01 X31.1911 Y5.9240
G01 X31.1929 Y5.9575
G01 X31.1929 Y7.2105
G01 X31.1911 Y7.2470
G01 X31.1868 Y7.2773
G01 X31.1851 Y7.2862
G01 X31.1768 Y7.3187
G01 X31.1645 Y7.3532
G01 X31.1489 Y7.3863
G01 X31.1333 Y7.4126
G01 X31.1283 Y7.4202
G01 X31.1120 Y7.4423
G01 X31.1043 Y7.4516
G01 X31.0837 Y7.4742
G01 X31.0566 Y7.4988
G01 X31.0272 Y7.5206
G01 X31.0010 Y7.5364
G01 X30.9931 Y7.5408
G01 X30.9682 Y7.5526
G01 X30.9571 Y7.5572
G01 X30.9282 Y7.5673
G01 X30.8927 Y7.5762
G01 X30.8565 Y7.5816
G01 X30.8200 Y7.5834
G01 X29.8950 Y7.5834
G01 X29.8585 Y7.5816
G01 X29.8223 Y7.5762
G01 X29.7926 Y7.5690
G01 X29.7810 Y7.5655
G01 X29.7523 Y7.5550
G01 X29.7246 Y7.5421
G01 X29.7140 Y7.5364
G01 X29.6878 Y7.5206
G01 X29.6632 Y7.5025
G01 X29.6539 Y7.4948
G01 X29.6313 Y7.4742
G01 X29.6107 Y7.4516
G01 X29.6030 Y7.4423
G01 X29.5849 Y7.4177
G01 X29.5691 Y7.3915
G01 X29.5634 Y7.3809
G01 X29.5504 Y7.3531
G01 X29.5391 Y7.3216
G01 X29.5306 Y7.2891
G01 X29.5282 Y7.2773
G01 X29.5239 Y7.2470
G01 X29.5221 Y7.2105
G01 X29.5221 Y5.9605
G01 X29.5239 Y5.9240
G01 X29.5287 Y5.8907
G01 X29.5365 Y5.8581
G01 X29.5400 Y5.8465
G01 X29.5505 Y5.8178
G01 X29.5661 Y5.7847
G01 X29.5849 Y5.7533
G01 X29.6030 Y5.7287
G01 X29.6087 Y5.7216
G01 X29.6272 Y5.7012
G01 X29.6357 Y5.6927
G01 X29.6584 Y5.6722
G01 X29.6878 Y5.6504
G01 X29.7192 Y5.6316
G01 X29.7468 Y5.6184
G01 X29.7579 Y5.6138
G01 X29.7839 Y5.6046
G01 X29.7926 Y5.6020
G01 X29.8223 Y5.5948
G01 X29.8594 Y5.5893
G01 X29.8594 Y3.3898
G01 X29.2987 Y2.8291
G01 X23.7423 Y2.8291
G01 X21.7481 Y4.8233
G01 X21.7481 Y9.4870
G01 X21.8711 Y9.5311
G01 X22.0150 Y9.5992
G01 X22.1516 Y9.6811
G01 X22.2748 Y9.7723
G01 X22.2841 Y9.7799
G01 X22.3932 Y9.8788
G01 X22.4017 Y9.8873
G01 X22.5045 Y10.0009
G01 X22.5959 Y10.1239
G01 X22.6026 Y10.1340
G01 X22.6783 Y10.2602
G01 X22.6840 Y10.2709
G01 X22.7494 Y10.4094
G01 X22.8030 Y10.5594
G01 X22.8417 Y10.7139
G01 X22.8643 Y10.8654
G01 X22.8655 Y10.8774
G01 X22.8729 Y11.0305
G01 X22.8651 Y11.1896
G01 X22.8427 Y11.3412
G01 X22.8404 Y11.3530
G01 X22.8030 Y11.5016
G01 X22.7515 Y11.6459
G01 X22.7469 Y11.6571
G01 X22.6813 Y11.7955
G01 X22.6026 Y11.9270
G01 X22.5959 Y11.9371
G01 X22.5045 Y12.0601
G01 X22.4017 Y12.1737
G01 X22.3932 Y12.1822
G01 X22.2796 Y12.2850
G01 X22.1541 Y12.3782
G01 X22.1241 Y12.3966
G01 X22.1241 Y14.0977
G01 X22.1412 Y14.1083
G01 X22.2115 Y14.1606
G01 X22.2786 Y14.2214
G01 X22.3394 Y14.2885
G01 X22.3899 Y14.3563
G01 X22.3966 Y14.3664
G01 X22.4399 Y14.4389
G01 X22.4762 Y14.5153
G01 X22.4808 Y14.5264
G01 X22.5073 Y14.6004
G01 X22.5108 Y14.6119
G01 X22.5312 Y14.6940
G01 X22.5437 Y14.7776
G01 X22.5447 Y14.7865
G01 X22.5489 Y14.8740
G01 X22.5489 Y17.4740
G01 X22.5445 Y17.5645
G01 X22.5322 Y17.6481
G01 X22.5298 Y17.6599
G01 X22.5092 Y17.7419
G01 X22.4808 Y17.8216
G01 X22.4762 Y17.8327
G01 X22.4426 Y17.9037
G01 X22.4370 Y17.9143
G01 X22.3934 Y17.9867
G01 X22.3394 Y18.0595
G01 X22.2786 Y18.1266
G01 X22.2160 Y18.1835
G01 X22.2067 Y18.1911
G01 X22.1437 Y18.2379
G01 X22.1336 Y18.2446
G01 X22.0611 Y18.2879
G01 X21.9792 Y18.3266
G01 X21.8936 Y18.3572
G01 X21.8119 Y18.3778
G01 X21.8001 Y18.3802
G01 X21.7224 Y18.3917
G01 X21.7104 Y18.3929
G01 X21.6260 Y18.3969
G01 X21.5355 Y18.3925
G01 X21.4460 Y18.3792
G01 X21.3581 Y18.3572
G01 X21.2728 Y18.3266
G01 X21.1909 Y18.2879
G01 X21.1133 Y18.2414
G01 X21.0405 Y18.1874
G01 X20.9734 Y18.1266
G01 X20.9126 Y18.0595
G01 X20.8586 Y17.9867
G01 X20.8121 Y17.9091
G01 X20.7734 Y17.8272
G01 X20.7429 Y17.7422
G01 X20.7208 Y17.6540
G01 X20.7075 Y17.5645
G01 X20.7031 Y17.4740
G01 X20.7031 Y14.8740
G01 X20.7073 Y14.7865
G01 X20.7083 Y14.7776
G01 X20.7208 Y14.6940
G01 X20.7412 Y14.6119
G01 X20.7447 Y14.6004
G01 X20.7734 Y14.5208
G01 X20.8094 Y14.4443
G01 X20.8150 Y14.4337
G01 X20.8554 Y14.3664
G01 X20.8621 Y14.3563
G01 X20.9126 Y14.2885
G01 X20.9734 Y14.2214
G01 X21.0405 Y14.1606
G01 X21.1108 Y14.1083
G01 X21.1279 Y14.0977
G01 X21.1272 Y12.6475
G01 X21.0969 Y12.6460
G01 X21.0879 Y12.6453
G01 X20.9393 Y12.6232
G01 X20.9275 Y12.6209
G01 X20.7789 Y12.5835
G01 X20.6346 Y12.5320
G01 X20.6234 Y12.5274
G01 X20.4850 Y12.4618
G01 X20.3484 Y12.3799
G01 X20.2204 Y12.2850
G01 X20.1024 Y12.1781
G01 X19.9955 Y12.0601
G01 X19.9006 Y11.9321
G01 X19.8187 Y11.7955
G01 X19.7531 Y11.6571
G01 X19.7485 Y11.6459
G01 X19.6989 Y11.5073
G01 X19.6954 Y11.4958
G01 X19.6583 Y11.3474
G01 X19.6357 Y11.1956
G01 X19.6347 Y11.1866
G01 X19.6271 Y11.0305
G01 X19.6349 Y10.8714
G01 X19.6583 Y10.7139
G01 X19.6954 Y10.5652
G01 X19.6989 Y10.5537
G01 X19.7485 Y10.4151
G01 X19.7531 Y10.4039
G01 X19.8187 Y10.2655
G01 X19.9006 Y10.1289
G01 X19.9955 Y10.0009
G01 X20.0983 Y9.8873
G01 X20.1068 Y9.8788
G01 X20.2159 Y9.7799
G01 X20.2252 Y9.7723
G01 X20.3484 Y9.6811
G01 X20.4850 Y9.5992
G01 X20.6289 Y9.5311
G01 X20.7519 Y9.4870
G01 X20.7519 Y5.0516
G01 X6.8513 Y5.0516
G01 X2.4441 Y9.4588
G01 X2.4441 Y42.8282
G01 X15.6288 Y56.0129
G01 X45.1617 Y56.0129
G01 X45.1661 Y56.0050
G01 X45.1819 Y55.9788
G01 X45.2037 Y55.9494
G01 X45.2283 Y55.9223
G01 X45.2554 Y55.8977
G01 X45.2848 Y55.8759
G01 X45.3162 Y55.8571
G01 X45.3493 Y55.8415
G01 X45.3838 Y55.8292
G01 X45.4134 Y55.8216
G01 X45.4252 Y55.8192
G01 X45.4559 Y55.8149
G01 X45.4890 Y55.8131
G01 X46.1355 Y55.8131
G01 X46.1778 Y55.7708
G01 X46.2119 Y55.7401
G01 X46.2511 Y55.7110
G01 X46.2931 Y55.6859
G01 X46.3372 Y55.6650
G01 X46.3833 Y55.6485
G01 X46.4307 Y55.6366
G01 X46.4730 Y55.6302
G01 X46.4827 Y55.6292
G01 X46.5278 Y55.6271
G01 X50.4792 Y55.6271
G01 X50.4898 Y55.6099
G01 X50.5421 Y55.5397
G01 X50.5988 Y55.4769
G01 X50.6073 Y55.4684
G01 X50.6700 Y55.4117
G01 X50.7378 Y55.3613
G01 X50.7479 Y55.3546
G01 X50.8204 Y55.3112
G01 X50.9023 Y55.2725
G01 X50.9819 Y55.2439
G01 X50.9934 Y55.2404
G01 X51.0755 Y55.2200
G01 X51.1591 Y55.2074
G01 X51.1711 Y55.2063
G01 X51.2555 Y55.2023
G01 X53.8555 Y55.2023
G01 X53.9399 Y55.2063
G01 X53.9519 Y55.2074
G01 X54.0355 Y55.2200
G01 X54.1176 Y55.2404
G01 X54.1291 Y55.2439
G01 X54.2031 Y55.2703
G01 X54.2142 Y55.2749
G01 X54.2906 Y55.3112
G01 X54.3682 Y55.3578
G01 X54.4410 Y55.4117
G01 X54.5037 Y55.4684
G01 X54.5122 Y55.4769
G01 X54.5650 Y55.5351
G01 X54.5726 Y55.5444
G01 X54.6229 Y55.6124
G01 X54.6641 Y55.6809
G01 X58.2440 Y55.6809
G01 X58.2881 Y55.5579
G01 X58.3562 Y55.4140
G01 X58.4381 Y55.2774
G01 X58.5293 Y55.1542
G01 X58.5369 Y55.1449
G01 X58.6358 Y55.0358
G01 X58.6443 Y55.0273
G01 X58.7579 Y54.9245
G01 X58.8809 Y54.8331
G01 X58.8910 Y54.8264
G01 X59.0172 Y54.7507
G01 X59.0279 Y54.7450
G01 X59.1664 Y54.6796
G01 X59.3164 Y54.6260
G01 X59.4706 Y54.5873
G01 X59.6224 Y54.5647
G01 X59.6344 Y54.5635
G01 X59.7815 Y54.5562
G01 X59.7905 Y54.5561
G01 X59.9466 Y54.5639
G01 X60.0982 Y54.5863
G01 X60.1100 Y54.5886
G01 X60.2586 Y54.6260
G01 X60.4086 Y54.6796
G01 X60.5471 Y54.7450
G01 X60.5578 Y54.7507
G01 X60.6891 Y54.8296
G01 X60.8171 Y54.9245
G01 X60.9307 Y55.0273
G01 X60.9392 Y55.0358
G01 X61.0420 Y55.1494
G01 X61.1334 Y55.2724
G01 X61.1401 Y55.2825
G01 X61.2188 Y55.4140
G01 X61.2844 Y55.5524
G01 X61.2890 Y55.5636
G01 X61.3386 Y55.7022
G01 X61.3421 Y55.7137
G01 X61.3792 Y55.8624
G01 X61.4018 Y56.0139
G01 X61.4030 Y56.0259
G01 X61.4104 Y56.1790
G01 X61.4030 Y56.3321
G01 X61.4018 Y56.3441
G01 X61.3792 Y56.4956
G01 X61.3421 Y56.6443
G01 X61.3386 Y56.6558
G01 X61.2869 Y56.8001
G01 X61.2215 Y56.9386
G01 X61.2158 Y56.9493
G01 X61.1369 Y57.0806
G01 X61.0420 Y57.2086
G01 X60.9351 Y57.3266
G01 X60.8171 Y57.4335
G01 X60.6891 Y57.5284
G01 X60.5578 Y57.6073
G01 X60.5471 Y57.6130
G01 X60.4141 Y57.6759
G01 X60.4029 Y57.6805
G01 X60.2586 Y57.7320
G01 X60.1100 Y57.7694
G01 X60.0988 Y57.7717
G01 X59.9466 Y57.7941
G01 X59.7875 Y57.8019
G01 X59.6284 Y57.7941
G01 X59.4768 Y57.7717
G01 X59.4650 Y57.7694
G01 X59.3164 Y57.7320
G01 X59.1664 Y57.6784
G01 X59.0279 Y57.6130
G01 X59.0172 Y57.6073
G01 X58.8910 Y57.5316
G01 X58.8809 Y57.5249
G01 X58.7579 Y57.4335
G01 X58.6443 Y57.3307
G01 X58.6358 Y57.3222
G01 X58.5369 Y57.2131
G01 X58.5293 Y57.2038
G01 X58.4381 Y57.0806
G01 X58.3562 Y56.9440
G01 X58.2881 Y56.8001
G01 X58.2440 Y56.6771
G01 X54.5940 Y56.6771
G01 X54.5726 Y56.7059
G01 X54.5670 Y56.7129
G01 X54.5102 Y56.7756
G01 X54.5037 Y56.7819
G01 X54.4433 Y56.8366
G01 X54.4362 Y56.8423
G01 X54.3682 Y56.8925
G01 X54.2932 Y56.9376
G01 X54.2852 Y56.9418
G01 X54.2087 Y56.9778
G01 X54.1237 Y57.0082
G01 X54.0355 Y57.0303
G01 X53.9490 Y57.0433
G01 X53.9399 Y57.0441
G01 X53.8555 Y57.0481
G01 X51.2555 Y57.0481
G01 X51.1711 Y57.0441
G01 X51.1591 Y57.0429
G01 X51.0755 Y57.0303
G01 X50.9934 Y57.0099
G01 X50.9819 Y57.0064
G01 X50.9023 Y56.9778
G01 X50.8204 Y56.9391
G01 X50.7479 Y56.8957
G01 X50.7378 Y56.8890
G01 X50.6700 Y56.8386
G01 X50.6073 Y56.7819
G01 X50.5988 Y56.7734
G01 X50.5421 Y56.7106
G01 X50.4898 Y56.6404
G01 X50.4792 Y56.6232
G01 X47.1649 Y56.6232
G01 X47.1649 Y56.8360
G01 X47.1635 Y56.8665
G01 X47.1624 Y56.8785
G01 X47.1583 Y56.9058
G01 X47.1564 Y56.9146
G01 X47.1488 Y56.9442
G01 X47.1387 Y56.9731
G01 X47.1353 Y56.9815
G01 X47.1223 Y57.0091
G01 X47.1179 Y57.0170
G01 X47.1037 Y57.0406
G01 X47.0986 Y57.0481
G01 X47.0803 Y57.0726
G01 X47.0598 Y57.0953
G01 X47.0513 Y57.1038
G01 X47.0286 Y57.1243
G01 X47.0041 Y57.1426
G01 X46.9941 Y57.1493
G01 X46.9678 Y57.1649
G01 X46.9402 Y57.1781
G01 X46.9291 Y57.1827
G01 X46.9002 Y57.1928
G01 X46.8706 Y57.2004
G01 X46.8588 Y57.2028
G01 X46.8286 Y57.2071
G01 X46.7920 Y57.2089
G01 X45.4920 Y57.2089
G01 X45.4615 Y57.2075
G01 X45.4525 Y57.2068
G01 X45.4222 Y57.2023
G01 X45.4134 Y57.2004
G01 X45.3838 Y57.1928
G01 X45.3549 Y57.1827
G01 X45.3438 Y57.1781
G01 X45.3162 Y57.1649
G01 X45.2848 Y57.1461
G01 X45.2602 Y57.1280
G01 X45.2509 Y57.1203
G01 X45.2283 Y57.0997
G01 X45.2077 Y57.0771
G01 X45.2000 Y57.0678
G01 X45.1819 Y57.0432
G01 X45.1661 Y57.0170
G01 X45.1617 Y57.0091
G01 X15.4225 Y57.0091
G01 X15.3737 Y57.0067
G01 X15.3253 Y56.9995
G01 X15.2779 Y56.9876
G01 X15.2375 Y56.9733
G01 X15.2264 Y56.9687
G01 X15.1931 Y56.9530
G01 X15.1825 Y56.9473
G01 X15.1458 Y56.9251
G01 X15.1065 Y56.8960
G01 X15.0703 Y56.8632
G01 X1.5938 Y43.3867
G01 X1.5649 Y43.3551
G01 X1.5573 Y43.3457
G01 X1.5318 Y43.3112
G01 X1.5097 Y43.2745
G01 X1.5040 Y43.2639
G01 X1.4858 Y43.2251
G01 X1.4713 Y43.1848
G01 X1.4685 Y43.1762
G01 X1.4575 Y43.1317
G01 X1.4510 Y43.0893
G01 X1.4499 Y43.0773
G01 X1.4479 Y43.0345
G01 X1.4481 Y9.2465
G00 Z2.0000
G00 X2.8434 Y15.5173
G01 F50.00
G01 Z-0.1300
G01 F70.00
G01 X2.8429 Y15.5390
G01 X2.8429 Y18.2695
G01 X2.8434 Y18.2912
G01 X2.8452 Y18.3280
G01 X2.8468 Y18.3496
G01 X2.8495 Y18.3712
G01 X2.8566 Y18.4183
G01 X2.8608 Y18.4396
G01 X2.8723 Y18.4859
G01 X2.8781 Y18.5068
G01 X2.8849 Y18.5275
G01 X2.8973 Y18.5621
G01 X2.9051 Y18.5824
G01 X2.9139 Y18.6022
G01 X2.9297 Y18.6355
G01 X2.9394 Y18.6549
G01 X2.9501 Y18.6738
G01 X2.9690 Y18.7054
G01 X2.9806 Y18.7236
G01 X2.9932 Y18.7415
G01 X3.0217 Y18.7797
G01 X3.0379 Y18.7993
G01 X3.0210 Y18.8007
G01 X2.9991 Y18.8033
G01 X2.9775 Y18.8070
G01 X2.9667 Y18.8093
G01 X2.9454 Y18.8147
G01 X2.9349 Y18.8177
G01 X2.9140 Y18.8246
G01 X2.8935 Y18.8326
G01 X2.8734 Y18.8415
G01 X2.8636 Y18.8463
G01 X2.8442 Y18.8567
G01 X2.8348 Y18.8623
G01 X2.8162 Y18.8741
G01 X2.8072 Y18.8804
G01 X2.7636 Y18.9128
G01 X2.7636 Y14.8968
G01 X2.7738 Y14.9055
G01 X2.7911 Y14.9190
G01 X2.8000 Y14.9255
G01 X2.8183 Y14.9377
G01 X2.8371 Y14.9490
G01 X2.8565 Y14.9593
G01 X2.8764 Y14.9687
G01 X2.8865 Y14.9730
G01 X2.8967 Y14.9771
G01 X2.9174 Y14.9845
G01 X2.9279 Y14.9877
G01 X2.9491 Y14.9935
G01 X2.9705 Y14.9983
G01 X2.9813 Y15.0002
G01 X3.0385 Y15.0086
G01 X3.0217 Y15.0288
G01 X2.9932 Y15.0670
G01 X2.9807 Y15.0848
G01 X2.9690 Y15.1031
G01 X2.9447 Y15.1441
G01 X2.9344 Y15.1632
G01 X2.9094 Y15.2161
G01 X2.9011 Y15.2362
G01 X2.8849 Y15.2810
G01 X2.8781 Y15.3017
G01 X2.8723 Y15.3226
G01 X2.8633 Y15.3583
G01 X2.8586 Y15.3795
G01 X2.8549 Y15.4009
G01 X2.8495 Y15.4373
G01 X2.8468 Y15.4589
G01 X2.8452 Y15.4805
G01 X2.8434 Y15.5173
G00 Z2.0000
G00 X3.0030 Y15.5251
G01 F50.00
G01 Z-0.1300
G01 F70.00
G01 X3.0058 Y15.4745
G01 X3.0129 Y15.4243
G01 X3.0153 Y15.4107
G01 X3.0183 Y15.3971
G01 X3.0310 Y15.3480
G01 X3.0477 Y15.3002
G01 X3.0527 Y15.2872
G01 X3.0741 Y15.2413
G01 X3.0803 Y15.2289
G01 X3.0872 Y15.2168
G01 X3.1135 Y15.1735
G01 X3.1434 Y15.1326
G01 X3.1520 Y15.1217
G01 X3.1610 Y15.1112
G01 X3.1905 Y15.0788
G01 X7.7038 Y10.5653
G01 X7.7139 Y10.5558
G01 X7.7464 Y10.5264
G01 X7.7626 Y10.5134
G01 X7.8035 Y10.4835
G01 X7.8152 Y10.4761
G01 X7.8528 Y10.4537
G01 X7.8713 Y10.4441
G01 X7.9172 Y10.4227
G01 X7.9302 Y10.4177
G01 X7.9780 Y10.4010
G01 X8.0271 Y10.3883
G01 X8.0407 Y10.3853
G01 X8.0907 Y10.3775
G01 X8.1055 Y10.3757
G01 X8.1184 Y10.3748
G01 X8.1690 Y10.3726
G01 X9.4340 Y10.3726
G01 X9.4405 Y10.3547
G01 X9.4487 Y10.3356
G01 X9.5116 Y10.2025
G01 X9.5178 Y10.1902
G01 X9.5247 Y10.1781
G01 X9.6003 Y10.0518
G01 X9.6078 Y10.0401
G01 X9.6158 Y10.0288
G01 X9.7034 Y9.9105
G01 X9.7120 Y9.8996
G01 X9.7210 Y9.8891
G01 X9.8199 Y9.7800
G01 X9.8295 Y9.7700
G01 X9.8395 Y9.7604
G01 X9.9486 Y9.6615
G01 X9.9591 Y9.6525
G01 X9.9700 Y9.6439
G01 X10.0883 Y9.5563
G01 X10.0996 Y9.5483
G01 X10.1113 Y9.5408
G01 X10.2376 Y9.4652
G01 X10.2497 Y9.4583
G01 X10.2620 Y9.4521
G01 X10.3951 Y9.3892
G01 X10.4078 Y9.3835
G01 X10.4207 Y9.3785
G01 X10.5593 Y9.3289
G01 X10.5725 Y9.3246
G01 X10.5859 Y9.3209
G01 X10.7287 Y9.2851
G01 X10.7422 Y9.2821
G01 X10.7559 Y9.2797
G01 X10.9015 Y9.2581
G01 X10.9153 Y9.2564
G01 X10.9291 Y9.2554
G01 X11.0761 Y9.2482
G01 X11.0900 Y9.2478
G01 X11.1039 Y9.2482
G01 X11.2509 Y9.2554
G01 X11.2647 Y9.2564
G01 X11.2785 Y9.2581
G01 X11.4241 Y9.2797
G01 X11.4378 Y9.2821
G01 X11.4513 Y9.2851
G01 X11.5941 Y9.3209
G01 X11.6075 Y9.3246
G01 X11.6207 Y9.3289
G01 X11.7593 Y9.3785
G01 X11.7722 Y9.3835
G01 X11.7849 Y9.3892
G01 X11.9180 Y9.4521
G01 X11.9303 Y9.4583
G01 X11.9424 Y9.4652
G01 X12.0687 Y9.5408
G01 X12.0804 Y9.5483
G01 X12.0917 Y9.5563
G01 X12.2100 Y9.6439
G01 X12.2209 Y9.6525
G01 X12.2314 Y9.6615
G01 X12.3405 Y9.7604
G01 X12.3505 Y9.7700
G01 X12.3601 Y9.7800
G01 X12.4590 Y9.8891
G01 X12.4680 Y9.8996
G01 X12.4766 Y9.9105
G01 X12.5642 Y10.0288
G01 X12.5723 Y10.0402
G01 X12.5797 Y10.0518
G01 X12.6588 Y10.1841
G01 X12.6684 Y10.2025
G01 X12.7313 Y10.3356
G01 X12.7370 Y10.3483
G01 X12.7420 Y10.3612
G01 X12.7916 Y10.4998
G01 X12.7959 Y10.5130
G01 X12.7996 Y10.5264
G01 X12.8354 Y10.6692
G01 X12.8384 Y10.6827
G01 X12.8408 Y10.6964
G01 X12.8624 Y10.8420
G01 X12.8641 Y10.8558
G01 X12.8651 Y10.8696
G01 X12.8723 Y11.0166
G01 X12.8727 Y11.0305
G01 X12.8723 Y11.0444
G01 X12.8651 Y11.1914
G01 X12.8641 Y11.2052
G01 X12.8624 Y11.2190
G01 X12.8408 Y11.3646
G01 X12.8384 Y11.3783
G01 X12.8354 Y11.3918
G01 X12.7996 Y11.5346
G01 X12.7959 Y11.5480
G01 X12.7916 Y11.5612
G01 X12.7420 Y11.6998
G01 X12.7370 Y11.7127
G01 X12.7313 Y11.7254
G01 X12.6684 Y11.8585
G01 X12.6622 Y11.8708
G01 X12.6553 Y11.8829
G01 X12.5797 Y12.0092
G01 X12.5722 Y12.0209
G01 X12.5642 Y12.0322
G01 X12.4766 Y12.1505
G01 X12.4680 Y12.1614
G01 X12.4590 Y12.1719
G01 X12.3601 Y12.2810
G01 X12.3505 Y12.2910
G01 X12.3405 Y12.3006
G01 X12.2314 Y12.3995
G01 X12.2209 Y12.4085
G01 X12.2100 Y12.4171
G01 X12.0917 Y12.5047
G01 X12.0804 Y12.5127
G01 X12.0687 Y12.5202
G01 X11.9424 Y12.5958
G01 X11.9303 Y12.6027
G01 X11.9180 Y12.6089
G01 X11.7849 Y12.6718
G01 X11.7722 Y12.6775
G01 X11.7593 Y12.6825
G01 X11.6207 Y12.7321
G01 X11.6075 Y12.7364
G01 X11.5941 Y12.7401
G01 X11.4513 Y12.7759
G01 X11.4378 Y12.7789
G01 X11.4241 Y12.7813
G01 X11.2785 Y12.8029
G01 X11.2647 Y12.8046
G01 X11.2509 Y12.8056
G01 X11.1039 Y12.8128
G01 X11.0900 Y12.8132
G01 X11.0761 Y12.8128
G01 X10.9291 Y12.8056
G01 X10.9153 Y12.8046
G01 X10.9015 Y12.8029
G01 X10.7559 Y12.7813
G01 X10.7354 Y12.7775
G01 X10.5859 Y12.7401
G01 X10.5725 Y12.7364
G01 X10.5593 Y12.7321
G01 X10.4207 Y12.6825
G01 X10.4078 Y12.6775
G01 X10.3951 Y12.6718
G01 X10.2620 Y12.6089
G01 X10.2497 Y12.6027
G01 X10.2376 Y12.5958
G01 X10.1113 Y12.5202
G01 X10.0996 Y12.5127
G01 X10.0883 Y12.5047
G01 X9.9700 Y12.4171
G01 X9.9591 Y12.4085
G01 X9.9486 Y12.3995
G01 X9.8395 Y12.3006
G01 X9.8295 Y12.2910
G01 X9.8199 Y12.2810
G01 X9.7210 Y12.1719
G01 X9.7120 Y12.1614
G01 X9.7034 Y12.1505
G01 X9.6158 Y12.0322
G01 X9.6078 Y12.0209
G01 X9.6003 Y12.0092
G01 X9.5247 Y11.8829
G01 X9.5178 Y11.8708
G01 X9.5116 Y11.8585
G01 X9.4487 Y11.7254
G01 X9.4405 Y11.7063
G01 X9.4340 Y11.6884
G01 X8.4415 Y11.6884
G01 X4.3184 Y15.8115
G01 X4.3184 Y17.9970
G01 X5.2511 Y18.9298
G01 X5.6303 Y18.9287
G01 X5.6467 Y18.9066
G01 X5.6556 Y18.8959
G01 X5.7176 Y18.8274
G01 X5.7325 Y18.8129
G01 X5.7959 Y18.7556
G01 X5.8121 Y18.7425
G01 X5.8752 Y18.6958
G01 X5.8865 Y18.6878
G01 X5.8982 Y18.6804
G01 X5.9716 Y18.6365
G01 X5.9900 Y18.6269
G01 X6.0610 Y18.5934
G01 X6.0737 Y18.5877
G01 X6.0866 Y18.5828
G01 X6.1605 Y18.5563
G01 X6.1737 Y18.5519
G01 X6.1871 Y18.5482
G01 X6.2632 Y18.5292
G01 X6.2768 Y18.5261
G01 X6.2905 Y18.5238
G01 X6.3681 Y18.5122
G01 X6.3888 Y18.5099
G01 X6.4741 Y18.5057
G01 X6.4880 Y18.5053
G01 X9.0949 Y18.5054
G01 X9.1803 Y18.5095
G01 X9.1941 Y18.5105
G01 X9.2079 Y18.5122
G01 X9.2855 Y18.5238
G01 X9.2992 Y18.5261
G01 X9.3128 Y18.5292
G01 X9.3889 Y18.5482
G01 X9.4023 Y18.5519
G01 X9.4155 Y18.5563
G01 X9.4894 Y18.5828
G01 X9.5087 Y18.5905
G01 X9.5860 Y18.6269
G01 X9.5984 Y18.6332
G01 X9.6104 Y18.6400
G01 X9.6778 Y18.6804
G01 X9.6895 Y18.6878
G01 X9.7008 Y18.6958
G01 X9.7694 Y18.7467
G01 X9.7853 Y18.7601
G01 X9.8435 Y18.8129
G01 X9.8536 Y18.8224
G01 X9.8631 Y18.8325
G01 X9.9159 Y18.8907
G01 X9.9249 Y18.9012
G01 X9.9335 Y18.9121
G01 X9.9802 Y18.9752
G01 X9.9882 Y18.9865
G01 X9.9956 Y18.9982
G01 X10.0360 Y19.0656
G01 X10.0428 Y19.0776
G01 X10.0491 Y19.0900
G01 X10.0826 Y19.1610
G01 X10.0883 Y19.1737
G01 X10.0932 Y19.1866
G01 X10.1197 Y19.2605
G01 X10.1241 Y19.2737
G01 X10.1278 Y19.2871
G01 X10.1484 Y19.3700
G01 X10.1522 Y19.3905
G01 X10.1638 Y19.4681
G01 X10.1655 Y19.4819
G01 X10.1665 Y19.4957
G01 X10.1703 Y19.5741
G01 X10.1707 Y19.5880
G01 X10.1703 Y19.6019
G01 X10.1665 Y19.6803
G01 X10.1655 Y19.6941
G01 X10.1638 Y19.7079
G01 X10.1522 Y19.7855
G01 X10.1499 Y19.7992
G01 X10.1468 Y19.8128
G01 X10.1278 Y19.8889
G01 X10.1241 Y19.9023
G01 X10.1197 Y19.9155
G01 X10.0932 Y19.9894
G01 X10.0883 Y20.0023
G01 X10.0826 Y20.0150
G01 X10.0491 Y20.0860
G01 X10.0428 Y20.0984
G01 X10.0360 Y20.1104
G01 X9.9956 Y20.1778
G01 X9.9882 Y20.1895
G01 X9.9802 Y20.2008
G01 X9.9335 Y20.2639
G01 X9.9249 Y20.2748
G01 X9.9159 Y20.2853
G01 X9.8631 Y20.3435
G01 X9.8536 Y20.3536
G01 X9.8435 Y20.3631
G01 X9.7853 Y20.4159
G01 X9.7748 Y20.4249
G01 X9.7639 Y20.4335
G01 X9.7008 Y20.4802
G01 X9.6895 Y20.4882
G01 X9.6778 Y20.4956
G01 X9.6044 Y20.5395
G01 X9.5860 Y20.5491
G01 X9.5150 Y20.5826
G01 X9.5023 Y20.5883
G01 X9.4894 Y20.5932
G01 X9.4155 Y20.6197
G01 X9.4017 Y20.6242
G01 X9.3889 Y20.6278
G01 X9.3128 Y20.6468
G01 X9.2992 Y20.6499
G01 X9.2855 Y20.6522
G01 X9.2079 Y20.6638
G01 X9.1872 Y20.6661
G01 X9.1019 Y20.6703
G01 X9.0880 Y20.6707
G01 X6.4880 Y20.6707
G01 X6.4741 Y20.6703
G01 X6.3957 Y20.6665
G01 X6.3819 Y20.6655
G01 X6.3681 Y20.6638
G01 X6.2905 Y20.6522
G01 X6.2768 Y20.6499
G01 X6.2632 Y20.6468
G01 X6.1871 Y20.6278
G01 X6.1737 Y20.6241
G01 X6.1605 Y20.6197
G01 X6.0866 Y20.5932
G01 X6.0737 Y20.5883
G01 X6.0610 Y20.5826
G01 X5.9900 Y20.5491
G01 X5.9716 Y20.5395
G01 X5.8982 Y20.4956
G01 X5.8865 Y20.4882
G01 X5.8752 Y20.4802
G01 X5.8121 Y20.4335
G01 X5.7959 Y20.4204
G01 X5.7325 Y20.3631
G01 X5.7176 Y20.3486
G01 X5.6556 Y20.2801
G01 X5.6467 Y20.2694
G01 X5.6292 Y20.2459
G01 X4.9790 Y20.2459
G01 X4.9284 Y20.2437
G01 X4.9076 Y20.2419
G01 X4.8643 Y20.2356
G01 X4.8507 Y20.2332
G01 X4.8014 Y20.2212
G01 X4.7814 Y20.2154
G01 X4.7402 Y20.2008
G01 X4.7272 Y20.1958
G01 X4.7146 Y20.1902
G01 X4.6750 Y20.1714
G01 X4.6568 Y20.1613
G01 X4.6135 Y20.1350
G01 X4.5726 Y20.1051
G01 X4.5564 Y20.0921
G01 X4.5239 Y20.0627
G01 X4.5138 Y20.0532
G01 X3.1905 Y18.7297
G01 X3.1564 Y18.6921
G01 X3.1434 Y18.6759
G01 X3.1215 Y18.6463
G01 X3.1134 Y18.6349
G01 X3.0872 Y18.5917
G01 X3.0771 Y18.5735
G01 X3.0555 Y18.5276
G01 X3.0477 Y18.5083
G01 X3.0331 Y18.4671
G01 X3.0290 Y18.4538
G01 X3.0183 Y18.4114
G01 X3.0153 Y18.3978
G01 X3.0129 Y18.3842
G01 X3.0058 Y18.3340
G01 X3.0048 Y18.3201
G01 X3.0026 Y18.2695
G01 X3.0026 Y15.5390
G01 X3.0030 Y15.5251
G00 Z2.0000
G00 X3.1626 Y15.5330
G01 F50.00
G01 Z-0.1300
G01 F70.00
G01 X3.1648 Y15.4902
G01 X3.1720 Y15.4418
G01 X3.1839 Y15.3944
G01 X3.2003 Y15.3484
G01 X3.2212 Y15.3042
G01 X3.2464 Y15.2623
G01 X3.2755 Y15.2230
G01 X3.3062 Y15.1890
G01 X7.8168 Y10.6783
G01 X7.8484 Y10.6494
G01 X7.8578 Y10.6418
G01 X7.8923 Y10.6164
G01 X7.9316 Y10.5927
G01 X7.9396 Y10.5885
G01 X7.9784 Y10.5703
G01 X8.0187 Y10.5558
G01 X8.0302 Y10.5523
G01 X8.0659 Y10.5433
G01 X8.0778 Y10.5410
G01 X8.1206 Y10.5348
G01 X8.1630 Y10.5326
G01 X9.5465 Y10.5324
G01 X9.5906 Y10.4094
G01 X9.6560 Y10.2709
G01 X9.6617 Y10.2602
G01 X9.7406 Y10.1289
G01 X9.8355 Y10.0009
G01 X9.9383 Y9.8873
G01 X9.9468 Y9.8788
G01 X10.0604 Y9.7760
G01 X10.1884 Y9.6811
G01 X10.3197 Y9.6022
G01 X10.3304 Y9.5965
G01 X10.4689 Y9.5311
G01 X10.6189 Y9.4775
G01 X10.7675 Y9.4401
G01 X10.7793 Y9.4378
G01 X10.9249 Y9.4162
G01 X10.9339 Y9.4152
G01 X11.0900 Y9.4076
G01 X11.2431 Y9.4150
G01 X11.2551 Y9.4162
G01 X11.4066 Y9.4388
G01 X11.5611 Y9.4775
G01 X11.7054 Y9.5290
G01 X11.7166 Y9.5336
G01 X11.8550 Y9.5992
G01 X11.9865 Y9.6779
G01 X11.9966 Y9.6846
G01 X12.1196 Y9.7760
G01 X12.2376 Y9.8829
G01 X12.3406 Y9.9964
G01 X12.3482 Y10.0057
G01 X12.4394 Y10.1289
G01 X12.5198 Y10.2628
G01 X12.5240 Y10.2709
G01 X12.5894 Y10.4094
G01 X12.6430 Y10.5594
G01 X12.6817 Y10.7139
G01 X12.7043 Y10.8654
G01 X12.7055 Y10.8774
G01 X12.7129 Y11.0305
G01 X12.7055 Y11.1836
G01 X12.7043 Y11.1956
G01 X12.6827 Y11.3412
G01 X12.6804 Y11.3530
G01 X12.6430 Y11.5016
G01 X12.5894 Y11.6516
G01 X12.5213 Y11.7955
G01 X12.4394 Y11.9321
G01 X12.3445 Y12.0601
G01 X12.2376 Y12.1781
G01 X12.1196 Y12.2850
G01 X11.9916 Y12.3799
G01 X11.8550 Y12.4618
G01 X11.7111 Y12.5299
G01 X11.5611 Y12.5835
G01 X11.4066 Y12.6222
G01 X11.2491 Y12.6456
G01 X11.0900 Y12.6534
G01 X10.9309 Y12.6456
G01 X10.7793 Y12.6232
G01 X10.7704 Y12.6216
G01 X10.6247 Y12.5851
G01 X10.6132 Y12.5816
G01 X10.4689 Y12.5299
G01 X10.3304 Y12.4645
G01 X10.3197 Y12.4588
G01 X10.1884 Y12.3799
G01 X10.0652 Y12.2887
G01 X10.0559 Y12.2811
G01 X9.9424 Y12.1781
G01 X9.8394 Y12.0646
G01 X9.8318 Y12.0553
G01 X9.7406 Y11.9321
G01 X9.6617 Y11.8008
G01 X9.6560 Y11.7901
G01 X9.5906 Y11.6516
G01 X9.5465 Y11.5286
G01 X8.3753 Y11.5286
G01 X4.1586 Y15.7453
G01 X4.1586 Y18.0632
G01 X5.1853 Y19.0899
G01 X5.7117 Y19.0899
G01 X5.7223 Y19.0728
G01 X5.7746 Y19.0025
G01 X5.8354 Y18.9354
G01 X5.9025 Y18.8746
G01 X5.9703 Y18.8241
G01 X5.9804 Y18.8174
G01 X6.0477 Y18.7770
G01 X6.0583 Y18.7714
G01 X6.1348 Y18.7354
G01 X6.2144 Y18.7067
G01 X6.2259 Y18.7032
G01 X6.3080 Y18.6828
G01 X6.3975 Y18.6695
G01 X6.4880 Y18.6651
G01 X9.0880 Y18.6651
G01 X9.1724 Y18.6691
G01 X9.1844 Y18.6703
G01 X9.2680 Y18.6828
G01 X9.3559 Y18.7048
G01 X9.4412 Y18.7354
G01 X9.5177 Y18.7714
G01 X9.5283 Y18.7770
G01 X9.6007 Y18.8206
G01 X9.6735 Y18.8746
G01 X9.7362 Y18.9313
G01 X9.7447 Y18.9398
G01 X9.8014 Y19.0025
G01 X9.8519 Y19.0703
G01 X9.8586 Y19.0804
G01 X9.9019 Y19.1529
G01 X9.9406 Y19.2348
G01 X9.9693 Y19.3144
G01 X9.9728 Y19.3259
G01 X9.9932 Y19.4080
G01 X10.0065 Y19.4975
G01 X10.0108 Y19.5820
G01 X10.0108 Y19.5940
G01 X10.0065 Y19.6785
G01 X9.9932 Y19.7680
G01 X9.9712 Y19.8559
G01 X9.9428 Y19.9356
G01 X9.9382 Y19.9467
G01 X9.9019 Y20.0231
G01 X9.8586 Y20.0956
G01 X9.8519 Y20.1057
G01 X9.8014 Y20.1735
G01 X9.7406 Y20.2406
G01 X9.6780 Y20.2975
G01 X9.6687 Y20.3051
G01 X9.6007 Y20.3554
G01 X9.5257 Y20.4005
G01 X9.5177 Y20.4046
G01 X9.4412 Y20.4406
G01 X9.3616 Y20.4693
G01 X9.3501 Y20.4728
G01 X9.2680 Y20.4932
G01 X9.1844 Y20.5057
G01 X9.1724 Y20.5069
G01 X9.0910 Y20.5109
G01 X6.4880 Y20.5109
G01 X6.3975 Y20.5065
G01 X6.3080 Y20.4932
G01 X6.2259 Y20.4728
G01 X6.2144 Y20.4693
G01 X6.1404 Y20.4428
G01 X6.1293 Y20.4382
G01 X6.0529 Y20.4019
G01 X5.9804 Y20.3586
G01 X5.9703 Y20.3519
G01 X5.9025 Y20.3014
G01 X5.8354 Y20.2406
G01 X5.7746 Y20.1735
G01 X5.7223 Y20.1032
G01 X5.7117 Y20.0861
G01 X4.9790 Y20.0861
G01 X4.9302 Y20.0837
G01 X4.8878 Y20.0775
G01 X4.8759 Y20.0752
G01 X4.8344 Y20.0646
G01 X4.7884 Y20.0482
G01 X4.7496 Y20.0300
G01 X4.7390 Y20.0243
G01 X4.7023 Y20.0021
G01 X4.6654 Y19.9749
G01 X4.6584 Y19.9691
G01 X4.6268 Y19.9402
G01 X3.3062 Y18.6195
G01 X3.2794 Y18.5901
G01 X3.2718 Y18.5807
G01 X3.2463 Y18.5462
G01 X3.2242 Y18.5095
G01 X3.2185 Y18.4989
G01 X3.2003 Y18.4601
G01 X3.1848 Y18.4170
G01 X3.1823 Y18.4083
G01 X3.1733 Y18.3726
G01 X3.1710 Y18.3607
G01 X3.1648 Y18.3183
G01 X3.1624 Y18.2695
G01 X3.1626 Y15.5330
G00 Z2.0000
G00 X5.3621 Y16.6711
G01 F50.00
G01 Z-0.1300
G01 F70.00
G01 X5.3702 Y16.6410
G01 X5.4577 Y16.4533
G01 X5.5768 Y16.2832
G01 X5.7234 Y16.1366
G01 X5.8931 Y16.0178
G01 X6.0810 Y15.9302
G01 X6.2813 Y15.8765
G01 X6.4362 Y15.8629
G01 X7.4111 Y15.8629
G01 X7.4111 Y16.1251
G01 X6.4850 Y16.1251
G01 X6.4036 Y16.1291
G01 X6.3916 Y16.1303
G01 X6.3080 Y16.1428
G01 X6.2230 Y16.1640
G01 X6.2144 Y16.1667
G01 X6.1348 Y16.1954
G01 X6.0529 Y16.2341
G01 X5.9753 Y16.2806
G01 X5.9073 Y16.3309
G01 X5.9002 Y16.3365
G01 X5.8354 Y16.3954
G01 X5.7785 Y16.4580
G01 X5.7709 Y16.4673
G01 X5.7241 Y16.5303
G01 X5.7174 Y16.5404
G01 X5.6741 Y16.6129
G01 X5.6464 Y16.6711
G01 X5.3621 Y16.6711
G00 Z2.0000
G00 X8.1649 Y16.1251
G01 F50.00
G01 Z-0.1300
G01 F70.00
G01 X8.1649 Y15.8629
G01 X9.1397 Y15.8629
G01 X9.2947 Y15.8765
G01 X9.4948 Y15.9301
G01 X9.6827 Y16.0177
G01 X9.8528 Y16.1368
G01 X9.9994 Y16.2834
G01 X10.1182 Y16.4531
G01 X10.2058 Y16.6410
G01 X10.2139 Y16.6711
G01 X9.9296 Y16.6711
G01 X9.9019 Y16.6129
G01 X9.8586 Y16.5404
G01 X9.8519 Y16.5303
G01 X9.8051 Y16.4673
G01 X9.7975 Y16.4580
G01 X9.7406 Y16.3954
G01 X9.6758 Y16.3365
G01 X9.6687 Y16.3309
G01 X9.6007 Y16.2806
G01 X9.5231 Y16.2341
G01 X9.4412 Y16.1954
G01 X9.3616 Y16.1667
G01 X9.3530 Y16.1640
G01 X9.2680 Y16.1428
G01 X9.1844 Y16.1303
G01 X9.1724 Y16.1291
G01 X9.0910 Y16.1251
G01 X8.1649 Y16.1251
G00 Z2.0000
G00 X9.3567 Y18.3755
G01 F50.00
G01 Z-0.1300
G01 F70.00
G01 X9.3410 Y18.3717
G01 X9.3197 Y18.3674
G01 X9.2206 Y18.3527
G01 X9.2098 Y18.3515
G01 X9.1881 Y18.3499
G01 X9.1097 Y18.3461
G01 X9.0880 Y18.3456
G01 X6.4880 Y18.3456
G01 X6.4663 Y18.3461
G01 X6.3879 Y18.3499
G01 X6.3662 Y18.3515
G01 X6.3554 Y18.3527
G01 X6.2563 Y18.3674
G01 X6.2350 Y18.3717
G01 X6.2164 Y18.3762
G01 X6.2202 Y18.3583
G01 X6.2238 Y18.3366
G01 X6.2324 Y18.2637
G01 X6.2456 Y18.2666
G01 X6.2670 Y18.2703
G01 X6.3447 Y18.2818
G01 X6.3662 Y18.2845
G01 X6.3879 Y18.2861
G01 X6.4663 Y18.2899
G01 X6.4880 Y18.2904
G01 X9.0880 Y18.2904
G01 X9.1097 Y18.2899
G01 X9.1881 Y18.2861
G01 X9.2098 Y18.2845
G01 X9.2313 Y18.2818
G01 X9.3090 Y18.2703
G01 X9.3387 Y18.2648
G01 X9.3404 Y18.2918
G01 X9.3430 Y18.3136
G01 X9.3447 Y18.3245
G01 X9.3490 Y18.3460
G01 X9.3515 Y18.3567
G01 X9.3567 Y18.3755
G00 Z2.0000
G00 X12.1089 Y16.4239
G01 F50.00
G01 Z-0.1300
G01 F70.00
G01 X12.3711 Y16.4239
G01 X12.3711 Y16.6720
G01 X12.3725 Y16.7025
G01 X12.3736 Y16.7145
G01 X12.3783 Y16.7447
G01 X12.3855 Y16.7744
G01 X12.3890 Y16.7860
G01 X12.3995 Y16.8147
G01 X12.4124 Y16.8424
G01 X12.4181 Y16.8530
G01 X12.4339 Y16.8792
G01 X12.4520 Y16.9038
G01 X12.4597 Y16.9131
G01 X12.4803 Y16.9357
G01 X12.5051 Y16.9583
G01 X12.5319 Y16.9786
G01 X12.5419 Y16.9853
G01 X12.5682 Y17.0009
G01 X12.5958 Y17.0141
G01 X12.6069 Y17.0187
G01 X12.6358 Y17.0288
G01 X12.6683 Y17.0371
G01 X12.6796 Y17.0391
G01 X12.6796 Y17.3050
G01 X12.6139 Y17.2981
G01 X12.4726 Y17.2510
G01 X12.3467 Y17.1730
G01 X12.2421 Y17.0682
G01 X12.1644 Y16.9421
G01 X12.1176 Y16.8007
G01 X12.1089 Y16.7160
G01 X12.1089 Y16.4239
G00 Z2.0000
G00 X12.1089 Y15.6701
G01 F50.00
G01 Z-0.1300
G01 F70.00
G01 X12.1089 Y15.3781
G01 X12.1178 Y15.2922
G01 X12.1649 Y15.1509
G01 X12.2428 Y15.0249
G01 X12.3476 Y14.9203
G01 X12.4737 Y14.8426
G01 X12.6150 Y14.7956
G01 X12.6796 Y14.7890
G01 X12.6796 Y15.0549
G01 X12.6683 Y15.0569
G01 X12.6358 Y15.0652
G01 X12.6069 Y15.0753
G01 X12.5958 Y15.0799
G01 X12.5682 Y15.0931
G01 X12.5419 Y15.1087
G01 X12.5319 Y15.1154
G01 X12.5051 Y15.1357
G01 X12.4803 Y15.1583
G01 X12.4597 Y15.1809
G01 X12.4520 Y15.1902
G01 X12.4339 Y15.2148
G01 X12.4181 Y15.2410
G01 X12.4124 Y15.2516
G01 X12.3995 Y15.2793
G01 X12.3890 Y15.3080
G01 X12.3855 Y15.3196
G01 X12.3783 Y15.3493
G01 X12.3736 Y15.3795
G01 X12.3725 Y15.3915
G01 X12.3711 Y15.4220
G01 X12.3711 Y15.6701
G01 X12.1089 Y15.6701
G00 Z2.0000
G00 X13.4334 Y15.0549
G01 F50.00
G01 Z-0.1300
G01 F70.00
G01 X13.4334 Y14.7890
G01 X13.4991 Y14.7959
G01 X13.6404 Y14.8430
G01 X13.7663 Y14.9210
G01 X13.8707 Y15.0256
G01 X13.9486 Y15.1519
G01 X13.9954 Y15.2933
G01 X14.0041 Y15.3780
G01 X14.0041 Y15.6701
G01 X13.7419 Y15.6701
G01 X13.7419 Y15.4220
G01 X13.7401 Y15.3859
G01 X13.7347 Y15.3493
G01 X13.7258 Y15.3138
G01 X13.7135 Y15.2793
G01 X13.6993 Y15.2489
G01 X13.6949 Y15.2410
G01 X13.6791 Y15.2148
G01 X13.6610 Y15.1902
G01 X13.6533 Y15.1809
G01 X13.6327 Y15.1583
G01 X13.6101 Y15.1377
G01 X13.6032 Y15.1319
G01 X13.5811 Y15.1154
G01 X13.5711 Y15.1087
G01 X13.5448 Y15.0931
G01 X13.5117 Y15.0775
G01 X13.4830 Y15.0670
G01 X13.4744 Y15.0643
G01 X13.4447 Y15.0569
G01 X13.4334 Y15.0549
G00 Z2.0000
G00 X15.6306 Y14.8909
G01 F50.00
G01 Z-0.1300
G01 F70.00
G01 X15.6690 Y14.8893
G01 X16.2940 Y14.8893
G01 X16.3079 Y14.8897
G01 X16.3462 Y14.8919
G01 X16.3842 Y14.8972
G01 X16.3979 Y14.8996
G01 X16.4115 Y14.9026
G01 X16.4486 Y14.9123
G01 X16.4849 Y14.9249
G01 X16.5042 Y14.9326
G01 X16.5327 Y14.9460
G01 X16.5451 Y14.9522
G01 X16.5782 Y14.9717
G01 X16.5957 Y14.9830
G01 X16.6210 Y15.0017
G01 X16.6319 Y15.0102
G01 X16.6606 Y15.0358
G01 X16.6755 Y15.0503
G01 X16.6967 Y15.0736
G01 X16.7058 Y15.0841
G01 X16.7143 Y15.0950
G01 X16.7330 Y15.1203
G01 X16.7443 Y15.1378
G01 X16.7638 Y15.1709
G01 X16.7805 Y15.2055
G01 X16.7887 Y15.2246
G01 X16.7994 Y15.2542
G01 X16.8037 Y15.2674
G01 X16.8134 Y15.3045
G01 X16.8178 Y15.3256
G01 X18.0033 Y15.3256
G01 X18.0033 Y14.8740
G01 X18.0037 Y14.8601
G01 X18.0079 Y14.7748
G01 X18.0102 Y14.7541
G01 X18.0218 Y14.6765
G01 X18.0241 Y14.6628
G01 X18.0272 Y14.6492
G01 X18.0462 Y14.5731
G01 X18.0499 Y14.5597
G01 X18.0543 Y14.5465
G01 X18.0808 Y14.4726
G01 X18.0857 Y14.4597
G01 X18.0914 Y14.4470
G01 X18.1280 Y14.3698
G01 X18.1380 Y14.3516
G01 X18.1784 Y14.2842
G01 X18.1858 Y14.2725
G01 X18.1938 Y14.2612
G01 X18.2405 Y14.1981
G01 X18.2491 Y14.1872
G01 X18.2581 Y14.1767
G01 X18.3109 Y14.1185
G01 X18.3204 Y14.1084
G01 X18.3305 Y14.0989
G01 X18.3887 Y14.0461
G01 X18.3992 Y14.0371
G01 X18.4101 Y14.0285
G01 X18.4732 Y13.9818
G01 X18.4903 Y13.9700
G01 X18.5636 Y13.9260
G01 X18.5756 Y13.9192
G01 X18.5880 Y13.9129
G01 X18.6590 Y13.8794
G01 X18.6717 Y13.8737
G01 X18.6846 Y13.8688
G01 X18.7585 Y13.8423
G01 X18.7717 Y13.8379
G01 X18.7851 Y13.8342
G01 X18.8612 Y13.8152
G01 X18.8748 Y13.8121
G01 X18.8885 Y13.8098
G01 X18.9661 Y13.7982
G01 X18.9799 Y13.7965
G01 X18.9937 Y13.7955
G01 X19.0721 Y13.7917
G01 X19.0929 Y13.7914
G01 X19.1783 Y13.7955
G01 X19.1921 Y13.7965
G01 X19.2059 Y13.7982
G01 X19.2835 Y13.8098
G01 X19.3040 Y13.8136
G01 X19.3869 Y13.8342
G01 X19.4003 Y13.8379
G01 X19.4135 Y13.8423
G01 X19.4874 Y13.8688
G01 X19.5003 Y13.8737
G01 X19.5130 Y13.8794
G01 X19.5840 Y13.9129
G01 X19.5964 Y13.9192
G01 X19.6084 Y13.9260
G01 X19.6758 Y13.9664
G01 X19.6875 Y13.9738
G01 X19.6988 Y13.9818
G01 X19.7619 Y14.0285
G01 X19.7728 Y14.0371
G01 X19.7833 Y14.0461
G01 X19.8415 Y14.0989
G01 X19.8516 Y14.1084
G01 X19.8611 Y14.1185
G01 X19.9139 Y14.1767
G01 X19.9229 Y14.1872
G01 X19.9315 Y14.1981
G01 X19.9782 Y14.2612
G01 X19.9862 Y14.2725
G01 X19.9936 Y14.2842
G01 X20.0340 Y14.3516
G01 X20.0440 Y14.3698
G01 X20.0806 Y14.4470
G01 X20.0863 Y14.4597
G01 X20.0912 Y14.4726
G01 X20.1177 Y14.5465
G01 X20.1221 Y14.5597
G01 X20.1258 Y14.5731
G01 X20.1448 Y14.6492
G01 X20.1479 Y14.6628
G01 X20.1502 Y14.6765
G01 X20.1618 Y14.7541
G01 X20.1641 Y14.7748
G01 X20.1683 Y14.8601
G01 X20.1687 Y14.8740
G01 X20.1687 Y17.4740
G01 X20.1683 Y17.4879
G01 X20.1641 Y17.5732
G01 X20.1618 Y17.5939
G01 X20.1502 Y17.6715
G01 X20.1479 Y17.6852
G01 X20.1448 Y17.6988
G01 X20.1258 Y17.7749
G01 X20.1221 Y17.7883
G01 X20.1177 Y17.8015
G01 X20.0912 Y17.8754
G01 X20.0863 Y17.8883
G01 X20.0806 Y17.9010
G01 X20.0471 Y17.9720
G01 X20.0408 Y17.9844
G01 X20.0340 Y17.9964
G01 X19.9936 Y18.0638
G01 X19.9862 Y18.0755
G01 X19.9782 Y18.0868
G01 X19.9315 Y18.1499
G01 X19.9229 Y18.1608
G01 X19.9139 Y18.1713
G01 X19.8611 Y18.2295
G01 X19.8516 Y18.2396
G01 X19.8415 Y18.2491
G01 X19.7833 Y18.3019
G01 X19.7728 Y18.3109
G01 X19.7619 Y18.3195
G01 X19.6988 Y18.3662
G01 X19.6875 Y18.3742
G01 X19.6758 Y18.3816
G01 X19.6084 Y18.4220
G01 X19.5964 Y18.4288
G01 X19.5840 Y18.4351
G01 X19.5130 Y18.4686
G01 X19.5003 Y18.4743
G01 X19.4874 Y18.4792
G01 X19.4135 Y18.5057
G01 X19.3997 Y18.5102
G01 X19.3869 Y18.5138
G01 X19.3108 Y18.5328
G01 X19.2972 Y18.5359
G01 X19.2835 Y18.5382
G01 X19.2059 Y18.5498
G01 X19.1921 Y18.5515
G01 X19.1783 Y18.5525
G01 X19.0999 Y18.5563
G01 X19.0860 Y18.5567
G01 X19.0721 Y18.5563
G01 X18.9937 Y18.5525
G01 X18.9799 Y18.5515
G01 X18.9661 Y18.5498
G01 X18.8885 Y18.5382
G01 X18.8748 Y18.5359
G01 X18.8612 Y18.5328
G01 X18.7851 Y18.5138
G01 X18.7717 Y18.5101
G01 X18.7585 Y18.5057
G01 X18.6846 Y18.4792
G01 X18.6717 Y18.4743
G01 X18.6590 Y18.4686
G01 X18.5880 Y18.4351
G01 X18.5756 Y18.4288
G01 X18.5636 Y18.4220
G01 X18.4962 Y18.3816
G01 X18.4845 Y18.3742
G01 X18.4732 Y18.3662
G01 X18.4046 Y18.3153
G01 X18.3887 Y18.3019
G01 X18.3305 Y18.2491
G01 X18.3204 Y18.2396
G01 X18.3109 Y18.2295
G01 X18.2581 Y18.1713
G01 X18.2447 Y18.1554
G01 X18.1938 Y18.0868
G01 X18.1858 Y18.0755
G01 X18.1784 Y18.0638
G01 X18.1380 Y17.9964
G01 X18.1312 Y17.9844
G01 X18.1249 Y17.9720
G01 X18.0914 Y17.9010
G01 X18.0857 Y17.8883
G01 X18.0808 Y17.8754
G01 X18.0543 Y17.8015
G01 X18.0502 Y17.7890
G01 X18.0466 Y17.7763
G01 X18.0272 Y17.6988
G01 X18.0241 Y17.6852
G01 X18.0218 Y17.6715
G01 X18.0102 Y17.5939
G01 X18.0085 Y17.5801
G01 X18.0075 Y17.5663
G01 X18.0034 Y17.4809
G01 X18.0033 Y16.6414
G01 X16.8267 Y16.6414
G01 X16.8263 Y16.6859
G01 X16.8247 Y16.7173
G01 X16.8233 Y16.7311
G01 X16.8177 Y16.7691
G01 X16.8150 Y16.7827
G01 X16.8057 Y16.8200
G01 X16.8016 Y16.8332
G01 X16.7911 Y16.8629
G01 X16.7861 Y16.8758
G01 X16.7700 Y16.9107
G01 X16.7638 Y16.9231
G01 X16.7569 Y16.9352
G01 X16.7369 Y16.9679
G01 X16.7289 Y16.9793
G01 X16.7101 Y17.0045
G01 X16.7013 Y17.0152
G01 X16.6755 Y17.0437
G01 X16.6657 Y17.0535
G01 X16.6372 Y17.0793
G01 X16.6265 Y17.0881
G01 X16.5957 Y17.1110
G01 X16.5841 Y17.1187
G01 X16.5572 Y17.1349
G01 X16.5451 Y17.1418
G01 X16.5327 Y17.1480
G01 X16.5042 Y17.1614
G01 X16.4849 Y17.1691
G01 X16.4552 Y17.1796
G01 X16.4420 Y17.1837
G01 X16.4047 Y17.1930
G01 X16.3911 Y17.1957
G01 X16.3600 Y17.2004
G01 X16.3462 Y17.2021
G01 X16.3079 Y17.2043
G01 X16.2940 Y17.2047
G01 X15.6690 Y17.2047
G01 X15.6551 Y17.2043
G01 X15.6168 Y17.2021
G01 X15.6030 Y17.2004
G01 X15.5719 Y17.1957
G01 X15.5515 Y17.1914
G01 X15.5144 Y17.1817
G01 X15.5012 Y17.1774
G01 X15.4716 Y17.1667
G01 X15.4588 Y17.1614
G01 X15.4303 Y17.1480
G01 X15.4118 Y17.1384
G01 X15.3848 Y17.1223
G01 X15.3731 Y17.1149
G01 X15.3420 Y17.0923
G01 X15.3258 Y17.0793
G01 X15.2973 Y17.0535
G01 X15.2875 Y17.0437
G01 X15.2617 Y17.0152
G01 X15.2529 Y17.0045
G01 X15.2300 Y16.9737
G01 X15.2223 Y16.9621
G01 X15.2026 Y16.9292
G01 X15.1960 Y16.9169
G01 X15.1796 Y16.8822
G01 X15.1743 Y16.8694
G01 X15.1614 Y16.8332
G01 X15.1573 Y16.8200
G01 X15.1480 Y16.7827
G01 X15.1453 Y16.7691
G01 X15.1397 Y16.7311
G01 X15.1379 Y16.7104
G01 X15.1363 Y16.6720
G01 X15.1363 Y15.4220
G01 X15.1379 Y15.3836
G01 X15.1397 Y15.3629
G01 X15.1442 Y15.3318
G01 X15.1466 Y15.3181
G01 X15.1496 Y15.3045
G01 X15.1593 Y15.2674
G01 X15.1719 Y15.2311
G01 X15.1769 Y15.2182
G01 X15.1825 Y15.2055
G01 X15.1960 Y15.1771
G01 X15.2026 Y15.1648
G01 X15.2223 Y15.1319
G01 X15.2300 Y15.1203
G01 X15.2487 Y15.0950
G01 X15.2572 Y15.0841
G01 X15.2663 Y15.0736
G01 X15.2875 Y15.0503
G01 X15.2973 Y15.0405
G01 X15.3206 Y15.0193
G01 X15.3311 Y15.0102
G01 X15.3420 Y15.0017
G01 X15.3731 Y14.9791
G01 X15.4058 Y14.9591
G01 X15.4179 Y14.9522
G01 X15.4303 Y14.9460
G01 X15.4588 Y14.9326
G01 X15.4716 Y14.9273
G01 X15.5078 Y14.9144
G01 X15.5210 Y14.9103
G01 X15.5515 Y14.9026
G01 X15.5719 Y14.8983
G01 X15.6030 Y14.8936
G01 X15.6178 Y14.8918
G01 X15.6306 Y14.8909
G00 Z2.0000
G00 X15.6385 Y15.0505
G01 F50.00
G01 Z-0.1300
G01 F70.00
G01 X15.6690 Y15.0491
G01 X16.2970 Y15.0491
G01 X16.3306 Y15.0509
G01 X16.3667 Y15.0563
G01 X16.4022 Y15.0652
G01 X16.4367 Y15.0775
G01 X16.4698 Y15.0931
G01 X16.4961 Y15.1087
G01 X16.5037 Y15.1137
G01 X16.5258 Y15.1300
G01 X16.5351 Y15.1377
G01 X16.5577 Y15.1583
G01 X16.5823 Y15.1854
G01 X16.6041 Y15.2148
G01 X16.6214 Y15.2436
G01 X16.6361 Y15.2738
G01 X16.6407 Y15.2849
G01 X16.6508 Y15.3138
G01 X16.6597 Y15.3493
G01 X16.6644 Y15.3795
G01 X16.6655 Y15.3915
G01 X16.6669 Y15.4190
G01 X16.6669 Y15.4854
G01 X18.1631 Y15.4854
G01 X18.1631 Y14.8710
G01 X18.1675 Y14.7835
G01 X18.1798 Y14.6999
G01 X18.1815 Y14.6910
G01 X18.2028 Y14.6061
G01 X18.2312 Y14.5264
G01 X18.2358 Y14.5153
G01 X18.2721 Y14.4389
G01 X18.3186 Y14.3613
G01 X18.3689 Y14.2933
G01 X18.3765 Y14.2840
G01 X18.4293 Y14.2258
G01 X18.4356 Y14.2193
G01 X18.5005 Y14.1606
G01 X18.5733 Y14.1066
G01 X18.6509 Y14.0601
G01 X18.7273 Y14.0238
G01 X18.7384 Y14.0192
G01 X18.8124 Y13.9927
G01 X18.8239 Y13.9892
G01 X18.9060 Y13.9688
G01 X18.9955 Y13.9555
G01 X19.0860 Y13.9511
G01 X19.1765 Y13.9555
G01 X19.2660 Y13.9688
G01 X19.3481 Y13.9892
G01 X19.3596 Y13.9927
G01 X19.4336 Y14.0192
G01 X19.4447 Y14.0238
G01 X19.5211 Y14.0601
G01 X19.5936 Y14.1034
G01 X19.6012 Y14.1083
G01 X19.6715 Y14.1606
G01 X19.7342 Y14.2173
G01 X19.7427 Y14.2258
G01 X19.7994 Y14.2885
G01 X19.8499 Y14.3563
G01 X19.8566 Y14.3664
G01 X19.8970 Y14.4337
G01 X19.9026 Y14.4443
G01 X19.9386 Y14.5208
G01 X19.9692 Y14.6061
G01 X19.9912 Y14.6940
G01 X20.0037 Y14.7776
G01 X20.0047 Y14.7865
G01 X20.0089 Y14.8740
G01 X20.0088 Y17.4800
G01 X20.0045 Y17.5645
G01 X19.9922 Y17.6481
G01 X19.9898 Y17.6599
G01 X19.9692 Y17.7419
G01 X19.9386 Y17.8272
G01 X19.9026 Y17.9037
G01 X19.8970 Y17.9143
G01 X19.8566 Y17.9816
G01 X19.8517 Y17.9892
G01 X19.7994 Y18.0595
G01 X19.7386 Y18.1266
G01 X19.6715 Y18.1874
G01 X19.6037 Y18.2379
G01 X19.5936 Y18.2446
G01 X19.5211 Y18.2879
G01 X19.4447 Y18.3242
G01 X19.4336 Y18.3288
G01 X19.3596 Y18.3553
G01 X19.3481 Y18.3588
G01 X19.2660 Y18.3792
G01 X19.1824 Y18.3917
G01 X19.1704 Y18.3929
G01 X19.0860 Y18.3969
G01 X18.9955 Y18.3925
G01 X18.9060 Y18.3792
G01 X18.8181 Y18.3572
G01 X18.7328 Y18.3266
G01 X18.6509 Y18.2879
G01 X18.5733 Y18.2414
G01 X18.5053 Y18.1911
G01 X18.4960 Y18.1835
G01 X18.4334 Y18.1266
G01 X18.3726 Y18.0595
G01 X18.3186 Y17.9867
G01 X18.2750 Y17.9143
G01 X18.2694 Y17.9037
G01 X18.2358 Y17.8327
G01 X18.2312 Y17.8216
G01 X18.2029 Y17.7422
G01 X18.1808 Y17.6540
G01 X18.1675 Y17.5645
G01 X18.1631 Y17.4770
G01 X18.1631 Y16.4816
G01 X16.6669 Y16.4816
G01 X16.6669 Y16.6720
G01 X16.6651 Y16.7086
G01 X16.6597 Y16.7447
G01 X16.6525 Y16.7744
G01 X16.6490 Y16.7860
G01 X16.6373 Y16.8175
G01 X16.6229 Y16.8478
G01 X16.6041 Y16.8792
G01 X16.5823 Y16.9086
G01 X16.5577 Y16.9357
G01 X16.5306 Y16.9603
G01 X16.5012 Y16.9821
G01 X16.4698 Y17.0009
G01 X16.4367 Y17.0165
G01 X16.4022 Y17.0288
G01 X16.3667 Y17.0377
G01 X16.3306 Y17.0431
G01 X16.2970 Y17.0449
G01 X15.6630 Y17.0448
G01 X15.6324 Y17.0431
G01 X15.6022 Y17.0388
G01 X15.5904 Y17.0364
G01 X15.5608 Y17.0288
G01 X15.5263 Y17.0165
G01 X15.4986 Y17.0036
G01 X15.4880 Y16.9979
G01 X15.4593 Y16.9803
G01 X15.4372 Y16.9640
G01 X15.4301 Y16.9583
G01 X15.4075 Y16.9378
G01 X15.4012 Y16.9313
G01 X15.3827 Y16.9109
G01 X15.3770 Y16.9038
G01 X15.3589 Y16.8792
G01 X15.3431 Y16.8530
G01 X15.3374 Y16.8424
G01 X15.3245 Y16.8147
G01 X15.3122 Y16.7802
G01 X15.3033 Y16.7447
G01 X15.2979 Y16.7086
G01 X15.2961 Y16.6720
G01 X15.2961 Y15.4220
G01 X15.2979 Y15.3854
G01 X15.3033 Y15.3493
G01 X15.3105 Y15.3196
G01 X15.3131 Y15.3109
G01 X15.3223 Y15.2849
G01 X15.3269 Y15.2738
G01 X15.3401 Y15.2462
G01 X15.3589 Y15.2148
G01 X15.3807 Y15.1854
G01 X15.4053 Y15.1583
G01 X15.4324 Y15.1337
G01 X15.4618 Y15.1119
G01 X15.4932 Y15.0931
G01 X15.5208 Y15.0799
G01 X15.5291 Y15.0764
G01 X15.5579 Y15.0661
G01 X15.5904 Y15.0576
G01 X15.5992 Y15.0557
G01 X15.6265 Y15.0516
G01 X15.6385 Y15.0505
G00 Z2.0000
G00 X13.4334 Y17.3050
G01 F50.00
G01 Z-0.1300
G01 F70.00
G01 X13.4334 Y17.0391
G01 X13.4447 Y17.0371
G01 X13.4772 Y17.0288
G01 X13.5061 Y17.0187
G01 X13.5172 Y17.0141
G01 X13.5448 Y17.0009
G01 X13.5711 Y16.9853
G01 X13.5811 Y16.9786
G01 X13.6079 Y16.9583
G01 X13.6327 Y16.9357
G01 X13.6533 Y16.9131
G01 X13.6610 Y16.9038
G01 X13.6791 Y16.8792
G01 X13.6949 Y16.8530
G01 X13.7006 Y16.8424
G01 X13.7135 Y16.8147
G01 X13.7240 Y16.7860
G01 X13.7275 Y16.7744
G01 X13.7347 Y16.7447
G01 X13.7394 Y16.7145
G01 X13.7405 Y16.7025
G01 X13.7419 Y16.6720
G01 X13.7419 Y16.4239
G01 X14.0041 Y16.4239
G01 X14.0041 Y16.7159
G01 X13.9952 Y16.8018
G01 X13.9481 Y16.9431
G01 X13.8702 Y17.0691
G01 X13.7654 Y17.1737
G01 X13.6393 Y17.2514
G01 X13.4980 Y17.2984
G01 X13.4334 Y17.3050
G00 Z2.0000
G00 X20.2632 Y17.8691
G01 F50.00
G01 Z-0.1300
G01 F70.00
G01 X20.2717 Y17.8450
G01 X20.2780 Y17.8242
G01 X20.2998 Y17.7376
G01 X20.3046 Y17.7164
G01 X20.3066 Y17.7057
G01 X20.3198 Y17.6173
G01 X20.3225 Y17.5958
G01 X20.3241 Y17.5741
G01 X20.3283 Y17.4849
G01 X20.3284 Y14.8740
G01 X20.3279 Y14.8523
G01 X20.3241 Y14.7739
G01 X20.3225 Y14.7522
G01 X20.3198 Y14.7307
G01 X20.3066 Y14.6423
G01 X20.3023 Y14.6210
G01 X20.2998 Y14.6104
G01 X20.2780 Y14.5238
G01 X20.2717 Y14.5030
G01 X20.2617 Y14.4746
G01 X20.3360 Y14.4831
G01 X20.3469 Y14.4840
G01 X20.3689 Y14.4849
G01 X20.3909 Y14.4847
G01 X20.4128 Y14.4834
G01 X20.4346 Y14.4810
G01 X20.4488 Y14.4789
G01 X20.4403 Y14.5030
G01 X20.4340 Y14.5238
G01 X20.4122 Y14.6104
G01 X20.4097 Y14.6210
G01 X20.4054 Y14.6423
G01 X20.3922 Y14.7307
G01 X20.3895 Y14.7522
G01 X20.3879 Y14.7739
G01 X20.3837 Y14.8631
G01 X20.3836 Y17.4740
G01 X20.3841 Y17.4957
G01 X20.3879 Y17.5741
G01 X20.3895 Y17.5958
G01 X20.3922 Y17.6173
G01 X20.4054 Y17.7057
G01 X20.4074 Y17.7164
G01 X20.4122 Y17.7376
G01 X20.4318 Y17.8160
G01 X20.4405 Y17.8456
G01 X20.4503 Y17.8734
G01 X20.3760 Y17.8649
G01 X20.3541 Y17.8635
G01 X20.3431 Y17.8631
G01 X20.3211 Y17.8633
G01 X20.2992 Y17.8646
G01 X20.2774 Y17.8670
G01 X20.2632 Y17.8691
G00 Z2.0000
G00 X26.5805 Y18.0749
G01 F50.00
G01 Z-0.1300
G01 F70.00
G01 X26.8427 Y18.0749
G01 X26.8428 Y19.0010
G01 X26.8467 Y19.0824
G01 X26.8479 Y19.0944
G01 X26.8604 Y19.1780
G01 X26.8810 Y19.2607
G01 X26.8843 Y19.2716
G01 X26.9130 Y19.3512
G01 X26.9517 Y19.4331
G01 X26.9982 Y19.5107
G01 X27.0485 Y19.5787
G01 X27.0541 Y19.5858
G01 X27.1130 Y19.6506
G01 X27.1756 Y19.7075
G01 X27.1849 Y19.7151
G01 X27.2479 Y19.7619
G01 X27.2580 Y19.7686
G01 X27.3306 Y19.8119
G01 X27.3887 Y19.8396
G01 X27.3887 Y20.1239
G01 X27.3586 Y20.1158
G01 X27.1709 Y20.0283
G01 X27.0008 Y19.9092
G01 X26.8542 Y19.7626
G01 X26.7354 Y19.5929
G01 X26.6478 Y19.4050
G01 X26.5941 Y19.2047
G01 X26.5805 Y19.0498
G01 X26.5805 Y18.0749
G00 Z2.0000
G00 X26.5805 Y17.3211
G01 F50.00
G01 Z-0.1300
G01 F70.00
G01 X26.5805 Y16.3462
G01 X26.5941 Y16.1913
G01 X26.6478 Y15.9910
G01 X26.7354 Y15.8031
G01 X26.8542 Y15.6334
G01 X27.0008 Y15.4868
G01 X27.1709 Y15.3677
G01 X27.3586 Y15.2802
G01 X27.3887 Y15.2721
G01 X27.3887 Y15.5564
G01 X27.3306 Y15.5841
G01 X27.2580 Y15.6274
G01 X27.2479 Y15.6341
G01 X27.1849 Y15.6809
G01 X27.1756 Y15.6885
G01 X27.1130 Y15.7454
G01 X27.0541 Y15.8102
G01 X27.0485 Y15.8173
G01 X26.9982 Y15.8853
G01 X26.9517 Y15.9629
G01 X26.9130 Y16.0448
G01 X26.8843 Y16.1244
G01 X26.8816 Y16.1330
G01 X26.8604 Y16.2180
G01 X26.8479 Y16.3016
G01 X26.8467 Y16.3136
G01 X26.8428 Y16.3950
G01 X26.8427 Y17.3211
G01 X26.5805 Y17.3211
G00 Z2.0000
G00 X29.0596 Y16.1032
G01 F50.00
G01 Z-0.1300
G01 F70.00
G01 X29.0493 Y16.1450
G01 X29.0451 Y16.1663
G01 X29.0304 Y16.2654
G01 X29.0292 Y16.2762
G01 X29.0276 Y16.2979
G01 X29.0233 Y16.3871
G01 X29.0232 Y18.9980
G01 X29.0237 Y19.0197
G01 X29.0276 Y19.0981
G01 X29.0292 Y19.1198
G01 X29.0304 Y19.1306
G01 X29.0451 Y19.2297
G01 X29.0493 Y19.2510
G01 X29.0603 Y19.2957
G01 X29.0340 Y19.2911
G01 X28.9738 Y19.2840
G01 X28.9819 Y19.2510
G01 X28.9862 Y19.2297
G01 X29.0009 Y19.1306
G01 X29.0021 Y19.1198
G01 X29.0037 Y19.0981
G01 X29.0075 Y19.0197
G01 X29.0081 Y18.9980
G01 X29.0081 Y16.3980
G01 X29.0075 Y16.3763
G01 X29.0037 Y16.2979
G01 X29.0021 Y16.2762
G01 X29.0009 Y16.2654
G01 X28.9862 Y16.1663
G01 X28.9819 Y16.1450
G01 X28.9751 Y16.1170
G01 X28.9995 Y16.1147
G01 X29.0213 Y16.1116
G01 X29.0428 Y16.1073
G01 X29.0596 Y16.1032
G00 Z2.0000
G00 X27.7209 Y14.5110
G01 F50.00
G01 Z-0.1300
G01 F70.00
G01 X27.7209 Y14.2451
G01 X27.7322 Y14.2431
G01 X27.7647 Y14.2348
G01 X27.7936 Y14.2247
G01 X27.8047 Y14.2201
G01 X27.8323 Y14.2069
G01 X27.8586 Y14.1913
G01 X27.8686 Y14.1846
G01 X27.8954 Y14.1643
G01 X27.9202 Y14.1417
G01 X27.9408 Y14.1191
G01 X27.9485 Y14.1098
G01 X27.9666 Y14.0852
G01 X27.9824 Y14.0590
G01 X27.9881 Y14.0484
G01 X28.0010 Y14.0207
G01 X28.0115 Y13.9920
G01 X28.0150 Y13.9804
G01 X28.0222 Y13.9507
G01 X28.0269 Y13.9205
G01 X28.0280 Y13.9085
G01 X28.0294 Y13.8780
G01 X28.0294 Y13.6299
G01 X28.2916 Y13.6299
G01 X28.2916 Y13.9219
G01 X28.2827 Y14.0078
G01 X28.2356 Y14.1491
G01 X28.1577 Y14.2751
G01 X28.0529 Y14.3797
G01 X27.9268 Y14.4574
G01 X27.7855 Y14.5044
G01 X27.7209 Y14.5110
G00 Z2.0000
G00 X26.3964 Y13.6299
G01 F50.00
G01 Z-0.1300
G01 F70.00
G01 X26.6586 Y13.6299
G01 X26.6586 Y13.8780
G01 X26.6600 Y13.9085
G01 X26.6611 Y13.9205
G01 X26.6658 Y13.9507
G01 X26.6730 Y13.9804
G01 X26.6765 Y13.9920
G01 X26.6870 Y14.0207
G01 X26.6999 Y14.0484
G01 X26.7056 Y14.0590
G01 X26.7214 Y14.0852
G01 X26.7395 Y14.1098
G01 X26.7472 Y14.1191
G01 X26.7678 Y14.1417
G01 X26.7926 Y14.1643
G01 X26.8194 Y14.1846
G01 X26.8294 Y14.1913
G01 X26.8557 Y14.2069
G01 X26.8833 Y14.2201
G01 X26.8944 Y14.2247
G01 X26.9233 Y14.2348
G01 X26.9558 Y14.2431
G01 X26.9671 Y14.2451
G01 X26.9671 Y14.5110
G01 X26.9014 Y14.5041
G01 X26.7601 Y14.4570
G01 X26.6342 Y14.3790
G01 X26.5296 Y14.2742
G01 X26.4519 Y14.1481
G01 X26.4051 Y14.0067
G01 X26.3964 Y13.9220
G01 X26.3964 Y13.6299
G00 Z2.0000
G00 X26.3964 Y12.8761
G01 F50.00
G01 Z-0.1300
G01 F70.00
G01 X26.3964 Y12.5841
G01 X26.4053 Y12.4982
G01 X26.4524 Y12.3569
G01 X26.5303 Y12.2309
G01 X26.6351 Y12.1263
G01 X26.7612 Y12.0486
G01 X26.9025 Y12.0016
G01 X26.9671 Y11.9950
G01 X26.9671 Y12.2609
G01 X26.9558 Y12.2629
G01 X26.9233 Y12.2712
G01 X26.8944 Y12.2813
G01 X26.8833 Y12.2859
G01 X26.8557 Y12.2991
G01 X26.8294 Y12.3147
G01 X26.8194 Y12.3214
G01 X26.7926 Y12.3417
G01 X26.7678 Y12.3643
G01 X26.7472 Y12.3869
G01 X26.7395 Y12.3962
G01 X26.7214 Y12.4208
G01 X26.7056 Y12.4470
G01 X26.6999 Y12.4576
G01 X26.6870 Y12.4853
G01 X26.6765 Y12.5140
G01 X26.6730 Y12.5256
G01 X26.6658 Y12.5553
G01 X26.6611 Y12.5855
G01 X26.6600 Y12.5975
G01 X26.6586 Y12.6280
G01 X26.6586 Y12.8761
G01 X26.3964 Y12.8761
G00 Z2.0000
G00 X27.7209 Y12.2609
G01 F50.00
G01 Z-0.1300
G01 F70.00
G01 X27.7209 Y11.9950
G01 X27.7866 Y12.0019
G01 X27.9279 Y12.0490
G01 X28.0538 Y12.1270
G01 X28.1582 Y12.2316
G01 X28.2361 Y12.3579
G01 X28.2829 Y12.4993
G01 X28.2916 Y12.5840
G01 X28.2916 Y12.8761
G01 X28.0294 Y12.8761
G01 X28.0294 Y12.6280
G01 X28.0276 Y12.5919
G01 X28.0222 Y12.5553
G01 X28.0133 Y12.5198
G01 X28.0010 Y12.4853
G01 X27.9868 Y12.4549
G01 X27.9824 Y12.4470
G01 X27.9666 Y12.4208
G01 X27.9485 Y12.3962
G01 X27.9408 Y12.3869
G01 X27.9202 Y12.3643
G01 X27.8976 Y12.3437
G01 X27.8907 Y12.3379
G01 X27.8686 Y12.3214
G01 X27.8586 Y12.3147
G01 X27.8323 Y12.2991
G01 X27.7992 Y12.2835
G01 X27.7705 Y12.2730
G01 X27.7619 Y12.2703
G01 X27.7322 Y12.2629
G01 X27.7209 Y12.2609
G00 Z2.0000
G00 X26.5471 Y7.2105
G01 F50.00
G01 Z-0.1300
G01 F70.00
G01 X26.5471 Y5.9605
G01 X26.5486 Y5.9270
G01 X26.5496 Y5.9180
G01 X26.5543 Y5.8878
G01 X26.5615 Y5.8581
G01 X26.5641 Y5.8494
G01 X26.5733 Y5.8234
G01 X26.5779 Y5.8123
G01 X26.5911 Y5.7847
G01 X26.6099 Y5.7533
G01 X26.6317 Y5.7239
G01 X26.6522 Y5.7012
G01 X26.6585 Y5.6947
G01 X26.6834 Y5.6722
G01 X26.7128 Y5.6504
G01 X26.7442 Y5.6316
G01 X26.7718 Y5.6184
G01 X26.7829 Y5.6138
G01 X26.8089 Y5.6046
G01 X26.8176 Y5.6020
G01 X26.8473 Y5.5948
G01 X26.8835 Y5.5894
G01 X26.9200 Y5.5876
G01 X27.8450 Y5.5876
G01 X27.8815 Y5.5894
G01 X27.9177 Y5.5948
G01 X27.9532 Y5.6037
G01 X27.9877 Y5.6160
G01 X28.0208 Y5.6316
G01 X28.0522 Y5.6504
G01 X28.0816 Y5.6722
G01 X28.1043 Y5.6927
G01 X28.1108 Y5.6990
G01 X28.1333 Y5.7239
G01 X28.1551 Y5.7533
G01 X28.1739 Y5.7847
G01 X28.1871 Y5.8123
G01 X28.1917 Y5.8234
G01 X28.2009 Y5.8494
G01 X28.2035 Y5.8581
G01 X28.2107 Y5.8878
G01 X28.2154 Y5.9180
G01 X28.2164 Y5.9270
G01 X28.2179 Y5.9605
G01 X28.2179 Y7.2105
G01 X28.2161 Y7.2470
G01 X28.2113 Y7.2803
G01 X28.2035 Y7.3129
G01 X28.2000 Y7.3245
G01 X28.1895 Y7.3532
G01 X28.1739 Y7.3863
G01 X28.1551 Y7.4177
G01 X28.1370 Y7.4423
G01 X28.1293 Y7.4516
G01 X28.1087 Y7.4742
G01 X28.0816 Y7.4988
G01 X28.0522 Y7.5206
G01 X28.0208 Y7.5394
G01 X27.9876 Y7.5551
G01 X27.9532 Y7.5673
G01 X27.9177 Y7.5762
G01 X27.8815 Y7.5816
G01 X27.8494 Y7.5833
G01 X27.8415 Y7.6044
G01 X27.8218 Y7.6458
G01 X27.7983 Y7.6852
G01 X27.7786 Y7.7123
G01 X27.7786 Y9.0663
G01 X27.8002 Y9.0794
G01 X27.8248 Y9.0975
G01 X27.8319 Y9.1032
G01 X27.8545 Y9.1237
G01 X27.8608 Y9.1302
G01 X27.8813 Y9.1529
G01 X27.9031 Y9.1823
G01 X27.9219 Y9.2137
G01 X27.9351 Y9.2413
G01 X27.9397 Y9.2524
G01 X27.9498 Y9.2813
G01 X27.9574 Y9.3109
G01 X27.9593 Y9.3197
G01 X27.9638 Y9.3502
G01 X27.9645 Y9.3590
G01 X27.9659 Y9.3895
G01 X27.9659 Y10.6395
G01 X27.9644 Y10.6730
G01 X27.9598 Y10.7063
G01 X27.9574 Y10.7181
G01 X27.9498 Y10.7477
G01 X27.9375 Y10.7822
G01 X27.9246 Y10.8099
G01 X27.9189 Y10.8205
G01 X27.9031 Y10.8467
G01 X27.8813 Y10.8761
G01 X27.8567 Y10.9032
G01 X27.8341 Y10.9238
G01 X27.8248 Y10.9315
G01 X27.8002 Y10.9496
G01 X27.7740 Y10.9654
G01 X27.7634 Y10.9711
G01 X27.7357 Y10.9840
G01 X27.7012 Y10.9963
G01 X27.6716 Y11.0039
G01 X27.6598 Y11.0063
G01 X27.6296 Y11.0106
G01 X27.5930 Y11.0124
G01 X26.9680 Y11.0124
G01 X26.9314 Y11.0106
G01 X26.9012 Y11.0063
G01 X26.8923 Y11.0046
G01 X26.8598 Y10.9963
G01 X26.8309 Y10.9862
G01 X26.8198 Y10.9816
G01 X26.7922 Y10.9684
G01 X26.7659 Y10.9528
G01 X26.7559 Y10.9461
G01 X26.7314 Y10.9278
G01 X26.7087 Y10.9073
G01 X26.7002 Y10.8988
G01 X26.6797 Y10.8761
G01 X26.6614 Y10.8516
G01 X26.6547 Y10.8416
G01 X26.6391 Y10.8153
G01 X26.6259 Y10.7877
G01 X26.6213 Y10.7766
G01 X26.6112 Y10.7477
G01 X26.6036 Y10.7181
G01 X26.6012 Y10.7063
G01 X26.5969 Y10.6761
G01 X26.5951 Y10.6395
G01 X26.5951 Y9.3895
G01 X26.5965 Y9.3590
G01 X26.5976 Y9.3470
G01 X26.6023 Y9.3168
G01 X26.6095 Y9.2871
G01 X26.6121 Y9.2784
G01 X26.6235 Y9.2468
G01 X26.6364 Y9.2191
G01 X26.6406 Y9.2111
G01 X26.6563 Y9.1849
G01 X26.6614 Y9.1774
G01 X26.6797 Y9.1529
G01 X26.7002 Y9.1302
G01 X26.7065 Y9.1237
G01 X26.7291 Y9.1032
G01 X26.7362 Y9.0975
G01 X26.7608 Y9.0794
G01 X26.7824 Y9.0663
G01 X26.7824 Y7.5570
G01 X26.7745 Y7.5538
G01 X26.7496 Y7.5421
G01 X26.7390 Y7.5364
G01 X26.7128 Y7.5206
G01 X26.6834 Y7.4988
G01 X26.6607 Y7.4783
G01 X26.6522 Y7.4698
G01 X26.6317 Y7.4471
G01 X26.6099 Y7.4177
G01 X26.5911 Y7.3863
G01 X26.5779 Y7.3587
G01 X26.5733 Y7.3476
G01 X26.5632 Y7.3187
G01 X26.5543 Y7.2832
G01 X26.5496 Y7.2530
G01 X26.5485 Y7.2410
G01 X26.5471 Y7.2105
G00 Z2.0000
G00 X26.3873 Y7.2105
G01 F50.00
G01 Z-0.1300
G01 F70.00
G01 X26.3873 Y5.9605
G01 X26.3889 Y5.9221
G01 X26.3907 Y5.9014
G01 X26.3952 Y5.8703
G01 X26.3976 Y5.8566
G01 X26.4006 Y5.8430
G01 X26.4103 Y5.8059
G01 X26.4229 Y5.7696
G01 X26.4279 Y5.7567
G01 X26.4335 Y5.7440
G01 X26.4502 Y5.7094
G01 X26.4571 Y5.6973
G01 X26.4771 Y5.6646
G01 X26.4997 Y5.6335
G01 X26.5082 Y5.6226
G01 X26.5338 Y5.5939
G01 X26.5433 Y5.5838
G01 X26.5534 Y5.5743
G01 X26.5768 Y5.5532
G01 X26.5875 Y5.5444
G01 X26.6127 Y5.5256
G01 X26.6241 Y5.5176
G01 X26.6358 Y5.5102
G01 X26.6689 Y5.4907
G01 X26.6813 Y5.4845
G01 X26.7162 Y5.4684
G01 X26.7291 Y5.4634
G01 X26.7654 Y5.4508
G01 X26.8025 Y5.4411
G01 X26.8229 Y5.4368
G01 X26.8540 Y5.4321
G01 X26.8678 Y5.4304
G01 X26.8816 Y5.4294
G01 X26.9200 Y5.4278
G01 X27.8450 Y5.4278
G01 X27.8589 Y5.4282
G01 X27.8903 Y5.4298
G01 X27.9041 Y5.4312
G01 X27.9421 Y5.4368
G01 X27.9625 Y5.4411
G01 X27.9996 Y5.4508
G01 X28.0359 Y5.4634
G01 X28.0552 Y5.4711
G01 X28.0837 Y5.4845
G01 X28.1022 Y5.4941
G01 X28.1351 Y5.5138
G01 X28.1467 Y5.5215
G01 X28.1775 Y5.5444
G01 X28.1882 Y5.5532
G01 X28.2167 Y5.5790
G01 X28.2265 Y5.5888
G01 X28.2523 Y5.6173
G01 X28.2611 Y5.6280
G01 X28.2799 Y5.6532
G01 X28.2879 Y5.6646
G01 X28.2953 Y5.6763
G01 X28.3148 Y5.7094
G01 X28.3315 Y5.7440
G01 X28.3372 Y5.7570
G01 X28.3504 Y5.7927
G01 X28.3547 Y5.8059
G01 X28.3644 Y5.8430
G01 X28.3674 Y5.8566
G01 X28.3698 Y5.8703
G01 X28.3743 Y5.9014
G01 X28.3757 Y5.9152
G01 X28.3773 Y5.9466
G01 X28.3777 Y5.9605
G01 X28.3777 Y7.2105
G01 X28.3773 Y7.2244
G01 X28.3757 Y7.2558
G01 X28.3734 Y7.2765
G01 X28.3674 Y7.3144
G01 X28.3644 Y7.3280
G01 X28.3567 Y7.3585
G01 X28.3526 Y7.3717
G01 X28.3421 Y7.4014
G01 X28.3344 Y7.4207
G01 X28.3210 Y7.4492
G01 X28.3148 Y7.4616
G01 X28.3079 Y7.4737
G01 X28.2917 Y7.5006
G01 X28.2840 Y7.5122
G01 X28.2653 Y7.5375
G01 X28.2568 Y7.5484
G01 X28.2477 Y7.5589
G01 X28.2217 Y7.5872
G01 X28.1934 Y7.6132
G01 X28.1775 Y7.6266
G01 X28.1523 Y7.6454
G01 X28.1409 Y7.6534
G01 X28.1082 Y7.6734
G01 X28.0961 Y7.6803
G01 X28.0615 Y7.6970
G01 X28.0485 Y7.7027
G01 X28.0128 Y7.7159
G01 X27.9996 Y7.7202
G01 X27.9863 Y7.7239
G01 X27.9570 Y7.7312
G01 X27.9384 Y7.7624
G01 X27.9384 Y8.9841
G01 X27.9647 Y9.0080
G01 X27.9745 Y9.0178
G01 X28.0003 Y9.0463
G01 X28.0091 Y9.0570
G01 X28.0320 Y9.0878
G01 X28.0397 Y9.0994
G01 X28.0594 Y9.1323
G01 X28.0660 Y9.1446
G01 X28.0824 Y9.1793
G01 X28.0877 Y9.1921
G01 X28.1006 Y9.2283
G01 X28.1047 Y9.2415
G01 X28.1140 Y9.2788
G01 X28.1167 Y9.2924
G01 X28.1224 Y9.3309
G01 X28.1238 Y9.3456
G01 X28.1257 Y9.3895
G01 X28.1257 Y10.6395
G01 X28.1253 Y10.6534
G01 X28.1231 Y10.6917
G01 X28.1214 Y10.7055
G01 X28.1167 Y10.7366
G01 X28.1124 Y10.7570
G01 X28.1027 Y10.7941
G01 X28.0984 Y10.8073
G01 X28.0851 Y10.8433
G01 X28.0795 Y10.8560
G01 X28.0660 Y10.8844
G01 X28.0559 Y10.9027
G01 X28.0359 Y10.9354
G01 X28.0279 Y10.9468
G01 X28.0091 Y10.9720
G01 X27.9957 Y10.9879
G01 X27.9745 Y11.0112
G01 X27.9647 Y11.0210
G01 X27.9414 Y11.0422
G01 X27.9309 Y11.0513
G01 X27.9200 Y11.0598
G01 X27.8947 Y11.0785
G01 X27.8831 Y11.0862
G01 X27.8562 Y11.1024
G01 X27.8379 Y11.1125
G01 X27.8095 Y11.1260
G01 X27.7968 Y11.1316
G01 X27.7608 Y11.1449
G01 X27.7476 Y11.1492
G01 X27.7343 Y11.1529
G01 X27.7037 Y11.1605
G01 X27.6901 Y11.1632
G01 X27.6590 Y11.1679
G01 X27.6452 Y11.1696
G01 X27.6069 Y11.1718
G01 X27.5930 Y11.1722
G01 X26.9611 Y11.1721
G01 X26.9227 Y11.1702
G01 X26.9020 Y11.1679
G01 X26.8641 Y11.1619
G01 X26.8267 Y11.1529
G01 X26.8068 Y11.1471
G01 X26.7771 Y11.1366
G01 X26.7642 Y11.1316
G01 X26.7293 Y11.1155
G01 X26.7108 Y11.1059
G01 X26.6838 Y11.0898
G01 X26.6721 Y11.0824
G01 X26.6410 Y11.0598
G01 X26.6248 Y11.0468
G01 X26.5963 Y11.0210
G01 X26.5818 Y11.0061
G01 X26.5562 Y10.9774
G01 X26.5331 Y10.9468
G01 X26.5213 Y10.9296
G01 X26.5016 Y10.8967
G01 X26.4920 Y10.8782
G01 X26.4759 Y10.8433
G01 X26.4626 Y10.8073
G01 X26.4583 Y10.7941
G01 X26.4546 Y10.7808
G01 X26.4470 Y10.7502
G01 X26.4443 Y10.7366
G01 X26.4396 Y10.7055
G01 X26.4379 Y10.6917
G01 X26.4369 Y10.6779
G01 X26.4354 Y10.6464
G01 X26.4353 Y9.3895
G01 X26.4369 Y9.3511
G01 X26.4387 Y9.3304
G01 X26.4443 Y9.2924
G01 X26.4470 Y9.2788
G01 X26.4563 Y9.2415
G01 X26.4604 Y9.2283
G01 X26.4733 Y9.1921
G01 X26.4786 Y9.1793
G01 X26.4950 Y9.1446
G01 X26.5016 Y9.1323
G01 X26.5213 Y9.0994
G01 X26.5290 Y9.0878
G01 X26.5519 Y9.0570
G01 X26.5607 Y9.0463
G01 X26.5865 Y9.0178
G01 X26.5963 Y9.0080
G01 X26.6226 Y8.9841
G01 X26.6226 Y7.6524
G01 X26.5875 Y7.6266
G01 X26.5716 Y7.6132
G01 X26.5433 Y7.5872
G01 X26.5173 Y7.5589
G01 X26.5039 Y7.5430
G01 X26.4810 Y7.5122
G01 X26.4697 Y7.4947
G01 X26.4502 Y7.4616
G01 X26.4335 Y7.4270
G01 X26.4251 Y7.4074
G01 X26.4124 Y7.3717
G01 X26.4066 Y7.3518
G01 X26.3976 Y7.3144
G01 X26.3916 Y7.2765
G01 X26.3893 Y7.2558
G01 X26.3877 Y7.2244
G01 X26.3873 Y7.2105
G00 Z2.0000
G00 X28.5374 Y6.9339
G01 F50.00
G01 Z-0.1300
G01 F70.00
G01 X28.5374 Y6.2409
G01 X28.5628 Y6.2568
G01 X28.5724 Y6.2622
G01 X28.5919 Y6.2723
G01 X28.6657 Y6.3080
G01 X28.6859 Y6.3166
G01 X28.7066 Y6.3242
G01 X28.7275 Y6.3308
G01 X28.7488 Y6.3363
G01 X28.7703 Y6.3408
G01 X28.7812 Y6.3426
G01 X28.8029 Y6.3454
G01 X28.8139 Y6.3464
G01 X28.8249 Y6.3472
G01 X28.8468 Y6.3478
G01 X28.8688 Y6.3474
G01 X28.8907 Y6.3459
G01 X28.9830 Y6.3348
G01 X28.9939 Y6.3331
G01 X29.0154 Y6.3289
G01 X29.0368 Y6.3236
G01 X29.0473 Y6.3206
G01 X29.0682 Y6.3137
G01 X29.0887 Y6.3058
G01 X29.1088 Y6.2969
G01 X29.1284 Y6.2870
G01 X29.1475 Y6.2762
G01 X29.1661 Y6.2644
G01 X29.1840 Y6.2517
G01 X29.2026 Y6.2371
G01 X29.2026 Y6.9301
G01 X29.1772 Y6.9142
G01 X29.1579 Y6.9036
G01 X29.1481 Y6.8987
G01 X29.0743 Y6.8630
G01 X29.0541 Y6.8544
G01 X29.0334 Y6.8468
G01 X29.0230 Y6.8434
G01 X29.0019 Y6.8373
G01 X28.9805 Y6.8323
G01 X28.9588 Y6.8284
G01 X28.9371 Y6.8256
G01 X28.9261 Y6.8246
G01 X28.9151 Y6.8238
G01 X28.8932 Y6.8232
G01 X28.8712 Y6.8236
G01 X28.8493 Y6.8251
G01 X28.7570 Y6.8362
G01 X28.7461 Y6.8379
G01 X28.7246 Y6.8421
G01 X28.7032 Y6.8474
G01 X28.6927 Y6.8504
G01 X28.6718 Y6.8573
G01 X28.6513 Y6.8652
G01 X28.6312 Y6.8741
G01 X28.6116 Y6.8840
G01 X28.5925 Y6.8948
G01 X28.5739 Y6.9066
G01 X28.5560 Y6.9193
G01 X28.5374 Y6.9339
G00 Z2.0000
G00 X29.0428 Y6.4864
G01 F50.00
G01 Z-0.1300
G01 F70.00
G01 X29.0428 Y6.6829
G01 X29.0128 Y6.6759
G01 X28.9834 Y6.6706
G01 X28.9686 Y6.6684
G01 X28.9537 Y6.6667
G01 X28.9239 Y6.6643
G01 X28.8940 Y6.6634
G01 X28.8641 Y6.6640
G01 X28.8492 Y6.6649
G01 X28.8194 Y6.6677
G01 X28.7341 Y6.6781
G01 X28.7193 Y6.6804
G01 X28.6972 Y6.6846
G01 X28.6972 Y6.4881
G01 X28.7272 Y6.4951
G01 X28.7566 Y6.5004
G01 X28.7714 Y6.5026
G01 X28.7863 Y6.5043
G01 X28.8161 Y6.5067
G01 X28.8460 Y6.5076
G01 X28.8759 Y6.5070
G01 X28.8908 Y6.5061
G01 X28.9206 Y6.5033
G01 X29.0059 Y6.4929
G01 X29.0207 Y6.4906
G01 X29.0428 Y6.4864
G00 Z2.0000
G00 X36.4136 Y5.2093
G01 F50.00
G01 Z-0.1300
G01 F70.00
G01 X36.6979 Y5.2093
G01 X36.7256 Y5.2674
G01 X36.7689 Y5.3400
G01 X36.7756 Y5.3501
G01 X36.8224 Y5.4131
G01 X36.8300 Y5.4224
G01 X36.8869 Y5.4850
G01 X36.9517 Y5.5439
G01 X36.9588 Y5.5495
G01 X37.0268 Y5.5998
G01 X37.1044 Y5.6463
G01 X37.1863 Y5.6850
G01 X37.2659 Y5.7137
G01 X37.2745 Y5.7164
G01 X37.3595 Y5.7376
G01 X37.4431 Y5.7501
G01 X37.4551 Y5.7513
G01 X37.5365 Y5.7552
G01 X38.4626 Y5.7553
G01 X38.4626 Y6.0175
G01 X37.4877 Y6.0175
G01 X37.3328 Y6.0039
G01 X37.1325 Y5.9502
G01 X36.9446 Y5.8626
G01 X36.7749 Y5.7438
G01 X36.6283 Y5.5972
G01 X36.5092 Y5.4271
G01 X36.4217 Y5.2394
G01 X36.4136 Y5.2093
G00 Z2.0000
G00 X37.2447 Y3.5384
G01 F50.00
G01 Z-0.1300
G01 F70.00
G01 X37.2865 Y3.5487
G01 X37.3078 Y3.5529
G01 X37.4069 Y3.5676
G01 X37.4285 Y3.5698
G01 X37.4394 Y3.5704
G01 X37.5286 Y3.5747
G01 X40.1395 Y3.5748
G01 X40.1612 Y3.5743
G01 X40.2396 Y3.5704
G01 X40.2505 Y3.5698
G01 X40.2721 Y3.5676
G01 X40.3712 Y3.5529
G01 X40.3925 Y3.5487
G01 X40.4372 Y3.5377
G01 X40.4326 Y3.5640
G01 X40.4255 Y3.6242
G01 X40.3925 Y3.6161
G01 X40.3712 Y3.6118
G01 X40.2721 Y3.5971
G01 X40.2505 Y3.5950
G01 X40.2396 Y3.5943
G01 X40.1612 Y3.5905
G01 X40.1395 Y3.5899
G01 X37.5395 Y3.5899
G01 X37.5178 Y3.5905
G01 X37.4394 Y3.5943
G01 X37.4285 Y3.5950
G01 X37.4069 Y3.5971
G01 X37.3078 Y3.6118
G01 X37.2865 Y3.6161
G01 X37.2585 Y3.6229
G01 X37.2562 Y3.5985
G01 X37.2531 Y3.5767
G01 X37.2488 Y3.5552
G01 X37.2447 Y3.5384
G00 Z2.0000
G00 X39.2164 Y6.0175
G01 F50.00
G01 Z-0.1300
G01 F70.00
G01 X39.2164 Y5.7553
G01 X40.1425 Y5.7552
G01 X40.2239 Y5.7513
G01 X40.2359 Y5.7501
G01 X40.3195 Y5.7376
G01 X40.4041 Y5.7165
G01 X40.4131 Y5.7137
G01 X40.4927 Y5.6850
G01 X40.5746 Y5.6463
G01 X40.6522 Y5.5998
G01 X40.7202 Y5.5495
G01 X40.7273 Y5.5439
G01 X40.7921 Y5.4850
G01 X40.8490 Y5.4224
G01 X40.8566 Y5.4131
G01 X40.9034 Y5.3501
G01 X40.9101 Y5.3400
G01 X40.9534 Y5.2674
G01 X40.9811 Y5.2093
G01 X41.2654 Y5.2093
G01 X41.2573 Y5.2394
G01 X41.1698 Y5.4271
G01 X41.0507 Y5.5972
G01 X40.9041 Y5.7438
G01 X40.7344 Y5.8626
G01 X40.5465 Y5.9502
G01 X40.3462 Y6.0039
G01 X40.1913 Y6.0175
G01 X39.2164 Y6.0175
G00 Z2.0000
G00 X41.6065 Y16.1440
G01 F50.00
G01 Z-0.1300
G01 F70.00
G01 X41.6753 Y16.1474
G01 X41.6970 Y16.1479
G01 X41.7079 Y16.1478
G01 X41.8766 Y16.1395
G01 X41.8982 Y16.1374
G01 X41.9089 Y16.1359
G01 X42.0668 Y16.1123
G01 X42.0971 Y16.1059
G01 X42.2399 Y16.0701
G01 X42.2609 Y16.0643
G01 X42.2815 Y16.0575
G01 X42.4201 Y16.0079
G01 X42.4303 Y16.0041
G01 X42.4503 Y15.9958
G01 X42.5933 Y15.9283
G01 X42.6127 Y15.9186
G01 X42.6316 Y15.9079
G01 X42.7578 Y15.8322
G01 X42.7762 Y15.8206
G01 X42.7939 Y15.8081
G01 X42.9122 Y15.7204
G01 X42.9293 Y15.7070
G01 X42.9457 Y15.6928
G01 X43.0548 Y15.5940
G01 X43.0705 Y15.5790
G01 X43.0855 Y15.5633
G01 X43.1843 Y15.4542
G01 X43.1985 Y15.4378
G01 X43.2119 Y15.4207
G01 X43.2996 Y15.3024
G01 X43.3121 Y15.2847
G01 X43.3237 Y15.2663
G01 X43.3994 Y15.1401
G01 X43.4101 Y15.1212
G01 X43.4198 Y15.1018
G01 X43.4828 Y14.9687
G01 X43.4916 Y14.9488
G01 X43.4994 Y14.9286
G01 X43.5490 Y14.7900
G01 X43.5558 Y14.7694
G01 X43.5616 Y14.7484
G01 X43.5974 Y14.6056
G01 X43.6021 Y14.5845
G01 X43.6058 Y14.5631
G01 X43.6274 Y14.4174
G01 X43.6301 Y14.3959
G01 X43.6317 Y14.3742
G01 X43.6389 Y14.2272
G01 X43.6394 Y14.2055
G01 X43.6389 Y14.1838
G01 X43.6317 Y14.0368
G01 X43.6301 Y14.0151
G01 X43.6274 Y13.9936
G01 X43.6058 Y13.8479
G01 X43.6021 Y13.8265
G01 X43.5974 Y13.8054
G01 X43.5616 Y13.6626
G01 X43.5558 Y13.6416
G01 X43.5490 Y13.6210
G01 X43.4994 Y13.4824
G01 X43.4916 Y13.4622
G01 X43.4828 Y13.4423
G01 X43.4155 Y13.3003
G01 X43.4466 Y13.3028
G01 X43.4686 Y13.3041
G01 X43.4905 Y13.3042
G01 X43.5125 Y13.3032
G01 X43.5234 Y13.3023
G01 X43.5453 Y13.2997
G01 X43.5669 Y13.2961
G01 X43.5884 Y13.2913
G01 X43.6096 Y13.2855
G01 X43.6304 Y13.2787
G01 X43.6408 Y13.2749
G01 X43.6611 Y13.2665
G01 X43.6809 Y13.2571
G01 X43.7629 Y13.2133
G01 X43.7818 Y13.2020
G01 X43.8004 Y13.1895
G01 X43.8004 Y22.0795
G01 X43.8009 Y22.1012
G01 X43.8034 Y22.1488
G01 X43.8055 Y22.1704
G01 X43.8070 Y22.1812
G01 X43.8124 Y22.2176
G01 X43.8161 Y22.2390
G01 X43.8208 Y22.2602
G01 X43.8326 Y22.3064
G01 X43.8356 Y22.3168
G01 X43.8424 Y22.3375
G01 X43.8548 Y22.3721
G01 X43.8626 Y22.3924
G01 X43.8714 Y22.4122
G01 X43.8919 Y22.4553
G01 X43.8969 Y22.4649
G01 X43.9076 Y22.4838
G01 X43.9321 Y22.5244
G01 X43.9443 Y22.5426
G01 X43.9726 Y22.5811
G01 X43.9860 Y22.5982
G01 X44.0001 Y22.6146
G01 X44.0323 Y22.6499
G01 X44.4084 Y23.0262
G01 X44.4084 Y24.0354
G01 X44.3879 Y24.0478
G01 X44.3698 Y24.0599
G01 X44.3327 Y24.0875
G01 X44.3159 Y24.1012
G01 X44.2816 Y24.1323
G01 X44.2663 Y24.1476
G01 X44.2589 Y24.1556
G01 X44.2424 Y24.1738
G01 X44.2282 Y24.1902
G01 X44.2149 Y24.2073
G01 X44.2003 Y24.2270
G01 X44.1939 Y24.2358
G01 X44.1818 Y24.2539
G01 X44.1581 Y24.2936
G01 X44.1528 Y24.3031
G01 X44.1431 Y24.3225
G01 X44.1326 Y24.3447
G01 X44.1238 Y24.3645
G01 X44.1160 Y24.3848
G01 X44.1077 Y24.4079
G01 X44.1042 Y24.4181
G01 X44.0979 Y24.4389
G01 X44.0866 Y24.4838
G01 X44.0844 Y24.4944
G01 X44.0807 Y24.5158
G01 X44.0771 Y24.5401
G01 X44.0744 Y24.5616
G01 X44.0728 Y24.5833
G01 X44.0716 Y24.6078
G01 X44.0711 Y24.6295
G01 X44.0712 Y25.8904
G01 X44.0728 Y25.9257
G01 X44.0744 Y25.9474
G01 X44.0771 Y25.9689
G01 X44.0807 Y25.9932
G01 X44.0844 Y26.0146
G01 X44.0891 Y26.0358
G01 X44.0979 Y26.0701
G01 X44.1042 Y26.0909
G01 X44.1160 Y26.1242
G01 X44.1236 Y26.1440
G01 X44.1279 Y26.1542
G01 X44.1478 Y26.1963
G01 X44.1581 Y26.2154
G01 X44.1635 Y26.2248
G01 X44.1761 Y26.2459
G01 X44.1878 Y26.2642
G01 X44.2003 Y26.2820
G01 X44.2149 Y26.3017
G01 X44.2215 Y26.3103
G01 X44.2352 Y26.3271
G01 X44.2663 Y26.3614
G01 X44.2739 Y26.3691
G01 X44.2896 Y26.3841
G01 X44.3078 Y26.4006
G01 X44.3242 Y26.4148
G01 X44.3413 Y26.4281
G01 X44.3610 Y26.4427
G01 X44.3788 Y26.4552
G01 X44.3879 Y26.4612
G01 X44.4276 Y26.4849
G01 X44.4371 Y26.4902
G01 X44.4565 Y26.4999
G01 X44.4787 Y26.5104
G01 X44.4985 Y26.5192
G01 X44.5188 Y26.5270
G01 X44.5419 Y26.5353
G01 X44.5625 Y26.5421
G01 X44.5729 Y26.5451
G01 X44.6072 Y26.5539
G01 X44.6284 Y26.5586
G01 X44.6498 Y26.5623
G01 X44.6741 Y26.5659
G01 X44.6848 Y26.5674
G01 X44.7064 Y26.5695
G01 X44.7526 Y26.5718
G01 X45.6885 Y26.5719
G01 X45.7102 Y26.5714
G01 X45.7456 Y26.5695
G01 X45.7672 Y26.5674
G01 X45.8022 Y26.5623
G01 X45.8236 Y26.5586
G01 X45.8448 Y26.5539
G01 X45.8791 Y26.5451
G01 X45.8999 Y26.5388
G01 X45.9427 Y26.5235
G01 X45.9632 Y26.5151
G01 X45.9955 Y26.4999
G01 X46.0149 Y26.4902
G01 X46.0338 Y26.4795
G01 X46.0549 Y26.4669
G01 X46.0732 Y26.4552
G01 X46.0910 Y26.4427
G01 X46.1107 Y26.4281
G01 X46.1278 Y26.4148
G01 X46.1442 Y26.4006
G01 X46.1704 Y26.3767
G01 X46.1857 Y26.3614
G01 X46.2096 Y26.3352
G01 X46.2238 Y26.3188
G01 X46.2371 Y26.3017
G01 X46.2581 Y26.2732
G01 X46.2702 Y26.2551
G01 X46.2939 Y26.2154
G01 X46.3042 Y26.1963
G01 X46.3194 Y26.1643
G01 X46.3282 Y26.1445
G01 X46.3360 Y26.1242
G01 X46.3443 Y26.1011
G01 X46.3511 Y26.0805
G01 X46.3569 Y26.0596
G01 X46.3654 Y26.0252
G01 X46.3696 Y26.0039
