(G-CODE GENERATED BY FLATCAM v8.992 - www.flatcam.org - Version Date: 2020/05/03)

(Name: sMeter Daughter Board v1-F_Cu.gbr_iso_cnc)
(Type: G-code from Geometry)
(Units: MM)

(Created on Thursday, 27 April 2023 at 19:10)

(This preprocessor is the default preprocessor used by FlatCAM.)
(It is made to work with MACH3 compatible motion controllers.)

(TOOL DIAMETER: 0.2423 mm)
(Feedrate_XY: 60.0 mm/min)
(Feedrate_Z: 50.0 mm/min)
(Feedrate rapids 1500.0 mm/min)

(Z_Cut: -0.12 mm)
(Z_Move: 2.0 mm)
(Z Start: None mm)
(Z End: 5.0 mm)
(Steps per circle: 64)
(Preprocessor Geometry: default)

(X range:    0.2351 ...   50.7499  mm)
(Y range:    0.4251 ...   33.0889  mm)

(Spindle Speed: None RPM)
G21
G90
G94



G01 F60.00
G00 Z2.0000

M03
G00 X3.6105 Y6.1449
G01 F50.00
G01 Z-0.1200
G01 F60.00
G01 X3.6105 Y5.2681
G01 X3.6241 Y5.1129
G01 X3.6779 Y4.9124
G01 X3.7657 Y4.7242
G01 X3.8846 Y4.5544
G01 X4.0314 Y4.4075
G01 X4.2018 Y4.2881
G01 X4.3897 Y4.2005
G01 X4.4222 Y4.1918
G01 X4.4222 Y4.4795
G01 X4.3631 Y4.5076
G01 X4.2906 Y4.5509
G01 X4.2807 Y4.5575
G01 X4.2177 Y4.6043
G01 X4.2085 Y4.6118
G01 X4.1460 Y4.6686
G01 X4.0872 Y4.7334
G01 X4.0816 Y4.7403
G01 X4.0314 Y4.8082
G01 X3.9850 Y4.8858
G01 X3.9463 Y4.9675
G01 X3.9177 Y5.0470
G01 X3.9150 Y5.0555
G01 X3.8939 Y5.1403
G01 X3.8814 Y5.2238
G01 X3.8802 Y5.2356
G01 X3.8762 Y5.3170
G01 X3.8762 Y6.1449
G01 X3.6105 Y6.1449
G00 Z2.0000
G00 X3.6105 Y6.8951
G01 F50.00
G01 Z-0.1200
G01 F60.00
G01 X3.8762 Y6.8951
G01 X3.8762 Y7.7230
G01 X3.8806 Y7.8103
G01 X3.8929 Y7.8938
G01 X3.8952 Y7.9055
G01 X3.9150 Y7.9845
G01 X3.9177 Y7.9930
G01 X3.9463 Y8.0725
G01 X3.9850 Y8.1542
G01 X4.0314 Y8.2318
G01 X4.0816 Y8.2997
G01 X4.0872 Y8.3066
G01 X4.1460 Y8.3714
G01 X4.2085 Y8.4282
G01 X4.2177 Y8.4357
G01 X4.2807 Y8.4825
G01 X4.2906 Y8.4891
G01 X4.3631 Y8.5324
G01 X4.4222 Y8.5605
G01 X4.4222 Y8.8482
G01 X4.3897 Y8.8395
G01 X4.2018 Y8.7519
G01 X4.0314 Y8.6325
G01 X3.8846 Y8.4856
G01 X3.7657 Y8.3158
G01 X3.6779 Y8.1276
G01 X3.6241 Y7.9271
G01 X3.6105 Y7.7719
G01 X3.6105 Y6.8951
G00 Z2.0000
G00 X5.1725 Y8.8482
G01 F50.00
G01 Z-0.1200
G01 F60.00
G01 X5.1725 Y8.5605
G01 X5.2316 Y8.5324
G01 X5.3066 Y8.4875
G01 X5.3140 Y8.4825
G01 X5.3770 Y8.4357
G01 X5.3840 Y8.4301
G01 X5.4487 Y8.3714
G01 X5.5055 Y8.3089
G01 X5.5131 Y8.2997
G01 X5.5598 Y8.2366
G01 X5.5649 Y8.2293
G01 X5.6097 Y8.1542
G01 X5.6460 Y8.0779
G01 X5.6505 Y8.0670
G01 X5.6788 Y7.9874
G01 X5.7008 Y7.8997
G01 X5.7133 Y7.8162
G01 X5.7145 Y7.8044
G01 X5.7185 Y7.7200
G01 X5.7185 Y5.3200
G01 X5.7141 Y5.2297
G01 X5.7018 Y5.1462
G01 X5.6995 Y5.1345
G01 X5.6788 Y5.0526
G01 X5.6505 Y4.9730
G01 X5.6460 Y4.9621
G01 X5.6097 Y4.8858
G01 X5.5664 Y4.8133
G01 X5.5598 Y4.8034
G01 X5.5113 Y4.7380
G01 X5.5055 Y4.7311
G01 X5.4487 Y4.6686
G01 X5.3862 Y4.6118
G01 X5.3794 Y4.6061
G01 X5.3140 Y4.5575
G01 X5.3041 Y4.5509
G01 X5.2316 Y4.5076
G01 X5.1725 Y4.4795
G01 X5.1725 Y4.1918
G01 X5.2050 Y4.2005
G01 X5.3929 Y4.2881
G01 X5.5630 Y4.4072
G01 X5.7099 Y4.5541
G01 X5.8290 Y4.7242
G01 X5.8360 Y4.7360
G01 X5.8427 Y4.7454
G01 X5.8523 Y4.7562
G01 X5.9079 Y4.8092
G01 X5.9172 Y4.8169
G01 X5.9298 Y4.8251
G01 X5.9434 Y4.8316
G01 X5.9547 Y4.8356
G01 X5.9664 Y4.8385
G01 X6.0361 Y4.8519
G01 X6.0450 Y4.8533
G01 X6.0540 Y4.8540
G01 X6.0661 Y4.8539
G01 X6.0780 Y4.8526
G01 X6.0898 Y4.8501
G01 X6.1013 Y4.8465
G01 X6.1700 Y4.8190
G01 X6.1783 Y4.8153
G01 X6.1863 Y4.8110
G01 X6.1940 Y4.8061
G01 X6.2013 Y4.8007
G01 X6.2081 Y4.7947
G01 X6.2165 Y4.7859
G01 X6.2477 Y4.7499
G01 X6.2532 Y4.7431
G01 X6.2596 Y4.7336
G01 X6.2646 Y4.7248
G01 X6.3843 Y4.5539
G01 X6.5312 Y4.4070
G01 X6.7014 Y4.2878
G01 X6.8897 Y4.2000
G01 X7.0904 Y4.1462
G01 X7.2973 Y4.1281
G01 X7.5043 Y4.1462
G01 X7.7050 Y4.2000
G01 X7.8933 Y4.2878
G01 X8.0635 Y4.4070
G01 X8.2104 Y4.5539
G01 X8.3296 Y4.7241
G01 X8.4174 Y4.9124
G01 X8.4711 Y5.1130
G01 X8.4847 Y5.2682
G01 X8.4847 Y5.6105
G01 X8.4850 Y5.6191
G01 X8.4864 Y5.6306
G01 X8.4888 Y5.6419
G01 X8.5114 Y5.7185
G01 X8.5160 Y5.7296
G01 X8.5216 Y5.7403
G01 X8.5282 Y5.7503
G01 X8.5378 Y5.7619
G01 X8.5465 Y5.7702
G01 X8.6002 Y5.8167
G01 X8.6122 Y5.8258
G01 X8.6199 Y5.8306
G01 X8.6280 Y5.8348
G01 X8.6364 Y5.8383
G01 X8.6450 Y5.8412
G01 X8.6538 Y5.8435
G01 X8.7061 Y5.8549
G01 X8.7146 Y5.8564
G01 X8.7232 Y5.8573
G01 X8.7318 Y5.8576
G01 X13.3575 Y5.8576
G01 X13.3690 Y5.8571
G01 X13.3804 Y5.8555
G01 X13.3889 Y5.8535
G01 X13.4598 Y5.8327
G01 X13.4681 Y5.8300
G01 X13.4762 Y5.8266
G01 X13.4866 Y5.8212
G01 X13.4965 Y5.8148
G01 X13.5056 Y5.8075
G01 X13.5120 Y5.8014
G01 X13.5510 Y5.7617
G01 X13.5571 Y5.7551
G01 X13.5627 Y5.7480
G01 X13.5677 Y5.7406
G01 X13.6321 Y5.6364
G01 X13.7373 Y5.5314
G01 X13.8638 Y5.4534
G01 X14.0057 Y5.4064
G01 X14.0908 Y5.3976
G01 X14.8041 Y5.3976
G01 X14.8904 Y5.4066
G01 X15.0322 Y5.4539
G01 X15.1586 Y5.5321
G01 X15.2636 Y5.6373
G01 X15.3416 Y5.7638
G01 X15.3886 Y5.9057
G01 X15.3974 Y5.9908
G01 X15.3974 Y7.3291
G01 X15.3884 Y7.4154
G01 X15.3411 Y7.5572
G01 X15.2629 Y7.6836
G01 X15.1577 Y7.7886
G01 X15.0312 Y7.8666
G01 X14.8893 Y7.9136
G01 X14.8042 Y7.9224
G01 X14.0909 Y7.9224
G01 X14.0046 Y7.9134
G01 X13.8628 Y7.8661
G01 X13.7364 Y7.7879
G01 X13.6314 Y7.6827
G01 X13.5534 Y7.5562
G01 X13.5064 Y7.4143
G01 X13.5050 Y7.4014
G01 X13.5036 Y7.3929
G01 X13.5016 Y7.3845
G01 X13.4990 Y7.3762
G01 X13.4677 Y7.2996
G01 X13.4636 Y7.2916
G01 X13.4589 Y7.2839
G01 X13.4498 Y7.2719
G01 X13.4415 Y7.2632
G01 X13.4300 Y7.2535
G01 X13.3670 Y7.2093
G01 X13.3539 Y7.2017
G01 X13.3400 Y7.1958
G01 X13.3255 Y7.1917
G01 X13.2792 Y7.1840
G01 X13.2708 Y7.1829
G01 X13.2595 Y7.1824
G01 X9.1764 Y7.1824
G01 X9.1678 Y7.1829
G01 X9.1592 Y7.1840
G01 X9.1452 Y7.1873
G01 X9.0742 Y7.2081
G01 X9.0629 Y7.2124
G01 X9.0496 Y7.2192
G01 X9.0371 Y7.2277
G01 X9.0302 Y7.2334
G01 X9.0237 Y7.2397
G01 X8.9732 Y7.2978
G01 X8.9675 Y7.3049
G01 X8.9607 Y7.3150
G01 X8.9550 Y7.3258
G01 X8.9515 Y7.3342
G01 X8.9477 Y7.3457
G01 X8.9343 Y7.4072
G01 X8.9327 Y7.4188
G01 X8.9322 Y7.4304
G01 X8.9327 Y7.5715
G01 X8.9324 Y7.5805
G01 X8.9324 Y14.2905
G01 X8.9329 Y14.3020
G01 X8.9345 Y14.3134
G01 X8.9373 Y14.3246
G01 X8.9573 Y14.3928
G01 X8.9612 Y14.4041
G01 X8.9663 Y14.4150
G01 X8.9724 Y14.4254
G01 X8.9795 Y14.4351
G01 X8.9876 Y14.4440
G01 X8.9942 Y14.4502
G01 X9.0501 Y14.4986
G01 X9.0599 Y14.5058
G01 X9.0702 Y14.5121
G01 X9.0812 Y14.5172
G01 X9.0955 Y14.5221
G01 X9.1566 Y14.5355
G01 X9.1680 Y14.5371
G01 X9.1795 Y14.5376
G01 X10.6917 Y14.5376
G01 X10.7119 Y14.5392
G01 X10.8451 Y14.5779
G01 X10.9620 Y14.6470
G01 X11.0580 Y14.7430
G01 X11.1271 Y14.8599
G01 X11.1658 Y14.9931
G01 X11.1674 Y15.0133
G01 X11.1674 Y15.4367
G01 X11.1658 Y15.4569
G01 X11.1271 Y15.5901
G01 X11.0560 Y15.7104
G01 X11.0481 Y15.7218
G01 X11.0413 Y15.7348
G01 X11.0137 Y15.8046
G01 X11.0107 Y15.8131
G01 X11.0078 Y15.8248
G01 X11.0063 Y15.8337
G01 X11.0054 Y15.8457
G01 X11.0055 Y15.8547
G01 X11.0071 Y15.8696
G01 X11.0216 Y15.9422
G01 X11.0237 Y15.9510
G01 X11.0275 Y15.9625
G01 X11.0311 Y15.9708
G01 X11.0369 Y15.9814
G01 X11.0502 Y16.0022
G01 X11.0567 Y16.0109
G01 X11.1271 Y16.1299
G01 X11.1658 Y16.2631
G01 X11.1674 Y16.2833
G01 X11.1674 Y16.7067
G01 X11.1658 Y16.7270
G01 X11.1271 Y16.8601
G01 X11.0560 Y16.9804
G01 X11.0481 Y16.9918
G01 X11.0413 Y17.0048
G01 X11.0137 Y17.0746
G01 X11.0107 Y17.0831
G01 X11.0084 Y17.0918
G01 X11.0063 Y17.1037
G01 X11.0055 Y17.1127
G01 X11.0055 Y17.1247
G01 X11.0071 Y17.1396
G01 X11.0216 Y17.2122
G01 X11.0245 Y17.2239
G01 X11.0275 Y17.2325
G01 X11.0325 Y17.2435
G01 X11.0369 Y17.2514
G01 X11.0502 Y17.2722
G01 X11.0567 Y17.2809
G01 X11.1271 Y17.3999
G01 X11.1658 Y17.5331
G01 X11.1674 Y17.5533
G01 X11.1674 Y17.9245
G01 X11.1682 Y17.9389
G01 X11.1695 Y17.9474
G01 X11.1723 Y17.9587
G01 X11.1923 Y18.0268
G01 X11.1962 Y18.0381
G01 X11.2027 Y18.0517
G01 X11.2091 Y18.0619
G01 X11.2165 Y18.0714
G01 X11.2269 Y18.0822
G01 X11.2828 Y18.1307
G01 X11.2899 Y18.1363
G01 X11.2973 Y18.1415
G01 X11.3051 Y18.1460
G01 X11.3188 Y18.1522
G01 X11.3302 Y18.1560
G01 X11.3419 Y18.1586
G01 X11.4152 Y18.1692
G01 X11.4302 Y18.1704
G01 X11.4392 Y18.1702
G01 X11.4482 Y18.1694
G01 X11.4629 Y18.1665
G01 X11.4716 Y18.1639
G01 X11.4800 Y18.1607
G01 X11.5500 Y18.1287
G01 X11.5580 Y18.1245
G01 X11.5655 Y18.1197
G01 X11.5750 Y18.1124
G01 X11.5891 Y18.0994
G01 X11.6823 Y18.0064
G01 X11.8088 Y17.9284
G01 X11.9507 Y17.8814
G01 X12.0358 Y17.8726
G01 X12.7741 Y17.8726
G01 X12.8604 Y17.8816
G01 X13.0022 Y17.9289
G01 X13.1286 Y18.0071
G01 X13.2336 Y18.1123
G01 X13.3116 Y18.2388
G01 X13.3586 Y18.3807
G01 X13.3674 Y18.4658
G01 X13.3674 Y19.1821
G01 X13.3680 Y19.1942
G01 X13.3704 Y19.2092
G01 X13.3845 Y19.2699
G01 X13.3895 Y19.2842
G01 X13.3987 Y19.3036
G01 X13.4038 Y19.3254
G01 X13.4092 Y19.3437
G01 X13.4179 Y19.3683
G01 X13.4223 Y19.4023
G01 X13.4251 Y19.4179
G01 X13.4321 Y19.4484
G01 X13.4327 Y19.6038
G01 X13.4324 Y19.6129
G01 X13.4324 Y21.6984
G01 X13.4336 Y21.7127
G01 X13.4365 Y21.7269
G01 X13.4573 Y21.7978
G01 X13.4601 Y21.8063
G01 X13.4649 Y21.8173
G01 X13.4724 Y21.8304
G01 X13.4795 Y21.8401
G01 X13.4876 Y21.8490
G01 X13.4942 Y21.8552
G01 X13.5501 Y21.9036
G01 X13.5599 Y21.9108
G01 X13.5702 Y21.9171
G01 X13.5812 Y21.9222
G01 X13.5955 Y21.9271
G01 X13.6566 Y21.9405
G01 X13.6680 Y21.9421
G01 X13.6795 Y21.9426
G01 X14.0218 Y21.9426
G01 X14.1770 Y21.9562
G01 X14.3776 Y22.0100
G01 X14.5659 Y22.0978
G01 X14.7361 Y22.2170
G01 X14.8831 Y22.3640
G01 X14.8928 Y22.3757
G01 X14.9028 Y22.3854
G01 X14.9612 Y22.4320
G01 X14.9711 Y22.4390
G01 X14.9790 Y22.4437
G01 X14.9900 Y22.4489
G01 X15.0014 Y22.4530
G01 X15.0132 Y22.4560
G01 X15.0639 Y22.4659
G01 X15.0755 Y22.4673
G01 X15.0844 Y22.4676
G01 X16.6410 Y22.4676
G01 X16.7174 Y22.4669
G01 X16.7479 Y22.4734
G01 X16.7635 Y22.4760
G01 X16.7977 Y22.4800
G01 X16.8188 Y22.4873
G01 X16.8372 Y22.4925
G01 X16.8626 Y22.4983
G01 X16.8910 Y22.5115
G01 X16.9056 Y22.5174
G01 X16.9380 Y22.5289
G01 X16.9602 Y22.5425
G01 X16.9770 Y22.5516
G01 X16.9973 Y22.5611
G01 X17.0245 Y22.5820
G01 X17.0375 Y22.5910
G01 X17.0640 Y22.6076
G01 X17.1743 Y22.7172
G01 X17.1805 Y22.7238
G01 X18.9520 Y24.4952
G01 X19.0065 Y24.5487
G01 X19.0235 Y24.5750
G01 X19.0327 Y24.5878
G01 X19.0540 Y24.6148
G01 X19.0638 Y24.6349
G01 X19.0731 Y24.6516
G01 X19.0870 Y24.6736
G01 X19.0989 Y24.7059
G01 X19.1051 Y24.7204
G01 X19.1187 Y24.7486
G01 X19.1248 Y24.7740
G01 X19.1303 Y24.7922
G01 X19.1379 Y24.8133
G01 X19.1423 Y24.8473
G01 X19.1451 Y24.8629
G01 X19.1521 Y24.8934
G01 X19.1527 Y25.0488
G01 X19.1524 Y25.0579
G01 X19.1524 Y29.1233
G01 X19.1529 Y29.1348
G01 X19.1540 Y29.1434
G01 X19.1573 Y29.1574
G01 X19.1773 Y29.2255
G01 X19.1801 Y29.2340
G01 X19.1835 Y29.2422
G01 X19.1890 Y29.2527
G01 X19.1956 Y29.2627
G01 X19.2161 Y29.2884
G01 X19.2225 Y29.2957
G01 X19.8940 Y29.9673
G01 X19.9027 Y29.9748
G01 X19.9146 Y29.9830
G01 X19.9819 Y30.0200
G01 X19.9899 Y30.0239
G01 X19.9981 Y30.0273
G01 X20.0066 Y30.0301
G01 X20.0153 Y30.0322
G01 X20.0240 Y30.0337
G01 X20.0538 Y30.0370
G01 X20.0667 Y30.0376
G01 X21.8393 Y30.0376
G01 X21.8479 Y30.0373
G01 X21.8594 Y30.0360
G01 X21.8706 Y30.0335
G01 X21.9472 Y30.0109
G01 X21.9557 Y30.0076
G01 X21.9664 Y30.0023
G01 X21.9741 Y29.9976
G01 X21.9815 Y29.9923
G01 X21.9884 Y29.9866
G01 X21.9969 Y29.9781
G01 X22.0454 Y29.9222
G01 X22.0529 Y29.9127
G01 X22.0593 Y29.9025
G01 X22.0659 Y29.8890
G01 X22.0699 Y29.8777
G01 X22.0728 Y29.8660
G01 X22.0846 Y29.7838
G01 X22.0851 Y29.7718
G01 X22.0841 Y29.7568
G01 X22.0812 Y29.7421
G01 X22.0765 Y29.7278
G01 X22.0421 Y29.6524
G01 X22.0363 Y29.6423
G01 X22.0313 Y29.6352
G01 X22.0258 Y29.6284
G01 X22.0199 Y29.6220
G01 X21.9904 Y29.5954
G01 X21.9834 Y29.5898
G01 X21.9739 Y29.5830
G01 X21.8270 Y29.4361
G01 X21.7078 Y29.2659
G01 X21.6200 Y29.0777
G01 X21.5662 Y28.8770
G01 X21.5526 Y28.7218
G01 X21.5526 Y26.2182
G01 X21.5662 Y26.0630
G01 X21.6200 Y25.8624
G01 X21.7078 Y25.6741
G01 X21.8270 Y25.5039
G01 X21.9740 Y25.3569
G01 X21.9857 Y25.3472
G01 X21.9954 Y25.3372
G01 X22.0420 Y25.2788
G01 X22.0474 Y25.2714
G01 X22.0522 Y25.2637
G01 X22.0564 Y25.2556
G01 X22.0600 Y25.2472
G01 X22.0630 Y25.2386
G01 X22.0660 Y25.2268
G01 X22.0759 Y25.1761
G01 X22.0771 Y25.1674
G01 X22.0776 Y25.1586
G01 X22.0776 Y24.5645
G01 X22.0768 Y24.5501
G01 X22.0749 Y24.5387
G01 X22.0727 Y24.5304
G01 X22.0509 Y24.4565
G01 X22.0476 Y24.4481
G01 X22.0437 Y24.4400
G01 X22.0392 Y24.4322
G01 X22.0342 Y24.4247
G01 X22.0266 Y24.4154
G01 X22.0181 Y24.4068
G01 X21.9599 Y24.3564
G01 X21.9526 Y24.3509
G01 X21.9450 Y24.3459
G01 X21.9316 Y24.3390
G01 X21.9203 Y24.3347
G01 X21.9115 Y24.3322
G01 X21.8563 Y24.3201
G01 X21.8420 Y24.3179
G01 X21.8305 Y24.3174
G01 X21.6782 Y24.3174
G01 X21.5230 Y24.3038
G01 X21.3224 Y24.2500
G01 X21.1341 Y24.1622
G01 X20.9639 Y24.0430
G01 X20.8170 Y23.8961
G01 X20.6978 Y23.7259
G01 X20.6100 Y23.5377
G01 X20.5562 Y23.3370
G01 X20.5381 Y23.1300
G01 X20.5562 Y22.9230
G01 X20.6100 Y22.7224
G01 X20.6978 Y22.5341
G01 X20.8170 Y22.3639
G01 X20.9639 Y22.2170
G01 X21.1341 Y22.0978
G01 X21.3223 Y22.0100
G01 X21.5230 Y21.9562
G01 X21.6782 Y21.9426
G01 X24.1818 Y21.9426
G01 X24.3370 Y21.9562
G01 X24.5376 Y22.0100
G01 X24.7259 Y22.0978
G01 X24.8961 Y22.2170
G01 X25.0430 Y22.3639
G01 X25.1622 Y22.5341
G01 X25.2500 Y22.7224
G01 X25.2891 Y22.8683
G01 X25.3038 Y22.9230
G01 X25.3219 Y23.1300
G01 X25.3038 Y23.3370
G01 X25.2500 Y23.5376
G01 X25.1622 Y23.7259
G01 X25.0430 Y23.8961
G01 X24.8961 Y24.0430
G01 X24.7259 Y24.1622
G01 X24.5377 Y24.2500
G01 X24.3370 Y24.3038
G01 X24.1818 Y24.3174
G01 X23.6495 Y24.3174
G01 X23.6351 Y24.3182
G01 X23.6266 Y24.3195
G01 X23.6181 Y24.3215
G01 X23.5415 Y24.3441
G01 X23.5304 Y24.3486
G01 X23.5223 Y24.3527
G01 X23.5121 Y24.3591
G01 X23.5049 Y24.3645
G01 X23.4981 Y24.3705
G01 X23.4918 Y24.3769
G01 X23.4433 Y24.4328
G01 X23.4342 Y24.4449
G01 X23.4279 Y24.4552
G01 X23.4228 Y24.4662
G01 X23.4179 Y24.4805
G01 X23.4051 Y24.5387
G01 X23.4032 Y24.5501
G01 X23.4024 Y24.5645
G01 X23.4024 Y25.1556
G01 X23.4032 Y25.1700
G01 X23.4045 Y25.1786
G01 X23.4065 Y25.1870
G01 X23.4290 Y25.2634
G01 X23.4322 Y25.2716
G01 X23.4359 Y25.2794
G01 X23.4402 Y25.2870
G01 X23.4450 Y25.2943
G01 X23.4542 Y25.3056
G01 X23.4919 Y25.3449
G01 X23.4984 Y25.3509
G01 X23.5060 Y25.3569
G01 X23.6530 Y25.5039
G01 X23.7722 Y25.6741
G01 X23.7875 Y25.7068
G01 X23.7916 Y25.7145
G01 X23.7963 Y25.7217
G01 X23.8052 Y25.7331
G01 X23.8521 Y25.7864
G01 X23.8627 Y25.7970
G01 X23.8745 Y25.8063
G01 X23.8874 Y25.8140
G01 X23.9012 Y25.8200
G01 X23.9098 Y25.8228
G01 X23.9839 Y25.8438
G01 X23.9987 Y25.8463
G01 X24.0137 Y25.8469
G01 X24.0257 Y25.8461
G01 X24.0405 Y25.8434
G01 X24.1199 Y25.8194
G01 X24.1336 Y25.8135
G01 X24.1439 Y25.8077
G01 X24.1559 Y25.7990
G01 X24.1647 Y25.7911
G01 X24.1708 Y25.7846
G01 X24.2160 Y25.7324
G01 X24.2236 Y25.7228
G01 X24.2286 Y25.7151
G01 X24.2329 Y25.7070
G01 X24.2483 Y25.6742
G01 X24.3672 Y25.5044
G01 X24.5144 Y25.3572
G01 X24.6845 Y25.2381
G01 X24.8724 Y25.1505
G01 X24.9049 Y25.1418
G01 X24.9049 Y25.4295
G01 X24.8458 Y25.4576
G01 X24.7733 Y25.5009
G01 X24.7634 Y25.5075
G01 X24.6956 Y25.5579
G01 X24.6330 Y25.6145
G01 X24.6245 Y25.6230
G01 X24.5679 Y25.6856
G01 X24.5158 Y25.7558
G01 X24.5109 Y25.7633
G01 X24.4705 Y25.8306
G01 X24.4649 Y25.8411
G01 X24.4290 Y25.9175
G01 X24.4004 Y25.9970
G01 X24.3969 Y26.0083
G01 X24.3765 Y26.0903
G01 X24.3640 Y26.1738
G01 X24.3628 Y26.1856
G01 X24.3589 Y26.2700
G01 X24.3589 Y28.6700
G01 X24.3633 Y28.7603
G01 X24.3765 Y28.8497
G01 X24.3985 Y28.9374
G01 X24.4290 Y29.0225
G01 X24.4676 Y29.1042
G01 X24.5141 Y29.1818
G01 X24.5679 Y29.2544
G01 X24.6286 Y29.3214
G01 X24.6934 Y29.3801
G01 X24.7003 Y29.3857
G01 X24.7682 Y29.4359
G01 X24.8406 Y29.4795
G01 X24.8511 Y29.4851
G01 X24.9221 Y29.5186
G01 X24.9330 Y29.5232
G01 X25.0126 Y29.5515
G01 X25.1003 Y29.5735
G01 X25.1897 Y29.5867
G01 X25.2800 Y29.5911
G01 X25.3703 Y29.5867
G01 X25.4597 Y29.5735
G01 X25.5474 Y29.5515
G01 X25.6270 Y29.5232
G01 X25.6379 Y29.5186
G01 X25.7089 Y29.4851
G01 X25.7194 Y29.4795
G01 X25.7918 Y29.4359
G01 X25.8597 Y29.3857
G01 X25.8666 Y29.3801
G01 X25.9314 Y29.3214
G01 X25.9882 Y29.2589
G01 X25.9957 Y29.2497
G01 X26.0425 Y29.1866
G01 X26.0491 Y29.1767
G01 X26.0924 Y29.1042
G01 X26.1310 Y29.0225
G01 X26.1615 Y28.9374
G01 X26.1828 Y28.8526
G01 X26.1845 Y28.8438
G01 X26.1967 Y28.7603
G01 X26.2011 Y28.6730
G01 X26.2011 Y27.8451
G01 X26.4669 Y27.8451
G01 X26.4668 Y28.7219
G01 X26.4532 Y28.8771
G01 X26.3996 Y29.0773
G01 X26.3119 Y29.2655
G01 X26.1928 Y29.4356
G01 X26.0459 Y29.5825
G01 X26.0358 Y29.5897
G01 X26.0290 Y29.5951
G01 X26.0226 Y29.6009
G01 X26.0167 Y29.6072
G01 X25.9686 Y29.6671
G01 X25.9600 Y29.6794
G01 X25.9542 Y29.6900
G01 X25.9495 Y29.7010
G01 X25.9459 Y29.7125
G01 X25.9435 Y29.7243
G01 X25.9350 Y29.8069
G01 X25.9351 Y29.8219
G01 X25.9371 Y29.8368
G01 X25.9409 Y29.8514
G01 X25.9453 Y29.8626
G01 X25.9827 Y29.9367
G01 X25.9909 Y29.9493
G01 X25.9986 Y29.9585
G01 X26.0072 Y29.9670
G01 X26.0190 Y29.9763
G01 X26.0266 Y29.9812
G01 X26.0903 Y30.0186
G01 X26.1034 Y30.0249
G01 X26.1144 Y30.0288
G01 X26.1229 Y30.0310
G01 X26.1314 Y30.0326
G01 X26.1680 Y30.0371
G01 X26.1799 Y30.0376
G01 X29.0933 Y30.0376
G01 X29.1077 Y30.0368
G01 X29.1162 Y30.0355
G01 X29.1246 Y30.0335
G01 X29.1984 Y30.0119
G01 X29.2095 Y30.0077
G01 X29.2176 Y30.0038
G01 X29.2278 Y29.9978
G01 X29.2351 Y29.9927
G01 X29.2609 Y29.9719
G01 X29.2680 Y29.9653
G01 X30.4853 Y28.7480
G01 X30.4948 Y28.7373
G01 X30.4999 Y28.7303
G01 X30.5045 Y28.7229
G01 X30.5427 Y28.6528
G01 X30.5473 Y28.6419
G01 X30.5501 Y28.6334
G01 X30.5522 Y28.6248
G01 X30.5541 Y28.6130
G01 X30.5573 Y28.5830
G01 X30.5576 Y28.5733
G01 X30.5576 Y28.2190
G01 X30.5569 Y28.1426
G01 X30.5634 Y28.1121
G01 X30.5660 Y28.0965
G01 X30.5700 Y28.0623
G01 X30.5773 Y28.0412
G01 X30.5825 Y28.0228
G01 X30.5883 Y27.9974
G01 X30.6015 Y27.9690
G01 X30.6074 Y27.9544
G01 X30.6189 Y27.9220
G01 X30.6325 Y27.8998
G01 X30.6416 Y27.8830
G01 X30.6511 Y27.8627
G01 X30.6702 Y27.8380
G01 X30.6793 Y27.8250
G01 X30.6976 Y27.7960
G01 X30.8072 Y27.6857
G01 X30.8138 Y27.6795
G01 X30.9357 Y27.5576
G01 X30.9887 Y27.5035
G01 X31.0150 Y27.4865
G01 X31.0278 Y27.4773
G01 X31.0548 Y27.4560
G01 X31.0749 Y27.4462
G01 X31.0916 Y27.4369
G01 X31.1136 Y27.4230
G01 X31.1459 Y27.4111
G01 X31.1604 Y27.4049
G01 X31.1886 Y27.3913
G01 X31.2104 Y27.3862
G01 X31.2287 Y27.3808
G01 X31.2533 Y27.3721
G01 X31.2873 Y27.3677
G01 X31.3029 Y27.3649
G01 X31.3334 Y27.3579
G01 X31.4888 Y27.3573
G01 X31.4979 Y27.3576
G01 X37.7533 Y27.3576
G01 X37.7677 Y27.3568
G01 X37.7818 Y27.3542
G01 X37.8584 Y27.3319
G01 X37.8695 Y27.3277
G01 X37.8802 Y27.3224
G01 X37.8903 Y27.3162
G01 X37.8974 Y27.3108
G01 X37.9209 Y27.2919
G01 X37.9280 Y27.2853
G01 X38.4292 Y26.7839
G01 X38.4383 Y26.7726
G01 X38.4445 Y26.7629
G01 X38.4813 Y26.6955
G01 X38.4851 Y26.6874
G01 X38.4892 Y26.6763
G01 X38.4916 Y26.6677
G01 X38.4933 Y26.6589
G01 X38.4970 Y26.6262
G01 X38.4976 Y26.6133
G01 X38.4976 Y23.5725
G01 X38.4971 Y23.5610
G01 X38.4955 Y23.5496
G01 X38.4927 Y23.5384
G01 X38.4719 Y23.4674
G01 X38.4664 Y23.4534
G01 X38.4592 Y23.4402
G01 X38.4505 Y23.4280
G01 X38.4403 Y23.4169
G01 X38.3799 Y23.3645
G01 X38.3730 Y23.3591
G01 X38.3656 Y23.3543
G01 X38.3579 Y23.3500
G01 X38.3500 Y23.3463
G01 X38.3287 Y23.3381
G01 X38.2628 Y23.3161
G01 X38.1364 Y23.2379
G01 X38.0314 Y23.1327
G01 X37.9938 Y23.0717
G01 X37.9888 Y23.0646
G01 X37.9814 Y23.0558
G01 X37.9732 Y23.0477
G01 X37.9205 Y23.0002
G01 X37.9135 Y22.9944
G01 X37.9062 Y22.9892
G01 X37.8958 Y22.9830
G01 X37.8877 Y22.9791
G01 X37.8765 Y22.9749
G01 X37.8678 Y22.9725
G01 X37.8589 Y22.9707
G01 X37.7888 Y22.9592
G01 X37.7799 Y22.9581
G01 X37.7679 Y22.9577
G01 X37.7529 Y22.9588
G01 X37.7411 Y22.9610
G01 X37.7295 Y22.9644
G01 X37.7211 Y22.9677
G01 X37.6532 Y22.9972
G01 X37.6426 Y23.0028
G01 X37.6302 Y23.0112
G01 X37.6233 Y23.0170
G01 X37.6147 Y23.0254
G01 X37.5863 Y23.0581
G01 X37.5794 Y23.0669
G01 X37.5748 Y23.0738
G01 X37.5223 Y23.1584
G01 X37.4176 Y23.2630
G01 X37.2908 Y23.3412
G01 X37.1494 Y23.3881
G01 X37.0643 Y23.3968
G01 X36.7451 Y23.3969
G01 X36.7451 Y23.1311
G01 X37.0200 Y23.1311
G01 X37.0564 Y23.1294
G01 X37.0924 Y23.1240
G01 X37.1277 Y23.1152
G01 X37.1620 Y23.1029
G01 X37.1896 Y23.0900
G01 X37.1976 Y23.0859
G01 X37.2262 Y23.0686
G01 X37.2508 Y23.0506
G01 X37.2600 Y23.0430
G01 X37.2824 Y23.0224
G01 X37.3030 Y23.0000
G01 X37.3106 Y22.9908
G01 X37.3286 Y22.9662
G01 X37.3444 Y22.9401
G01 X37.3500 Y22.9296
G01 X37.3629 Y22.9020
G01 X37.3733 Y22.8734
G01 X37.3768 Y22.8620
G01 X37.3840 Y22.8324
G01 X37.3886 Y22.8023
G01 X37.3898 Y22.7904
G01 X37.3911 Y22.7600
G01 X37.3911 Y22.1100
G01 X37.3898 Y22.0796
G01 X37.3890 Y22.0707
G01 X37.3846 Y22.0405
G01 X37.3827 Y22.0318
G01 X37.3760 Y22.0051
G01 X37.3733 Y21.9966
G01 X37.3629 Y21.9680
G01 X37.3487 Y21.9377
G01 X37.3444 Y21.9299
G01 X37.3286 Y21.9038
G01 X37.3069 Y21.8745
G01 X37.2824 Y21.8476
G01 X37.2555 Y21.8231
G01 X37.2262 Y21.8014
G01 X37.1950 Y21.7827
G01 X37.1620 Y21.7671
G01 X37.1306 Y21.7557
G01 X37.0982 Y21.7473
G01 X37.0865 Y21.7450
G01 X37.0564 Y21.7406
G01 X37.0259 Y21.7390
G01 X36.7451 Y21.7389
G01 X36.7451 Y21.4732
G01 X37.0642 Y21.4732
G01 X37.1505 Y21.4822
G01 X37.2918 Y21.5293
G01 X37.4184 Y21.6077
G01 X37.5230 Y21.7124
G01 X37.5683 Y21.7858
G01 X37.5751 Y21.7952
G01 X37.5807 Y21.8017
G01 X37.5889 Y21.8098
G01 X37.6417 Y21.8573
G01 X37.6486 Y21.8631
G01 X37.6585 Y21.8700
G01 X37.6690 Y21.8759
G01 X37.6800 Y21.8807
G01 X37.6915 Y21.8843
G01 X37.7032 Y21.8869
G01 X37.7792 Y21.8991
G01 X37.7943 Y21.8998
G01 X37.8063 Y21.8991
G01 X37.8211 Y21.8965
G01 X37.8326 Y21.8931
G01 X37.8410 Y21.8898
G01 X37.9089 Y21.8603
G01 X37.9195 Y21.8547
G01 X37.9319 Y21.8463
G01 X37.9411 Y21.8385
G01 X37.9474 Y21.8321
G01 X37.9811 Y21.7929
G01 X37.9874 Y21.7837
G01 X38.0321 Y21.7114
G01 X38.1373 Y21.6064
G01 X38.2638 Y21.5284
G01 X38.4057 Y21.4814
G01 X38.4908 Y21.4726
G01 X39.8291 Y21.4726
G01 X39.9154 Y21.4816
G01 X40.0572 Y21.5289
G01 X40.1836 Y21.6071
G01 X40.2886 Y21.7123
G01 X40.3666 Y21.8388
G01 X40.4136 Y21.9807
G01 X40.4224 Y22.0658
G01 X40.4224 Y22.7791
G01 X40.4134 Y22.8654
G01 X40.3661 Y23.0072
G01 X40.2879 Y23.1336
G01 X40.1827 Y23.2386
G01 X40.0562 Y23.3166
G01 X39.9890 Y23.3389
G01 X39.9783 Y23.3433
G01 X39.9706 Y23.3473
G01 X39.9608 Y23.3534
G01 X39.9025 Y23.3938
G01 X39.8907 Y23.4031
G01 X39.8821 Y23.4116
G01 X39.8744 Y23.4208
G01 X39.8677 Y23.4308
G01 X39.8620 Y23.4414
G01 X39.8302 Y23.5180
G01 X39.8261 Y23.5321
G01 X39.8237 Y23.5465
G01 X39.8224 Y23.5725
G01 X39.8224 Y26.9810
G01 X39.8231 Y27.0574
G01 X39.8166 Y27.0879
G01 X39.8140 Y27.1035
G01 X39.8100 Y27.1377
G01 X39.8027 Y27.1588
G01 X39.7975 Y27.1772
G01 X39.7917 Y27.2026
G01 X39.7785 Y27.2310
G01 X39.7726 Y27.2456
G01 X39.7611 Y27.2780
G01 X39.7475 Y27.3002
G01 X39.7384 Y27.3170
G01 X39.7289 Y27.3373
G01 X39.7098 Y27.3620
G01 X39.7007 Y27.3750
G01 X39.6824 Y27.4040
G01 X39.5728 Y27.5143
G01 X39.5662 Y27.5205
G01 X38.6048 Y28.4820
G01 X38.5513 Y28.5365
G01 X38.5250 Y28.5535
G01 X38.5122 Y28.5627
G01 X38.4852 Y28.5840
G01 X38.4651 Y28.5938
G01 X38.4484 Y28.6031
G01 X38.4264 Y28.6170
G01 X38.3941 Y28.6289
G01 X38.3796 Y28.6351
G01 X38.3514 Y28.6487
G01 X38.3260 Y28.6548
G01 X38.3078 Y28.6603
G01 X38.2867 Y28.6679
G01 X38.2557 Y28.6718
G01 X38.2401 Y28.6746
G01 X38.2066 Y28.6821
G01 X38.0512 Y28.6827
G01 X38.0421 Y28.6824
G01 X32.1295 Y28.6824
G01 X32.1151 Y28.6832
G01 X32.1009 Y28.6858
G01 X32.0272 Y28.7073
G01 X32.0159 Y28.7112
G01 X32.0050 Y28.7163
G01 X31.9946 Y28.7224
G01 X31.9849 Y28.7295
G01 X31.9739 Y28.7397
G01 X31.9195 Y28.8025
G01 X31.9109 Y28.8150
G01 X31.9066 Y28.8229
G01 X31.9028 Y28.8312
G01 X31.8988 Y28.8426
G01 X31.8965 Y28.8514
G01 X31.8845 Y28.9066
G01 X31.8829 Y28.9180
G01 X31.8824 Y28.9266
G01 X31.8824 Y28.9410
G01 X31.8831 Y29.0174
G01 X31.8766 Y29.0480
G01 X31.8740 Y29.0636
G01 X31.8700 Y29.0977
G01 X31.8627 Y29.1188
G01 X31.8575 Y29.1372
G01 X31.8517 Y29.1626
G01 X31.8385 Y29.1910
G01 X31.8326 Y29.2056
G01 X31.8211 Y29.2380
G01 X31.8075 Y29.2602
G01 X31.7984 Y29.2770
G01 X31.7889 Y29.2973
G01 X31.7698 Y29.3220
G01 X31.7607 Y29.3350
G01 X31.7424 Y29.3640
G01 X31.6328 Y29.4743
G01 X31.6262 Y29.4805
G01 X29.9448 Y31.1620
G01 X29.8913 Y31.2165
G01 X29.8650 Y31.2335
G01 X29.8522 Y31.2427
G01 X29.8252 Y31.2640
G01 X29.8051 Y31.2738
G01 X29.7884 Y31.2831
G01 X29.7664 Y31.2970
G01 X29.7341 Y31.3089
G01 X29.7196 Y31.3151
G01 X29.6914 Y31.3287
G01 X29.6660 Y31.3348
G01 X29.6478 Y31.3403
G01 X29.6267 Y31.3479
G01 X29.5957 Y31.3518
G01 X29.5801 Y31.3546
G01 X29.5466 Y31.3621
G01 X29.3912 Y31.3627
G01 X29.3821 Y31.3624
G01 X19.6990 Y31.3624
G01 X19.6226 Y31.3631
G01 X19.5921 Y31.3566
G01 X19.5765 Y31.3540
G01 X19.5423 Y31.3500
G01 X19.5212 Y31.3427
G01 X19.5028 Y31.3375
G01 X19.4774 Y31.3317
G01 X19.4490 Y31.3185
G01 X19.4344 Y31.3126
G01 X19.4020 Y31.3011
G01 X19.3798 Y31.2875
G01 X19.3630 Y31.2784
G01 X19.3427 Y31.2689
G01 X19.3180 Y31.2498
G01 X19.3050 Y31.2407
G01 X19.2760 Y31.2224
G01 X19.1657 Y31.1128
G01 X19.1595 Y31.1062
G01 X18.0280 Y29.9748
G01 X17.9735 Y29.9213
G01 X17.9565 Y29.8950
G01 X17.9473 Y29.8822
G01 X17.9260 Y29.8552
G01 X17.9162 Y29.8351
G01 X17.9069 Y29.8184
G01 X17.8930 Y29.7964
G01 X17.8811 Y29.7641
G01 X17.8749 Y29.7496
G01 X17.8613 Y29.7214
G01 X17.8552 Y29.6960
G01 X17.8497 Y29.6778
G01 X17.8421 Y29.6567
G01 X17.8382 Y29.6257
G01 X17.8354 Y29.6101
G01 X17.8279 Y29.5766
G01 X17.8273 Y29.4212
G01 X17.8276 Y29.4121
G01 X17.8276 Y25.3467
G01 X17.8268 Y25.3323
G01 X17.8242 Y25.3182
G01 X17.8019 Y25.2416
G01 X17.7965 Y25.2278
G01 X17.7910 Y25.2172
G01 X17.7844 Y25.2073
G01 X17.7639 Y25.1816
G01 X17.7575 Y25.1743
G01 X16.4480 Y23.8647
G01 X16.4417 Y23.8588
G01 X16.4326 Y23.8517
G01 X16.4229 Y23.8455
G01 X16.3581 Y23.8100
G01 X16.3447 Y23.8037
G01 X16.3334 Y23.7999
G01 X16.3218 Y23.7972
G01 X16.3130 Y23.7959
G01 X16.2798 Y23.7925
G01 X15.0844 Y23.7924
G01 X15.0728 Y23.7929
G01 X15.0614 Y23.7945
G01 X15.0502 Y23.7973
G01 X14.9766 Y23.8190
G01 X14.9684 Y23.8222
G01 X14.9606 Y23.8259
G01 X14.9530 Y23.8302
G01 X14.9433 Y23.8367
G01 X14.9344 Y23.8442
G01 X14.8951 Y23.8819
G01 X14.8891 Y23.8884
G01 X14.8831 Y23.8960
G01 X14.7361 Y24.0430
G01 X14.5659 Y24.1622
G01 X14.3777 Y24.2500
G01 X14.1770 Y24.3038
G01 X14.0218 Y24.3174
G01 X11.5182 Y24.3174
G01 X11.3630 Y24.3038
G01 X11.1624 Y24.2500
G01 X10.9741 Y24.1622
G01 X10.8039 Y24.0430
G01 X10.6570 Y23.8961
G01 X10.5378 Y23.7259
G01 X10.4500 Y23.5377
G01 X10.3962 Y23.3370
G01 X10.3781 Y23.1300
G01 X10.3962 Y22.9230
G01 X10.4500 Y22.7224
G01 X10.5378 Y22.5341
G01 X10.6570 Y22.3639
G01 X10.8039 Y22.2170
G01 X10.8779 Y22.1651
G01 X10.9741 Y22.0978
G01 X11.1623 Y22.0100
G01 X11.3630 Y21.9562
G01 X11.5182 Y21.9426
G01 X11.8605 Y21.9426
G01 X11.8749 Y21.9418
G01 X11.8863 Y21.9399
G01 X11.8946 Y21.9377
G01 X11.9685 Y21.9159
G01 X11.9823 Y21.9101
G01 X11.9903 Y21.9058
G01 X11.9979 Y21.9009
G01 X12.0074 Y21.8935
G01 X12.0182 Y21.8831
G01 X12.0667 Y21.8272
G01 X12.0758 Y21.8151
G01 X12.0834 Y21.8021
G01 X12.0894 Y21.7881
G01 X12.0928 Y21.7765
G01 X12.1055 Y21.7184
G01 X12.1068 Y21.7099
G01 X12.1076 Y21.6984
G01 X12.1076 Y20.6692
G01 X12.1068 Y20.6548
G01 X12.1042 Y20.6407
G01 X12.0809 Y20.5612
G01 X12.0764 Y20.5501
G01 X12.0708 Y20.5394
G01 X12.0642 Y20.5294
G01 X12.0545 Y20.5179
G01 X12.0458 Y20.5095
G01 X11.9922 Y20.4631
G01 X11.9853 Y20.4575
G01 X11.9756 Y20.4510
G01 X11.9626 Y20.4442
G01 X11.9418 Y20.4358
G01 X11.8078 Y20.3911
G01 X11.6814 Y20.3129
G01 X11.5764 Y20.2077
G01 X11.4984 Y20.0812
G01 X11.4678 Y19.9890
G01 X11.4646 Y19.9809
G01 X11.4608 Y19.9732
G01 X11.4533 Y19.9608
G01 X11.4129 Y19.9025
G01 X11.4075 Y19.8953
G01 X11.3995 Y19.8863
G01 X11.3906 Y19.8782
G01 X11.3810 Y19.8710
G01 X11.3707 Y19.8648
G01 X11.3598 Y19.8596
G01 X11.2942 Y19.8324
G01 X11.2860 Y19.8293
G01 X11.2747 Y19.8261
G01 X11.2631 Y19.8241
G01 X11.2543 Y19.8233
G01 X11.2342 Y19.8224
G01 X9.9390 Y19.8224
G01 X9.8626 Y19.8231
G01 X9.8320 Y19.8166
G01 X9.8164 Y19.8140
G01 X9.7823 Y19.8100
G01 X9.7612 Y19.8027
G01 X9.7428 Y19.7975
G01 X9.7174 Y19.7917
G01 X9.6862 Y19.7774
G01 X9.6715 Y19.7714
G01 X9.6420 Y19.7611
G01 X9.6293 Y19.7539
G01 X9.6151 Y19.7480
G01 X9.5395 Y19.7262
G01 X9.5305 Y19.7243
G01 X9.5214 Y19.7230
G01 X9.5091 Y19.7224
G01 X8.9183 Y19.7224
G01 X8.8981 Y19.7208
G01 X8.7649 Y19.6821
G01 X8.6480 Y19.6130
G01 X8.5520 Y19.5170
G01 X8.4829 Y19.4001
G01 X8.4442 Y19.2670
G01 X8.4426 Y19.2467
G01 X8.4426 Y18.8233
G01 X8.4442 Y18.8030
G01 X8.4829 Y18.6699
G01 X8.5540 Y18.5496
G01 X8.5619 Y18.5382
G01 X8.5675 Y18.5278
G01 X8.5710 Y18.5198
G01 X8.5983 Y18.4498
G01 X8.6009 Y18.4411
G01 X8.6028 Y18.4323
G01 X8.6040 Y18.4233
G01 X8.6046 Y18.4143
G01 X8.6043 Y18.4023
G01 X8.6029 Y18.3904
G01 X8.5878 Y18.3148
G01 X8.5835 Y18.3003
G01 X8.5789 Y18.2892
G01 X8.5731 Y18.2786
G01 X8.5598 Y18.2578
G01 X8.5533 Y18.2491
G01 X8.4829 Y18.1301
G01 X8.4442 Y17.9970
G01 X8.4426 Y17.9767
G01 X8.4426 Y17.5533
G01 X8.4442 Y17.5330
G01 X8.4829 Y17.3999
G01 X8.5540 Y17.2796
G01 X8.5619 Y17.2682
G01 X8.5675 Y17.2578
G01 X8.5710 Y17.2498
G01 X8.5983 Y17.1798
G01 X8.6009 Y17.1711
G01 X8.6028 Y17.1623
G01 X8.6045 Y17.1473
G01 X8.6045 Y17.1353
G01 X8.6029 Y17.1204
G01 X8.5878 Y17.0448
G01 X8.5835 Y17.0303
G01 X8.5789 Y17.0192
G01 X8.5731 Y17.0086
G01 X8.5598 Y16.9878
G01 X8.5533 Y16.9791
G01 X8.4829 Y16.8601
G01 X8.4442 Y16.7270
G01 X8.4426 Y16.7067
G01 X8.4426 Y16.2833
G01 X8.4442 Y16.2630
G01 X8.4829 Y16.1299
G01 X8.5060 Y16.0905
G01 X8.5120 Y16.0774
G01 X8.5156 Y16.0665
G01 X8.5338 Y15.9949
G01 X8.5362 Y15.9831
G01 X8.5374 Y15.9711
G01 X8.5375 Y15.9621
G01 X8.5366 Y15.9501
G01 X8.5352 Y15.9412
G01 X8.5313 Y15.9267
G01 X8.5088 Y15.8593
G01 X8.5057 Y15.8510
G01 X8.5006 Y15.8404
G01 X8.4945 Y15.8303
G01 X8.4874 Y15.8208
G01 X8.4816 Y15.8142
G01 X8.4408 Y15.7751
G01 X8.4339 Y15.7691
G01 X8.4240 Y15.7618
G01 X8.4010 Y15.7474
G01 X8.2907 Y15.6378
G01 X8.2845 Y15.6312
G01 X7.8080 Y15.1548
G01 X7.7535 Y15.1013
G01 X7.7365 Y15.0750
G01 X7.7273 Y15.0622
G01 X7.7060 Y15.0352
G01 X7.6962 Y15.0151
G01 X7.6869 Y14.9984
G01 X7.6730 Y14.9764
G01 X7.6611 Y14.9441
G01 X7.6549 Y14.9296
G01 X7.6413 Y14.9014
G01 X7.6352 Y14.8760
G01 X7.6297 Y14.8578
G01 X7.6221 Y14.8367
G01 X7.6182 Y14.8057
G01 X7.6154 Y14.7901
G01 X7.6079 Y14.7566
G01 X7.6073 Y14.6012
G01 X7.6076 Y14.5921
G01 X7.6076 Y9.1545
G01 X7.6068 Y9.1401
G01 X7.6042 Y9.1259
G01 X7.5819 Y9.0493
G01 X7.5764 Y9.0353
G01 X7.5692 Y9.0221
G01 X7.5605 Y9.0099
G01 X7.5503 Y8.9988
G01 X7.4922 Y8.9483
G01 X7.4852 Y8.9427
G01 X7.4752 Y8.9360
G01 X7.4674 Y8.9317
G01 X7.4592 Y8.9279
G01 X7.4508 Y8.9248
G01 X7.4422 Y8.9223
G01 X7.4334 Y8.9204
G01 X7.3701 Y8.9095
G01 X7.3588 Y8.9081
G01 X7.3503 Y8.9078
G01 X7.3418 Y8.9080
G01 X7.2973 Y8.9119
G01 X7.0904 Y8.8938
G01 X6.8897 Y8.8400
G01 X6.7014 Y8.7522
G01 X6.5312 Y8.6330
G01 X6.3843 Y8.4861
G01 X6.2646 Y8.3152
G01 X6.2581 Y8.3040
G01 X6.2514 Y8.2946
G01 X6.2458 Y8.2880
G01 X6.2398 Y8.2818
G01 X6.1839 Y8.2288
G01 X6.1745 Y8.2214
G01 X6.1616 Y8.2135
G01 X6.1508 Y8.2084
G01 X6.1394 Y8.2044
G01 X6.1277 Y8.2015
G01 X6.0580 Y8.1881
G01 X6.0461 Y8.1864
G01 X6.0311 Y8.1860
G01 X6.0191 Y8.1870
G01 X6.0073 Y8.1891
G01 X5.9929 Y8.1935
G01 X5.9241 Y8.2210
G01 X5.9158 Y8.2247
G01 X5.9078 Y8.2290
G01 X5.9001 Y8.2339
G01 X5.8929 Y8.2393
G01 X5.8860 Y8.2453
G01 X5.8776 Y8.2541
G01 X5.8464 Y8.2901
G01 X5.8410 Y8.2969
G01 X5.8360 Y8.3040
G01 X5.8290 Y8.3158
G01 X5.7101 Y8.4856
G01 X5.5630 Y8.6328
G01 X5.3929 Y8.7519
G01 X5.2050 Y8.8395
G01 X5.1725 Y8.8482
G00 Z2.0000
G00 X7.7283 Y8.6949
G01 F50.00
G01 Z-0.1200
G01 F60.00
G01 X7.7283 Y9.0320
G01 X7.7203 Y9.0049
G01 X7.7135 Y8.9863
G01 X7.7054 Y8.9681
G01 X7.6959 Y8.9507
G01 X7.6852 Y8.9340
G01 X7.6732 Y8.9181
G01 X7.6602 Y8.9032
G01 X7.6460 Y8.8893
G01 X7.5874 Y8.8384
G01 X7.5772 Y8.8300
G01 X7.5612 Y8.8184
G01 X7.5444 Y8.8081
G01 X7.5328 Y8.8018
G01 X7.5209 Y8.7962
G01 X7.5088 Y8.7912
G01 X7.4964 Y8.7867
G01 X7.4838 Y8.7829
G01 X7.4710 Y8.7797
G01 X7.4462 Y8.7751
G01 X7.4925 Y8.7683
G01 X7.5118 Y8.7647
G01 X7.6007 Y8.7424
G01 X7.6194 Y8.7365
G01 X7.6994 Y8.7078
G01 X7.7115 Y8.7028
G01 X7.7283 Y8.6949
G00 Z2.0000
G00 X7.8737 Y8.4382
G01 F50.00
G01 Z-0.1200
G01 F60.00
G01 X7.8091 Y8.4859
G01 X7.7367 Y8.5295
G01 X7.7263 Y8.5351
G01 X7.6499 Y8.5710
G01 X7.5704 Y8.5996
G01 X7.5590 Y8.6031
G01 X7.4771 Y8.6235
G01 X7.3935 Y8.6360
G01 X7.3817 Y8.6372
G01 X7.2973 Y8.6411
G01 X7.2130 Y8.6372
G01 X7.2012 Y8.6360
G01 X7.1176 Y8.6235
G01 X7.0357 Y8.6031
G01 X7.0243 Y8.5996
G01 X6.9504 Y8.5732
G01 X6.9394 Y8.5686
G01 X6.8631 Y8.5324
G01 X6.7906 Y8.4891
G01 X6.7807 Y8.4825
G01 X6.7130 Y8.4321
G01 X6.6503 Y8.3755
G01 X6.6419 Y8.3670
G01 X6.5853 Y8.3044
G01 X6.5314 Y8.2318
G01 X6.4879 Y8.1594
G01 X6.4823 Y8.1489
G01 X6.4463 Y8.0725
G01 X6.4177 Y7.9930
G01 X6.4143 Y7.9817
G01 X6.3945 Y7.9026
G01 X6.3929 Y7.8938
G01 X6.3806 Y7.8103
G01 X6.3762 Y7.7200
G01 X6.3762 Y5.3200
G01 X6.3806 Y5.2297
G01 X6.3934 Y5.1432
G01 X6.3952 Y5.1345
G01 X6.4143 Y5.0583
G01 X6.4177 Y5.0470
G01 X6.4463 Y4.9675
G01 X6.4823 Y4.8911
G01 X6.4879 Y4.8806
G01 X6.5314 Y4.8082
G01 X6.5816 Y4.7403
G01 X6.5892 Y4.7311
G01 X6.6460 Y4.6686
G01 X6.7085 Y4.6118
G01 X6.7177 Y4.6043
G01 X6.7856 Y4.5541
G01 X6.8579 Y4.5105
G01 X6.8684 Y4.5049
G01 X6.9448 Y4.4690
G01 X7.0243 Y4.4404
G01 X7.0357 Y4.4369
G01 X7.1118 Y4.4179
G01 X7.1235 Y4.4155
G01 X7.2071 Y4.4033
G01 X7.2973 Y4.3989
G01 X7.3876 Y4.4033
G01 X7.4712 Y4.4155
G01 X7.4829 Y4.4179
G01 X7.5590 Y4.4369
G01 X7.5704 Y4.4404
G01 X7.6499 Y4.4690
G01 X7.7316 Y4.5076
G01 X7.8091 Y4.5541
G01 X7.8770 Y4.6043
G01 X7.8862 Y4.6118
G01 X7.9444 Y4.6645
G01 X7.9528 Y4.6730
G01 X8.0094 Y4.7356
G01 X8.0616 Y4.8058
G01 X8.0664 Y4.8133
G01 X8.1097 Y4.8858
G01 X8.1460 Y4.9621
G01 X8.1505 Y4.9730
G01 X8.1788 Y5.0526
G01 X8.1995 Y5.1345
G01 X8.2018 Y5.1462
G01 X8.2137 Y5.2268
G01 X8.2145 Y5.2356
G01 X8.2185 Y5.3200
G01 X8.2185 Y6.1237
G01 X13.7639 Y6.1237
G01 X13.7639 Y6.0320
G01 X13.7654 Y6.0016
G01 X13.7664 Y5.9927
G01 X13.7710 Y5.9626
G01 X13.7782 Y5.9330
G01 X13.7817 Y5.9216
G01 X13.7921 Y5.8930
G01 X13.8077 Y5.8600
G01 X13.8264 Y5.8288
G01 X13.8481 Y5.7995
G01 X13.8726 Y5.7726
G01 X13.8995 Y5.7481
G01 X13.9288 Y5.7264
G01 X13.9549 Y5.7106
G01 X13.9654 Y5.7050
G01 X13.9930 Y5.6921
G01 X14.0216 Y5.6817
G01 X14.0301 Y5.6790
G01 X14.0568 Y5.6723
G01 X14.0655 Y5.6704
G01 X14.0957 Y5.6660
G01 X14.1046 Y5.6652
G01 X14.1320 Y5.6639
G01 X14.7600 Y5.6639
G01 X14.7964 Y5.6656
G01 X14.8265 Y5.6700
G01 X14.8382 Y5.6723
G01 X14.8649 Y5.6790
G01 X14.8734 Y5.6817
G01 X14.9020 Y5.6921
G01 X14.9296 Y5.7050
G01 X14.9401 Y5.7106
G01 X14.9662 Y5.7264
G01 X14.9955 Y5.7481
G01 X15.0181 Y5.7685
G01 X15.0265 Y5.7769
G01 X15.0469 Y5.7995
G01 X15.0652 Y5.8239
G01 X15.0718 Y5.8338
G01 X15.0873 Y5.8600
G01 X15.1005 Y5.8875
G01 X15.1040 Y5.8957
G01 X15.1152 Y5.9273
G01 X15.1240 Y5.9626
G01 X15.1294 Y5.9986
G01 X15.1311 Y6.0320
G01 X15.1311 Y7.2850
G01 X15.1294 Y7.3214
G01 X15.1250 Y7.3515
G01 X15.1234 Y7.3603
G01 X15.1168 Y7.3870
G01 X15.1133 Y7.3984
G01 X15.1029 Y7.4270
G01 X15.0873 Y7.4600
G01 X15.0686 Y7.4912
G01 X15.0506 Y7.5158
G01 X15.0430 Y7.5250
G01 X15.0224 Y7.5474
G01 X14.9955 Y7.5719
G01 X14.9711 Y7.5902
G01 X14.9612 Y7.5968
G01 X14.9350 Y7.6123
G01 X14.9020 Y7.6279
G01 X14.8734 Y7.6383
G01 X14.8620 Y7.6418
G01 X14.8353 Y7.6484
G01 X14.8265 Y7.6500
G01 X14.7964 Y7.6544
G01 X14.7600 Y7.6561
G01 X14.1350 Y7.6561
G01 X14.1016 Y7.6546
G01 X14.0927 Y7.6536
G01 X14.0626 Y7.6490
G01 X14.0330 Y7.6418
G01 X14.0216 Y7.6383
G01 X13.9930 Y7.6279
G01 X13.9654 Y7.6150
G01 X13.9549 Y7.6094
G01 X13.9263 Y7.5919
G01 X13.8995 Y7.5719
G01 X13.8726 Y7.5474
G01 X13.8481 Y7.5205
G01 X13.8264 Y7.4912
G01 X13.8077 Y7.4600
G01 X13.7921 Y7.4270
G01 X13.7798 Y7.3927
G01 X13.7723 Y7.3632
G01 X13.7704 Y7.3545
G01 X13.7660 Y7.3243
G01 X13.7652 Y7.3154
G01 X13.7639 Y7.2880
G01 X13.7639 Y6.9163
G01 X8.2541 Y6.9163
G01 X8.5502 Y7.2124
G01 X8.5725 Y7.2367
G01 X8.5800 Y7.2459
G01 X8.5995 Y7.2725
G01 X8.6166 Y7.3007
G01 X8.6222 Y7.3112
G01 X8.6372 Y7.3438
G01 X8.6492 Y7.3776
G01 X8.6574 Y7.4095
G01 X8.6597 Y7.4212
G01 X8.6641 Y7.4509
G01 X8.6648 Y7.4597
G01 X8.6663 Y7.4927
G01 X8.6663 Y14.5159
G01 X8.9554 Y14.8050
G01 X8.9800 Y14.8039
G01 X10.6330 Y14.8039
G01 X10.6536 Y14.8049
G01 X10.6625 Y14.8059
G01 X10.6829 Y14.8091
G01 X10.7030 Y14.8139
G01 X10.7115 Y14.8164
G01 X10.7310 Y14.8234
G01 X10.7392 Y14.8269
G01 X10.7578 Y14.8359
G01 X10.7806 Y14.8495
G01 X10.8020 Y14.8654
G01 X10.8217 Y14.8833
G01 X10.8396 Y14.9030
G01 X10.8555 Y14.9244
G01 X10.8691 Y14.9472
G01 X10.8805 Y14.9712
G01 X10.8876 Y14.9906
G01 X10.8903 Y14.9991
G01 X10.8959 Y15.0221
G01 X10.8991 Y15.0425
G01 X10.9001 Y15.0514
G01 X10.9011 Y15.0720
G01 X10.9011 Y15.3780
G01 X10.8998 Y15.4016
G01 X10.8970 Y15.4220
G01 X10.8953 Y15.4308
G01 X10.8895 Y15.4537
G01 X10.8805 Y15.4788
G01 X10.8718 Y15.4975
G01 X10.8677 Y15.5054
G01 X10.8555 Y15.5256
G01 X10.8396 Y15.5470
G01 X10.8258 Y15.5624
G01 X10.8196 Y15.5688
G01 X10.8020 Y15.5846
G01 X10.7806 Y15.6005
G01 X10.7630 Y15.6112
G01 X10.7525 Y15.6168
G01 X10.7310 Y15.6266
G01 X10.7087 Y15.6345
G01 X10.6829 Y15.6409
G01 X10.6566 Y15.6448
G01 X10.6300 Y15.6461
G01 X8.9800 Y15.6461
G01 X8.9534 Y15.6448
G01 X8.9330 Y15.6420
G01 X8.9242 Y15.6403
G01 X8.8985 Y15.6336
G01 X8.8790 Y15.6266
G01 X8.8670 Y15.6213
G01 X8.8120 Y15.6213
G01 X8.7762 Y15.6194
G01 X8.7377 Y15.6137
G01 X8.7028 Y15.6051
G01 X8.6943 Y15.6024
G01 X8.6633 Y15.5911
G01 X8.6335 Y15.5772
G01 X8.6230 Y15.5716
G01 X8.5948 Y15.5545
G01 X8.5683 Y15.5350
G01 X8.5613 Y15.5294
G01 X8.5369 Y15.5073
G01 X7.9877 Y14.9581
G01 X7.9637 Y14.9314
G01 X7.9405 Y14.9002
G01 X7.9205 Y14.8668
G01 X7.9063 Y14.8371
G01 X7.9028 Y14.8289
G01 X7.8908 Y14.7950
G01 X7.8813 Y14.7573
G01 X7.8756 Y14.7188
G01 X7.8737 Y14.6800
G01 X7.8737 Y8.4382
G00 Z2.0000
G00 X8.7953 Y7.3620
G01 F50.00
G01 Z-0.1200
G01 F60.00
G01 X8.7902 Y7.3417
G01 X8.7864 Y7.3292
G01 X8.7751 Y7.2976
G01 X8.7679 Y7.2794
G01 X8.7536 Y7.2490
G01 X8.7477 Y7.2373
G01 X8.7413 Y7.2259
G01 X8.7239 Y7.1972
G01 X8.7128 Y7.1810
G01 X8.6928 Y7.1541
G01 X8.6845 Y7.1440
G01 X8.6576 Y7.1143
G01 X8.6051 Y7.0617
G01 X9.0569 Y7.0617
G01 X9.0298 Y7.0697
G01 X9.0111 Y7.0765
G01 X8.9930 Y7.0846
G01 X8.9756 Y7.0941
G01 X8.9589 Y7.1048
G01 X8.9430 Y7.1168
G01 X8.9329 Y7.1254
G01 X8.9233 Y7.1345
G01 X8.9098 Y7.1490
G01 X8.8633 Y7.2026
G01 X8.8548 Y7.2129
G01 X8.8468 Y7.2237
G01 X8.8394 Y7.2348
G01 X8.8293 Y7.2521
G01 X8.8234 Y7.2641
G01 X8.8180 Y7.2763
G01 X8.8133 Y7.2888
G01 X8.8091 Y7.3015
G01 X8.8042 Y7.3210
G01 X8.7953 Y7.3620
G00 Z2.0000
G00 X8.5964 Y5.9783
G01 F50.00
G01 Z-0.1200
G01 F60.00
G01 X8.3639 Y5.9783
G01 X8.3639 Y5.7325
G01 X8.3721 Y5.7600
G01 X8.3764 Y5.7725
G01 X8.3814 Y5.7848
G01 X8.3900 Y5.8027
G01 X8.3999 Y5.8199
G01 X8.4072 Y5.8310
G01 X8.4191 Y5.8468
G01 X8.4322 Y5.8617
G01 X8.4464 Y5.8757
G01 X8.5050 Y5.9265
G01 X8.5152 Y5.9350
G01 X8.5259 Y5.9430
G01 X8.5427 Y5.9538
G01 X8.5602 Y5.9635
G01 X8.5784 Y5.9717
G01 X8.5964 Y5.9783
G00 Z2.0000
G00 X6.3260 Y4.8816
G01 F50.00
G01 Z-0.1200
G01 F60.00
G01 X6.3146 Y4.9058
G01 X6.3096 Y4.9179
G01 X6.2787 Y5.0042
G01 X6.2733 Y5.0230
G01 X6.2527 Y5.1055
G01 X6.2491 Y5.1248
G01 X6.2376 Y5.2025
G01 X6.2360 Y5.2155
G01 X6.2350 Y5.2285
G01 X6.2309 Y5.3135
G01 X6.2308 Y7.7200
G01 X6.2311 Y7.7331
G01 X6.2350 Y7.8115
G01 X6.2360 Y7.8245
G01 X6.2376 Y7.8375
G01 X6.2491 Y7.9152
G01 X6.2527 Y7.9345
G01 X6.2733 Y8.0170
G01 X6.2787 Y8.0358
G01 X6.3096 Y8.1221
G01 X6.3146 Y8.1342
G01 X6.3300 Y8.1669
G01 X6.2839 Y8.1231
G01 X6.2687 Y8.1103
G01 X6.2580 Y8.1024
G01 X6.2414 Y8.0916
G01 X6.2299 Y8.0851
G01 X6.2120 Y8.0765
G01 X6.1997 Y8.0714
G01 X6.1873 Y8.0670
G01 X6.1746 Y8.0632
G01 X6.1617 Y8.0601
G01 X6.0790 Y8.0442
G01 X6.0593 Y8.0416
G01 X6.0395 Y8.0405
G01 X6.0263 Y8.0407
G01 X6.0065 Y8.0421
G01 X5.9868 Y8.0449
G01 X5.9674 Y8.0492
G01 X5.9547 Y8.0529
G01 X5.9422 Y8.0572
G01 X5.8639 Y8.0885
G01 X5.8459 Y8.0971
G01 X5.8342 Y8.1036
G01 X5.8228 Y8.1107
G01 X5.8119 Y8.1183
G01 X5.8013 Y8.1264
G01 X5.7911 Y8.1351
G01 X5.7814 Y8.1443
G01 X5.7694 Y8.1570
G01 X5.7801 Y8.1342
G01 X5.7851 Y8.1221
G01 X5.8160 Y8.0358
G01 X5.8214 Y8.0170
G01 X5.8420 Y7.9345
G01 X5.8456 Y7.9152
G01 X5.8571 Y7.8375
G01 X5.8587 Y7.8245
G01 X5.8597 Y7.8115
G01 X5.8638 Y7.7265
G01 X5.8639 Y5.3200
G01 X5.8636 Y5.3069
G01 X5.8597 Y5.2285
G01 X5.8587 Y5.2155
G01 X5.8571 Y5.2025
G01 X5.8456 Y5.1248
G01 X5.8420 Y5.1055
G01 X5.8214 Y5.0230
G01 X5.8160 Y5.0042
G01 X5.7851 Y4.9179
G01 X5.7801 Y4.9058
G01 X5.7652 Y4.8741
G01 X5.8102 Y4.9169
G01 X5.8254 Y4.9297
G01 X5.8361 Y4.9376
G01 X5.8527 Y4.9484
G01 X5.8643 Y4.9549
G01 X5.8821 Y4.9635
G01 X5.8944 Y4.9686
G01 X5.9069 Y4.9730
G01 X5.9195 Y4.9768
G01 X5.9324 Y4.9799
G01 X6.0151 Y4.9958
G01 X6.0348 Y4.9984
G01 X6.0546 Y4.9995
G01 X6.0745 Y4.9990
G01 X6.0942 Y4.9972
G01 X6.1138 Y4.9938
G01 X6.1267 Y4.9908
G01 X6.1394 Y4.9871
G01 X6.1519 Y4.9828
G01 X6.2302 Y4.9514
G01 X6.2483 Y4.9429
G01 X6.2599 Y4.9364
G01 X6.2713 Y4.9293
G01 X6.2823 Y4.9217
G01 X6.2928 Y4.9136
G01 X6.3030 Y4.9049
G01 X6.3127 Y4.8957
G01 X6.3260 Y4.8816
G00 Z2.0000
G00 X6.0994 Y5.1429
G01 F50.00
G01 Z-0.1200
G01 F60.00
G01 X6.0924 Y5.1912
G01 X6.0904 Y5.2113
G01 X6.0859 Y5.2998
G01 X6.0854 Y5.3200
G01 X6.0854 Y7.7200
G01 X6.0859 Y7.7402
G01 X6.0904 Y7.8287
G01 X6.0924 Y7.8488
G01 X6.0999 Y7.9003
G01 X6.0725 Y7.8968
G01 X6.0521 Y7.8955
G01 X6.0419 Y7.8952
G01 X6.0214 Y7.8954
G01 X5.9953 Y7.8971
G01 X6.0023 Y7.8488
G01 X6.0043 Y7.8287
G01 X6.0088 Y7.7402
G01 X6.0093 Y7.7200
G01 X6.0093 Y5.3200
G01 X6.0088 Y5.2998
G01 X6.0043 Y5.2113
G01 X6.0023 Y5.1912
G01 X5.9948 Y5.1398
G01 X6.0216 Y5.1432
G01 X6.0420 Y5.1445
G01 X6.0522 Y5.1448
G01 X6.0727 Y5.1446
G01 X6.0994 Y5.1429
G00 Z2.0000
G00 X13.3962 Y7.0617
G01 F50.00
G01 Z-0.1200
G01 F60.00
G01 X13.6185 Y7.0617
G01 X13.6185 Y7.2838
G01 X13.5994 Y7.2380
G01 X13.5935 Y7.2262
G01 X13.5870 Y7.2147
G01 X13.5763 Y7.1980
G01 X13.5684 Y7.1873
G01 X13.5556 Y7.1721
G01 X13.5465 Y7.1625
G01 X13.5320 Y7.1490
G01 X13.5165 Y7.1366
G01 X13.4475 Y7.0882
G01 X13.4362 Y7.0812
G01 X13.4247 Y7.0746
G01 X13.4128 Y7.0687
G01 X13.3962 Y7.0617
G00 Z2.0000
G00 X13.6442 Y5.8743
G01 F50.00
G01 Z-0.1200
G01 F60.00
G01 X13.6389 Y5.8913
G01 X13.6297 Y5.9278
G01 X13.6262 Y5.9471
G01 X13.6216 Y5.9783
G01 X13.4799 Y5.9783
G01 X13.5069 Y5.9703
G01 X13.5191 Y5.9661
G01 X13.5310 Y5.9613
G01 X13.5428 Y5.9559
G01 X13.5542 Y5.9500
G01 X13.5708 Y5.9400
G01 X13.5866 Y5.9289
G01 X13.6016 Y5.9166
G01 X13.6157 Y5.9033
G01 X13.6442 Y5.8743
G00 Z2.0000
G00 X16.4226 Y5.9909
G01 F50.00
G01 Z-0.1200
G01 F60.00
G01 X16.4316 Y5.9046
G01 X16.4789 Y5.7628
G01 X16.5571 Y5.6364
G01 X16.6623 Y5.5314
G01 X16.7888 Y5.4534
G01 X16.9307 Y5.4064
G01 X17.0158 Y5.3976
G01 X17.7291 Y5.3976
G01 X17.8154 Y5.4066
G01 X17.9572 Y5.4539
G01 X18.0836 Y5.5321
G01 X18.1886 Y5.6373
G01 X18.2666 Y5.7638
G01 X18.3178 Y5.9183
G01 X18.3209 Y5.9266
G01 X18.3275 Y5.9400
G01 X18.3321 Y5.9476
G01 X18.3374 Y5.9548
G01 X18.3606 Y5.9973
G01 X18.3674 Y6.0072
G01 X18.3751 Y6.0165
G01 X18.3859 Y6.0269
G01 X18.3930 Y6.0324
G01 X18.4005 Y6.0375
G01 X18.4679 Y6.0747
G01 X18.4787 Y6.0799
G01 X18.4927 Y6.0849
G01 X18.5043 Y6.0877
G01 X18.5403 Y6.0919
G01 X18.5502 Y6.0926
G01 X20.8735 Y6.0926
G01 X20.8850 Y6.0921
G01 X20.8936 Y6.0910
G01 X20.9049 Y6.0885
G01 X20.9786 Y6.0669
G01 X20.9924 Y6.0615
G01 X21.0055 Y6.0544
G01 X21.0176 Y6.0459
G01 X21.0385 Y6.0290
G01 X21.0458 Y6.0227
G01 X21.1423 Y5.9264
G01 X21.2688 Y5.8484
G01 X21.4107 Y5.8014
G01 X21.4958 Y5.7926
G01 X22.8841 Y5.7926
G01 X22.9704 Y5.8016
G01 X23.1122 Y5.8489
G01 X23.2386 Y5.9271
G01 X23.2439 Y5.9322
G01 X23.2505 Y5.9378
G01 X23.2623 Y5.9460
G01 X23.3322 Y5.9844
G01 X23.3460 Y5.9904
G01 X23.3546 Y5.9932
G01 X23.3633 Y5.9954
G01 X23.3722 Y5.9969
G01 X23.3812 Y5.9977
G01 X23.3962 Y5.9976
G01 X23.4671 Y5.9926
G01 X23.4820 Y5.9906
G01 X23.4936 Y5.9877
G01 X23.5050 Y5.9836
G01 X23.5132 Y5.9798
G01 X23.5236 Y5.9739
G01 X23.5311 Y5.9688
G01 X23.5879 Y5.9263
G01 X23.5951 Y5.9205
G01 X23.6018 Y5.9141
G01 X23.6119 Y5.9025
G01 X23.6218 Y5.8882
G01 X23.6571 Y5.8314
G01 X23.7623 Y5.7264
G01 X23.8888 Y5.6484
G01 X24.0307 Y5.6014
G01 X24.1158 Y5.5926
G01 X25.5041 Y5.5926
G01 X25.5904 Y5.6016
G01 X25.7322 Y5.6489
G01 X25.8586 Y5.7271
G01 X25.9636 Y5.8323
G01 X26.0416 Y5.9588
G01 X26.0886 Y6.1007
G01 X26.0974 Y6.1858
G01 X26.0974 Y6.9241
G01 X26.0957 Y6.9410
G01 X26.0956 Y6.9526
G01 X26.0963 Y6.9612
G01 X26.0976 Y6.9697
G01 X26.1116 Y7.0454
G01 X26.1160 Y7.0597
G01 X26.1194 Y7.0680
G01 X26.1234 Y7.0760
G01 X26.1297 Y7.0862
G01 X26.1548 Y7.1209
G01 X26.1607 Y7.1285
G01 X26.1673 Y7.1356
G01 X26.8130 Y7.7813
G01 X26.8193 Y7.7872
G01 X26.8284 Y7.7943
G01 X26.8406 Y7.8019
G01 X26.9029 Y7.8360
G01 X26.9163 Y7.8423
G01 X26.9276 Y7.8461
G01 X26.9392 Y7.8488
G01 X26.9480 Y7.8501
G01 X26.9812 Y7.8535
G01 X28.4638 Y7.8536
G01 X28.6190 Y7.8672
G01 X28.8196 Y7.9210
G01 X29.0079 Y8.0088
G01 X29.1781 Y8.1280
G01 X29.3250 Y8.2749
G01 X29.4442 Y8.4451
G01 X29.5320 Y8.6334
G01 X29.5858 Y8.8340
G01 X29.6023 Y9.0228
G01 X29.6034 Y9.0314
G01 X29.6052 Y9.0406
G01 X29.6034 Y9.0503
G01 X29.6023 Y9.0592
G01 X29.5858 Y9.2480
G01 X29.5320 Y9.4486
G01 X29.4442 Y9.6369
G01 X29.3250 Y9.8071
G01 X29.1781 Y9.9540
G01 X29.0079 Y10.0732
G01 X28.9732 Y10.0896
G01 X28.9657 Y10.0939
G01 X28.9585 Y10.0987
G01 X28.9495 Y10.1059
G01 X28.8962 Y10.1528
G01 X28.8876 Y10.1612
G01 X28.8798 Y10.1704
G01 X28.8730 Y10.1803
G01 X28.8672 Y10.1909
G01 X28.8625 Y10.2019
G01 X28.8597 Y10.2105
G01 X28.8395 Y10.2817
G01 X28.8371 Y10.2935
G01 X28.8358 Y10.3054
G01 X28.8357 Y10.3145
G01 X28.8362 Y10.3235
G01 X28.8385 Y10.3383
G01 X28.8408 Y10.3471
G01 X28.8623 Y10.4178
G01 X28.8665 Y10.4289
G01 X28.8733 Y10.4421
G01 X28.8799 Y10.4520
G01 X28.8874 Y10.4611
G01 X28.8980 Y10.4715
G01 X28.9502 Y10.5168
G01 X28.9598 Y10.5243
G01 X28.9675 Y10.5293
G01 X28.9756 Y10.5337
G01 X29.0079 Y10.5488
G01 X29.1781 Y10.6680
G01 X29.3250 Y10.8149
G01 X29.4442 Y10.9851
G01 X29.5320 Y11.1734
G01 X29.5858 Y11.3740
G01 X29.6023 Y11.5628
G01 X29.6034 Y11.5714
G01 X29.6052 Y11.5806
G01 X29.6034 Y11.5903
G01 X29.6023 Y11.5992
G01 X29.5858 Y11.7880
G01 X29.5320 Y11.9886
G01 X29.4442 Y12.1769
G01 X29.3250 Y12.3471
G01 X29.1781 Y12.4940
G01 X29.0079 Y12.6132
G01 X28.9732 Y12.6296
G01 X28.9657 Y12.6339
G01 X28.9585 Y12.6387
G01 X28.9495 Y12.6459
G01 X28.8962 Y12.6928
G01 X28.8876 Y12.7012
G01 X28.8798 Y12.7104
G01 X28.8730 Y12.7203
G01 X28.8672 Y12.7309
G01 X28.8625 Y12.7419
G01 X28.8597 Y12.7505
G01 X28.8395 Y12.8217
G01 X28.8376 Y12.8305
G01 X28.8363 Y12.8394
G01 X28.8357 Y12.8484
G01 X28.8359 Y12.8605
G01 X28.8369 Y12.8694
G01 X28.8385 Y12.8783
G01 X28.8408 Y12.8871
G01 X28.8623 Y12.9578
G01 X28.8665 Y12.9689
G01 X28.8733 Y12.9821
G01 X28.8799 Y12.9920
G01 X28.8874 Y13.0011
G01 X28.8980 Y13.0115
G01 X28.9502 Y13.0568
G01 X28.9598 Y13.0643
G01 X28.9675 Y13.0693
G01 X28.9756 Y13.0737
G01 X29.0079 Y13.0888
G01 X29.1781 Y13.2080
G01 X29.3250 Y13.3549
G01 X29.4442 Y13.5251
G01 X29.5320 Y13.7134
G01 X29.5858 Y13.9140
G01 X29.6023 Y14.1028
G01 X29.6034 Y14.1114
G01 X29.6052 Y14.1206
G01 X29.6034 Y14.1303
G01 X29.6023 Y14.1392
G01 X29.5858 Y14.3280
G01 X29.5320 Y14.5286
G01 X29.4442 Y14.7169
G01 X29.3250 Y14.8871
G01 X29.1781 Y15.0340
G01 X29.0079 Y15.1532
G01 X28.9732 Y15.1696
G01 X28.9657 Y15.1739
G01 X28.9585 Y15.1787
G01 X28.9495 Y15.1859
G01 X28.8962 Y15.2328
G01 X28.8876 Y15.2412
G01 X28.8798 Y15.2504
G01 X28.8730 Y15.2603
G01 X28.8672 Y15.2709
G01 X28.8636 Y15.2791
G01 X28.8597 Y15.2905
G01 X28.8403 Y15.3588
G01 X28.8381 Y15.3676
G01 X28.8363 Y15.3794
G01 X28.8356 Y15.3915
G01 X28.8362 Y15.4035
G01 X28.8379 Y15.4154
G01 X28.8408 Y15.4271
G01 X28.8623 Y15.4978
G01 X28.8678 Y15.5116
G01 X28.8718 Y15.5195
G01 X28.8765 Y15.5271
G01 X28.8855 Y15.5389
G01 X28.8958 Y15.5495
G01 X28.9502 Y15.5968
G01 X28.9598 Y15.6043
G01 X28.9675 Y15.6093
G01 X28.9756 Y15.6137
G01 X29.0079 Y15.6288
G01 X29.0692 Y15.6717
G01 X29.0815 Y15.6793
G01 X29.0893 Y15.6831
G01 X29.0973 Y15.6863
G01 X29.1730 Y15.7117
G01 X29.1818 Y15.7139
G01 X29.1937 Y15.7157
G01 X29.2057 Y15.7163
G01 X29.2147 Y15.7160
G01 X29.2237 Y15.7150
G01 X29.2355 Y15.7127
G01 X29.3072 Y15.6946
G01 X29.3211 Y15.6899
G01 X29.3343 Y15.6834
G01 X29.3443 Y15.6772
G01 X29.3742 Y15.6542
G01 X29.3836 Y15.6462
G01 X30.0272 Y15.0024
G01 X30.0346 Y14.9935
G01 X30.0425 Y14.9814
G01 X30.0807 Y14.9113
G01 X30.0843 Y14.9032
G01 X30.0881 Y14.8919
G01 X30.0902 Y14.8833
G01 X30.0921 Y14.8715
G01 X30.0953 Y14.8415
G01 X30.0956 Y14.8318
G01 X30.0956 Y14.1608
G01 X30.0953 Y14.1521
G01 X30.0944 Y14.1435
G01 X30.0929 Y14.1350
G01 X30.0911 Y14.1281
G01 X30.0923 Y14.1209
G01 X30.0951 Y14.0932
G01 X30.0956 Y14.0812
G01 X30.0956 Y11.6208
G01 X30.0953 Y11.6121
G01 X30.0944 Y11.6035
G01 X30.0929 Y11.5950
G01 X30.0911 Y11.5881
G01 X30.0923 Y11.5809
G01 X30.0951 Y11.5532
G01 X30.0956 Y11.5412
G01 X30.0956 Y9.0808
G01 X30.0953 Y9.0721
G01 X30.0944 Y9.0635
G01 X30.0929 Y9.0550
G01 X30.0911 Y9.0481
G01 X30.0923 Y9.0409
G01 X30.0951 Y9.0132
G01 X30.0956 Y9.0012
G01 X30.0956 Y6.5160
G01 X30.0949 Y6.4396
G01 X30.1014 Y6.4091
G01 X30.1040 Y6.3935
G01 X30.1080 Y6.3593
G01 X30.1153 Y6.3382
G01 X30.1205 Y6.3198
G01 X30.1263 Y6.2944
G01 X30.1395 Y6.2660
G01 X30.1454 Y6.2514
G01 X30.1569 Y6.2190
G01 X30.1705 Y6.1968
G01 X30.1796 Y6.1800
G01 X30.1891 Y6.1597
G01 X30.2082 Y6.1350
G01 X30.2173 Y6.1220
G01 X30.2356 Y6.0930
G01 X30.3309 Y5.9971
G01 X30.3386 Y5.9885
G01 X30.3438 Y5.9816
G01 X30.3514 Y5.9694
G01 X30.3866 Y5.9043
G01 X30.3925 Y5.8908
G01 X30.3967 Y5.8766
G01 X30.3992 Y5.8620
G01 X30.4023 Y5.8325
G01 X30.4026 Y5.8229
G01 X30.4026 Y5.2059
G01 X30.4116 Y5.1196
G01 X30.4589 Y4.9778
G01 X30.5371 Y4.8514
G01 X30.6423 Y4.7464
G01 X30.7688 Y4.6684
G01 X30.9107 Y4.6214
G01 X30.9958 Y4.6126
G01 X31.7341 Y4.6126
G01 X31.8204 Y4.6216
G01 X31.9622 Y4.6689
G01 X32.0886 Y4.7471
G01 X32.1936 Y4.8523
G01 X32.2716 Y4.9788
G01 X32.3186 Y5.1207
G01 X32.3274 Y5.2058
G01 X32.3274 Y6.5941
G01 X32.3184 Y6.6804
G01 X32.2711 Y6.8222
G01 X32.1929 Y6.9486
G01 X32.0877 Y7.0536
G01 X31.9612 Y7.1316
G01 X31.8193 Y7.1786
G01 X31.7342 Y7.1874
G01 X31.6646 Y7.1874
G01 X31.6560 Y7.1879
G01 X31.6474 Y7.1890
G01 X31.6334 Y7.1923
G01 X31.5624 Y7.2131
G01 X31.5511 Y7.2174
G01 X31.5403 Y7.2227
G01 X31.5326 Y7.2274
G01 X31.5253 Y7.2327
G01 X31.5184 Y7.2384
G01 X31.5119 Y7.2447
G01 X31.4594 Y7.3051
G01 X31.4539 Y7.3124
G01 X31.4489 Y7.3200
G01 X31.4420 Y7.3334
G01 X31.4386 Y7.3419
G01 X31.4359 Y7.3505
G01 X31.4225 Y7.4116
G01 X31.4207 Y7.4259
G01 X31.4204 Y7.4345
G01 X31.4204 Y15.1995
G01 X31.4211 Y15.2759
G01 X31.4146 Y15.3064
G01 X31.4120 Y15.3220
G01 X31.4080 Y15.3562
G01 X31.4007 Y15.3773
G01 X31.3955 Y15.3957
G01 X31.3897 Y15.4211
G01 X31.3765 Y15.4495
G01 X31.3706 Y15.4641
G01 X31.3591 Y15.4965
G01 X31.3473 Y15.5155
G01 X31.3382 Y15.5322
G01 X31.3269 Y15.5558
G01 X31.3078 Y15.5805
G01 X31.2987 Y15.5935
G01 X31.2804 Y15.6225
G01 X31.1708 Y15.7328
G01 X31.1642 Y15.7390
G01 X29.7803 Y17.1230
G01 X29.7268 Y17.1775
G01 X29.7005 Y17.1945
G01 X29.6877 Y17.2037
G01 X29.6607 Y17.2250
G01 X29.6406 Y17.2348
G01 X29.6239 Y17.2441
G01 X29.6019 Y17.2580
G01 X29.5696 Y17.2699
G01 X29.5551 Y17.2761
G01 X29.5269 Y17.2897
G01 X29.5051 Y17.2948
G01 X29.4868 Y17.3002
G01 X29.4596 Y17.3099
G01 X29.4484 Y17.3150
G01 X29.4377 Y17.3212
G01 X29.4302 Y17.3265
G01 X29.3700 Y17.3726
G01 X29.3584 Y17.3828
G01 X29.3521 Y17.3895
G01 X29.3464 Y17.3968
G01 X29.3250 Y17.4271
G01 X29.1781 Y17.5740
G01 X29.0079 Y17.6932
G01 X28.8197 Y17.7810
G01 X28.6190 Y17.8348
G01 X28.4638 Y17.8484
G01 X25.9602 Y17.8484
G01 X25.8050 Y17.8348
G01 X25.6044 Y17.7810
G01 X25.4161 Y17.6932
G01 X25.2459 Y17.5740
G01 X25.0979 Y17.4260
G01 X25.0912 Y17.4184
G01 X25.0847 Y17.4121
G01 X25.0778 Y17.4062
G01 X25.0705 Y17.4010
G01 X25.0117 Y17.3619
G01 X25.0014 Y17.3557
G01 X24.9905 Y17.3506
G01 X24.9791 Y17.3466
G01 X24.9674 Y17.3437
G01 X24.9555 Y17.3421
G01 X24.9465 Y17.3416
G01 X24.8725 Y17.3405
G01 X24.8636 Y17.3409
G01 X24.8547 Y17.3419
G01 X24.8429 Y17.3444
G01 X24.8343 Y17.3470
G01 X24.8232 Y17.3514
G01 X24.8152 Y17.3554
G01 X24.7547 Y17.3907
G01 X24.7430 Y17.3989
G01 X24.7345 Y17.4063
G01 X23.4818 Y18.6590
G01 X23.4283 Y18.7135
G01 X23.4020 Y18.7305
G01 X23.3892 Y18.7397
G01 X23.3622 Y18.7610
G01 X23.3421 Y18.7708
G01 X23.3254 Y18.7801
G01 X23.3034 Y18.7940
G01 X23.2711 Y18.8059
G01 X23.2566 Y18.8121
G01 X23.2284 Y18.8257
G01 X23.2066 Y18.8308
G01 X23.1813 Y18.8385
G01 X23.1454 Y18.8517
G01 X23.1347 Y18.8568
G01 X23.1270 Y18.8614
G01 X23.1197 Y18.8664
G01 X23.1115 Y18.8732
G01 X23.0817 Y18.8901
G01 X23.0743 Y18.8951
G01 X23.0672 Y18.9008
G01 X23.0606 Y18.9069
G01 X22.9542 Y19.0131
G01 X22.8277 Y19.0911
G01 X22.6858 Y19.1381
G01 X22.6007 Y19.1469
G01 X21.2624 Y19.1469
G01 X21.1761 Y19.1379
G01 X21.0343 Y19.0906
G01 X20.9079 Y19.0124
G01 X20.8029 Y18.9072
G01 X20.7249 Y18.7807
G01 X20.6779 Y18.6388
G01 X20.6691 Y18.5537
G01 X20.6691 Y17.8404
G01 X20.6781 Y17.7541
G01 X20.7254 Y17.6123
G01 X20.8036 Y17.4859
G01 X20.9088 Y17.3809
G01 X21.0353 Y17.3029
G01 X21.1772 Y17.2559
G01 X21.2623 Y17.2471
G01 X22.6006 Y17.2471
G01 X22.6869 Y17.2561
G01 X22.7879 Y17.2897
G01 X22.7991 Y17.2926
G01 X22.8104 Y17.2944
G01 X22.8191 Y17.2950
G01 X22.8900 Y17.2976
G01 X22.9017 Y17.2975
G01 X22.9133 Y17.2962
G01 X22.9219 Y17.2945
G01 X22.9331 Y17.2913
G01 X22.9439 Y17.2871
G01 X22.9543 Y17.2818
G01 X23.0149 Y17.2473
G01 X23.0271 Y17.2390
G01 X23.0360 Y17.2312
G01 X24.0382 Y16.2291
G01 X24.0441 Y16.2228
G01 X24.0512 Y16.2137
G01 X24.0574 Y16.2040
G01 X24.0943 Y16.1365
G01 X24.0992 Y16.1256
G01 X24.1022 Y16.1171
G01 X24.1046 Y16.1084
G01 X24.1063 Y16.0995
G01 X24.1075 Y16.0875
G01 X24.1076 Y16.0755
G01 X24.1017 Y15.9957
G01 X24.0997 Y15.9838
G01 X24.0965 Y15.9722
G01 X24.0921 Y15.9610
G01 X24.0867 Y15.9503
G01 X24.0785 Y15.9377
G01 X24.0322 Y15.8762
G01 X24.0241 Y15.8673
G01 X24.0174 Y15.8612
G01 X24.0103 Y15.8556
G01 X24.0028 Y15.8506
G01 X23.9923 Y15.8447
G01 X23.9841 Y15.8411
G01 X23.9147 Y15.8152
G01 X23.9062 Y15.8123
G01 X23.8945 Y15.8095
G01 X23.8825 Y15.8079
G01 X23.8735 Y15.8075
G01 X23.8615 Y15.8080
G01 X23.8496 Y15.8097
G01 X23.7858 Y15.8219
G01 X23.7774 Y15.8239
G01 X23.7691 Y15.8264
G01 X23.7585 Y15.8306
G01 X23.7271 Y15.8458
G01 X23.7072 Y15.8570
G01 X23.6884 Y15.8690
G01 X23.6561 Y15.8809
G01 X23.6416 Y15.8871
G01 X23.6134 Y15.9007
G01 X23.5880 Y15.9068
G01 X23.5698 Y15.9123
G01 X23.5487 Y15.9199
G01 X23.5177 Y15.9238
G01 X23.5021 Y15.9266
G01 X23.4686 Y15.9341
G01 X23.3132 Y15.9347
G01 X23.3041 Y15.9344
G01 X23.2105 Y15.9344
G01 X23.1989 Y15.9349
G01 X23.1904 Y15.9360
G01 X23.1791 Y15.9385
G01 X23.1025 Y15.9611
G01 X23.0889 Y15.9668
G01 X23.0760 Y15.9742
G01 X23.0687 Y15.9793
G01 X23.0430 Y16.0000
G01 X23.0358 Y16.0066
G01 X22.9542 Y16.0881
G01 X22.8277 Y16.1661
G01 X22.6858 Y16.2131
G01 X22.6007 Y16.2219
G01 X21.8544 Y16.2220
G01 X21.8424 Y16.2232
G01 X21.7933 Y16.2319
G01 X21.7816 Y16.2348
G01 X21.7687 Y16.2394
G01 X21.7377 Y16.2433
G01 X21.7221 Y16.2461
G01 X21.6886 Y16.2536
G01 X21.5332 Y16.2542
G01 X21.5241 Y16.2539
G01 X20.5435 Y16.2539
G01 X20.5320 Y16.2544
G01 X20.5234 Y16.2555
G01 X20.5094 Y16.2588
G01 X20.4413 Y16.2788
G01 X20.4299 Y16.2827
G01 X20.4190 Y16.2878
G01 X20.4087 Y16.2939
G01 X20.3990 Y16.3010
G01 X20.3900 Y16.3091
G01 X20.3839 Y16.3157
G01 X20.3355 Y16.3716
G01 X20.3301 Y16.3785
G01 X20.3253 Y16.3859
G01 X20.3185 Y16.3989
G01 X20.3102 Y16.4197
G01 X20.2871 Y16.4887
G01 X20.2089 Y16.6151
G01 X20.1037 Y16.7201
G01 X19.9772 Y16.7981
G01 X19.8353 Y16.8451
G01 X19.7502 Y16.8539
G01 X19.0369 Y16.8539
G01 X18.9506 Y16.8449
G01 X18.8088 Y16.7976
G01 X18.6824 Y16.7194
G01 X18.5774 Y16.6142
G01 X18.4994 Y16.4877
G01 X18.4524 Y16.3458
G01 X18.4436 Y16.2607
G01 X18.4436 Y14.9224
G01 X18.4526 Y14.8361
G01 X18.4999 Y14.6943
G01 X18.5781 Y14.5679
G01 X18.6833 Y14.4629
G01 X18.8098 Y14.3849
G01 X18.9517 Y14.3379
G01 X19.0368 Y14.3291
G01 X19.7501 Y14.3291
G01 X19.8364 Y14.3381
G01 X19.9782 Y14.3854
G01 X20.1046 Y14.4636
G01 X20.2096 Y14.5688
G01 X20.2941 Y14.7059
G01 X20.3006 Y14.7155
G01 X20.3080 Y14.7243
G01 X20.3141 Y14.7305
G01 X20.3713 Y14.7819
G01 X20.3833 Y14.7910
G01 X20.3936 Y14.7971
G01 X20.4045 Y14.8021
G01 X20.4188 Y14.8069
G01 X20.4305 Y14.8094
G01 X20.5006 Y14.8209
G01 X20.5156 Y14.8224
G01 X20.5276 Y14.8222
G01 X20.5396 Y14.8209
G01 X20.5513 Y14.8184
G01 X20.5656 Y14.8136
G01 X20.6388 Y14.7817
G01 X20.6464 Y14.7776
G01 X20.6538 Y14.7729
G01 X20.6608 Y14.7677
G01 X20.6674 Y14.7620
G01 X20.6736 Y14.7559
G01 X20.6794 Y14.7493
G01 X20.7027 Y14.7190
G01 X20.7094 Y14.7114
G01 X20.7147 Y14.7043
G01 X20.8036 Y14.5609
G01 X20.9088 Y14.4559
G01 X21.0353 Y14.3779
G01 X21.1772 Y14.3309
G01 X21.2623 Y14.3221
G01 X22.6006 Y14.3221
G01 X22.6869 Y14.3311
G01 X22.8287 Y14.3784
G01 X22.9570 Y14.4578
G01 X22.9651 Y14.4640
G01 X22.9754 Y14.4705
G01 X22.9891 Y14.4771
G01 X23.0542 Y14.5034
G01 X23.0655 Y14.5073
G01 X23.0743 Y14.5096
G01 X23.0862 Y14.5115
G01 X23.0982 Y14.5122
G01 X23.1102 Y14.5118
G01 X23.1221 Y14.5101
G01 X23.1977 Y14.4957
G01 X23.2091 Y14.4924
G01 X23.2174 Y14.4891
G01 X23.2255 Y14.4853
G01 X23.2332 Y14.4809
G01 X23.2406 Y14.4759
G01 X23.2724 Y14.4528
G01 X23.2846 Y14.4427
G01 X24.0682 Y13.6590
G01 X24.1217 Y13.6045
G01 X24.1480 Y13.5875
G01 X24.1608 Y13.5783
G01 X24.1878 Y13.5570
G01 X24.2079 Y13.5472
G01 X24.2246 Y13.5379
G01 X24.2466 Y13.5240
G01 X24.2789 Y13.5121
G01 X24.2934 Y13.5059
G01 X24.3216 Y13.4923
G01 X24.3434 Y13.4872
G01 X24.3617 Y13.4818
G01 X24.3863 Y13.4731
G01 X24.4203 Y13.4687
G01 X24.4359 Y13.4659
G01 X24.4664 Y13.4589
G01 X24.6218 Y13.4583
G01 X24.6309 Y13.4586
G01 X24.9034 Y13.4585
G01 X24.9149 Y13.4574
G01 X24.9290 Y13.4545
G01 X24.9999 Y13.4337
G01 X25.0109 Y13.4299
G01 X25.0214 Y13.4251
G01 X25.0315 Y13.4193
G01 X25.0410 Y13.4125
G01 X25.0497 Y13.4048
G01 X25.0869 Y13.3691
G01 X25.0929 Y13.3626
G01 X25.0989 Y13.3550
G01 X25.2459 Y13.2080
G01 X25.4161 Y13.0888
G01 X25.4508 Y13.0724
G01 X25.4583 Y13.0681
G01 X25.4655 Y13.0633
G01 X25.4745 Y13.0561
G01 X25.5278 Y13.0092
G01 X25.5343 Y13.0030
G01 X25.5423 Y12.9940
G01 X25.5494 Y12.9842
G01 X25.5554 Y12.9738
G01 X25.5615 Y12.9601
G01 X25.5643 Y12.9515
G01 X25.5845 Y12.8803
G01 X25.5874 Y12.8655
G01 X25.5883 Y12.8536
G01 X25.5882 Y12.8445
G01 X25.5875 Y12.8355
G01 X25.5848 Y12.8207
G01 X25.5626 Y12.7470
G01 X25.5586 Y12.7358
G01 X25.5536 Y12.7251
G01 X25.5491 Y12.7174
G01 X25.5423 Y12.7077
G01 X25.5346 Y12.6987
G01 X25.5282 Y12.6925
G01 X25.4738 Y12.6452
G01 X25.4642 Y12.6377
G01 X25.4565 Y12.6327
G01 X25.4484 Y12.6283
G01 X25.4161 Y12.6132
G01 X25.2459 Y12.4940
G01 X25.1411 Y12.3892
G01 X25.1347 Y12.3833
G01 X25.1280 Y12.3779
G01 X25.1160 Y12.3700
G01 X25.0485 Y12.3332
G01 X25.0349 Y12.3272
G01 X25.0264 Y12.3244
G01 X25.0178 Y12.3223
G01 X25.0090 Y12.3208
G01 X24.9793 Y12.3175
G01 X24.9663 Y12.3169
G01 X24.5081 Y12.3170
G01 X24.4966 Y12.3181
G01 X24.4825 Y12.3210
G01 X24.4088 Y12.3426
G01 X24.3947 Y12.3481
G01 X24.3867 Y12.3522
G01 X24.3765 Y12.3586
G01 X24.3693 Y12.3640
G01 X24.3604 Y12.3721
G01 X24.3542 Y12.3787
G01 X24.3077 Y12.4323
G01 X24.3022 Y12.4392
G01 X24.2972 Y12.4464
G01 X24.2927 Y12.4540
G01 X24.2888 Y12.4619
G01 X24.2805 Y12.4827
G01 X24.2491 Y12.5767
G01 X24.1709 Y12.7031
G01 X24.0657 Y12.8081
G01 X23.9392 Y12.8861
G01 X23.7973 Y12.9331
G01 X23.7122 Y12.9419
G01 X22.9739 Y12.9419
G01 X22.8876 Y12.9329
G01 X22.7458 Y12.8856
G01 X22.6194 Y12.8074
G01 X22.5144 Y12.7022
G01 X22.4364 Y12.5757
G01 X22.3894 Y12.4338
G01 X22.3806 Y12.3487
G01 X22.3806 Y10.9604
G01 X22.3896 Y10.8741
G01 X22.4369 Y10.7323
G01 X22.5151 Y10.6059
G01 X22.6203 Y10.5009
G01 X22.7468 Y10.4229
G01 X22.8887 Y10.3759
G01 X22.9738 Y10.3671
G01 X23.7121 Y10.3671
G01 X23.7984 Y10.3761
G01 X23.9402 Y10.4234
G01 X24.0666 Y10.5016
G01 X24.1716 Y10.6068
G01 X24.2496 Y10.7333
G01 X24.2802 Y10.8255
G01 X24.2846 Y10.8362
G01 X24.2886 Y10.8439
G01 X24.2947 Y10.8537
G01 X24.3351 Y10.9120
G01 X24.3444 Y10.9238
G01 X24.3507 Y10.9303
G01 X24.3597 Y10.9382
G01 X24.3695 Y10.9452
G01 X24.3773 Y10.9497
G01 X24.3882 Y10.9549
G01 X24.4538 Y10.9821
G01 X24.4676 Y10.9869
G01 X24.4791 Y10.9896
G01 X24.4908 Y10.9910
G01 X24.5138 Y10.9921
G01 X24.8462 Y10.9921
G01 X24.8548 Y10.9918
G01 X24.8691 Y10.9900
G01 X24.8803 Y10.9872
G01 X24.9512 Y10.9664
G01 X24.9621 Y10.9623
G01 X24.9700 Y10.9586
G01 X24.9825 Y10.9512
G01 X24.9940 Y10.9423
G01 X25.0375 Y10.9004
G01 X25.0469 Y10.8891
G01 X25.0990 Y10.8149
G01 X25.2459 Y10.6680
G01 X25.4161 Y10.5488
G01 X25.4508 Y10.5324
G01 X25.4583 Y10.5281
G01 X25.4655 Y10.5233
G01 X25.4745 Y10.5161
G01 X25.5300 Y10.4672
G01 X25.5404 Y10.4563
G01 X25.5494 Y10.4442
G01 X25.5540 Y10.4365
G01 X25.5580 Y10.4284
G01 X25.5615 Y10.4201
G01 X25.5643 Y10.4115
G01 X25.5852 Y10.3374
G01 X25.5874 Y10.3255
G01 X25.5884 Y10.3105
G01 X25.5881 Y10.3015
G01 X25.5871 Y10.2926
G01 X25.5840 Y10.2778
G01 X25.5617 Y10.2042
G01 X25.5562 Y10.1904
G01 X25.5507 Y10.1799
G01 X25.5423 Y10.1677
G01 X25.5366 Y10.1609
G01 X25.5304 Y10.1545
G01 X25.4738 Y10.1052
G01 X25.4666 Y10.0995
G01 X25.4591 Y10.0943
G01 X25.4511 Y10.0897
G01 X25.4161 Y10.0732
G01 X25.2459 Y9.9540
G01 X25.0990 Y9.8071
G01 X24.9798 Y9.6369
G01 X24.9294 Y9.5288
G01 X24.8920 Y9.4487
G01 X24.8382 Y9.2480
G01 X24.8201 Y9.0410
G01 X24.8382 Y8.8340
G01 X24.8920 Y8.6334
G01 X24.9798 Y8.4451
G01 X25.0995 Y8.2742
G01 X25.1095 Y8.2621
G01 X25.1160 Y8.2526
G01 X25.1203 Y8.2451
G01 X25.1241 Y8.2373
G01 X25.1548 Y8.1667
G01 X25.1585 Y8.1553
G01 X25.1611 Y8.1435
G01 X25.1624 Y8.1316
G01 X25.1625 Y8.1166
G01 X25.1612 Y8.1046
G01 X25.1500 Y8.0345
G01 X25.1483 Y8.0259
G01 X25.1451 Y8.0147
G01 X25.1396 Y8.0013
G01 X25.1325 Y7.9886
G01 X25.1029 Y7.9464
G01 X25.0934 Y7.9351
G01 X24.7460 Y7.5877
G01 X24.7350 Y7.5784
G01 X24.7229 Y7.5705
G01 X24.6581 Y7.5350
G01 X24.6474 Y7.5299
G01 X24.6334 Y7.5249
G01 X24.6218 Y7.5222
G01 X24.5862 Y7.5180
G01 X24.5765 Y7.5174
G01 X24.1159 Y7.5174
G01 X24.0296 Y7.5084
G01 X23.8878 Y7.4611
G01 X23.8258 Y7.4228
G01 X23.8149 Y7.4171
G01 X23.8065 Y7.4137
G01 X23.7978 Y7.4108
G01 X23.7256 Y7.3904
G01 X23.7105 Y7.3880
G01 X23.6983 Y7.3874
G01 X23.5346 Y7.3874
G01 X23.5231 Y7.3879
G01 X23.5146 Y7.3890
G01 X23.5033 Y7.3915
G01 X23.4324 Y7.4123
G01 X23.4210 Y7.4163
G01 X23.4073 Y7.4228
G01 X23.3946 Y7.4310
G01 X23.3852 Y7.4387
G01 X23.3578 Y7.4635
G01 X23.2376 Y7.5836
G01 X23.1112 Y7.6616
G01 X22.9693 Y7.7086
G01 X22.8842 Y7.7174
G01 X21.4959 Y7.7174
G01 X21.4096 Y7.7084
G01 X21.2678 Y7.6611
G01 X21.1414 Y7.5829
G01 X21.0465 Y7.4879
G01 X21.0378 Y7.4803
G01 X21.0284 Y7.4736
G01 X21.0210 Y7.4692
G01 X20.9587 Y7.4351
G01 X20.9452 Y7.4288
G01 X20.9340 Y7.4250
G01 X20.9224 Y7.4222
G01 X20.9136 Y7.4210
G01 X20.8834 Y7.4177
G01 X20.8737 Y7.4174
G01 X18.4887 Y7.4174
G01 X18.4801 Y7.4177
G01 X18.4686 Y7.4190
G01 X18.4574 Y7.4215
G01 X18.3865 Y7.4423
G01 X18.3780 Y7.4451
G01 X18.3670 Y7.4498
G01 X18.3566 Y7.4556
G01 X18.3468 Y7.4624
G01 X18.3377 Y7.4701
G01 X18.3294 Y7.4787
G01 X18.2854 Y7.5290
G01 X18.2767 Y7.5403
G01 X18.1879 Y7.6836
G01 X18.0827 Y7.7886
G01 X17.9562 Y7.8666
G01 X17.8143 Y7.9136
G01 X17.7292 Y7.9224
G01 X17.0159 Y7.9224
G01 X16.9296 Y7.9134
G01 X16.7878 Y7.8661
G01 X16.6614 Y7.7879
G01 X16.5564 Y7.6827
G01 X16.4784 Y7.5562
G01 X16.4314 Y7.4143
G01 X16.4226 Y7.3292
G01 X16.4226 Y5.9909
G00 Z2.0000
G00 X16.6889 Y7.2850
G01 F50.00
G01 Z-0.1200
G01 F60.00
G01 X16.6889 Y6.0350
G01 X16.6906 Y5.9986
G01 X16.6960 Y5.9626
G01 X16.7032 Y5.9330
G01 X16.7067 Y5.9216
G01 X16.7171 Y5.8930
G01 X16.7327 Y5.8600
G01 X16.7514 Y5.8288
G01 X16.7694 Y5.8042
G01 X16.7770 Y5.7950
G01 X16.7976 Y5.7726
G01 X16.8245 Y5.7481
G01 X16.8489 Y5.7298
G01 X16.8588 Y5.7232
G01 X16.8850 Y5.7077
G01 X16.9180 Y5.6921
G01 X16.9466 Y5.6817
G01 X16.9580 Y5.6782
G01 X16.9847 Y5.6716
G01 X16.9935 Y5.6700
G01 X17.0236 Y5.6656
G01 X17.0600 Y5.6639
G01 X17.6850 Y5.6639
G01 X17.7154 Y5.6652
G01 X17.7273 Y5.6664
G01 X17.7574 Y5.6710
G01 X17.7870 Y5.6782
G01 X17.7956 Y5.6807
G01 X17.8270 Y5.6921
G01 X17.8546 Y5.7050
G01 X17.8626 Y5.7091
G01 X17.8887 Y5.7248
G01 X17.8961 Y5.7298
G01 X17.9205 Y5.7481
G01 X17.9474 Y5.7726
G01 X17.9719 Y5.7995
G01 X17.9902 Y5.8239
G01 X17.9952 Y5.8313
G01 X18.0094 Y5.8549
G01 X18.0150 Y5.8654
G01 X18.0279 Y5.8930
G01 X18.0383 Y5.9216
G01 X18.0410 Y5.9301
G01 X18.0484 Y5.9597
G01 X18.0500 Y5.9685
G01 X18.0544 Y5.9986
G01 X18.0561 Y6.0320
G01 X18.0561 Y6.3587
G01 X21.1758 Y6.3587
G01 X21.1848 Y6.3223
G01 X21.1950 Y6.2935
G01 X21.1983 Y6.2852
G01 X21.2100 Y6.2604
G01 X21.2156 Y6.2499
G01 X21.2314 Y6.2238
G01 X21.2531 Y6.1945
G01 X21.2776 Y6.1676
G01 X21.3045 Y6.1431
G01 X21.3338 Y6.1214
G01 X21.3650 Y6.1027
G01 X21.3980 Y6.0871
G01 X21.4266 Y6.0767
G01 X21.4380 Y6.0732
G01 X21.4647 Y6.0666
G01 X21.4735 Y6.0650
G01 X21.5036 Y6.0606
G01 X21.5400 Y6.0589
G01 X22.8400 Y6.0589
G01 X22.8704 Y6.0602
G01 X22.8793 Y6.0610
G01 X22.9124 Y6.0660
G01 X22.9420 Y6.0732
G01 X22.9534 Y6.0767
G01 X22.9820 Y6.0871
G01 X23.0150 Y6.1027
G01 X23.0412 Y6.1182
G01 X23.0511 Y6.1248
G01 X23.0777 Y6.1450
G01 X23.1024 Y6.1676
G01 X23.1230 Y6.1900
G01 X23.1306 Y6.1992
G01 X23.1502 Y6.2263
G01 X23.1673 Y6.2550
G01 X23.1817 Y6.2852
G01 X23.1933 Y6.3166
G01 X23.1969 Y6.3287
G01 X23.7889 Y6.3287
G01 X23.7890 Y6.2241
G01 X23.7906 Y6.1936
G01 X23.7954 Y6.1605
G01 X23.7973 Y6.1518
G01 X23.8048 Y6.1223
G01 X23.8150 Y6.0935
G01 X23.8183 Y6.0852
G01 X23.8300 Y6.0604
G01 X23.8356 Y6.0499
G01 X23.8514 Y6.0238
G01 X23.8731 Y5.9945
G01 X23.8976 Y5.9676
G01 X23.9245 Y5.9431
G01 X23.9538 Y5.9214
G01 X23.9850 Y5.9027
G01 X24.0180 Y5.8871
G01 X24.0466 Y5.8767
G01 X24.0551 Y5.8740
G01 X24.0876 Y5.8660
G01 X24.1177 Y5.8614
G01 X24.1296 Y5.8602
G01 X24.1600 Y5.8589
G01 X25.4600 Y5.8589
G01 X25.4964 Y5.8606
G01 X25.5265 Y5.8650
G01 X25.5353 Y5.8666
G01 X25.5620 Y5.8732
G01 X25.5734 Y5.8767
G01 X25.6020 Y5.8871
G01 X25.6350 Y5.9027
G01 X25.6612 Y5.9182
G01 X25.6711 Y5.9248
G01 X25.6955 Y5.9431
G01 X25.7224 Y5.9676
G01 X25.7469 Y5.9945
G01 X25.7652 Y6.0189
G01 X25.7718 Y6.0288
G01 X25.7873 Y6.0550
G01 X25.8029 Y6.0880
G01 X25.8133 Y6.1166
G01 X25.8168 Y6.1280
G01 X25.8240 Y6.1576
G01 X25.8294 Y6.1936
G01 X25.8311 Y6.2300
G01 X25.8311 Y6.8800
G01 X25.8296 Y6.9134
G01 X25.8250 Y6.9465
G01 X25.8227 Y6.9582
G01 X25.8152 Y6.9877
G01 X25.8040 Y7.0193
G01 X25.7900 Y7.0496
G01 X25.7859 Y7.0576
G01 X25.7702 Y7.0837
G01 X25.7572 Y7.1018
G01 X26.7753 Y8.1199
G01 X28.4150 Y8.1199
G01 X28.5023 Y8.1243
G01 X28.5917 Y8.1375
G01 X28.6794 Y8.1595
G01 X28.7590 Y8.1878
G01 X28.7672 Y8.1911
G01 X28.8462 Y8.2286
G01 X28.9238 Y8.2751
G01 X28.9964 Y8.3289
G01 X29.0590 Y8.3855
G01 X29.0675 Y8.3940
G01 X29.1202 Y8.4521
G01 X29.1277 Y8.4613
G01 X29.1779 Y8.5292
G01 X29.2244 Y8.6068
G01 X29.2630 Y8.6885
G01 X29.2916 Y8.7680
G01 X29.2951 Y8.7793
G01 X29.3141 Y8.8555
G01 X29.3165 Y8.8672
G01 X29.3287 Y8.9507
G01 X29.3331 Y9.0410
G01 X29.3287 Y9.1313
G01 X29.3165 Y9.2148
G01 X29.3141 Y9.2265
G01 X29.2951 Y9.3027
G01 X29.2916 Y9.3140
G01 X29.2630 Y9.3935
G01 X29.2244 Y9.4752
G01 X29.1811 Y9.5477
G01 X29.1745 Y9.5576
G01 X29.1241 Y9.6254
G01 X29.0634 Y9.6924
G01 X28.9964 Y9.7531
G01 X28.9286 Y9.8035
G01 X28.9187 Y9.8101
G01 X28.8462 Y9.8534
G01 X28.7645 Y9.8920
G01 X28.6850 Y9.9206
G01 X28.6737 Y9.9241
G01 X28.5975 Y9.9431
G01 X28.5888 Y9.9450
G01 X28.5023 Y9.9577
G01 X28.4120 Y9.9621
G01 X26.0090 Y9.9621
G01 X25.9217 Y9.9577
G01 X25.8323 Y9.9445
G01 X25.7446 Y9.9225
G01 X25.6650 Y9.8942
G01 X25.6568 Y9.8909
G01 X25.5778 Y9.8534
G01 X25.5053 Y9.8101
G01 X25.4954 Y9.8035
G01 X25.4276 Y9.7531
G01 X25.3650 Y9.6965
G01 X25.3565 Y9.6880
G01 X25.2999 Y9.6254
G01 X25.2461 Y9.5528
G01 X25.2025 Y9.4804
G01 X25.1969 Y9.4699
G01 X25.1610 Y9.3935
G01 X25.1305 Y9.3084
G01 X25.1085 Y9.2207
G01 X25.0960 Y9.1372
G01 X25.0948 Y9.1254
G01 X25.0910 Y9.0469
G01 X25.0909 Y9.0380
G01 X25.0953 Y8.9507
G01 X25.1075 Y8.8672
G01 X25.1099 Y8.8555
G01 X25.1305 Y8.7736
G01 X25.1610 Y8.6885
G01 X25.1969 Y8.6121
G01 X25.2025 Y8.6016
G01 X25.2429 Y8.5343
G01 X25.2478 Y8.5268
G01 X25.2999 Y8.4566
G01 X25.3565 Y8.3940
G01 X25.3650 Y8.3855
G01 X25.4231 Y8.3328
G01 X25.4300 Y8.3271
G01 X25.5002 Y8.2751
G01 X25.5752 Y8.2301
G01 X25.5831 Y8.2259
G01 X25.6568 Y8.1911
G01 X25.6650 Y8.1878
G01 X25.7073 Y8.1727
G01 X24.7857 Y7.2511
G01 X24.1600 Y7.2511
G01 X24.1296 Y7.2498
G01 X24.1177 Y7.2486
G01 X24.0876 Y7.2440
G01 X24.0523 Y7.2352
G01 X24.0180 Y7.2229
G01 X23.9850 Y7.2073
G01 X23.9538 Y7.1886
G01 X23.9245 Y7.1669
G01 X23.8976 Y7.1424
G01 X23.8782 Y7.1213
G01 X23.2088 Y7.1213
G01 X23.2040 Y7.1524
G01 X23.1960 Y7.1849
G01 X23.1850 Y7.2165
G01 X23.1805 Y7.2275
G01 X23.1673 Y7.2550
G01 X23.1486 Y7.2862
G01 X23.1269 Y7.3155
G01 X23.1065 Y7.3381
G01 X23.0981 Y7.3465
G01 X23.0777 Y7.3650
G01 X23.0708 Y7.3706
G01 X23.0462 Y7.3886
G01 X23.0150 Y7.4073
G01 X22.9820 Y7.4229
G01 X22.9534 Y7.4333
G01 X22.9420 Y7.4368
G01 X22.9124 Y7.4440
G01 X22.8764 Y7.4494
G01 X22.8400 Y7.4511
G01 X21.5370 Y7.4511
G01 X21.5036 Y7.4494
G01 X21.4676 Y7.4440
G01 X21.4323 Y7.4352
G01 X21.4035 Y7.4250
G01 X21.3952 Y7.4217
G01 X21.3704 Y7.4100
G01 X21.3599 Y7.4044
G01 X21.3338 Y7.3886
G01 X21.3045 Y7.3669
G01 X21.2776 Y7.3424
G01 X21.2531 Y7.3155
G01 X21.2314 Y7.2862
G01 X21.2156 Y7.2601
G01 X21.2113 Y7.2523
G01 X21.1995 Y7.2275
G01 X21.1950 Y7.2165
G01 X21.1848 Y7.1877
G01 X21.1758 Y7.1513
G01 X18.0561 Y7.1513
G01 X18.0561 Y7.2880
G01 X18.0544 Y7.3214
G01 X18.0490 Y7.3574
G01 X18.0402 Y7.3927
G01 X18.0279 Y7.4270
G01 X18.0123 Y7.4600
G01 X17.9968 Y7.4862
G01 X17.9902 Y7.4961
G01 X17.9719 Y7.5205
G01 X17.9515 Y7.5431
G01 X17.9453 Y7.5495
G01 X17.9250 Y7.5680
G01 X17.9158 Y7.5756
G01 X17.8912 Y7.5936
G01 X17.8600 Y7.6123
G01 X17.8325 Y7.6255
G01 X17.8215 Y7.6300
G01 X17.7927 Y7.6402
G01 X17.7632 Y7.6477
G01 X17.7515 Y7.6500
G01 X17.7214 Y7.6544
G01 X17.6850 Y7.6561
G01 X17.0570 Y7.6561
G01 X17.0236 Y7.6544
G01 X16.9876 Y7.6490
G01 X16.9523 Y7.6402
G01 X16.9207 Y7.6290
G01 X16.8904 Y7.6150
G01 X16.8799 Y7.6094
G01 X16.8538 Y7.5936
G01 X16.8245 Y7.5719
G01 X16.8019 Y7.5515
G01 X16.7935 Y7.5431
G01 X16.7731 Y7.5205
G01 X16.7514 Y7.4912
G01 X16.7356 Y7.4651
G01 X16.7300 Y7.4546
G01 X16.7171 Y7.4270
G01 X16.7048 Y7.3927
G01 X16.6960 Y7.3574
G01 X16.6914 Y7.3273
G01 X16.6902 Y7.3154
G01 X16.6889 Y7.2850
G00 Z2.0000
G00 X18.1816 Y7.4269
G01 F50.00
G01 Z-0.1200
G01 F60.00
G01 X18.1903 Y7.3922
G01 X18.1938 Y7.3729
G01 X18.1990 Y7.3356
G01 X18.2013 Y7.2967
G01 X18.3663 Y7.2967
G01 X18.3330 Y7.3068
G01 X18.3147 Y7.3139
G01 X18.3028 Y7.3194
G01 X18.2911 Y7.3255
G01 X18.2798 Y7.3322
G01 X18.2689 Y7.3394
G01 X18.2583 Y7.3471
G01 X18.2480 Y7.3554
G01 X18.2335 Y7.3687
G01 X18.2200 Y7.3830
G01 X18.1816 Y7.4269
G00 Z2.0000
G00 X18.4209 Y6.2133
G01 F50.00
G01 Z-0.1200
G01 F60.00
G01 X18.2015 Y6.2133
G01 X18.2015 Y6.0350
G01 X18.2007 Y6.0111
G01 X18.2333 Y6.0677
G01 X18.2438 Y6.0844
G01 X18.2515 Y6.0951
G01 X18.2640 Y6.1104
G01 X18.2730 Y6.1201
G01 X18.2824 Y6.1293
G01 X18.2923 Y6.1381
G01 X18.3026 Y6.1463
G01 X18.3132 Y6.1540
G01 X18.3243 Y6.1612
G01 X18.3357 Y6.1679
G01 X18.3979 Y6.2021
G01 X18.4095 Y6.2081
G01 X18.4209 Y6.2133
G00 Z2.0000
G00 X21.0938 Y6.1703
G01 F50.00
G01 Z-0.1200
G01 F60.00
G01 X21.0845 Y6.1865
G01 X21.0714 Y6.2133
G01 X20.9960 Y6.2133
G01 X21.0292 Y6.2032
G01 X21.0474 Y6.1961
G01 X21.0593 Y6.1907
G01 X21.0709 Y6.1846
G01 X21.0821 Y6.1780
G01 X21.0938 Y6.1703
G00 Z2.0000
G00 X21.0061 Y7.2967
G01 F50.00
G01 Z-0.1200
G01 F60.00
G01 X21.0714 Y7.2967
G01 X21.0845 Y7.3235
G01 X21.0971 Y7.3453
G01 X21.0285 Y7.3076
G01 X21.0168 Y7.3016
G01 X21.0061 Y7.2967
G00 Z2.0000
G00 X23.2949 Y7.3246
G01 F50.00
G01 Z-0.1200
G01 F60.00
G01 X23.3014 Y7.3118
G01 X23.3119 Y7.2896
G01 X23.3172 Y7.2777
G01 X23.3215 Y7.2667
G01 X23.4122 Y7.2667
G01 X23.3787 Y7.2768
G01 X23.3601 Y7.2841
G01 X23.3480 Y7.2898
G01 X23.3362 Y7.2960
G01 X23.3192 Y7.3064
G01 X23.3082 Y7.3141
G01 X23.2949 Y7.3246
G00 Z2.0000
G00 X23.6803 Y6.0386
G01 F50.00
G01 Z-0.1200
G01 F60.00
G01 X23.6657 Y6.0801
G01 X23.6563 Y6.1165
G01 X23.6534 Y6.1292
G01 X23.6512 Y6.1421
G01 X23.6467 Y6.1729
G01 X23.6456 Y6.1833
G01 X23.2938 Y6.1833
G01 X23.2765 Y6.1541
G01 X23.2695 Y6.1430
G01 X23.2473 Y6.1126
G01 X23.2345 Y6.0967
G01 X23.2656 Y6.1136
G01 X23.2775 Y6.1194
G01 X23.2897 Y6.1246
G01 X23.3084 Y6.1312
G01 X23.3212 Y6.1348
G01 X23.3341 Y6.1378
G01 X23.3471 Y6.1401
G01 X23.3668 Y6.1424
G01 X23.3800 Y6.1431
G01 X23.3933 Y6.1432
G01 X23.4065 Y6.1426
G01 X23.4773 Y6.1376
G01 X23.4905 Y6.1363
G01 X23.5036 Y6.1344
G01 X23.5166 Y6.1318
G01 X23.5358 Y6.1268
G01 X23.5545 Y6.1203
G01 X23.5668 Y6.1153
G01 X23.5787 Y6.1096
G01 X23.5961 Y6.1000
G01 X23.6127 Y6.0891
G01 X23.6803 Y6.0386
G00 Z2.0000
G00 X22.5651 Y4.7669
G01 F50.00
G01 Z-0.1200
G01 F60.00
G01 X22.5651 Y4.5011
G01 X22.8400 Y4.5011
G01 X22.8734 Y4.4996
G01 X22.8823 Y4.4986
G01 X22.9124 Y4.4940
G01 X22.9420 Y4.4868
G01 X22.9534 Y4.4833
G01 X22.9848 Y4.4717
G01 X23.0123 Y4.4587
G01 X23.0201 Y4.4544
G01 X23.0462 Y4.4386
G01 X23.0708 Y4.4206
G01 X23.0800 Y4.4130
G01 X23.1024 Y4.3924
G01 X23.1230 Y4.3700
G01 X23.1288 Y4.3631
G01 X23.1469 Y4.3387
G01 X23.1518 Y4.3312
G01 X23.1673 Y4.3050
G01 X23.1817 Y4.2748
G01 X23.1933 Y4.2434
G01 X23.1960 Y4.2349
G01 X23.2040 Y4.2024
G01 X23.2075 Y4.1801
G01 X23.5120 Y4.1801
G01 X23.5206 Y4.1798
G01 X23.5321 Y4.1785
G01 X23.5434 Y4.1760
G01 X23.6143 Y4.1552
G01 X23.6228 Y4.1524
G01 X23.6338 Y4.1476
G01 X23.6443 Y4.1417
G01 X23.6542 Y4.1348
G01 X23.6634 Y4.1270
G01 X23.6717 Y4.1183
G01 X23.7182 Y4.0647
G01 X23.7239 Y4.0576
G01 X23.7290 Y4.0501
G01 X23.7336 Y4.0423
G01 X23.7375 Y4.0341
G01 X23.7409 Y4.0256
G01 X23.7443 Y4.0140
G01 X23.7517 Y3.9801
G01 X23.7925 Y3.9801
G01 X23.7960 Y4.0024
G01 X23.8040 Y4.0349
G01 X23.8067 Y4.0434
G01 X23.8183 Y4.0748
G01 X23.8327 Y4.1050
G01 X23.8498 Y4.1337
G01 X23.8694 Y4.1608
G01 X23.8770 Y4.1700
G01 X23.8955 Y4.1903
G01 X23.9019 Y4.1965
G01 X23.9245 Y4.2169
G01 X23.9489 Y4.2352
G01 X23.9563 Y4.2402
G01 X23.9824 Y4.2559
G01 X24.0125 Y4.2705
G01 X24.0207 Y4.2740
G01 X24.0466 Y4.2833
G01 X24.0580 Y4.2868
G01 X24.0876 Y4.2940
G01 X24.1177 Y4.2986
G01 X24.1266 Y4.2996
G01 X24.1600 Y4.3011
G01 X24.4349 Y4.3011
G01 X24.4349 Y4.5668
G01 X24.1160 Y4.5668
G01 X24.0295 Y4.5578
G01 X23.8878 Y4.5105
G01 X23.7619 Y4.4326
G01 X23.7560 Y4.4270
G01 X23.7494 Y4.4214
G01 X23.7376 Y4.4132
G01 X23.6703 Y4.3762
G01 X23.6567 Y4.3698
G01 X23.6482 Y4.3668
G01 X23.6366 Y4.3638
G01 X23.6277 Y4.3623
G01 X23.6157 Y4.3614
G01 X23.6036 Y4.3616
G01 X23.5298 Y4.3669
G01 X23.5150 Y4.3692
G01 X23.5034 Y4.3724
G01 X23.4922 Y4.3768
G01 X23.4814 Y4.3822
G01 X23.4688 Y4.3904
G01 X23.4071 Y4.4367
G01 X23.3959 Y4.4473
G01 X23.3862 Y4.4592
G01 X23.3751 Y4.4755
G01 X23.3423 Y4.5284
G01 X23.2376 Y4.6330
G01 X23.1108 Y4.7112
G01 X22.9694 Y4.7581
G01 X22.8843 Y4.7668
G01 X22.5651 Y4.7669
G00 Z2.0000
G00 X23.7428 Y4.2501
G01 F50.00
G01 Z-0.1200
G01 F60.00
G01 X23.7503 Y4.2441
G01 X23.7642 Y4.2619
G01 X23.7428 Y4.2501
G00 Z2.0000
G00 X23.2358 Y3.1481
G01 F50.00
G01 Z-0.1200
G01 F60.00
G01 X23.2572 Y3.1599
G01 X23.2497 Y3.1659
G01 X23.2358 Y3.1481
G00 Z2.0000
G00 X22.5651 Y3.1089
G01 F50.00
G01 Z-0.1200
G01 F60.00
G01 X22.5651 Y2.8432
G01 X22.8840 Y2.8432
G01 X22.9705 Y2.8522
G01 X23.1122 Y2.8995
G01 X23.2381 Y2.9774
G01 X23.2440 Y2.9830
G01 X23.2506 Y2.9886
G01 X23.2624 Y2.9968
G01 X23.3297 Y3.0338
G01 X23.3433 Y3.0402
G01 X23.3518 Y3.0432
G01 X23.3634 Y3.0462
G01 X23.3753 Y3.0480
G01 X23.3843 Y3.0486
G01 X23.3964 Y3.0484
G01 X23.4702 Y3.0431
G01 X23.4850 Y3.0408
G01 X23.4966 Y3.0376
G01 X23.5078 Y3.0332
G01 X23.5186 Y3.0278
G01 X23.5312 Y3.0196
G01 X23.5929 Y2.9733
G01 X23.6041 Y2.9627
G01 X23.6138 Y2.9508
G01 X23.6249 Y2.9345
G01 X23.6577 Y2.8816
G01 X23.7624 Y2.7770
G01 X23.8892 Y2.6988
G01 X24.0306 Y2.6519
G01 X24.1157 Y2.6432
G01 X24.4349 Y2.6431
G01 X24.4349 Y2.9089
G01 X24.1600 Y2.9089
G01 X24.1266 Y2.9104
G01 X24.1177 Y2.9114
G01 X24.0876 Y2.9160
G01 X24.0580 Y2.9232
G01 X24.0466 Y2.9267
G01 X24.0152 Y2.9383
G01 X23.9877 Y2.9513
G01 X23.9799 Y2.9556
G01 X23.9538 Y2.9714
G01 X23.9292 Y2.9894
G01 X23.9200 Y2.9970
G01 X23.8976 Y3.0176
G01 X23.8770 Y3.0400
G01 X23.8712 Y3.0469
G01 X23.8531 Y3.0713
G01 X23.8482 Y3.0788
G01 X23.8327 Y3.1050
G01 X23.8183 Y3.1352
G01 X23.8067 Y3.1666
G01 X23.8040 Y3.1751
G01 X23.7960 Y3.2076
G01 X23.7925 Y3.2299
G01 X23.4880 Y3.2299
G01 X23.4794 Y3.2302
G01 X23.4679 Y3.2315
G01 X23.4566 Y3.2340
G01 X23.3857 Y3.2548
G01 X23.3772 Y3.2576
G01 X23.3662 Y3.2624
G01 X23.3557 Y3.2683
G01 X23.3458 Y3.2752
G01 X23.3366 Y3.2830
G01 X23.3283 Y3.2917
G01 X23.2818 Y3.3453
G01 X23.2761 Y3.3524
G01 X23.2710 Y3.3599
G01 X23.2664 Y3.3677
G01 X23.2625 Y3.3759
G01 X23.2591 Y3.3844
G01 X23.2557 Y3.3960
G01 X23.2483 Y3.4299
G01 X23.2075 Y3.4299
G01 X23.2040 Y3.4076
G01 X23.1960 Y3.3751
G01 X23.1933 Y3.3666
G01 X23.1817 Y3.3352
G01 X23.1673 Y3.3050
G01 X23.1502 Y3.2763
G01 X23.1306 Y3.2492
G01 X23.1230 Y3.2400
G01 X23.1045 Y3.2197
G01 X23.0981 Y3.2135
G01 X23.0755 Y3.1931
G01 X23.0511 Y3.1748
G01 X23.0437 Y3.1698
G01 X23.0176 Y3.1541
G01 X22.9875 Y3.1395
G01 X22.9793 Y3.1360
G01 X22.9534 Y3.1267
G01 X22.9420 Y3.1232
G01 X22.9124 Y3.1160
G01 X22.8823 Y3.1114
G01 X22.8734 Y3.1104
G01 X22.8400 Y3.1089
G01 X22.5651 Y3.1089
G00 Z2.0000
G00 X20.9038 Y3.4299
G01 F50.00
G01 Z-0.1200
G01 F60.00
G01 X20.9122 Y3.3495
G01 X20.9595 Y3.2078
G01 X21.0377 Y3.0816
G01 X21.1428 Y2.9767
G01 X21.2692 Y2.8988
G01 X21.4110 Y2.8518
G01 X21.4959 Y2.8431
G01 X21.8149 Y2.8431
G01 X21.8149 Y3.1089
G01 X21.5341 Y3.1090
G01 X21.5036 Y3.1106
G01 X21.4705 Y3.1154
G01 X21.4380 Y3.1232
G01 X21.4266 Y3.1267
G01 X21.3980 Y3.1371
G01 X21.3704 Y3.1500
G01 X21.3599 Y3.1556
G01 X21.3338 Y3.1714
G01 X21.3045 Y3.1931
G01 X21.2819 Y3.2135
G01 X21.2735 Y3.2219
G01 X21.2531 Y3.2445
G01 X21.2348 Y3.2689
G01 X21.2282 Y3.2788
G01 X21.2127 Y3.3050
G01 X21.1983 Y3.3352
G01 X21.1867 Y3.3666
G01 X21.1840 Y3.3751
G01 X21.1760 Y3.4076
G01 X21.1725 Y3.4299
G01 X20.9038 Y3.4299
G00 Z2.0000
G00 X20.9038 Y4.1801
G01 F50.00
G01 Z-0.1200
G01 F60.00
G01 X21.1725 Y4.1801
G01 X21.1760 Y4.2024
G01 X21.1840 Y4.2349
G01 X21.1867 Y4.2434
G01 X21.1983 Y4.2748
G01 X21.2127 Y4.3050
G01 X21.2282 Y4.3312
G01 X21.2348 Y4.3411
G01 X21.2531 Y4.3655
G01 X21.2735 Y4.3881
G01 X21.2819 Y4.3965
G01 X21.3045 Y4.4169
G01 X21.3338 Y4.4386
G01 X21.3599 Y4.4544
G01 X21.3704 Y4.4600
G01 X21.3980 Y4.4729
G01 X21.4266 Y4.4833
G01 X21.4380 Y4.4868
G01 X21.4705 Y4.4946
G01 X21.5036 Y4.4994
G01 X21.5341 Y4.5010
G01 X21.8149 Y4.5011
G01 X21.8149 Y4.7668
G01 X21.4960 Y4.7668
G01 X21.4099 Y4.7579
G01 X21.2682 Y4.7107
G01 X21.1419 Y4.6326
G01 X21.0370 Y4.5276
G01 X20.9590 Y4.4012
G01 X20.9119 Y4.2594
G01 X20.9038 Y4.1801
G00 Z2.0000
G00 X18.0414 Y2.7391
G01 F50.00
G01 Z-0.1200
G01 F60.00
G01 X18.2401 Y2.5404
G01 X18.2696 Y2.5886
G01 X18.3530 Y2.7900
G01 X18.4040 Y3.0022
G01 X18.4211 Y3.2202
G01 X18.4040 Y3.4378
G01 X18.3530 Y3.6500
G01 X18.2696 Y3.8514
G01 X18.2401 Y3.8996
G01 X18.0414 Y3.7009
G01 X18.0634 Y3.6545
G01 X18.0669 Y3.6463
G01 X18.1020 Y3.5483
G01 X18.1045 Y3.5397
G01 X18.1290 Y3.4416
G01 X18.1306 Y3.4329
G01 X18.1458 Y3.3299
G01 X18.1511 Y3.2200
G01 X18.1458 Y3.1101
G01 X18.1306 Y3.0071
G01 X18.1290 Y2.9984
G01 X18.1045 Y2.9003
G01 X18.1020 Y2.8917
G01 X18.0669 Y2.7937
G01 X18.0634 Y2.7855
G01 X18.0414 Y2.7391
G00 Z2.0000
G00 X16.3504 Y2.0099
G01 F50.00
G01 Z-0.1200
G01 F60.00
G01 X16.3986 Y1.9804
G01 X16.6003 Y1.8969
G01 X16.8125 Y1.8460
G01 X17.0302 Y1.8289
G01 X17.2478 Y1.8460
G01 X17.4597 Y1.8969
G01 X17.6614 Y1.9804
G01 X17.7096 Y2.0099
G01 X17.5109 Y2.2086
G01 X17.4645 Y2.1866
G01 X17.4563 Y2.1831
G01 X17.3583 Y2.1480
G01 X17.3497 Y2.1455
G01 X17.2516 Y2.1210
G01 X17.2429 Y2.1194
G01 X17.1399 Y2.1042
G01 X17.0300 Y2.0989
G01 X16.9201 Y2.1042
G01 X16.8171 Y2.1194
G01 X16.8084 Y2.1210
G01 X16.7103 Y2.1455
G01 X16.7017 Y2.1480
G01 X16.6037 Y2.1831
G01 X16.5955 Y2.1866
G01 X16.5491 Y2.2086
G01 X16.3504 Y2.0099
G00 Z2.0000
G00 X15.6389 Y3.2198
G01 F50.00
G01 Z-0.1200
G01 F60.00
G01 X15.6560 Y3.0022
G01 X15.7069 Y2.7903
G01 X15.7904 Y2.5886
G01 X15.8199 Y2.5404
G01 X16.0186 Y2.7391
G01 X15.9966 Y2.7855
G01 X15.9931 Y2.7937
G01 X15.9580 Y2.8917
G01 X15.9555 Y2.9003
G01 X15.9310 Y2.9984
G01 X15.9294 Y3.0071
G01 X15.9142 Y3.1101
G01 X15.9089 Y3.2200
G01 X15.9142 Y3.3299
G01 X15.9294 Y3.4329
G01 X15.9310 Y3.4416
G01 X15.9555 Y3.5397
G01 X15.9580 Y3.5483
G01 X15.9931 Y3.6463
G01 X15.9966 Y3.6545
G01 X16.0186 Y3.7009
G01 X15.8199 Y3.8996
G01 X15.7904 Y3.8514
G01 X15.7069 Y3.6497
G01 X15.6560 Y3.4375
G01 X15.6389 Y3.2198
G00 Z2.0000
G00 X16.3504 Y4.4301
G01 F50.00
G01 Z-0.1200
G01 F60.00
G01 X16.5491 Y4.2314
G01 X16.5955 Y4.2534
G01 X16.6037 Y4.2569
G01 X16.7017 Y4.2920
G01 X16.7103 Y4.2945
G01 X16.8084 Y4.3190
G01 X16.8171 Y4.3206
G01 X16.9201 Y4.3358
G01 X17.0300 Y4.3411
G01 X17.1399 Y4.3358
G01 X17.2429 Y4.3206
G01 X17.2516 Y4.3190
G01 X17.3497 Y4.2945
G01 X17.3583 Y4.2920
G01 X17.4563 Y4.2569
G01 X17.4645 Y4.2534
G01 X17.5109 Y4.2314
G01 X17.7096 Y4.4301
G01 X17.6614 Y4.4596
G01 X17.4597 Y4.5431
G01 X17.2475 Y4.5940
G01 X17.0298 Y4.6111
G01 X16.8122 Y4.5940
G01 X16.6003 Y4.5431
G01 X16.3986 Y4.4596
G01 X16.3504 Y4.4301
G00 Z2.0000
G00 X15.5189 Y9.4065
G01 F50.00
G01 Z-0.1200
G01 F60.00
G01 X15.6033 Y9.4108
G01 X15.6868 Y9.4230
G01 X15.6985 Y9.4254
G01 X15.7804 Y9.4460
G01 X15.8600 Y9.4743
G01 X15.8709 Y9.4789
G01 X15.9472 Y9.5151
G01 X16.0197 Y9.5584
G01 X16.0296 Y9.5650
G01 X16.0974 Y9.6154
G01 X16.1600 Y9.6720
G01 X16.1685 Y9.6805
G01 X16.2251 Y9.7431
G01 X16.2755 Y9.8109
G01 X16.2821 Y9.8208
G01 X16.3254 Y9.8933
G01 X16.3640 Y9.9750
G01 X16.3945 Y10.0601
G01 X16.4165 Y10.1478
G01 X16.4297 Y10.2372
G01 X16.4341 Y10.3275
G01 X16.4341 Y11.1312
G01 X19.6969 Y11.1312
G01 X19.6969 Y11.0015
G01 X19.6984 Y10.9711
G01 X19.6994 Y10.9622
G01 X19.7040 Y10.9321
G01 X19.7128 Y10.8968
G01 X19.7251 Y10.8625
G01 X19.7393 Y10.8322
G01 X19.7436 Y10.8244
G01 X19.7594 Y10.7983
G01 X19.7774 Y10.7737
G01 X19.7830 Y10.7668
G01 X19.8015 Y10.7464
G01 X19.8099 Y10.7380
G01 X19.8325 Y10.7176
G01 X19.8618 Y10.6959
G01 X19.8930 Y10.6772
G01 X19.9205 Y10.6640
G01 X19.9287 Y10.6605
G01 X19.9603 Y10.6493
G01 X19.9956 Y10.6405
G01 X20.0316 Y10.6351
G01 X20.0650 Y10.6334
G01 X20.7210 Y10.6334
G01 X20.7514 Y10.6349
G01 X20.7603 Y10.6359
G01 X20.7904 Y10.6405
G01 X20.8200 Y10.6477
G01 X20.8314 Y10.6512
G01 X20.8600 Y10.6616
G01 X20.8876 Y10.6745
G01 X20.8956 Y10.6786
G01 X20.9217 Y10.6943
G01 X20.9291 Y10.6993
G01 X20.9535 Y10.7176
G01 X20.9761 Y10.7380
G01 X20.9845 Y10.7464
G01 X21.0049 Y10.7690
G01 X21.0266 Y10.7983
G01 X21.0424 Y10.8244
G01 X21.0480 Y10.8349
G01 X21.0609 Y10.8625
G01 X21.0713 Y10.8911
G01 X21.0748 Y10.9025
G01 X21.0820 Y10.9321
G01 X21.0866 Y10.9622
G01 X21.0876 Y10.9711
G01 X21.0891 Y11.0045
G01 X21.0891 Y12.3075
G01 X21.0876 Y12.3379
G01 X21.0866 Y12.3468
G01 X21.0820 Y12.3769
G01 X21.0748 Y12.4065
G01 X21.0713 Y12.4179
G01 X21.0609 Y12.4465
G01 X21.0480 Y12.4741
G01 X21.0439 Y12.4821
G01 X21.0282 Y12.5082
G01 X21.0232 Y12.5156
G01 X21.0049 Y12.5400
G01 X20.9845 Y12.5626
G01 X20.9761 Y12.5710
G01 X20.9535 Y12.5914
G01 X20.9242 Y12.6131
G01 X20.8930 Y12.6318
G01 X20.8655 Y12.6450
G01 X20.8545 Y12.6495
G01 X20.8286 Y12.6588
G01 X20.8200 Y12.6613
G01 X20.7904 Y12.6685
G01 X20.7603 Y12.6731
G01 X20.7484 Y12.6743
G01 X20.7180 Y12.6756
G01 X20.0650 Y12.6756
G01 X20.0316 Y12.6739
G01 X19.9956 Y12.6685
G01 X19.9603 Y12.6597
G01 X19.9260 Y12.6474
G01 X19.8930 Y12.6318
G01 X19.8618 Y12.6131
G01 X19.8325 Y12.5914
G01 X19.8099 Y12.5710
G01 X19.8015 Y12.5626
G01 X19.7811 Y12.5400
G01 X19.7628 Y12.5156
G01 X19.7578 Y12.5082
G01 X19.7436 Y12.4846
G01 X19.7380 Y12.4741
G01 X19.7251 Y12.4465
G01 X19.7128 Y12.4122
G01 X19.7053 Y12.3827
G01 X19.7030 Y12.3710
G01 X19.6986 Y12.3409
G01 X19.6969 Y12.3075
G01 X19.6969 Y11.9238
G01 X16.4341 Y11.9238
G01 X16.4341 Y12.7305
G01 X16.4297 Y12.8178
G01 X16.4175 Y12.9013
G01 X16.4151 Y12.9130
G01 X16.3945 Y12.9949
G01 X16.3662 Y13.0745
G01 X16.3616 Y13.0854
G01 X16.3254 Y13.1617
G01 X16.2821 Y13.2342
G01 X16.2755 Y13.2441
G01 X16.2251 Y13.3119
G01 X16.1644 Y13.3789
G01 X16.0974 Y13.4396
G01 X16.0248 Y13.4934
G01 X15.9524 Y13.5370
G01 X15.9419 Y13.5426
G01 X15.8709 Y13.5761
G01 X15.8600 Y13.5807
G01 X15.7804 Y13.6090
G01 X15.6927 Y13.6310
G01 X15.6033 Y13.6442
G01 X15.5130 Y13.6486
G01 X15.4227 Y13.6442
G01 X15.3392 Y13.6320
G01 X15.3275 Y13.6296
G01 X15.2513 Y13.6106
G01 X15.2400 Y13.6071
G01 X15.1605 Y13.5785
G01 X15.0841 Y13.5426
G01 X15.0762 Y13.5384
G01 X15.0063 Y13.4966
G01 X14.9964 Y13.4900
G01 X14.9286 Y13.4396
G01 X14.8660 Y13.3830
G01 X14.8575 Y13.3745
G01 X14.8009 Y13.3119
G01 X14.7471 Y13.2393
G01 X14.7006 Y13.1617
G01 X14.6644 Y13.0854
G01 X14.6598 Y13.0745
G01 X14.6315 Y12.9949
G01 X14.6109 Y12.9130
G01 X14.6085 Y12.9013
G01 X14.5970 Y12.8237
G01 X14.5958 Y12.8119
G01 X14.5919 Y12.7275
G01 X14.5919 Y10.3275
G01 X14.5963 Y10.2372
G01 X14.6095 Y10.1478
G01 X14.6315 Y10.0601
G01 X14.6620 Y9.9750
G01 X14.7006 Y9.8933
G01 X14.7471 Y9.8157
G01 X14.8009 Y9.7431
G01 X14.8616 Y9.6761
G01 X14.9241 Y9.6193
G01 X14.9333 Y9.6118
G01 X15.0012 Y9.5616
G01 X15.0736 Y9.5180
G01 X15.0841 Y9.5124
G01 X15.1551 Y9.4789
G01 X15.1660 Y9.4743
G01 X15.2456 Y9.4460
G01 X15.3333 Y9.4240
G01 X15.4227 Y9.4108
G01 X15.5071 Y9.4065
G01 X15.5189 Y9.4065
G00 Z2.0000
G00 X14.5268 Y9.9215
G01 F50.00
G01 Z-0.1200
G01 F60.00
G01 X14.4965 Y10.0055
G01 X14.4924 Y10.0179
G01 X14.4889 Y10.0305
G01 X14.4698 Y10.1067
G01 X14.4670 Y10.1194
G01 X14.4647 Y10.1323
G01 X14.4532 Y10.2100
G01 X14.4516 Y10.2230
G01 X14.4506 Y10.2360
G01 X14.4466 Y10.3210
G01 X14.4465 Y12.7275
G01 X14.4468 Y12.7406
G01 X14.4506 Y12.8190
G01 X14.4516 Y12.8320
G01 X14.4532 Y12.8450
G01 X14.4647 Y12.9227
G01 X14.4670 Y12.9356
G01 X14.4698 Y12.9483
G01 X14.4889 Y13.0245
G01 X14.4924 Y13.0371
G01 X14.4965 Y13.0495
G01 X14.5272 Y13.1345
G01 X14.5010 Y13.1053
G01 X14.4916 Y13.0961
G01 X14.4766 Y13.0831
G01 X14.4660 Y13.0751
G01 X14.4495 Y13.0641
G01 X14.4322 Y13.0543
G01 X14.4203 Y13.0485
G01 X14.4081 Y13.0434
G01 X14.3894 Y13.0367
G01 X14.3148 Y13.0154
G01 X14.3020 Y13.0121
G01 X14.2825 Y13.0083
G01 X14.2693 Y13.0066
G01 X14.2562 Y13.0056
G01 X14.2429 Y13.0052
G01 X14.2231 Y13.0058
G01 X14.2099 Y13.0071
G01 X14.1968 Y13.0090
G01 X14.1774 Y13.0131
G01 X14.1646 Y13.0166
G01 X14.0904 Y13.0391
G01 X14.0781 Y13.0435
G01 X14.0661 Y13.0484
G01 X14.0485 Y13.0570
G01 X14.0371 Y13.0634
G01 X14.0207 Y13.0741
G01 X14.0102 Y13.0818
G01 X13.9952 Y13.0944
G01 X13.9857 Y13.1034
G01 X13.9767 Y13.1128
G01 X13.9597 Y13.1323
G01 X13.9895 Y13.0495
G01 X13.9936 Y13.0371
G01 X13.9971 Y13.0245
G01 X14.0162 Y12.9483
G01 X14.0190 Y12.9356
G01 X14.0213 Y12.9227
G01 X14.0328 Y12.8450
G01 X14.0344 Y12.8320
G01 X14.0354 Y12.8190
G01 X14.0394 Y12.7340
G01 X14.0395 Y10.3275
G01 X14.0392 Y10.3144
G01 X14.0354 Y10.2360
G01 X14.0344 Y10.2230
G01 X14.0328 Y10.2100
G01 X14.0213 Y10.1323
G01 X14.0190 Y10.1194
G01 X14.0162 Y10.1067
G01 X13.9971 Y10.0305
G01 X13.9936 Y10.0179
G01 X13.9895 Y10.0055
G01 X13.9592 Y9.9216
G01 X13.9844 Y9.9497
G01 X13.9939 Y9.9589
G01 X14.0089 Y9.9719
G01 X14.0194 Y9.9799
G01 X14.0359 Y9.9909
G01 X14.0532 Y10.0007
G01 X14.0651 Y10.0065
G01 X14.0773 Y10.0116
G01 X14.0960 Y10.0183
G01 X14.1707 Y10.0396
G01 X14.1835 Y10.0429
G01 X14.2030 Y10.0467
G01 X14.2161 Y10.0484
G01 X14.2293 Y10.0494
G01 X14.2425 Y10.0498
G01 X14.2558 Y10.0496
G01 X14.2755 Y10.0479
G01 X14.2952 Y10.0448
G01 X14.3081 Y10.0419
G01 X14.3208 Y10.0384
G01 X14.3950 Y10.0159
G01 X14.4073 Y10.0115
G01 X14.4194 Y10.0066
G01 X14.4370 Y9.9980
G01 X14.4484 Y9.9916
G01 X14.4594 Y9.9846
G01 X14.4753 Y9.9732
G01 X14.4854 Y9.9649
G01 X14.4998 Y9.9516
G01 X14.5088 Y9.9422
G01 X14.5268 Y9.9215
G00 Z2.0000
G00 X14.3092 Y10.1899
G01 F50.00
G01 Z-0.1200
G01 F60.00
G01 X14.3069 Y10.2087
G01 X14.3054 Y10.2289
G01 X14.3016 Y10.3073
G01 X14.3011 Y10.3275
G01 X14.3011 Y12.7275
G01 X14.3016 Y12.7477
G01 X14.3054 Y12.8261
G01 X14.3069 Y12.8463
G01 X14.3093 Y12.8654
G01 X14.2946 Y12.8632
G01 X14.2742 Y12.8611
G01 X14.2538 Y12.8600
G01 X14.2436 Y12.8598
G01 X14.2333 Y12.8599
G01 X14.2129 Y12.8608
G01 X14.1925 Y12.8627
G01 X14.1768 Y12.8650
G01 X14.1791 Y12.8463
G01 X14.1806 Y12.8261
G01 X14.1844 Y12.7477
G01 X14.1849 Y12.7275
G01 X14.1849 Y10.3275
G01 X14.1844 Y10.3073
G01 X14.1806 Y10.2289
G01 X14.1791 Y10.2087
G01 X14.1767 Y10.1897
G01 X14.1909 Y10.1918
G01 X14.2112 Y10.1939
G01 X14.2316 Y10.1950
G01 X14.2419 Y10.1952
G01 X14.2521 Y10.1951
G01 X14.2725 Y10.1942
G01 X14.2929 Y10.1923
G01 X14.3092 Y10.1899
G00 Z2.0000
G00 X16.8120 Y10.9858
G01 F50.00
G01 Z-0.1200
G01 F60.00
G01 X16.5795 Y10.9858
G01 X16.5795 Y10.7400
G01 X16.5877 Y10.7675
G01 X16.5921 Y10.7800
G01 X16.5997 Y10.7983
G01 X16.6056 Y10.8102
G01 X16.6155 Y10.8274
G01 X16.6228 Y10.8385
G01 X16.6348 Y10.8543
G01 X16.6478 Y10.8692
G01 X16.6620 Y10.8832
G01 X16.7206 Y10.9340
G01 X16.7309 Y10.9425
G01 X16.7416 Y10.9505
G01 X16.7583 Y10.9613
G01 X16.7759 Y10.9710
G01 X16.7940 Y10.9792
G01 X16.8120 Y10.9858
G00 Z2.0000
G00 X16.5795 Y12.3019
G01 F50.00
G01 Z-0.1200
G01 F60.00
G01 X16.5795 Y12.0692
G01 X16.8251 Y12.0692
G01 X16.7980 Y12.0772
G01 X16.7855 Y12.0816
G01 X16.7672 Y12.0892
G01 X16.7553 Y12.0951
G01 X16.7437 Y12.1016
G01 X16.7270 Y12.1123
G01 X16.7112 Y12.1243
G01 X16.6963 Y12.1373
G01 X16.6823 Y12.1515
G01 X16.6315 Y12.2101
G01 X16.6230 Y12.2204
G01 X16.6150 Y12.2311
G01 X16.6042 Y12.2478
G01 X16.5945 Y12.2654
G01 X16.5863 Y12.2835
G01 X16.5795 Y12.3019
G00 Z2.0000
G00 X16.8436 Y14.6009
G01 F50.00
G01 Z-0.1200
G01 F60.00
G01 X16.8436 Y14.3316
G01 X16.9115 Y14.3387
G01 X17.0532 Y14.3860
G01 X17.1794 Y14.4642
G01 X17.2840 Y14.5689
G01 X17.3622 Y14.6957
G01 X17.4092 Y14.8375
G01 X17.4179 Y14.9224
G01 X17.4179 Y15.2164
G01 X17.1521 Y15.2164
G01 X17.1521 Y14.9665
G01 X17.1504 Y14.9301
G01 X17.1450 Y14.8941
G01 X17.1362 Y14.8588
G01 X17.1239 Y14.8245
G01 X17.1097 Y14.7942
G01 X17.1054 Y14.7864
G01 X17.0896 Y14.7603
G01 X17.0716 Y14.7357
G01 X17.0640 Y14.7265
G01 X17.0455 Y14.7062
G01 X17.0391 Y14.7000
G01 X17.0165 Y14.6796
G01 X16.9921 Y14.6613
G01 X16.9822 Y14.6547
G01 X16.9560 Y14.6392
G01 X16.9230 Y14.6236
G01 X16.8944 Y14.6132
G01 X16.8859 Y14.6105
G01 X16.8563 Y14.6031
G01 X16.8436 Y14.6009
G00 Z2.0000
G00 X15.5281 Y14.8364
G01 F50.00
G01 Z-0.1200
G01 F60.00
G01 X15.5755 Y14.6943
G01 X15.6537 Y14.5681
G01 X15.7584 Y14.4635
G01 X15.8852 Y14.3853
G01 X16.0266 Y14.3384
G01 X16.0934 Y14.3315
G01 X16.0934 Y14.6009
G01 X16.0807 Y14.6031
G01 X16.0483 Y14.6113
G01 X16.0195 Y14.6215
G01 X16.0085 Y14.6260
G01 X15.9810 Y14.6392
G01 X15.9548 Y14.6547
G01 X15.9449 Y14.6613
G01 X15.9183 Y14.6815
G01 X15.8936 Y14.7041
G01 X15.8730 Y14.7265
G01 X15.8654 Y14.7357
G01 X15.8474 Y14.7603
G01 X15.8316 Y14.7864
G01 X15.8260 Y14.7969
G01 X15.8131 Y14.8245
G01 X15.8027 Y14.8531
G01 X15.7992 Y14.8645
G01 X15.7920 Y14.8941
G01 X15.7874 Y14.9242
G01 X15.7862 Y14.9361
G01 X15.7849 Y14.9665
G01 X15.7849 Y15.2164
G01 X15.5192 Y15.2164
G01 X15.5192 Y14.9225
G01 X15.5281 Y14.8364
G00 Z2.0000
G00 X15.5191 Y15.9666
G01 F50.00
G01 Z-0.1200
G01 F60.00
G01 X15.7849 Y15.9666
G01 X15.7849 Y16.2165
G01 X15.7862 Y16.2469
G01 X15.7874 Y16.2588
G01 X15.7920 Y16.2889
G01 X15.7992 Y16.3185
G01 X15.8027 Y16.3299
G01 X15.8131 Y16.3585
G01 X15.8260 Y16.3861
G01 X15.8316 Y16.3966
G01 X15.8474 Y16.4227
G01 X15.8654 Y16.4473
G01 X15.8730 Y16.4565
G01 X15.8936 Y16.4789
G01 X15.9183 Y16.5015
G01 X15.9449 Y16.5217
G01 X15.9548 Y16.5283
G01 X15.9810 Y16.5438
G01 X16.0085 Y16.5570
G01 X16.0195 Y16.5615
G01 X16.0483 Y16.5717
G01 X16.0807 Y16.5799
G01 X16.0934 Y16.5821
G01 X16.0934 Y16.8514
G01 X16.0255 Y16.8443
G01 X15.8838 Y16.7970
G01 X15.7576 Y16.7188
G01 X15.6527 Y16.6137
G01 X15.5748 Y16.4873
G01 X15.5278 Y16.3455
G01 X15.5191 Y16.2606
G01 X15.5191 Y15.9666
G00 Z2.0000
G00 X16.8436 Y16.8515
G01 F50.00
G01 Z-0.1200
G01 F60.00
G01 X16.8436 Y16.5821
G01 X16.8563 Y16.5799
G01 X16.8887 Y16.5717
G01 X16.9175 Y16.5615
G01 X16.9285 Y16.5570
G01 X16.9560 Y16.5438
G01 X16.9822 Y16.5283
G01 X16.9921 Y16.5217
G01 X17.0187 Y16.5015
G01 X17.0434 Y16.4789
G01 X17.0640 Y16.4565
G01 X17.0716 Y16.4473
G01 X17.0896 Y16.4227
G01 X17.1054 Y16.3966
G01 X17.1110 Y16.3861
G01 X17.1239 Y16.3585
G01 X17.1343 Y16.3299
G01 X17.1378 Y16.3185
G01 X17.1450 Y16.2889
G01 X17.1496 Y16.2588
G01 X17.1508 Y16.2469
G01 X17.1521 Y16.2165
G01 X17.1521 Y15.9666
G01 X17.4178 Y15.9666
G01 X17.4178 Y16.2605
G01 X17.4089 Y16.3466
G01 X17.3617 Y16.4883
G01 X17.2836 Y16.6146
G01 X17.1786 Y16.7195
G01 X17.0522 Y16.7975
G01 X16.9104 Y16.8446
G01 X16.8436 Y16.8515
G00 Z2.0000
G00 X15.7301 Y18.1425
G01 F50.00
G01 Z-0.1200
G01 F60.00
G01 X15.7301 Y17.8738
G01 X15.8105 Y17.8822
G01 X15.9522 Y17.9295
G01 X16.0784 Y18.0077
G01 X16.1830 Y18.1124
G01 X16.2612 Y18.2392
G01 X16.3082 Y18.3810
G01 X16.3169 Y18.4659
G01 X16.3169 Y18.7849
G01 X16.0511 Y18.7849
G01 X16.0511 Y18.5100
G01 X16.0494 Y18.4736
G01 X16.0440 Y18.4376
G01 X16.0352 Y18.4023
G01 X16.0229 Y18.3680
G01 X16.0087 Y18.3377
G01 X16.0044 Y18.3299
G01 X15.9886 Y18.3038
G01 X15.9706 Y18.2792
G01 X15.9630 Y18.2700
G01 X15.9424 Y18.2476
G01 X15.9200 Y18.2270
G01 X15.9131 Y18.2212
G01 X15.8887 Y18.2031
G01 X15.8812 Y18.1982
G01 X15.8550 Y18.1827
G01 X15.8275 Y18.1695
G01 X15.8193 Y18.1660
G01 X15.7906 Y18.1557
G01 X15.7820 Y18.1532
G01 X15.7524 Y18.1460
G01 X15.7301 Y18.1425
G00 Z2.0000
G00 X14.4021 Y18.3799
G01 F50.00
G01 Z-0.1200
G01 F60.00
G01 X14.4495 Y18.2378
G01 X14.5277 Y18.1116
G01 X14.6324 Y18.0070
G01 X14.7592 Y17.9288
G01 X14.9006 Y17.8819
G01 X14.9799 Y17.8738
G01 X14.9799 Y18.1425
G01 X14.9576 Y18.1460
G01 X14.9251 Y18.1540
G01 X14.9166 Y18.1567
G01 X14.8852 Y18.1683
G01 X14.8550 Y18.1827
G01 X14.8288 Y18.1982
G01 X14.8189 Y18.2048
G01 X14.7945 Y18.2231
G01 X14.7719 Y18.2435
G01 X14.7635 Y18.2519
G01 X14.7431 Y18.2745
G01 X14.7214 Y18.3038
G01 X14.7056 Y18.3299
G01 X14.7000 Y18.3404
G01 X14.6871 Y18.3680
G01 X14.6767 Y18.3966
G01 X14.6732 Y18.4080
G01 X14.6654 Y18.4405
G01 X14.6606 Y18.4736
G01 X14.6590 Y18.5041
G01 X14.6589 Y18.7849
G01 X14.3932 Y18.7849
G01 X14.3932 Y18.4660
G01 X14.4021 Y18.3799
G00 Z2.0000
G00 X14.3931 Y19.5351
G01 F50.00
G01 Z-0.1200
G01 F60.00
G01 X14.6589 Y19.5351
G01 X14.6590 Y19.8159
G01 X14.6606 Y19.8464
G01 X14.6654 Y19.8795
G01 X14.6732 Y19.9120
G01 X14.6767 Y19.9234
G01 X14.6871 Y19.9520
G01 X14.7000 Y19.9796
G01 X14.7056 Y19.9901
G01 X14.7214 Y20.0162
G01 X14.7431 Y20.0455
G01 X14.7635 Y20.0681
G01 X14.7719 Y20.0765
G01 X14.7945 Y20.0969
G01 X14.8189 Y20.1152
G01 X14.8288 Y20.1218
G01 X14.8550 Y20.1373
G01 X14.8852 Y20.1517
G01 X14.9166 Y20.1633
G01 X14.9251 Y20.1660
G01 X14.9576 Y20.1740
G01 X14.9799 Y20.1775
G01 X14.9799 Y20.4462
G01 X14.8995 Y20.4378
G01 X14.7578 Y20.3905
G01 X14.6316 Y20.3123
G01 X14.5267 Y20.2072
G01 X14.4488 Y20.0808
G01 X14.4018 Y19.9390
G01 X14.3931 Y19.8541
G01 X14.3931 Y19.5351
G00 Z2.0000
G00 X15.7301 Y20.4462
G01 F50.00
G01 Z-0.1200
G01 F60.00
G01 X15.7301 Y20.1775
G01 X15.7524 Y20.1740
G01 X15.7849 Y20.1660
G01 X15.7934 Y20.1633
G01 X15.8248 Y20.1517
G01 X15.8550 Y20.1373
G01 X15.8812 Y20.1218
G01 X15.8911 Y20.1152
G01 X15.9155 Y20.0969
G01 X15.9381 Y20.0765
G01 X15.9465 Y20.0681
G01 X15.9669 Y20.0455
G01 X15.9886 Y20.0162
G01 X16.0044 Y19.9901
G01 X16.0100 Y19.9796
G01 X16.0229 Y19.9520
G01 X16.0333 Y19.9234
G01 X16.0368 Y19.9120
G01 X16.0446 Y19.8795
G01 X16.0494 Y19.8464
G01 X16.0510 Y19.8159
G01 X16.0511 Y19.5351
G01 X16.3168 Y19.5351
G01 X16.3168 Y19.8540
G01 X16.3079 Y19.9401
G01 X16.2607 Y20.0818
G01 X16.1826 Y20.2081
G01 X16.0776 Y20.3130
G01 X15.9512 Y20.3910
G01 X15.8094 Y20.4381
G01 X15.7301 Y20.4462
G00 Z2.0000
G00 X14.8525 Y22.5312
G01 F50.00
G01 Z-0.1200
G01 F60.00
G01 X14.8761 Y22.5499
G01 X14.8870 Y22.5577
G01 X14.8982 Y22.5649
G01 X14.9098 Y22.5716
G01 X14.9218 Y22.5776
G01 X14.9340 Y22.5831
G01 X14.9477 Y22.5883
G01 X14.8876 Y22.5883
G01 X14.8638 Y22.5485
G01 X14.8525 Y22.5312
G00 Z2.0000
G00 X14.9619 Y23.6717
G01 F50.00
G01 Z-0.1200
G01 F60.00
G01 X14.9290 Y23.6817
G01 X14.9170 Y23.6861
G01 X14.9052 Y23.6912
G01 X14.8937 Y23.6968
G01 X14.8825 Y23.7029
G01 X14.8716 Y23.7096
G01 X14.8600 Y23.7176
G01 X14.8876 Y23.6717
G01 X14.9619 Y23.6717
G00 Z2.0000
G00 X16.4468 Y23.6928
G01 F50.00
G01 Z-0.1200
G01 F60.00
G01 X16.4220 Y23.6794
G01 X16.4056 Y23.6717
G01 X16.4256 Y23.6717
G01 X16.4468 Y23.6928
G00 Z2.0000
G00 X17.9483 Y25.2243
G01 F50.00
G01 Z-0.1200
G01 F60.00
G01 X17.9403 Y25.1973
G01 X17.9342 Y25.1802
G01 X17.9483 Y25.1944
G01 X17.9483 Y25.2243
G00 Z2.0000
G00 X19.0317 Y29.2457
G01 F50.00
G01 Z-0.1200
G01 F60.00
G01 X19.0397 Y29.2727
G01 X19.0458 Y29.2898
G01 X19.0317 Y29.2756
G01 X19.0317 Y29.2457
G00 Z2.0000
G00 X19.8932 Y30.1372
G01 F50.00
G01 Z-0.1200
G01 F60.00
G01 X19.9180 Y30.1506
G01 X19.9344 Y30.1583
G01 X19.9144 Y30.1583
G01 X19.8932 Y30.1372
G00 Z2.0000
G00 X21.9617 Y30.1583
G01 F50.00
G01 Z-0.1200
G01 F60.00
G01 X21.9888 Y30.1503
G01 X22.0013 Y30.1459
G01 X22.0196 Y30.1383
G01 X22.0315 Y30.1324
G01 X22.0487 Y30.1225
G01 X22.0651 Y30.1113
G01 X22.0756 Y30.1032
G01 X22.0905 Y30.0902
G01 X22.0999 Y30.0808
G01 X22.1088 Y30.0710
G01 X22.1596 Y30.0123
G01 X22.1716 Y29.9965
G01 X22.1825 Y29.9799
G01 X22.1920 Y29.9625
G01 X22.2003 Y29.9445
G01 X22.2072 Y29.9258
G01 X22.2126 Y29.9068
G01 X22.2167 Y29.8873
G01 X22.2287 Y29.8039
G01 X22.2303 Y29.7841
G01 X22.2305 Y29.7709
G01 X22.2296 Y29.7511
G01 X22.2283 Y29.7379
G01 X22.2249 Y29.7183
G01 X22.2219 Y29.7054
G01 X22.2162 Y29.6864
G01 X22.2116 Y29.6740
G01 X22.2064 Y29.6618
G01 X22.1742 Y29.5915
G01 X22.1683 Y29.5801
G01 X22.1587 Y29.5639
G01 X22.2259 Y29.6041
G01 X22.2372 Y29.6106
G01 X22.2489 Y29.6165
G01 X22.3199 Y29.6500
G01 X22.3319 Y29.6553
G01 X22.3441 Y29.6601
G01 X22.4180 Y29.6865
G01 X22.4304 Y29.6906
G01 X22.4430 Y29.6941
G01 X22.5192 Y29.7132
G01 X22.5319 Y29.7160
G01 X22.5448 Y29.7183
G01 X22.6225 Y29.7298
G01 X22.6355 Y29.7314
G01 X22.6485 Y29.7324
G01 X22.7269 Y29.7362
G01 X22.7400 Y29.7365
G01 X22.7531 Y29.7362
G01 X22.8315 Y29.7324
G01 X22.8445 Y29.7314
G01 X22.8575 Y29.7298
G01 X22.9352 Y29.7183
G01 X22.9481 Y29.7160
G01 X22.9608 Y29.7132
G01 X23.0370 Y29.6941
G01 X23.0496 Y29.6906
G01 X23.0620 Y29.6865
G01 X23.1359 Y29.6601
G01 X23.1481 Y29.6553
G01 X23.1601 Y29.6500
G01 X23.2311 Y29.6165
G01 X23.2428 Y29.6106
G01 X23.2541 Y29.6041
G01 X23.3215 Y29.5638
G01 X23.3325 Y29.5568
G01 X23.3432 Y29.5493
G01 X23.4063 Y29.5025
G01 X23.4166 Y29.4944
G01 X23.4265 Y29.4859
G01 X23.4847 Y29.4332
G01 X23.4942 Y29.4242
G01 X23.5032 Y29.4147
G01 X23.5559 Y29.3565
G01 X23.5644 Y29.3466
G01 X23.5725 Y29.3363
G01 X23.6193 Y29.2732
G01 X23.6268 Y29.2625
G01 X23.6338 Y29.2515
G01 X23.6741 Y29.1841
G01 X23.6806 Y29.1728
G01 X23.6865 Y29.1611
G01 X23.7200 Y29.0901
G01 X23.7253 Y29.0781
G01 X23.7301 Y29.0659
G01 X23.7565 Y28.9920
G01 X23.7606 Y28.9796
G01 X23.7641 Y28.9670
G01 X23.7832 Y28.8908
G01 X23.7860 Y28.8781
G01 X23.7883 Y28.8652
G01 X23.7998 Y28.7875
G01 X23.8014 Y28.7745
G01 X23.8024 Y28.7615
G01 X23.8064 Y28.6765
G01 X23.8064 Y26.2635
G01 X23.8024 Y26.1785
G01 X23.8014 Y26.1655
G01 X23.7998 Y26.1525
G01 X23.7883 Y26.0748
G01 X23.7860 Y26.0619
G01 X23.7832 Y26.0492
G01 X23.7641 Y25.9730
G01 X23.7606 Y25.9604
G01 X23.7565 Y25.9480
G01 X23.7258 Y25.8630
G01 X23.7520 Y25.8922
G01 X23.7614 Y25.9014
G01 X23.7764 Y25.9144
G01 X23.7870 Y25.9224
G01 X23.8035 Y25.9334
G01 X23.8208 Y25.9432
G01 X23.8327 Y25.9490
G01 X23.8449 Y25.9541
G01 X23.8636 Y25.9608
G01 X23.9382 Y25.9821
G01 X23.9510 Y25.9854
G01 X23.9640 Y25.9881
G01 X23.9837 Y25.9909
G01 X23.9968 Y25.9919
G01 X24.0101 Y25.9923
G01 X24.0299 Y25.9917
G01 X24.0431 Y25.9904
G01 X24.0562 Y25.9885
G01 X24.0756 Y25.9844
G01 X24.0884 Y25.9809
G01 X24.1626 Y25.9584
G01 X24.1749 Y25.9540
G01 X24.1869 Y25.9491
G01 X24.1987 Y25.9435
G01 X24.2159 Y25.9341
G01 X24.2269 Y25.9271
G01 X24.2428 Y25.9157
G01 X24.2578 Y25.9031
G01 X24.2673 Y25.8941
G01 X24.2763 Y25.8847
G01 X24.2933 Y25.8652
G01 X24.2635 Y25.9480
G01 X24.2594 Y25.9604
G01 X24.2559 Y25.9730
G01 X24.2368 Y26.0492
G01 X24.2340 Y26.0619
G01 X24.2317 Y26.0748
G01 X24.2202 Y26.1525
G01 X24.2186 Y26.1655
G01 X24.2176 Y26.1785
G01 X24.2136 Y26.2635
G01 X24.2135 Y28.6700
G01 X24.2138 Y28.6831
G01 X24.2176 Y28.7615
G01 X24.2186 Y28.7745
G01 X24.2202 Y28.7875
G01 X24.2317 Y28.8652
G01 X24.2340 Y28.8781
G01 X24.2368 Y28.8908
G01 X24.2559 Y28.9670
G01 X24.2594 Y28.9796
G01 X24.2635 Y28.9920
G01 X24.2899 Y29.0659
G01 X24.2947 Y29.0781
G01 X24.3000 Y29.0901
G01 X24.3335 Y29.1611
G01 X24.3394 Y29.1728
G01 X24.3459 Y29.1841
G01 X24.3862 Y29.2515
G01 X24.3932 Y29.2625
G01 X24.4007 Y29.2732
G01 X24.4475 Y29.3363
G01 X24.4556 Y29.3466
G01 X24.4641 Y29.3565
G01 X24.5168 Y29.4147
G01 X24.5258 Y29.4242
G01 X24.5353 Y29.4332
G01 X24.5935 Y29.4859
G01 X24.6034 Y29.4944
G01 X24.6137 Y29.5025
G01 X24.6768 Y29.5493
G01 X24.6875 Y29.5568
G01 X24.6985 Y29.5638
G01 X24.7659 Y29.6041
G01 X24.7772 Y29.6106
G01 X24.7889 Y29.6165
G01 X24.8599 Y29.6500
G01 X24.8719 Y29.6553
G01 X24.8841 Y29.6601
G01 X24.9580 Y29.6865
G01 X24.9704 Y29.6906
G01 X24.9830 Y29.6941
G01 X25.0592 Y29.7132
G01 X25.0719 Y29.7160
G01 X25.0848 Y29.7183
G01 X25.1625 Y29.7298
G01 X25.1755 Y29.7314
G01 X25.1885 Y29.7324
