(G-CODE GENERATED BY FLATCAM v8.992 - www.flatcam.org - Version Date: 2020/05/03)

(Name: sMeter Daughter Board v1.drl_cnc)
(Type: G-code from Excellon)
(Units: MM)

(Created on Thursday, 27 April 2023 at 19:12)

(This preprocessor is the default preprocessor used by FlatCAM.)
(It is made to work with MACH3 compatible motion controllers.)


(TOOLS DIAMETER: )
(Tool: 1 -> Dia: 1.0)

(FEEDRATE Z: )
(Tool: 1 -> Feedrate: 50.0)

(FEEDRATE RAPIDS: )
(Tool: 1 -> Feedrate Rapids: 1500)

(Z_CUT: )
(Tool: 1 -> Z_Cut: -1.7)

(Tools Offset: )
(Tool: 1 -> Offset Z: -0.0)

(DEPTH_PER_CUT: )
(Tool: 1 -> DeptPerCut: 0.7)

(Z_MOVE: )
(Tool: 1 -> Z_Move: 2)

(Z Start: None mm)
(Z End: 2.0 mm)
(Steps per circle: 64)
(Preprocessor Excellon: default)

(X range:    4.1030 ...   47.7200  mm)
(Y range:    4.4250 ...   27.9700  mm)

(Spindle Speed: None RPM)
G21
G90
G94



G00 Z2.0000

G01 F50.00
M03
G00 X4.6030 Y25.3500
G01 Z-0.7000
G01 Z0
G00 Z2.0000
G01 Z-1.4000
G01 Z0
G00 Z2.0000
G01 Z-1.7000
G01 Z0
G00 Z2.0000
G00 X7.1030 Y25.3500
G01 Z-0.7000
G01 Z0
G00 Z2.0000
G01 Z-1.4000
G01 Z0
G00 Z2.0000
G01 Z-1.7000
G01 Z0
G00 Z2.0000
G00 X12.7700 Y23.1300
G01 Z-0.7000
G01 Z0
G00 Z2.0000
G01 Z-1.4000
G01 Z0
G00 Z2.0000
G01 Z-1.7000
G01 Z0
G00 Z2.0000
G00 X22.7400 Y27.4700
G01 Z-0.7000
G01 Z0
G00 Z2.0000
G01 Z-1.4000
G01 Z0
G00 Z2.0000
G01 Z-1.7000
G01 Z0
G00 Z2.0000
G00 X25.2800 Y27.4700
G01 Z-0.7000
G01 Z0
G00 Z2.0000
G01 Z-1.4000
G01 Z0
G00 Z2.0000
G01 Z-1.7000
G01 Z0
G00 Z2.0000
G00 X22.9300 Y23.1300
G01 Z-0.7000
G01 Z0
G00 Z2.0000
G01 Z-1.4000
G01 Z0
G00 Z2.0000
G01 Z-1.7000
G01 Z0
G00 Z2.0000
G00 X27.2120 Y16.6610
G01 Z-0.7000
G01 Z0
G00 Z2.0000
G01 Z-1.4000
G01 Z0
G00 Z2.0000
G01 Z-1.7000
G01 Z0
G00 Z2.0000
G00 X34.8320 Y16.6610
G01 Z-0.7000
G01 Z0
G00 Z2.0000
G01 Z-1.4000
G01 Z0
G00 Z2.0000
G01 Z-1.7000
G01 Z0
G00 Z2.0000
G00 X43.2200 Y22.9300
G01 Z-0.7000
G01 Z0
G00 Z2.0000
G01 Z-1.4000
G01 Z0
G00 Z2.0000
G01 Z-1.7000
G01 Z0
G00 Z2.0000
G00 X43.2200 Y15.3100
G01 Z-0.7000
G01 Z0
G00 Z2.0000
G01 Z-1.4000
G01 Z0
G00 Z2.0000
G01 Z-1.7000
G01 Z0
G00 Z2.0000
G00 X47.2200 Y7.4650
G01 Z-0.7000
G01 Z0
G00 Z2.0000
G01 Z-1.4000
G01 Z0
G00 Z2.0000
G01 Z-1.7000
G01 Z0
G00 Z2.0000
G00 X47.2200 Y4.9250
G01 Z-0.7000
G01 Z0
G00 Z2.0000
G01 Z-1.4000
G01 Z0
G00 Z2.0000
G01 Z-1.7000
G01 Z0
G00 Z2.0000
G00 X34.8320 Y14.1210
G01 Z-0.7000
G01 Z0
G00 Z2.0000
G01 Z-1.4000
G01 Z0
G00 Z2.0000
G01 Z-1.7000
G01 Z0
G00 Z2.0000
G00 X34.8320 Y11.5810
G01 Z-0.7000
G01 Z0
G00 Z2.0000
G01 Z-1.4000
G01 Z0
G00 Z2.0000
G01 Z-1.7000
G01 Z0
G00 Z2.0000
G00 X34.8320 Y9.0410
G01 Z-0.7000
G01 Z0
G00 Z2.0000
G01 Z-1.4000
G01 Z0
G00 Z2.0000
G01 Z-1.7000
G01 Z0
G00 Z2.0000
G00 X27.2120 Y9.0410
G01 Z-0.7000
G01 Z0
G00 Z2.0000
G01 Z-1.4000
G01 Z0
G00 Z2.0000
G01 Z-1.7000
G01 Z0
G00 Z2.0000
G00 X27.2120 Y11.5810
G01 Z-0.7000
G01 Z0
G00 Z2.0000
G01 Z-1.4000
G01 Z0
G00 Z2.0000
G01 Z-1.7000
G01 Z0
G00 Z2.0000
G00 X27.2120 Y14.1210
G01 Z-0.7000
G01 Z0
G00 Z2.0000
G01 Z-1.4000
G01 Z0
G00 Z2.0000
G01 Z-1.7000
G01 Z0
G00 Z2.0000
G00 X15.5130 Y11.5280
G01 Z-0.7000
G01 Z0
G00 Z2.0000
G01 Z-1.4000
G01 Z0
G00 Z2.0000
G01 Z-1.7000
G01 Z0
G00 Z2.0000
G00 X12.9730 Y11.5280
G01 Z-0.7000
G01 Z0
G00 Z2.0000
G01 Z-1.4000
G01 Z0
G00 Z2.0000
G01 Z-1.7000
G01 Z0
G00 Z2.0000
G00 X7.2970 Y6.5200
G01 Z-0.7000
G01 Z0
G00 Z2.0000
G01 Z-1.4000
G01 Z0
G00 Z2.0000
G01 Z-1.7000
G01 Z0
G00 Z2.0000
G00 X4.7970 Y6.5200
G01 Z-0.7000
G01 Z0
G00 Z2.0000
G01 Z-1.4000
G01 Z0
G00 Z2.0000
G01 Z-1.7000
G01 Z0
G00 Z2.0000
M05
G00 Z2.00
G00 X0.0 Y0.0

