(G-CODE GENERATED BY FLATCAM v8.992 - www.flatcam.org - Version Date: 2020/05/03)

(Name: Inductor Saturation Test-F_Cu.gbr_iso_cnc_deepfast)
(Type: G-code from Geometry)
(Units: MM)

(Created on Wednesday, 18 January 2023 at 19:17)

(This preprocessor is the default preprocessor used by FlatCAM.)
(It is made to work with MACH3 compatible motion controllers.)

(TOOL DIAMETER: 0.2458 mm)
(Feedrate_XY: 70.0 mm/min)
(Feedrate_Z: 50.0 mm/min)
(Feedrate rapids 1500.0 mm/min)

(Z_Cut: -0.13 mm)
(Z_Move: 2.0 mm)
(Z Start: None mm)
(Z End: 10.0 mm)
(Steps per circle: 64)
(Preprocessor Geometry: default)

(X range:   -0.0171 ...   56.5541  mm)
(Y range:    0.0389 ...   73.1836  mm)

(Spindle Speed: None RPM)
G21
G90
G94



G01 F70.00
G00 Z2.0000

M03
G00 X4.7715 Y8.0461
G01 F50.00
G01 Z-0.1300
G01 F70.00
G01 X4.7828 Y7.8107
G01 X4.8288 Y7.5796
G01 X4.9084 Y7.3578
G01 X5.0200 Y7.1502
G01 X5.1610 Y6.9613
G01 X5.3283 Y6.7954
G01 X5.5184 Y6.6561
G01 X5.7270 Y6.5463
G01 X5.9495 Y6.4686
G01 X6.1810 Y6.4247
G01 X6.4165 Y6.4154
G01 X6.6508 Y6.4411
G01 X6.7006 Y6.4542
G01 X6.8787 Y6.5011
G01 X7.0952 Y6.5941
G01 X7.2956 Y6.7181
G01 X7.4755 Y6.8704
G01 X7.6309 Y7.0476
G01 X7.7584 Y7.2458
G01 X7.8552 Y7.4607
G01 X7.9191 Y7.6875
G01 X7.9492 Y7.9242
G01 X7.9513 Y8.0015
G01 X7.9336 Y8.2395
G01 X7.8816 Y8.4694
G01 X7.8771 Y8.4808
G01 X7.7962 Y8.6890
G01 X7.6792 Y8.8936
G01 X7.5333 Y9.0787
G01 X7.3617 Y9.2402
G01 X7.1680 Y9.3745
G01 X7.1578 Y9.3796
G01 X7.1502 Y9.3840
G01 X7.1429 Y9.3888
G01 X7.1337 Y9.3961
G01 X7.0793 Y9.4461
G01 X7.0690 Y9.4568
G01 X7.0601 Y9.4687
G01 X7.0540 Y9.4789
G01 X7.0478 Y9.4924
G01 X7.0441 Y9.5037
G01 X7.0246 Y9.5745
G01 X7.0225 Y9.5864
G01 X7.0216 Y9.5985
G01 X7.0216 Y11.2473
G01 X7.0225 Y11.2619
G01 X7.0251 Y11.2762
G01 X7.0475 Y11.3529
G01 X7.0529 Y11.3669
G01 X7.0570 Y11.3750
G01 X7.0617 Y11.3828
G01 X7.0669 Y11.3901
G01 X7.0857 Y11.4135
G01 X7.0945 Y11.4233
G01 X9.6732 Y14.0020
G01 X9.6842 Y14.0117
G01 X9.6962 Y14.0200
G01 X9.7635 Y14.0570
G01 X9.7716 Y14.0610
G01 X9.7800 Y14.0645
G01 X9.7915 Y14.0681
G01 X9.8004 Y14.0700
G01 X9.8361 Y14.0742
G01 X9.8492 Y14.0749
G01 X15.2420 Y14.0749
G01 X15.3218 Y14.0741
G01 X15.3384 Y14.0749
G01 X35.8293 Y14.0749
G01 X35.8380 Y14.0746
G01 X35.8497 Y14.0732
G01 X35.8611 Y14.0707
G01 X35.9320 Y14.0499
G01 X35.9462 Y14.0448
G01 X35.9596 Y14.0380
G01 X35.9697 Y14.0314
G01 X35.9955 Y14.0108
G01 X36.0053 Y14.0020
G01 X38.2412 Y11.7661
G01 X38.2506 Y11.7549
G01 X38.2572 Y11.7452
G01 X38.2955 Y11.6751
G01 X38.2994 Y11.6669
G01 X38.3027 Y11.6583
G01 X38.3060 Y11.6466
G01 X38.3077 Y11.6376
G01 X38.3090 Y11.6254
G01 X38.3090 Y11.6132
G01 X38.3035 Y11.5363
G01 X38.3023 Y11.5272
G01 X38.3004 Y11.5183
G01 X38.2978 Y11.5095
G01 X38.2946 Y11.5009
G01 X38.2879 Y11.4872
G01 X38.2814 Y11.4769
G01 X38.2351 Y11.4152
G01 X38.2291 Y11.4082
G01 X38.2226 Y11.4016
G01 X38.2157 Y11.3955
G01 X38.2082 Y11.3900
G01 X38.2004 Y11.3851
G01 X38.1895 Y11.3794
G01 X38.1313 Y11.3547
G01 X38.1173 Y11.3497
G01 X38.1087 Y11.3475
G01 X38.0961 Y11.3454
G01 X37.8787 Y11.2920
G01 X37.6735 Y11.2049
G01 X37.4848 Y11.0861
G01 X37.3175 Y10.9387
G01 X37.1760 Y10.7664
G01 X37.0639 Y10.5736
G01 X36.9839 Y10.3655
G01 X36.9384 Y10.1472
G01 X36.9282 Y9.9245
G01 X36.9539 Y9.7030
G01 X37.0146 Y9.4884
G01 X37.1088 Y9.2864
G01 X37.2341 Y9.1020
G01 X37.3873 Y8.9399
G01 X37.4404 Y8.8994
G01 X37.4470 Y8.8936
G01 X37.4532 Y8.8874
G01 X37.4625 Y8.8762
G01 X37.5045 Y8.8189
G01 X37.5096 Y8.8113
G01 X37.5156 Y8.8007
G01 X37.5204 Y8.7895
G01 X37.5241 Y8.7779
G01 X37.5267 Y8.7659
G01 X37.5280 Y8.7538
G01 X37.5325 Y8.6799
G01 X37.5324 Y8.6676
G01 X37.5305 Y8.6525
G01 X37.5276 Y8.6406
G01 X37.5223 Y8.6262
G01 X37.5154 Y8.6126
G01 X37.4758 Y8.5461
G01 X37.4693 Y8.5363
G01 X37.4619 Y8.5271
G01 X37.4537 Y8.5187
G01 X37.3175 Y8.3987
G01 X37.1760 Y8.2264
G01 X37.0639 Y8.0336
G01 X36.9839 Y7.8255
G01 X36.9384 Y7.6072
G01 X36.9282 Y7.3845
G01 X36.9539 Y7.1630
G01 X37.0146 Y6.9484
G01 X37.1088 Y6.7464
G01 X37.2341 Y6.5620
G01 X37.3873 Y6.3999
G01 X37.4404 Y6.3594
G01 X37.4491 Y6.3516
G01 X37.4571 Y6.3431
G01 X37.4625 Y6.3362
G01 X37.5045 Y6.2789
G01 X37.5127 Y6.2661
G01 X37.5181 Y6.2551
G01 X37.5224 Y6.2437
G01 X37.5256 Y6.2319
G01 X37.5275 Y6.2199
G01 X37.5326 Y6.1368
G01 X37.5318 Y6.1215
G01 X37.5292 Y6.1065
G01 X37.5247 Y6.0919
G01 X37.5184 Y6.0779
G01 X37.4727 Y6.0011
G01 X37.4639 Y5.9894
G01 X37.4537 Y5.9787
G01 X37.3175 Y5.8587
G01 X37.1760 Y5.6864
G01 X37.1692 Y5.6748
G01 X37.1644 Y5.6675
G01 X37.1590 Y5.6605
G01 X37.1532 Y5.6540
G01 X37.0929 Y5.5970
G01 X37.0833 Y5.5895
G01 X37.0702 Y5.5816
G01 X37.0592 Y5.5764
G01 X37.0447 Y5.5716
G01 X36.9816 Y5.5564
G01 X36.9730 Y5.5548
G01 X36.9643 Y5.5539
G01 X36.9556 Y5.5536
G01 X36.4557 Y5.5536
G01 X36.4470 Y5.5539
G01 X36.4353 Y5.5553
G01 X36.4239 Y5.5578
G01 X36.3501 Y5.5795
G01 X36.3416 Y5.5825
G01 X36.3333 Y5.5862
G01 X36.3254 Y5.5905
G01 X36.3177 Y5.5954
G01 X36.2895 Y5.6177
G01 X36.2797 Y5.6265
G01 X34.2665 Y7.6397
G01 X34.2132 Y7.6942
G01 X34.1870 Y7.7111
G01 X34.1741 Y7.7203
G01 X34.1472 Y7.7415
G01 X34.1273 Y7.7513
G01 X34.1106 Y7.7606
G01 X34.0886 Y7.7745
G01 X34.0565 Y7.7863
G01 X34.0419 Y7.7925
G01 X34.0138 Y7.8060
G01 X33.9885 Y7.8121
G01 X33.9702 Y7.8176
G01 X33.9493 Y7.8251
G01 X33.9184 Y7.8291
G01 X33.9028 Y7.8318
G01 X33.8694 Y7.8394
G01 X33.7142 Y7.8399
G01 X33.7051 Y7.8396
G01 X32.1802 Y7.8396
G01 X32.1657 Y7.8409
G01 X32.1542 Y7.8431
G01 X32.0804 Y7.8646
G01 X32.0661 Y7.8698
G01 X32.0578 Y7.8737
G01 X32.0499 Y7.8783
G01 X32.0375 Y7.8872
G01 X32.0263 Y7.8975
G01 X31.9757 Y7.9557
G01 X31.9699 Y7.9628
G01 X31.9616 Y7.9756
G01 X31.9549 Y7.9893
G01 X31.9500 Y8.0037
G01 X31.9474 Y8.0157
G01 X31.9361 Y8.0950
G01 X31.9356 Y8.1041
G01 X31.9357 Y8.1133
G01 X31.9375 Y8.1284
G01 X31.9412 Y8.1432
G01 X31.9466 Y8.1575
G01 X31.9774 Y8.2248
G01 X31.9833 Y8.2355
G01 X31.9884 Y8.2431
G01 X31.9961 Y8.2526
G01 X32.0024 Y8.2593
G01 X32.0092 Y8.2654
G01 X32.0165 Y8.2710
G01 X32.0241 Y8.2760
G01 X32.0899 Y8.3160
G01 X32.1002 Y8.3216
G01 X32.1110 Y8.3263
G01 X32.1222 Y8.3298
G01 X32.2059 Y8.3500
G01 X32.4144 Y8.4363
G01 X32.4741 Y8.4729
G01 X32.2790 Y8.6679
G01 X32.2098 Y8.6354
G01 X32.1072 Y8.5985
G01 X32.0957 Y8.5950
G01 X31.9928 Y8.5693
G01 X31.9839 Y8.5676
G01 X31.8760 Y8.5517
G01 X31.7610 Y8.5461
G01 X31.6460 Y8.5517
G01 X31.5381 Y8.5676
G01 X31.5292 Y8.5693
G01 X31.4263 Y8.5950
G01 X31.4148 Y8.5985
G01 X31.3122 Y8.6354
G01 X31.2430 Y8.6679
G01 X31.0479 Y8.4729
G01 X31.1076 Y8.4363
G01 X31.3161 Y8.3500
G01 X31.3998 Y8.3298
G01 X31.4137 Y8.3252
G01 X31.4217 Y8.3217
G01 X31.4295 Y8.3176
G01 X31.4962 Y8.2791
G01 X31.5085 Y8.2701
G01 X31.5196 Y8.2596
G01 X31.5275 Y8.2503
G01 X31.5360 Y8.2376
G01 X31.5743 Y8.1637
G01 X31.5778 Y8.1553
G01 X31.5806 Y8.1466
G01 X31.5828 Y8.1377
G01 X31.5844 Y8.1287
G01 X31.5853 Y8.1165
G01 X31.5851 Y8.1043
G01 X31.5783 Y8.0306
G01 X31.5759 Y8.0155
G01 X31.5717 Y8.0008
G01 X31.5658 Y7.9868
G01 X31.5613 Y7.9788
G01 X31.5564 Y7.9711
G01 X31.5070 Y7.9079
G01 X31.4966 Y7.8968
G01 X31.4849 Y7.8870
G01 X31.4721 Y7.8787
G01 X31.4612 Y7.8733
G01 X31.4497 Y7.8690
G01 X31.3736 Y7.8446
G01 X31.3593 Y7.8413
G01 X31.3476 Y7.8399
G01 X31.3388 Y7.8396
G01 X30.6364 Y7.8396
G01 X30.6218 Y7.8409
G01 X30.6075 Y7.8438
G01 X30.5365 Y7.8646
G01 X30.5253 Y7.8685
G01 X30.5171 Y7.8721
G01 X30.5092 Y7.8764
G01 X30.4992 Y7.8829
G01 X30.4921 Y7.8884
G01 X30.4833 Y7.8965
G01 X30.4398 Y7.9412
G01 X30.4340 Y7.9483
G01 X30.4287 Y7.9559
G01 X30.3860 Y8.0254
G01 X30.2393 Y8.1973
G01 X30.0674 Y8.3440
G01 X29.8748 Y8.4621
G01 X29.6660 Y8.5486
G01 X29.4463 Y8.6013
G01 X29.2210 Y8.6190
G01 X28.9957 Y8.6013
G01 X28.8493 Y8.5661
G01 X28.7760 Y8.5486
G01 X28.5672 Y8.4621
G01 X28.3746 Y8.3440
G01 X28.2027 Y8.1973
G01 X28.0560 Y8.0254
G01 X27.9379 Y7.8328
G01 X27.8514 Y7.6240
G01 X27.7987 Y7.4043
G01 X27.7810 Y7.1790
G01 X27.7987 Y6.9537
G01 X27.8514 Y6.7340
G01 X27.9379 Y6.5252
G01 X28.0560 Y6.3326
G01 X28.2027 Y6.1607
G01 X28.3746 Y6.0140
G01 X28.5672 Y5.8959
G01 X28.7760 Y5.8094
G01 X28.9957 Y5.7567
G01 X29.2210 Y5.7390
G01 X29.4463 Y5.7567
G01 X29.6660 Y5.8094
G01 X29.8748 Y5.8959
G01 X30.0674 Y6.0140
G01 X30.2393 Y6.1607
G01 X30.3860 Y6.3326
G01 X30.4286 Y6.4020
G01 X30.4336 Y6.4092
G01 X30.4411 Y6.4182
G01 X30.4494 Y6.4265
G01 X30.5066 Y6.4780
G01 X30.5137 Y6.4834
G01 X30.5238 Y6.4898
G01 X30.5317 Y6.4940
G01 X30.5400 Y6.4975
G01 X30.5542 Y6.5021
G01 X30.6119 Y6.5153
G01 X30.6240 Y6.5174
G01 X30.6362 Y6.5184
G01 X31.3388 Y6.5184
G01 X31.3534 Y6.5175
G01 X31.3621 Y6.5162
G01 X31.3706 Y6.5142
G01 X31.4445 Y6.4925
G01 X31.4587 Y6.4870
G01 X31.4695 Y6.4813
G01 X31.4821 Y6.4727
G01 X31.4892 Y6.4669
G01 X31.4957 Y6.4605
G01 X31.5483 Y6.4000
G01 X31.5556 Y6.3902
G01 X31.5633 Y6.3770
G01 X31.5693 Y6.3630
G01 X31.5735 Y6.3483
G01 X31.5751 Y6.3393
G01 X31.5856 Y6.2660
G01 X31.5865 Y6.2508
G01 X31.5854 Y6.2356
G01 X31.5825 Y6.2206
G01 X31.5777 Y6.2061
G01 X31.5459 Y6.1359
G01 X31.5417 Y6.1278
G01 X31.5336 Y6.1149
G01 X31.5239 Y6.1031
G01 X31.5128 Y6.0926
G01 X31.5005 Y6.0836
G01 X31.4296 Y6.0405
G01 X31.4164 Y6.0339
G01 X31.4082 Y6.0308
G01 X31.3998 Y6.0282
G01 X31.3161 Y6.0080
G01 X31.1076 Y5.9217
G01 X31.0479 Y5.8851
G01 X31.2430 Y5.6901
G01 X31.3122 Y5.7226
G01 X31.4148 Y5.7595
G01 X31.4263 Y5.7630
G01 X31.5292 Y5.7887
G01 X31.5381 Y5.7904
G01 X31.6460 Y5.8063
G01 X31.7610 Y5.8119
G01 X31.8760 Y5.8063
G01 X31.9839 Y5.7904
G01 X31.9928 Y5.7887
G01 X32.0957 Y5.7630
G01 X32.1072 Y5.7595
G01 X32.2098 Y5.7226
G01 X32.2790 Y5.6901
G01 X32.4741 Y5.8851
G01 X32.4144 Y5.9217
G01 X32.2059 Y6.0080
G01 X32.1222 Y6.0282
G01 X32.1138 Y6.0307
G01 X32.1030 Y6.0351
G01 X32.0925 Y6.0404
G01 X32.0310 Y6.0758
G01 X32.0232 Y6.0806
G01 X32.0158 Y6.0860
G01 X32.0067 Y6.0941
G01 X32.0003 Y6.1007
G01 X31.9927 Y6.1102
G01 X31.9845 Y6.1231
G01 X31.9490 Y6.1915
G01 X31.9432 Y6.2056
G01 X31.9392 Y6.2203
G01 X31.9370 Y6.2354
G01 X31.9367 Y6.2507
G01 X31.9440 Y6.3305
G01 X31.9461 Y6.3425
G01 X31.9503 Y6.3572
G01 X31.9562 Y6.3712
G01 X31.9639 Y6.3844
G01 X31.9693 Y6.3918
G01 X32.0169 Y6.4524
G01 X32.0276 Y6.4633
G01 X32.0396 Y6.4728
G01 X32.0473 Y6.4777
G01 X32.0553 Y6.4821
G01 X32.0637 Y6.4859
G01 X32.0723 Y6.4890
G01 X32.1512 Y6.5142
G01 X32.1656 Y6.5171
G01 X32.1802 Y6.5184
G01 X33.4163 Y6.5184
G01 X33.4309 Y6.5175
G01 X33.4395 Y6.5162
G01 X33.4481 Y6.5142
G01 X33.5219 Y6.4925
G01 X33.5359 Y6.4871
G01 X33.5466 Y6.4815
G01 X33.5567 Y6.4749
G01 X33.5825 Y6.4543
G01 X33.5899 Y6.4478
G01 X35.6055 Y4.4323
G01 X35.6588 Y4.3778
G01 X35.6850 Y4.3609
G01 X35.6979 Y4.3517
G01 X35.7248 Y4.3305
G01 X35.7447 Y4.3207
G01 X35.7614 Y4.3114
G01 X35.7834 Y4.2975
G01 X35.8155 Y4.2857
G01 X35.8301 Y4.2795
G01 X35.8582 Y4.2660
G01 X35.8834 Y4.2599
G01 X35.9018 Y4.2544
G01 X35.9227 Y4.2469
G01 X35.9536 Y4.2429
G01 X35.9692 Y4.2402
G01 X36.0026 Y4.2326
G01 X36.1578 Y4.2321
G01 X36.1669 Y4.2324
G01 X36.9623 Y4.2324
G01 X36.9768 Y4.2311
G01 X36.9883 Y4.2289
G01 X37.0649 Y4.2065
G01 X37.0761 Y4.2023
G01 X37.0842 Y4.1985
G01 X37.0946 Y4.1924
G01 X37.1019 Y4.1873
G01 X37.1132 Y4.1775
G01 X37.1536 Y4.1379
G01 X37.1597 Y4.1309
G01 X37.1652 Y4.1234
G01 X37.2341 Y4.0220
G01 X37.3873 Y3.8599
G01 X37.5645 Y3.7245
G01 X37.7610 Y3.6192
G01 X37.9718 Y3.5466
G01 X38.1936 Y3.5082
G01 X38.2122 Y3.5074
G01 X40.3736 Y3.5074
G01 X40.5397 Y3.5208
G01 X40.7563 Y3.5740
G01 X40.9615 Y3.6611
G01 X41.1502 Y3.7799
G01 X41.3175 Y3.9273
G01 X41.4590 Y4.0996
G01 X41.4689 Y4.1161
G01 X41.4779 Y4.1277
G01 X41.4860 Y4.1361
G01 X41.5375 Y4.1849
G01 X41.5444 Y4.1910
G01 X41.5543 Y4.1982
G01 X41.5648 Y4.2044
G01 X41.5730 Y4.2084
G01 X41.5844 Y4.2127
G01 X41.5933 Y4.2152
G01 X41.6534 Y4.2296
G01 X41.6620 Y4.2312
G01 X41.6736 Y4.2323
G01 X47.7507 Y4.2324
G01 X47.7653 Y4.2311
G01 X47.7796 Y4.2282
G01 X47.8535 Y4.2065
G01 X47.8679 Y4.2009
G01 X47.8761 Y4.1967
G01 X47.8840 Y4.1918
G01 X47.8970 Y4.1827
G01 X47.9150 Y4.1690
G01 X48.1115 Y4.0637
G01 X48.3223 Y3.9911
G01 X48.5441 Y3.9527
G01 X48.5627 Y3.9519
G01 X50.7241 Y3.9519
G01 X50.8902 Y3.9653
G01 X51.1068 Y4.0185
G01 X51.3120 Y4.1056
G01 X51.5007 Y4.2244
G01 X51.6680 Y4.3718
G01 X51.8095 Y4.5441
G01 X51.9216 Y4.7369
G01 X52.0016 Y4.9450
G01 X52.0471 Y5.1633
G01 X52.0573 Y5.3860
G01 X52.0316 Y5.6075
G01 X52.0060 Y5.6982
G01 X51.9709 Y5.8221
G01 X51.8767 Y6.0241
G01 X51.7514 Y6.2085
G01 X51.5982 Y6.3706
G01 X51.4210 Y6.5060
G01 X51.2245 Y6.6113
G01 X51.0137 Y6.6839
G01 X50.7919 Y6.7223
G01 X50.7733 Y6.7231
G01 X48.6119 Y6.7231
G01 X48.4458 Y6.7097
G01 X48.2292 Y6.6565
G01 X48.0240 Y6.5694
G01 X47.8353 Y6.4506
G01 X47.6680 Y6.3032
G01 X47.5265 Y6.1309
G01 X47.4144 Y5.9381
G01 X47.3287 Y5.7155
G01 X47.3250 Y5.7077
G01 X47.3208 Y5.7003
G01 X47.2785 Y5.6353
G01 X47.2689 Y5.6236
G01 X47.2579 Y5.6132
G01 X47.2482 Y5.6058
G01 X47.2352 Y5.5981
G01 X47.1598 Y5.5636
G01 X47.1516 Y5.5607
G01 X47.1431 Y5.5583
G01 X47.1287 Y5.5557
G01 X47.1051 Y5.5539
G01 X47.0963 Y5.5536
G01 X41.6757 Y5.5536
G01 X41.6611 Y5.5545
G01 X41.6467 Y5.5571
G01 X41.5701 Y5.5795
G01 X41.5589 Y5.5837
G01 X41.5508 Y5.5875
G01 X41.5430 Y5.5919
G01 X41.5331 Y5.5987
G01 X41.5239 Y5.6064
G01 X41.4857 Y5.6437
G01 X41.4753 Y5.6551
G01 X41.4698 Y5.6626
G01 X41.4009 Y5.7640
G01 X41.2477 Y5.9261
G01 X41.1946 Y5.9666
G01 X41.1880 Y5.9724
G01 X41.1818 Y5.9786
G01 X41.1725 Y5.9898
G01 X41.1305 Y6.0471
G01 X41.1238 Y6.0573
G01 X41.1169 Y6.0709
G01 X41.1117 Y6.0852
G01 X41.1088 Y6.0971
G01 X41.1070 Y6.1122
G01 X41.1026 Y6.1831
G01 X41.1024 Y6.1922
G01 X41.1032 Y6.2045
G01 X41.1051 Y6.2165
G01 X41.1093 Y6.2312
G01 X41.1139 Y6.2426
G01 X41.1196 Y6.2534
G01 X41.1592 Y6.3199
G01 X41.1639 Y6.3273
G01 X41.1693 Y6.3344
G01 X41.1751 Y6.3411
G01 X41.1835 Y6.3493
G01 X41.3175 Y6.4673
G01 X41.4590 Y6.6396
G01 X41.4689 Y6.6561
G01 X41.4779 Y6.6677
G01 X41.4860 Y6.6761
G01 X41.5398 Y6.7270
G01 X41.5492 Y6.7347
G01 X41.5621 Y6.7430
G01 X41.5730 Y6.7484
G01 X41.5844 Y6.7527
G01 X41.5933 Y6.7552
G01 X41.6534 Y6.7696
G01 X41.6649 Y6.7715
G01 X41.6765 Y6.7724
G01 X42.8645 Y6.7724
G01 X42.9407 Y6.7716
G01 X42.9711 Y6.7782
G01 X42.9868 Y6.7808
G01 X43.0208 Y6.7847
G01 X43.0418 Y6.7920
G01 X43.0602 Y6.7972
G01 X43.0855 Y6.8029
G01 X43.1138 Y6.8161
G01 X43.1284 Y6.8221
G01 X43.1607 Y6.8335
G01 X43.1829 Y6.8470
G01 X43.1997 Y6.8561
G01 X43.2199 Y6.8656
G01 X43.2445 Y6.8846
G01 X43.2575 Y6.8937
G01 X43.2864 Y6.9120
G01 X43.3966 Y7.0214
G01 X43.4028 Y7.0280
G01 X44.4772 Y8.1025
G01 X44.5317 Y8.1558
G01 X44.5486 Y8.1820
G01 X44.5578 Y8.1949
G01 X44.5790 Y8.2218
G01 X44.5888 Y8.2417
G01 X44.5981 Y8.2584
G01 X44.6120 Y8.2804
G01 X44.6238 Y8.3125
G01 X44.6300 Y8.3271
G01 X44.6435 Y8.3552
G01 X44.6496 Y8.3805
G01 X44.6551 Y8.3988
G01 X44.6626 Y8.4197
G01 X44.6666 Y8.4506
G01 X44.6693 Y8.4662
G01 X44.6769 Y8.4996
G01 X44.6774 Y8.6548
G01 X44.6771 Y8.6639
G01 X44.6771 Y14.2185
G01 X44.6779 Y14.2947
G01 X44.6713 Y14.3251
G01 X44.6687 Y14.3408
G01 X44.6648 Y14.3748
G01 X44.6575 Y14.3958
G01 X44.6523 Y14.4142
G01 X44.6466 Y14.4395
G01 X44.6334 Y14.4678
G01 X44.6274 Y14.4825
G01 X44.6160 Y14.5147
G01 X44.6025 Y14.5369
G01 X44.5934 Y14.5537
G01 X44.5839 Y14.5739
G01 X44.5649 Y14.5985
G01 X44.5558 Y14.6115
G01 X44.5375 Y14.6404
G01 X44.4281 Y14.7506
G01 X44.4215 Y14.7568
G01 X43.8550 Y15.3232
G01 X43.8017 Y15.3777
G01 X43.7755 Y15.3946
G01 X43.7626 Y15.4038
G01 X43.7357 Y15.4250
G01 X43.7158 Y15.4348
G01 X43.6991 Y15.4441
G01 X43.6771 Y15.4580
G01 X43.6450 Y15.4698
G01 X43.6304 Y15.4760
G01 X43.6023 Y15.4895
G01 X43.5770 Y15.4956
G01 X43.5587 Y15.5011
G01 X43.5378 Y15.5086
G01 X43.5069 Y15.5126
G01 X43.4913 Y15.5153
G01 X43.4579 Y15.5229
G01 X43.3027 Y15.5234
G01 X43.2936 Y15.5231
G01 X39.8847 Y15.5231
G01 X39.8730 Y15.5237
G01 X39.8615 Y15.5253
G01 X39.8501 Y15.5281
G01 X39.7820 Y15.5481
G01 X39.7678 Y15.5532
G01 X39.7570 Y15.5585
G01 X39.7467 Y15.5649
G01 X39.7395 Y15.5703
G01 X39.7135 Y15.5915
G01 X38.8885 Y16.4165
G01 X38.8793 Y16.4278
G01 X38.8730 Y16.4377
G01 X38.8375 Y16.5025
G01 X38.8323 Y16.5134
G01 X38.8272 Y16.5276
G01 X38.8245 Y16.5394
G01 X38.8232 Y16.5483
G01 X38.8198 Y16.5816
G01 X38.8197 Y17.1027
G01 X38.8213 Y17.1172
G01 X38.8238 Y17.1286
G01 X38.8455 Y17.2025
G01 X38.8509 Y17.2165
G01 X38.8565 Y17.2272
G01 X38.8631 Y17.2373
G01 X38.8687 Y17.2444
G01 X38.8770 Y17.2532
G01 X38.8837 Y17.2593
G01 X38.9415 Y17.3075
G01 X38.9488 Y17.3132
G01 X38.9593 Y17.3199
G01 X38.9676 Y17.3243
G01 X38.9994 Y17.3376
G01 X39.2213 Y17.4673
G01 X39.4237 Y17.6260
G01 X39.6026 Y17.8106
G01 X39.7548 Y18.0178
G01 X39.8775 Y18.2437
G01 X39.9683 Y18.4842
G01 X40.0257 Y18.7348
G01 X40.0489 Y18.9945
G01 X40.0492 Y19.0270
G01 X40.0315 Y19.2870
G01 X39.9794 Y19.5388
G01 X39.8936 Y19.7811
G01 X39.7756 Y20.0096
G01 X39.6278 Y20.2199
G01 X39.4528 Y20.4083
G01 X39.2538 Y20.5711
G01 X39.0346 Y20.7054
G01 X38.7992 Y20.8088
G01 X38.5520 Y20.8792
G01 X38.2974 Y20.9154
G01 X38.0403 Y20.9168
G01 X37.7854 Y20.8832
G01 X37.5374 Y20.8154
G01 X37.3010 Y20.7145
G01 X37.0803 Y20.5825
G01 X36.8797 Y20.4217
G01 X36.7027 Y20.2352
G01 X36.5527 Y20.0265
G01 X36.4439 Y19.8210
G01 X36.4377 Y19.8110
G01 X36.4286 Y19.7995
G01 X36.3708 Y19.7402
G01 X36.3591 Y19.7306
G01 X36.3489 Y19.7240
G01 X36.3354 Y19.7172
G01 X36.3212 Y19.7121
G01 X36.2564 Y19.6951
G01 X36.2441 Y19.6926
G01 X36.2347 Y19.6915
G01 X36.2253 Y19.6911
G01 X32.0934 Y19.6911
G01 X32.0846 Y19.6914
G01 X32.0759 Y19.6924
G01 X32.0672 Y19.6939
G01 X32.0587 Y19.6961
G01 X31.9848 Y19.7179
G01 X31.9735 Y19.7225
G01 X31.9653 Y19.7267
G01 X31.9575 Y19.7314
G01 X31.9501 Y19.7368
G01 X31.9430 Y19.7426
G01 X31.9344 Y19.7512
G01 X31.8859 Y19.8072
G01 X31.8801 Y19.8143
G01 X31.8718 Y19.8271
G01 X31.8663 Y19.8380
G01 X31.8620 Y19.8494
G01 X31.8587 Y19.8612
G01 X31.8571 Y19.8702
G01 X31.8466 Y19.9435
G01 X31.8458 Y19.9556
G01 X31.8464 Y19.9709
G01 X31.8490 Y19.9859
G01 X31.8575 Y20.0188
G01 X31.8600 Y20.0266
G01 X31.8721 Y20.0580
G01 X31.9176 Y20.2763
G01 X31.9278 Y20.4990
G01 X31.9021 Y20.7205
G01 X31.8658 Y20.8491
G01 X31.8414 Y20.9351
G01 X31.7472 Y21.1371
G01 X31.6219 Y21.3215
G01 X31.4687 Y21.4836
G01 X31.2915 Y21.6190
G01 X31.0950 Y21.7243
G01 X30.8842 Y21.7969
G01 X30.6624 Y21.8353
G01 X30.6438 Y21.8361
G01 X28.4824 Y21.8361
G01 X28.3163 Y21.8227
G01 X28.0997 Y21.7695
G01 X27.8945 Y21.6824
G01 X27.7058 Y21.5636
G01 X27.5385 Y21.4162
G01 X27.3970 Y21.2439
G01 X27.2849 Y21.0511
G01 X27.2049 Y20.8430
G01 X27.1594 Y20.6247
G01 X27.1492 Y20.4020
G01 X27.1749 Y20.1805
G01 X27.2356 Y19.9659
G01 X27.3298 Y19.7639
G01 X27.4551 Y19.5795
G01 X27.6083 Y19.4174
G01 X27.7855 Y19.2820
G01 X27.9820 Y19.1767
G01 X28.1928 Y19.1041
G01 X28.4146 Y19.0657
G01 X28.4332 Y19.0649
G01 X29.8868 Y19.0649
G01 X29.8955 Y19.0646
G01 X29.9043 Y19.0636
G01 X29.9186 Y19.0607
G01 X29.9924 Y19.0390
G01 X30.0064 Y19.0336
G01 X30.0171 Y19.0280
G01 X30.0272 Y19.0214
G01 X30.0555 Y18.9987
G01 X30.0628 Y18.9920
G01 X30.4850 Y18.5697
G01 X30.5383 Y18.5153
G01 X30.5645 Y18.4984
G01 X30.5774 Y18.4892
G01 X30.6042 Y18.4680
G01 X30.6242 Y18.4582
G01 X30.6409 Y18.4489
G01 X30.6629 Y18.4350
G01 X30.6950 Y18.4232
G01 X30.7096 Y18.4170
G01 X30.7377 Y18.4035
G01 X30.7629 Y18.3974
G01 X30.7813 Y18.3919
G01 X30.8022 Y18.3844
G01 X30.8331 Y18.3804
G01 X30.8487 Y18.3777
G01 X30.8821 Y18.3701
G01 X31.0373 Y18.3696
G01 X31.0464 Y18.3699
G01 X36.2271 Y18.3699
G01 X36.2417 Y18.3690
G01 X36.2561 Y18.3664
G01 X36.3355 Y18.3431
G01 X36.3465 Y18.3387
G01 X36.3569 Y18.3333
G01 X36.3668 Y18.3269
G01 X36.3761 Y18.3196
G01 X36.3866 Y18.3092
G01 X36.4310 Y18.2598
G01 X36.4368 Y18.2530
G01 X36.4436 Y18.2432
G01 X36.4495 Y18.2328
G01 X36.5322 Y18.0684
G01 X36.6778 Y17.8565
G01 X36.8508 Y17.6664
G01 X37.0481 Y17.5015
G01 X37.2659 Y17.3648
G01 X37.3546 Y17.3247
G01 X37.3649 Y17.3192
G01 X37.3722 Y17.3144
G01 X37.3814 Y17.3072
G01 X37.4353 Y17.2609
G01 X37.4420 Y17.2547
G01 X37.4483 Y17.2480
G01 X37.4540 Y17.2408
G01 X37.4592 Y17.2332
G01 X37.4652 Y17.2225
G01 X37.4690 Y17.2141
G01 X37.4721 Y17.2055
G01 X37.4941 Y17.1312
G01 X37.4971 Y17.1167
G01 X37.4984 Y17.1021
G01 X37.4984 Y16.2205
G01 X37.4976 Y16.1443
G01 X37.5042 Y16.1139
G01 X37.5068 Y16.0982
G01 X37.5107 Y16.0642
G01 X37.5180 Y16.0432
G01 X37.5232 Y16.0248
G01 X37.5289 Y15.9995
G01 X37.5421 Y15.9712
G01 X37.5481 Y15.9566
G01 X37.5595 Y15.9243
G01 X37.5730 Y15.9021
G01 X37.5821 Y15.8853
G01 X37.5916 Y15.8651
G01 X37.6106 Y15.8405
G01 X37.6197 Y15.8275
G01 X37.6380 Y15.7986
G01 X37.7474 Y15.6884
G01 X37.7540 Y15.6822
G01 X39.0345 Y14.4018
G01 X39.0878 Y14.3473
G01 X39.1140 Y14.3304
G01 X39.1269 Y14.3212
G01 X39.1538 Y14.3000
G01 X39.1737 Y14.2902
G01 X39.1904 Y14.2809
G01 X39.2124 Y14.2670
G01 X39.2445 Y14.2552
G01 X39.2591 Y14.2490
G01 X39.2872 Y14.2355
G01 X39.3125 Y14.2294
G01 X39.3308 Y14.2239
G01 X39.3517 Y14.2164
G01 X39.3826 Y14.2124
G01 X39.3982 Y14.2097
G01 X39.4316 Y14.2021
G01 X39.5868 Y14.2016
G01 X39.5959 Y14.2019
G01 X43.0048 Y14.2019
G01 X43.0135 Y14.2016
G01 X43.0252 Y14.2002
G01 X43.0366 Y14.1977
G01 X43.1104 Y14.1760
G01 X43.1244 Y14.1706
G01 X43.1325 Y14.1665
G01 X43.1403 Y14.1618
G01 X43.1500 Y14.1547
G01 X43.1710 Y14.1378
G01 X43.1784 Y14.1313
G01 X43.2830 Y14.0268
G01 X43.2890 Y14.0204
G01 X43.2962 Y14.0112
G01 X43.3025 Y14.0013
G01 X43.3380 Y13.9365
G01 X43.3444 Y13.9228
G01 X43.3491 Y13.9085
G01 X43.3515 Y13.8967
G01 X43.3552 Y13.8639
G01 X43.3559 Y13.8508
G01 X43.3559 Y8.9527
G01 X43.3553 Y8.9410
G01 X43.3537 Y8.9295
G01 X43.3509 Y8.9181
G01 X43.3309 Y8.8500
G01 X43.3258 Y8.8358
G01 X43.3205 Y8.8250
G01 X43.3141 Y8.8147
G01 X43.3087 Y8.8075
G01 X43.2875 Y8.7815
G01 X42.6728 Y8.1665
G01 X42.6664 Y8.1605
G01 X42.6572 Y8.1533
G01 X42.6473 Y8.1470
G01 X42.5825 Y8.1115
G01 X42.5688 Y8.1051
G01 X42.5574 Y8.1012
G01 X42.5456 Y8.0985
G01 X42.5367 Y8.0972
G01 X42.5034 Y8.0938
G01 X41.6757 Y8.0936
G01 X41.6611 Y8.0945
G01 X41.6467 Y8.0971
G01 X41.5729 Y8.1186
G01 X41.5616 Y8.1225
G01 X41.5508 Y8.1275
G01 X41.5430 Y8.1319
G01 X41.5331 Y8.1387
G01 X41.5239 Y8.1464
G01 X41.4835 Y8.1859
G01 X41.4753 Y8.1951
G01 X41.4698 Y8.2026
G01 X41.4009 Y8.3040
G01 X41.2477 Y8.4661
G01 X41.1946 Y8.5066
G01 X41.1859 Y8.5144
G01 X41.1798 Y8.5207
G01 X41.1725 Y8.5298
G01 X41.1270 Y8.5921
G01 X41.1223 Y8.5999
G01 X41.1181 Y8.6081
G01 X41.1146 Y8.6165
G01 X41.1109 Y8.6281
G01 X41.1088 Y8.6371
G01 X41.1072 Y8.6492
G01 X41.1026 Y8.7231
G01 X41.1024 Y8.7322
G01 X41.1032 Y8.7445
G01 X41.1045 Y8.7535
G01 X41.1074 Y8.7654
G01 X41.1115 Y8.7770
G01 X41.1181 Y8.7907
G01 X41.1592 Y8.8599
G01 X41.1639 Y8.8673
G01 X41.1711 Y8.8766
G01 X41.1771 Y8.8832
G01 X41.1835 Y8.8893
G01 X41.3175 Y9.0073
G01 X41.4590 Y9.1796
G01 X41.5711 Y9.3724
G01 X41.6511 Y9.5805
G01 X41.6966 Y9.7988
G01 X41.7068 Y10.0215
G01 X41.6811 Y10.2430
G01 X41.6448 Y10.3716
G01 X41.6204 Y10.4576
G01 X41.5262 Y10.6596
G01 X41.4009 Y10.8440
G01 X41.2477 Y11.0061
G01 X41.0705 Y11.1415
G01 X40.8740 Y11.2468
G01 X40.6632 Y11.3194
G01 X40.4414 Y11.3578
G01 X40.4228 Y11.3586
G01 X40.2270 Y11.3586
G01 X40.2182 Y11.3589
G01 X40.2095 Y11.3599
G01 X40.2009 Y11.3614
G01 X40.1924 Y11.3636
G01 X40.1243 Y11.3836
G01 X40.1156 Y11.3865
G01 X40.1071 Y11.3900
G01 X40.0963 Y11.3957
G01 X40.0861 Y11.4024
G01 X40.0767 Y11.4101
G01 X40.0660 Y11.4210
G01 X40.0156 Y11.4794
G01 X40.0102 Y11.4869
G01 X40.0054 Y11.4947
G01 X40.0011 Y11.5029
G01 X39.9975 Y11.5114
G01 X39.9946 Y11.5201
G01 X39.9923 Y11.5290
G01 X39.9803 Y11.5842
G01 X39.9787 Y11.5958
G01 X39.9781 Y11.6046
G01 X39.9781 Y11.6151
G01 X39.9789 Y11.6912
G01 X39.9723 Y11.7216
G01 X39.9697 Y11.7373
G01 X39.9658 Y11.7713
G01 X39.9574 Y11.7959
G01 X39.9523 Y11.8143
G01 X39.9476 Y11.8360
G01 X39.9344 Y11.8643
G01 X39.9284 Y11.8789
G01 X39.9170 Y11.9112
G01 X39.9035 Y11.9334
G01 X39.8944 Y11.9502
G01 X39.8849 Y11.9704
G01 X39.8659 Y11.9950
G01 X39.8568 Y12.0080
G01 X39.8385 Y12.0369
G01 X39.7291 Y12.1471
G01 X39.7225 Y12.1533
G01 X36.6795 Y15.1962
G01 X36.6262 Y15.2507
G01 X36.6000 Y15.2676
G01 X36.5871 Y15.2768
G01 X36.5602 Y15.2980
G01 X36.5403 Y15.3078
G01 X36.5236 Y15.3171
G01 X36.5016 Y15.3310
G01 X36.4695 Y15.3428
G01 X36.4549 Y15.3490
G01 X36.4268 Y15.3625
G01 X36.4015 Y15.3686
G01 X36.3832 Y15.3741
G01 X36.3623 Y15.3816
G01 X36.3314 Y15.3856
G01 X36.3158 Y15.3883
G01 X36.2824 Y15.3959
G01 X36.1272 Y15.3964
G01 X36.1181 Y15.3961
G01 X16.5415 Y15.3961
G01 X16.5269 Y15.3970
G01 X16.5182 Y15.3983
G01 X16.5097 Y15.4003
G01 X16.4358 Y15.4220
G01 X16.4216 Y15.4275
G01 X16.4108 Y15.4332
G01 X16.4031 Y15.4382
G01 X16.3958 Y15.4437
G01 X16.3867 Y15.4518
G01 X16.3805 Y15.4585
G01 X16.3340 Y15.5122
G01 X16.3282 Y15.5194
G01 X16.3230 Y15.5270
G01 X16.3156 Y15.5404
G01 X16.3120 Y15.5489
G01 X16.3091 Y15.5576
G01 X16.3068 Y15.5665
G01 X16.2954 Y15.6189
G01 X16.2939 Y15.6275
G01 X16.2929 Y15.6362
G01 X16.2926 Y15.6450
G01 X16.2927 Y16.0662
G01 X16.2943 Y16.0807
G01 X16.2968 Y16.0921
G01 X16.3185 Y16.1659
G01 X16.3227 Y16.1771
G01 X16.3265 Y16.1852
G01 X16.3309 Y16.1930
G01 X16.3377 Y16.2029
G01 X16.3475 Y16.2142
G01 X16.3871 Y16.2546
G01 X16.3941 Y16.2607
G01 X16.4016 Y16.2662
G01 X16.5030 Y16.3351
G01 X16.6651 Y16.4883
G01 X16.8005 Y16.6655
G01 X16.9058 Y16.8620
G01 X16.9784 Y17.0728
G01 X17.0168 Y17.2946
G01 X17.0176 Y17.3132
G01 X17.0176 Y19.4746
G01 X17.0042 Y19.6408
G01 X16.9510 Y19.8573
G01 X16.8639 Y20.0625
G01 X16.7451 Y20.2512
G01 X16.5977 Y20.4185
G01 X16.4254 Y20.5600
G01 X16.2326 Y20.6721
G01 X16.0245 Y20.7521
G01 X15.8062 Y20.7976
G01 X15.5835 Y20.8078
G01 X15.3620 Y20.7821
G01 X15.1474 Y20.7214
G01 X14.9454 Y20.6272
G01 X14.7610 Y20.5019
G01 X14.5989 Y20.3487
G01 X14.4635 Y20.1715
G01 X14.3582 Y19.9750
G01 X14.2856 Y19.7642
G01 X14.2472 Y19.5424
G01 X14.2464 Y19.5238
G01 X14.2464 Y17.3624
G01 X14.2598 Y17.1963
G01 X14.3130 Y16.9797
G01 X14.4001 Y16.7745
G01 X14.5189 Y16.5858
G01 X14.6663 Y16.4185
G01 X14.8386 Y16.2770
G01 X14.8551 Y16.2671
G01 X14.8622 Y16.2619
G01 X14.8689 Y16.2562
G01 X14.8751 Y16.2500
G01 X14.9239 Y16.1985
G01 X14.9300 Y16.1916
G01 X14.9372 Y16.1817
G01 X14.9420 Y16.1739
G01 X14.9461 Y16.1658
G01 X14.9497 Y16.1573
G01 X14.9542 Y16.1427
G01 X14.9686 Y16.0826
G01 X14.9705 Y16.0711
G01 X14.9713 Y16.0624
G01 X14.9713 Y15.6392
G01 X14.9697 Y15.6246
G01 X14.9672 Y15.6132
G01 X14.9446 Y15.5364
G01 X14.9412 Y15.5279
G01 X14.9358 Y15.5170
G01 X14.9293 Y15.5066
G01 X14.9219 Y15.4970
G01 X14.9113 Y15.4860
G01 X14.8530 Y15.4355
G01 X14.8405 Y15.4265
G01 X14.8299 Y15.4205
G01 X14.8157 Y15.4145
G01 X14.8040 Y15.4110
G01 X14.7458 Y15.3983
G01 X14.7371 Y15.3970
G01 X14.7254 Y15.3961
G01 X9.4814 Y15.3961
G01 X9.4053 Y15.3969
G01 X9.3718 Y15.3898
G01 X9.3562 Y15.3873
G01 X9.3252 Y15.3838
G01 X9.3006 Y15.3754
G01 X9.2822 Y15.3703
G01 X9.2605 Y15.3656
G01 X9.2322 Y15.3524
G01 X9.2176 Y15.3464
G01 X9.1853 Y15.3350
G01 X9.1631 Y15.3215
G01 X9.1463 Y15.3124
G01 X9.1261 Y15.3029
G01 X9.1015 Y15.2839
G01 X9.0885 Y15.2748
G01 X9.0596 Y15.2565
G01 X8.9494 Y15.1471
G01 X8.9432 Y15.1405
G01 X5.9003 Y12.0975
G01 X5.8458 Y12.0442
G01 X5.8289 Y12.0180
G01 X5.8197 Y12.0051
G01 X5.7985 Y11.9782
G01 X5.7887 Y11.9583
G01 X5.7794 Y11.9416
G01 X5.7655 Y11.9196
G01 X5.7537 Y11.8875
G01 X5.7475 Y11.8729
G01 X5.7340 Y11.8448
G01 X5.7279 Y11.8195
G01 X5.7224 Y11.8012
G01 X5.7149 Y11.7803
G01 X5.7109 Y11.7494
G01 X5.7082 Y11.7338
G01 X5.7006 Y11.7004
G01 X5.7001 Y11.5452
G01 X5.7004 Y11.5361
G01 X5.7004 Y9.6019
G01 X5.7001 Y9.5932
G01 X5.6991 Y9.5844
G01 X5.6962 Y9.5701
G01 X5.6745 Y9.4963
G01 X5.6702 Y9.4849
G01 X5.6649 Y9.4740
G01 X5.6566 Y9.4612
G01 X5.6490 Y9.4517
G01 X5.6058 Y9.4080
G01 X5.5972 Y9.4005
G01 X5.5880 Y9.3938
G01 X5.3930 Y9.2660
G01 X5.2172 Y9.1090
G01 X5.0665 Y8.9278
G01 X4.9443 Y8.7264
G01 X4.8531 Y8.5090
G01 X4.7951 Y8.2806
G01 X4.7715 Y8.0461
G00 Z2.0000
G00 X5.9630 Y9.2656
G01 F50.00
G01 Z-0.1300
G01 F70.00
G01 X5.8547 Y9.2267
G01 X5.7374 Y9.1712
G01 X5.6260 Y9.1045
G01 X5.5218 Y9.0271
G01 X5.4256 Y8.9399
G01 X5.3384 Y8.8437
G01 X5.2610 Y8.7395
G01 X5.1943 Y8.6281
G01 X5.1388 Y8.5108
G01 X5.0951 Y8.3885
G01 X5.0635 Y8.2626
G01 X5.0445 Y8.1342
G01 X5.0381 Y8.0045
G01 X5.0445 Y7.8748
G01 X5.0635 Y7.7464
G01 X5.0951 Y7.6205
G01 X5.1388 Y7.4982
G01 X5.1943 Y7.3809
G01 X5.2610 Y7.2695
G01 X5.3384 Y7.1653
G01 X5.4256 Y7.0691
G01 X5.5218 Y6.9819
G01 X5.6260 Y6.9045
G01 X5.7374 Y6.8378
G01 X5.8547 Y6.7823
G01 X5.9770 Y6.7386
G01 X6.1029 Y6.7070
G01 X6.2313 Y6.6880
G01 X6.3610 Y6.6816
G01 X6.4907 Y6.6880
G01 X6.6191 Y6.7070
G01 X6.7450 Y6.7386
G01 X6.8673 Y6.7823
G01 X6.9792 Y6.8351
G01 X6.9899 Y6.8408
G01 X7.0960 Y6.9045
G01 X7.2002 Y6.9819
G01 X7.2921 Y7.0649
G01 X7.3006 Y7.0734
G01 X7.3797 Y7.1607
G01 X7.3873 Y7.1700
G01 X7.4610 Y7.2695
G01 X7.5277 Y7.3809
G01 X7.5832 Y7.4982
G01 X7.6250 Y7.6148
G01 X7.6285 Y7.6263
G01 X7.6572 Y7.7405
G01 X7.6595 Y7.7524
G01 X7.6775 Y7.8748
G01 X7.6839 Y8.0045
G01 X7.6780 Y8.1282
G01 X7.6768 Y8.1402
G01 X7.6585 Y8.2626
G01 X7.6269 Y8.3885
G01 X7.5832 Y8.5108
G01 X7.5304 Y8.6227
G01 X7.5247 Y8.6334
G01 X7.4642 Y8.7344
G01 X7.4575 Y8.7444
G01 X7.3836 Y8.8437
G01 X7.3006 Y8.9356
G01 X7.2921 Y8.9441
G01 X7.2048 Y9.0232
G01 X7.1955 Y9.0308
G01 X7.0960 Y9.1045
G01 X6.9846 Y9.1712
G01 X6.8673 Y9.2267
G01 X6.7590 Y9.2656
G01 X6.7590 Y11.4591
G01 X9.6374 Y14.3375
G01 X36.0411 Y14.3375
G01 X38.9195 Y11.4591
G01 X38.9195 Y11.0959
G01 X38.3175 Y11.0959
G01 X38.2104 Y11.0908
G01 X38.2014 Y11.0898
G01 X38.1044 Y11.0754
G01 X38.0925 Y11.0730
G01 X37.9915 Y11.0475
G01 X37.8934 Y11.0126
G01 X37.8823 Y11.0080
G01 X37.7882 Y10.9633
G01 X37.6987 Y10.9099
G01 X37.6887 Y10.9032
G01 X37.6099 Y10.8447
G01 X37.6006 Y10.8371
G01 X37.5235 Y10.7670
G01 X37.4495 Y10.6854
G01 X37.3838 Y10.5968
G01 X37.3286 Y10.5050
G01 X37.3245 Y10.4969
G01 X37.2801 Y10.4027
G01 X37.2448 Y10.3047
G01 X37.2413 Y10.2931
G01 X37.2175 Y10.1980
G01 X37.2151 Y10.1861
G01 X37.2000 Y10.0831
G01 X37.1946 Y9.9730
G01 X37.2000 Y9.8629
G01 X37.2162 Y9.7539
G01 X37.2430 Y9.6470
G01 X37.2801 Y9.5433
G01 X37.3272 Y9.4437
G01 X37.3806 Y9.3542
G01 X37.3873 Y9.3442
G01 X37.4458 Y9.2654
G01 X37.4534 Y9.2561
G01 X37.5235 Y9.1790
G01 X37.6051 Y9.1050
G01 X37.6937 Y9.0393
G01 X37.7829 Y8.9857
G01 X37.7936 Y8.9800
G01 X37.8878 Y8.9356
G01 X37.9915 Y8.8985
G01 X38.0925 Y8.8730
G01 X38.1044 Y8.8706
G01 X38.2014 Y8.8562
G01 X38.2104 Y8.8552
G01 X38.3175 Y8.8501
G01 X40.3175 Y8.8501
G01 X40.4276 Y8.8555
G01 X40.5306 Y8.8706
G01 X40.5395 Y8.8723
G01 X40.6435 Y8.8985
G01 X40.7472 Y8.9356
G01 X40.8468 Y8.9827
G01 X40.9363 Y9.0361
G01 X40.9463 Y9.0428
G01 X41.0251 Y9.1013
G01 X41.0344 Y9.1089
G01 X41.1115 Y9.1790
G01 X41.1855 Y9.2606
G01 X41.2512 Y9.3492
G01 X41.3078 Y9.4437
G01 X41.3549 Y9.5433
G01 X41.3902 Y9.6413
G01 X41.3937 Y9.6529
G01 X41.4175 Y9.7480
G01 X41.4199 Y9.7599
G01 X41.4350 Y9.8629
G01 X41.4403 Y9.9670
G01 X41.4404 Y9.9760
G01 X41.4354 Y10.0770
G01 X41.4343 Y10.0891
G01 X41.4188 Y10.1921
G01 X41.3937 Y10.2931
G01 X41.3902 Y10.3047
G01 X41.3549 Y10.4027
G01 X41.3078 Y10.5023
G01 X41.2544 Y10.5918
G01 X41.2477 Y10.6018
G01 X41.1855 Y10.6854
G01 X41.1157 Y10.7626
G01 X41.1071 Y10.7712
G01 X41.0299 Y10.8410
G01 X40.9463 Y10.9032
G01 X40.9388 Y10.9083
G01 X40.8468 Y10.9633
G01 X40.7472 Y11.0104
G01 X40.6435 Y11.0475
G01 X40.5425 Y11.0730
G01 X40.5306 Y11.0754
G01 X40.4276 Y11.0905
G01 X40.3205 Y11.0959
G01 X39.7155 Y11.0959
G01 X39.7155 Y11.6240
G01 X39.7141 Y11.6570
G01 X39.7133 Y11.6660
G01 X39.7079 Y11.7017
G01 X39.7000 Y11.7337
G01 X39.6965 Y11.7453
G01 X39.6852 Y11.7763
G01 X39.6685 Y11.8116
G01 X39.6517 Y11.8400
G01 X39.6450 Y11.8501
G01 X39.6232 Y11.8788
G01 X39.5990 Y11.9055
G01 X36.4853 Y15.0191
G01 X36.4585 Y15.0432
G01 X36.4321 Y15.0630
G01 X36.4220 Y15.0697
G01 X36.3936 Y15.0865
G01 X36.3638 Y15.1008
G01 X36.3527 Y15.1054
G01 X36.3215 Y15.1164
G01 X36.2837 Y15.1259
G01 X36.2450 Y15.1316
G01 X36.2060 Y15.1335
G01 X16.0300 Y15.1341
G01 X16.0300 Y16.3696
G01 X16.0561 Y16.3789
G01 X16.0645 Y16.3823
G01 X16.1587 Y16.4268
G01 X16.1666 Y16.4312
G01 X16.2508 Y16.4816
G01 X16.2583 Y16.4865
G01 X16.3444 Y16.5505
G01 X16.4216 Y16.6203
G01 X16.4302 Y16.6289
G01 X16.4981 Y16.7038
G01 X16.5037 Y16.7109
G01 X16.5622 Y16.7897
G01 X16.5689 Y16.7997
G01 X16.6223 Y16.8892
G01 X16.6670 Y16.9833
G01 X16.6716 Y16.9944
G01 X16.7065 Y17.0925
G01 X16.7320 Y17.1935
G01 X16.7339 Y17.2024
G01 X16.7495 Y17.3084
G01 X16.7549 Y17.4185
G01 X16.7549 Y19.4185
G01 X16.7498 Y19.5256
G01 X16.7488 Y19.5346
G01 X16.7333 Y19.6376
G01 X16.7065 Y19.7445
G01 X16.6694 Y19.8482
G01 X16.6250 Y19.9424
G01 X16.6193 Y19.9531
G01 X16.5689 Y20.0373
G01 X16.5622 Y20.0473
G01 X16.5000 Y20.1309
G01 X16.4302 Y20.2081
G01 X16.4216 Y20.2167
G01 X16.3444 Y20.2865
G01 X16.2558 Y20.3522
G01 X16.1613 Y20.4088
G01 X16.0617 Y20.4559
G01 X15.9580 Y20.4930
G01 X15.8511 Y20.5198
G01 X15.7421 Y20.5360
G01 X15.6380 Y20.5413
G01 X15.6290 Y20.5414
G01 X15.5219 Y20.5360
G01 X15.4129 Y20.5198
G01 X15.3060 Y20.4930
G01 X15.2023 Y20.4559
G01 X15.1027 Y20.4088
G01 X15.0082 Y20.3522
G01 X14.9196 Y20.2865
G01 X14.8424 Y20.2167
G01 X14.8338 Y20.2081
G01 X14.7640 Y20.1309
G01 X14.7018 Y20.0473
G01 X14.6951 Y20.0373
G01 X14.6447 Y19.9531
G01 X14.6390 Y19.9424
G01 X14.5946 Y19.8482
G01 X14.5575 Y19.7445
G01 X14.5307 Y19.6376
G01 X14.5152 Y19.5346
G01 X14.5142 Y19.5256
G01 X14.5091 Y19.4185
G01 X14.5091 Y17.4185
G01 X14.5145 Y17.3084
G01 X14.5301 Y17.2024
G01 X14.5320 Y17.1935
G01 X14.5558 Y17.0984
G01 X14.5593 Y17.0868
G01 X14.5946 Y16.9888
G01 X14.6390 Y16.8946
G01 X14.6447 Y16.8839
G01 X14.6983 Y16.7947
G01 X14.7603 Y16.7109
G01 X14.7659 Y16.7038
G01 X14.8338 Y16.6289
G01 X14.8424 Y16.6203
G01 X14.9196 Y16.5505
G01 X15.0057 Y16.4865
G01 X15.0132 Y16.4816
G01 X15.0974 Y16.4312
G01 X15.1053 Y16.4268
G01 X15.1995 Y16.3823
G01 X15.2079 Y16.3789
G01 X15.2340 Y16.3696
G01 X15.2340 Y15.2814
G01 X15.0861 Y15.1335
G01 X9.4725 Y15.1335
G01 X9.4395 Y15.1321
G01 X9.4275 Y15.1309
G01 X9.3948 Y15.1259
G01 X9.3570 Y15.1164
G01 X9.3258 Y15.1054
G01 X9.3147 Y15.1008
G01 X9.2849 Y15.0865
G01 X9.2539 Y15.0681
G01 X9.2464 Y15.0630
G01 X9.2200 Y15.0432
G01 X9.1910 Y15.0170
G01 X6.0795 Y11.9055
G01 X6.0573 Y11.8811
G01 X6.0496 Y11.8718
G01 X6.0300 Y11.8451
G01 X6.0114 Y11.8143
G01 X6.0073 Y11.8062
G01 X5.9933 Y11.7763
G01 X5.9820 Y11.7453
G01 X5.9785 Y11.7337
G01 X5.9706 Y11.7017
G01 X5.9656 Y11.6690
G01 X5.9646 Y11.6600
G01 X5.9630 Y11.6270
G01 X5.9630 Y9.2656
G00 Z2.0000
G00 X14.9988 Y15.3179
G01 F50.00
G01 Z-0.1300
G01 F70.00
G01 X15.0098 Y15.3179
G01 X15.0496 Y15.3577
G01 X15.0496 Y15.3636
G01 X15.0354 Y15.3497
G01 X14.9988 Y15.3179
G00 Z2.0000
G00 X16.2144 Y15.3687
G01 F50.00
G01 Z-0.1300
G01 F70.00
G01 X16.2144 Y15.3185
G01 X16.2595 Y15.3184
G01 X16.2462 Y15.3321
G01 X16.2144 Y15.3687
G00 Z2.0000
G00 X25.2415 Y9.7189
G01 F50.00
G01 Z-0.1300
G01 F70.00
G01 X25.2592 Y9.4937
G01 X25.3119 Y9.2743
G01 X25.3983 Y9.0656
G01 X25.4349 Y9.0059
G01 X25.6299 Y9.2010
G01 X25.5974 Y9.2702
G01 X25.5605 Y9.3728
G01 X25.5570 Y9.3843
G01 X25.5313 Y9.4872
G01 X25.5296 Y9.4961
G01 X25.5137 Y9.6040
G01 X25.5081 Y9.7190
G01 X25.5137 Y9.8340
G01 X25.5296 Y9.9419
G01 X25.5313 Y9.9508
G01 X25.5570 Y10.0537
G01 X25.5605 Y10.0652
G01 X25.5974 Y10.1678
G01 X25.6299 Y10.2370
G01 X25.4349 Y10.4321
G01 X25.3983 Y10.3724
G01 X25.3119 Y10.1637
G01 X25.2592 Y9.9443
G01 X25.2415 Y9.7189
G00 Z2.0000
G00 X25.9679 Y8.4729
G01 F50.00
G01 Z-0.1300
G01 F70.00
G01 X26.0276 Y8.4363
G01 X26.2363 Y8.3499
G01 X26.4557 Y8.2972
G01 X26.6811 Y8.2795
G01 X26.9063 Y8.2972
G01 X27.1257 Y8.3499
G01 X27.3344 Y8.4363
G01 X27.3941 Y8.4729
G01 X27.1990 Y8.6679
G01 X27.1298 Y8.6354
G01 X27.0272 Y8.5985
G01 X27.0157 Y8.5950
G01 X26.9128 Y8.5693
G01 X26.9039 Y8.5676
G01 X26.7960 Y8.5517
G01 X26.6810 Y8.5461
G01 X26.5660 Y8.5517
G01 X26.4581 Y8.5676
G01 X26.4492 Y8.5693
G01 X26.3463 Y8.5950
G01 X26.3348 Y8.5985
G01 X26.2322 Y8.6354
G01 X26.1630 Y8.6679
G01 X25.9679 Y8.4729
G00 Z2.0000
G00 X27.7321 Y9.2010
G01 F50.00
G01 Z-0.1300
G01 F70.00
G01 X27.9271 Y9.0059
G01 X27.9637 Y9.0656
G01 X28.0500 Y9.2741
G01 X28.1028 Y9.4937
G01 X28.1205 Y9.7191
G01 X28.1028 Y9.9443
G01 X28.0500 Y10.1639
G01 X27.9637 Y10.3724
G01 X27.9271 Y10.4321
G01 X27.7321 Y10.2370
G01 X27.7646 Y10.1678
G01 X27.8015 Y10.0652
G01 X27.8050 Y10.0537
G01 X27.8307 Y9.9508
G01 X27.8324 Y9.9419
G01 X27.8483 Y9.8340
G01 X27.8539 Y9.7190
G01 X27.8483 Y9.6040
G01 X27.8324 Y9.4961
G01 X27.8307 Y9.4872
G01 X27.8050 Y9.3843
G01 X27.8015 Y9.3728
G01 X27.7646 Y9.2702
G01 X27.7321 Y9.2010
G00 Z2.0000
G00 X25.9679 Y10.9651
G01 F50.00
G01 Z-0.1300
G01 F70.00
G01 X26.1630 Y10.7701
G01 X26.2322 Y10.8026
G01 X26.3348 Y10.8395
G01 X26.3463 Y10.8430
G01 X26.4492 Y10.8687
G01 X26.4581 Y10.8704
G01 X26.5660 Y10.8863
G01 X26.6810 Y10.8919
G01 X26.7960 Y10.8863
G01 X26.9039 Y10.8704
G01 X26.9128 Y10.8687
G01 X27.0157 Y10.8430
G01 X27.0272 Y10.8395
G01 X27.1298 Y10.8026
G01 X27.1990 Y10.7701
G01 X27.3941 Y10.9651
G01 X27.3344 Y11.0017
G01 X27.1257 Y11.0881
G01 X26.9063 Y11.1408
G01 X26.6809 Y11.1585
G01 X26.4557 Y11.1408
G01 X26.2363 Y11.0881
G01 X26.0276 Y11.0017
G01 X25.9679 Y10.9651
G00 Z2.0000
G00 X30.5149 Y10.4321
G01 F50.00
G01 Z-0.1300
G01 F70.00
G01 X30.4783 Y10.3724
G01 X30.3919 Y10.1637
G01 X30.3392 Y9.9443
G01 X30.3215 Y9.7189
G01 X30.3392 Y9.4937
G01 X30.3919 Y9.2743
G01 X30.4783 Y9.0656
G01 X30.5149 Y9.0059
G01 X30.7099 Y9.2010
G01 X30.6774 Y9.2702
G01 X30.6405 Y9.3728
G01 X30.6370 Y9.3843
G01 X30.6113 Y9.4872
G01 X30.6096 Y9.4961
G01 X30.5937 Y9.6040
G01 X30.5881 Y9.7190
G01 X30.5937 Y9.8340
G01 X30.6096 Y9.9419
G01 X30.6113 Y9.9508
G01 X30.6370 Y10.0537
G01 X30.6405 Y10.0652
G01 X30.6774 Y10.1678
G01 X30.7099 Y10.2370
G01 X30.5149 Y10.4321
G00 Z2.0000
G00 X31.0479 Y10.9651
G01 F50.00
G01 Z-0.1300
G01 F70.00
G01 X31.2430 Y10.7701
G01 X31.3122 Y10.8026
G01 X31.4148 Y10.8395
G01 X31.4263 Y10.8430
G01 X31.5292 Y10.8687
G01 X31.5381 Y10.8704
G01 X31.6460 Y10.8863
G01 X31.7610 Y10.8919
G01 X31.8760 Y10.8863
G01 X31.9839 Y10.8704
G01 X31.9928 Y10.8687
G01 X32.0957 Y10.8430
G01 X32.1072 Y10.8395
G01 X32.2098 Y10.8026
G01 X32.2790 Y10.7701
G01 X32.4741 Y10.9651
G01 X32.4144 Y11.0017
G01 X32.2057 Y11.0881
G01 X31.9863 Y11.1408
G01 X31.7609 Y11.1585
G01 X31.5357 Y11.1408
G01 X31.3163 Y11.0881
G01 X31.1076 Y11.0017
G01 X31.0479 Y10.9651
G00 Z2.0000
G00 X32.8121 Y10.2370
G01 F50.00
G01 Z-0.1300
G01 F70.00
G01 X32.8446 Y10.1678
G01 X32.8815 Y10.0652
G01 X32.8850 Y10.0537
G01 X32.9107 Y9.9508
G01 X32.9124 Y9.9419
G01 X32.9283 Y9.8340
G01 X32.9339 Y9.7190
G01 X32.9283 Y9.6040
G01 X32.9124 Y9.4961
G01 X32.9107 Y9.4872
G01 X32.8850 Y9.3843
G01 X32.8815 Y9.3728
G01 X32.8446 Y9.2702
G01 X32.8121 Y9.2010
G01 X33.0071 Y9.0059
G01 X33.0437 Y9.0656
G01 X33.1300 Y9.2741
G01 X33.1828 Y9.4937
G01 X33.2005 Y9.7191
G01 X33.1828 Y9.9443
G01 X33.1300 Y10.1639
G01 X33.0437 Y10.3724
G01 X33.0071 Y10.4321
G01 X32.8121 Y10.2370
G00 Z2.0000
G00 X31.7612 Y8.1844
G01 F50.00
G01 Z-0.1300
G01 F70.00
G01 X31.7677 Y8.2057
G01 X31.7759 Y8.2271
G01 X31.8117 Y8.3056
G01 X31.8225 Y8.3257
G01 X31.8305 Y8.3387
G01 X31.8392 Y8.3513
G01 X31.8503 Y8.3658
G01 X31.7761 Y8.3621
G01 X31.7610 Y8.3618
G01 X31.7459 Y8.3621
G01 X31.6712 Y8.3658
G01 X31.6830 Y8.3498
G01 X31.6952 Y8.3305
G01 X31.7026 Y8.3171
G01 X31.7387 Y8.2473
G01 X31.7450 Y8.2334
G01 X31.7507 Y8.2192
G01 X31.7556 Y8.2048
G01 X31.7612 Y8.1844
G00 Z2.0000
G00 X31.6217 Y7.7614
G01 F50.00
G01 Z-0.1300
G01 F70.00
G01 X31.9017 Y7.7614
G01 X31.8931 Y7.7700
G01 X31.8828 Y7.7813
G01 X31.8314 Y7.8408
G01 X31.8220 Y7.8528
G01 X31.8132 Y7.8653
G01 X31.8012 Y7.8847
G01 X31.7940 Y7.8982
G01 X31.7875 Y7.9120
G01 X31.7790 Y7.9333
G01 X31.7743 Y7.9478
G01 X31.7703 Y7.9625
G01 X31.7670 Y7.9774
G01 X31.7617 Y8.0117
G01 X31.7589 Y7.9908
G01 X31.7560 Y7.9758
G01 X31.7523 Y7.9610
G01 X31.7479 Y7.9464
G01 X31.7428 Y7.9320
G01 X31.7370 Y7.9179
G01 X31.7305 Y7.9041
G01 X31.7233 Y7.8906
G01 X31.7155 Y7.8775
G01 X31.7025 Y7.8587
G01 X31.6541 Y7.7967
G01 X31.6394 Y7.7792
G01 X31.6288 Y7.7682
G01 X31.6217 Y7.7614
G00 Z2.0000
G00 X31.9003 Y6.5966
G01 F50.00
G01 Z-0.1300
G01 F70.00
G01 X31.6203 Y6.5966
G01 X31.6289 Y6.5880
G01 X31.6392 Y6.5767
G01 X31.6906 Y6.5172
G01 X31.7000 Y6.5052
G01 X31.7088 Y6.4927
G01 X31.7208 Y6.4733
G01 X31.7280 Y6.4598
G01 X31.7375 Y6.4390
G01 X31.7430 Y6.4247
G01 X31.7477 Y6.4102
G01 X31.7517 Y6.3955
G01 X31.7550 Y6.3806
G01 X31.7603 Y6.3463
G01 X31.7631 Y6.3672
G01 X31.7660 Y6.3822
G01 X31.7697 Y6.3970
G01 X31.7741 Y6.4116
G01 X31.7792 Y6.4260
G01 X31.7850 Y6.4401
G01 X31.7915 Y6.4539
G01 X31.7987 Y6.4674
G01 X31.8107 Y6.4869
G01 X31.8195 Y6.4993
G01 X31.8679 Y6.5613
G01 X31.8826 Y6.5788
G01 X31.8932 Y6.5898
G01 X31.9003 Y6.5966
G00 Z2.0000
G00 X31.7608 Y6.1736
G01 F50.00
G01 Z-0.1300
G01 F70.00
G01 X31.7543 Y6.1523
G01 X31.7461 Y6.1309
G01 X31.7103 Y6.0524
G01 X31.6995 Y6.0323
G01 X31.6915 Y6.0193
G01 X31.6828 Y6.0067
G01 X31.6717 Y5.9922
G01 X31.7459 Y5.9959
G01 X31.7610 Y5.9962
G01 X31.7761 Y5.9959
G01 X31.8508 Y5.9922
G01 X31.8390 Y6.0082
G01 X31.8268 Y6.0275
G01 X31.8194 Y6.0409
G01 X31.7833 Y6.1107
G01 X31.7770 Y6.1246
G01 X31.7713 Y6.1388
G01 X31.7664 Y6.1532
G01 X31.7608 Y6.1736
G00 Z2.0000
G00 X32.8121 Y5.1570
G01 F50.00
G01 Z-0.1300
G01 F70.00
G01 X32.8446 Y5.0878
G01 X32.8815 Y4.9852
G01 X32.8850 Y4.9737
G01 X32.9107 Y4.8708
G01 X32.9124 Y4.8619
G01 X32.9283 Y4.7540
G01 X32.9339 Y4.6390
G01 X32.9283 Y4.5240
G01 X32.9124 Y4.4161
G01 X32.9107 Y4.4072
G01 X32.8850 Y4.3043
G01 X32.8815 Y4.2928
G01 X32.8446 Y4.1902
G01 X32.8121 Y4.1210
G01 X33.0071 Y3.9259
G01 X33.0437 Y3.9856
G01 X33.1300 Y4.1941
G01 X33.1828 Y4.4137
G01 X33.2005 Y4.6391
G01 X33.1828 Y4.8643
G01 X33.1300 Y5.0839
G01 X33.0437 Y5.2924
G01 X33.0071 Y5.3521
G01 X32.8121 Y5.1570
G00 Z2.0000
G00 X30.5149 Y5.3521
G01 F50.00
G01 Z-0.1300
G01 F70.00
G01 X30.4783 Y5.2924
G01 X30.3919 Y5.0837
G01 X30.3392 Y4.8643
G01 X30.3215 Y4.6389
G01 X30.3392 Y4.4137
G01 X30.3919 Y4.1943
G01 X30.4783 Y3.9856
G01 X30.5149 Y3.9259
G01 X30.7099 Y4.1210
G01 X30.6774 Y4.1902
G01 X30.6405 Y4.2928
G01 X30.6370 Y4.3043
G01 X30.6113 Y4.4072
G01 X30.6096 Y4.4161
G01 X30.5937 Y4.5240
G01 X30.5881 Y4.6390
G01 X30.5937 Y4.7540
G01 X30.6096 Y4.8619
G01 X30.6113 Y4.8708
G01 X30.6370 Y4.9737
G01 X30.6405 Y4.9852
G01 X30.6774 Y5.0878
G01 X30.7099 Y5.1570
G01 X30.5149 Y5.3521
G00 Z2.0000
G00 X30.3230 Y6.7810
G01 F50.00
G01 Z-0.1300
G01 F70.00
G01 X33.6281 Y6.7810
G01 X35.7975 Y4.6115
G01 X35.8265 Y4.5853
G01 X35.8579 Y4.5620
G01 X35.8861 Y4.5449
G01 X35.8968 Y4.5393
G01 X35.9267 Y4.5253
G01 X35.9635 Y4.5121
G01 X35.9955 Y4.5039
G01 X36.0073 Y4.5016
G01 X36.0400 Y4.4969
G01 X36.0730 Y4.4951
G01 X37.2686 Y4.4950
G01 X37.2779 Y4.4689
G01 X37.2813 Y4.4605
G01 X37.3258 Y4.3663
G01 X37.3302 Y4.3584
G01 X37.3806 Y4.2742
G01 X37.3855 Y4.2667
G01 X37.4495 Y4.1806
G01 X37.5193 Y4.1034
G01 X37.5279 Y4.0948
G01 X37.6006 Y4.0289
G01 X37.6075 Y4.0231
G01 X37.6937 Y3.9593
G01 X37.7829 Y3.9057
G01 X37.7936 Y3.9000
G01 X37.8878 Y3.8556
G01 X37.9915 Y3.8185
G01 X38.0925 Y3.7930
G01 X38.1044 Y3.7906
G01 X38.2014 Y3.7762
G01 X38.2104 Y3.7752
G01 X38.3175 Y3.7701
G01 X40.3175 Y3.7701
G01 X40.4276 Y3.7755
G01 X40.5306 Y3.7906
G01 X40.5395 Y3.7923
G01 X40.6376 Y3.8168
G01 X40.6492 Y3.8203
G01 X40.7472 Y3.8556
G01 X40.8414 Y3.9000
G01 X40.8521 Y3.9057
G01 X40.9413 Y3.9593
G01 X41.0251 Y4.0213
G01 X41.0322 Y4.0269
G01 X41.1071 Y4.0948
G01 X41.1157 Y4.1034
G01 X41.1855 Y4.1806
G01 X41.2495 Y4.2667
G01 X41.2544 Y4.2742
G01 X41.3048 Y4.3584
G01 X41.3092 Y4.3663
G01 X41.3537 Y4.4605
G01 X41.3571 Y4.4689
G01 X41.3664 Y4.4950
G01 X47.9273 Y4.4950
G01 X47.9511 Y4.4734
G01 X47.9580 Y4.4676
G01 X48.0392 Y4.4073
G01 X48.0467 Y4.4022
G01 X48.1387 Y4.3472
G01 X48.2355 Y4.3013
G01 X48.2439 Y4.2979
G01 X48.3363 Y4.2648
G01 X48.3479 Y4.2613
G01 X48.4489 Y4.2362
G01 X48.5579 Y4.2200
G01 X48.6680 Y4.2146
G01 X50.6680 Y4.2146
G01 X50.7781 Y4.2200
G01 X50.8871 Y4.2362
G01 X50.9881 Y4.2613
G01 X50.9997 Y4.2648
G01 X51.0921 Y4.2979
G01 X51.1032 Y4.3025
G01 X51.1973 Y4.3472
G01 X51.2918 Y4.4038
G01 X51.3804 Y4.4695
G01 X51.4620 Y4.5435
G01 X51.5360 Y4.6251
G01 X51.6017 Y4.7137
G01 X51.6583 Y4.8082
G01 X51.7030 Y4.9023
G01 X51.7076 Y4.9134
G01 X51.7407 Y5.0058
G01 X51.7442 Y5.0174
G01 X51.7693 Y5.1184
G01 X51.7848 Y5.2214
G01 X51.7858 Y5.2304
G01 X51.7909 Y5.3375
G01 X51.7855 Y5.4476
G01 X51.7693 Y5.5566
G01 X51.7442 Y5.6576
G01 X51.7407 Y5.6692
G01 X51.7076 Y5.7616
G01 X51.7030 Y5.7727
G01 X51.6583 Y5.8668
G01 X51.6049 Y5.9563
G01 X51.5982 Y5.9663
G01 X51.5360 Y6.0499
G01 X51.4662 Y6.1271
G01 X51.4576 Y6.1357
G01 X51.3804 Y6.2055
G01 X51.2918 Y6.2712
G01 X51.1973 Y6.3278
G01 X51.0977 Y6.3749
G01 X50.9940 Y6.4120
G01 X50.8871 Y6.4388
G01 X50.7781 Y6.4550
G01 X50.6680 Y6.4604
G01 X48.6650 Y6.4604
G01 X48.5579 Y6.4550
G01 X48.4489 Y6.4388
G01 X48.3420 Y6.4120
G01 X48.2411 Y6.3760
G01 X48.2328 Y6.3725
G01 X48.1441 Y6.3305
G01 X48.1334 Y6.3248
G01 X48.0442 Y6.2712
G01 X47.9556 Y6.2055
G01 X47.8740 Y6.1315
G01 X47.8039 Y6.0544
G01 X47.7963 Y6.0451
G01 X47.7378 Y5.9663
G01 X47.7327 Y5.9588
G01 X47.6777 Y5.8668
G01 X47.6330 Y5.7727
G01 X47.6284 Y5.7616
G01 X47.5953 Y5.6692
G01 X47.5926 Y5.6606
G01 X47.5667 Y5.5566
G01 X47.5508 Y5.4506
G01 X47.5501 Y5.4415
G01 X47.5451 Y5.3405
G01 X47.5452 Y5.3315
G01 X47.5472 Y5.2910
G01 X41.3664 Y5.2910
G01 X41.3571 Y5.3171
G01 X41.3537 Y5.3255
G01 X41.3105 Y5.4169
G01 X41.3064 Y5.4250
G01 X41.2512 Y5.5168
G01 X41.1874 Y5.6030
G01 X41.1816 Y5.6099
G01 X41.1157 Y5.6826
G01 X41.1071 Y5.6912
G01 X41.0299 Y5.7610
G01 X40.9438 Y5.8250
G01 X40.9363 Y5.8299
G01 X40.8521 Y5.8803
G01 X40.8414 Y5.8860
G01 X40.7472 Y5.9304
G01 X40.6435 Y5.9675
G01 X40.5366 Y5.9943
G01 X40.4336 Y6.0098
G01 X40.4215 Y6.0109
G01 X40.3175 Y6.0159
G01 X38.3175 Y6.0159
G01 X38.2074 Y6.0105
G01 X38.1014 Y5.9949
G01 X38.0925 Y5.9930
G01 X37.9974 Y5.9692
G01 X37.9858 Y5.9657
G01 X37.8878 Y5.9304
G01 X37.7936 Y5.8860
G01 X37.7829 Y5.8803
G01 X37.6937 Y5.8267
G01 X37.6099 Y5.7647
G01 X37.6028 Y5.7591
G01 X37.5279 Y5.6912
G01 X37.5193 Y5.6826
G01 X37.4495 Y5.6054
G01 X37.3855 Y5.5193
G01 X37.3806 Y5.5118
G01 X37.3302 Y5.4276
G01 X37.3258 Y5.4197
G01 X37.2813 Y5.3255
G01 X37.2779 Y5.3171
G01 X37.2686 Y5.2910
G01 X36.2439 Y5.2910
G01 X34.0723 Y7.4626
G01 X34.0478 Y7.4847
G01 X34.0408 Y7.4904
G01 X34.0141 Y7.5100
G01 X33.9859 Y7.5271
G01 X33.9752 Y7.5327
G01 X33.9453 Y7.5467
G01 X33.9143 Y7.5580
G01 X33.9056 Y7.5607
G01 X33.8707 Y7.5694
G01 X33.8380 Y7.5744
G01 X33.8260 Y7.5756
G01 X33.7930 Y7.5770
G01 X30.3230 Y7.5770
G01 X30.3068 Y7.6222
G01 X30.3034 Y7.6306
G01 X30.2581 Y7.7265
G01 X30.2540 Y7.7345
G01 X30.1962 Y7.8306
G01 X30.1295 Y7.9207
G01 X30.1237 Y7.9276
G01 X30.0545 Y8.0040
G01 X30.0460 Y8.0125
G01 X29.9651 Y8.0857
G01 X29.8751 Y8.1525
G01 X29.8675 Y8.1575
G01 X29.7791 Y8.2104
G01 X29.7685 Y8.2161
G01 X29.6698 Y8.2626
G01 X29.5615 Y8.3014
G01 X29.4557 Y8.3280
G01 X29.4439 Y8.3304
G01 X29.3360 Y8.3463
G01 X29.2210 Y8.3519
G01 X29.1121 Y8.3467
G01 X29.1000 Y8.3455
G01 X28.9922 Y8.3294
G01 X28.8805 Y8.3014
G01 X28.7722 Y8.2626
G01 X28.6735 Y8.2161
G01 X28.6629 Y8.2104
G01 X28.5694 Y8.1542
G01 X28.4769 Y8.0857
G01 X28.3960 Y8.0125
G01 X28.3875 Y8.0040
G01 X28.3143 Y7.9231
G01 X28.2458 Y7.8306
G01 X28.1896 Y7.7371
G01 X28.1839 Y7.7265
G01 X28.1398 Y7.6334
G01 X28.1363 Y7.6250
G01 X28.0986 Y7.5195
G01 X28.0706 Y7.4078
G01 X28.0537 Y7.2940
G01 X28.0481 Y7.1790
G01 X28.0537 Y7.0640
G01 X28.0706 Y6.9502
G01 X28.0986 Y6.8385
G01 X28.1374 Y6.7302
G01 X28.1866 Y6.6261
G01 X28.2458 Y6.5274
G01 X28.3143 Y6.4349
G01 X28.3916 Y6.3496
G01 X28.4769 Y6.2723
G01 X28.5694 Y6.2038
G01 X28.6681 Y6.1446
G01 X28.7666 Y6.0978
G01 X28.7750 Y6.0943
G01 X28.8805 Y6.0566
G01 X28.9922 Y6.0286
G01 X29.1060 Y6.0117
G01 X29.2210 Y6.0061
G01 X29.3360 Y6.0117
G01 X29.4498 Y6.0286
G01 X29.5615 Y6.0566
G01 X29.6642 Y6.0932
G01 X29.6726 Y6.0966
G01 X29.7739 Y6.1446
G01 X29.8726 Y6.2038
G01 X29.9651 Y6.2723
G01 X30.0460 Y6.3455
G01 X30.0525 Y6.3518
G01 X30.1277 Y6.4349
G01 X30.1928 Y6.5224
G01 X30.1979 Y6.5299
G01 X30.2524 Y6.6209
G01 X30.2568 Y6.6288
G01 X30.3034 Y6.7274
G01 X30.3068 Y6.7358
G01 X30.3230 Y6.7810
G00 Z2.0000
G00 X31.0479 Y3.3929
G01 F50.00
G01 Z-0.1300
G01 F70.00
G01 X31.1076 Y3.3563
G01 X31.3163 Y3.2699
G01 X31.5357 Y3.2172
G01 X31.7611 Y3.1995
G01 X31.9863 Y3.2172
G01 X32.2057 Y3.2699
G01 X32.4144 Y3.3563
G01 X32.4741 Y3.3929
G01 X32.2790 Y3.5879
G01 X32.2098 Y3.5554
G01 X32.1072 Y3.5185
G01 X32.0957 Y3.5150
G01 X31.9928 Y3.4893
G01 X31.9839 Y3.4876
G01 X31.8760 Y3.4717
G01 X31.7610 Y3.4661
G01 X31.6460 Y3.4717
G01 X31.5381 Y3.4876
G01 X31.5292 Y3.4893
G01 X31.4263 Y3.5150
G01 X31.4148 Y3.5185
G01 X31.3122 Y3.5554
G01 X31.2430 Y3.5879
G01 X31.0479 Y3.3929
G00 Z2.0000
G00 X27.7321 Y4.1210
G01 F50.00
G01 Z-0.1300
G01 F70.00
G01 X27.9271 Y3.9259
G01 X27.9637 Y3.9856
G01 X28.0500 Y4.1941
G01 X28.1028 Y4.4137
G01 X28.1205 Y4.6391
G01 X28.1028 Y4.8643
G01 X28.0500 Y5.0839
G01 X27.9637 Y5.2924
G01 X27.9271 Y5.3521
G01 X27.7321 Y5.1570
G01 X27.7646 Y5.0878
G01 X27.8015 Y4.9852
G01 X27.8050 Y4.9737
G01 X27.8307 Y4.8708
G01 X27.8324 Y4.8619
G01 X27.8483 Y4.7540
G01 X27.8539 Y4.6390
G01 X27.8483 Y4.5240
G01 X27.8324 Y4.4161
G01 X27.8307 Y4.4072
G01 X27.8050 Y4.3043
G01 X27.8015 Y4.2928
G01 X27.7646 Y4.1902
G01 X27.7321 Y4.1210
G00 Z2.0000
G00 X25.9679 Y3.3929
G01 F50.00
G01 Z-0.1300
G01 F70.00
G01 X26.0276 Y3.3563
G01 X26.2363 Y3.2699
G01 X26.4557 Y3.2172
G01 X26.6811 Y3.1995
G01 X26.9063 Y3.2172
G01 X27.1257 Y3.2699
G01 X27.3344 Y3.3563
G01 X27.3941 Y3.3929
G01 X27.1990 Y3.5879
G01 X27.1298 Y3.5554
G01 X27.0272 Y3.5185
G01 X27.0157 Y3.5150
G01 X26.9128 Y3.4893
G01 X26.9039 Y3.4876
G01 X26.7960 Y3.4717
G01 X26.6810 Y3.4661
G01 X26.5660 Y3.4717
G01 X26.4581 Y3.4876
G01 X26.4492 Y3.4893
G01 X26.3463 Y3.5150
G01 X26.3348 Y3.5185
G01 X26.2322 Y3.5554
G01 X26.1630 Y3.5879
G01 X25.9679 Y3.3929
G00 Z2.0000
G00 X25.2415 Y4.6389
G01 F50.00
G01 Z-0.1300
G01 F70.00
G01 X25.2592 Y4.4137
G01 X25.3119 Y4.1943
G01 X25.3983 Y3.9856
G01 X25.4349 Y3.9259
G01 X25.6299 Y4.1210
G01 X25.5974 Y4.1902
G01 X25.5605 Y4.2928
G01 X25.5570 Y4.3043
G01 X25.5313 Y4.4072
G01 X25.5296 Y4.4161
G01 X25.5137 Y4.5240
G01 X25.5081 Y4.6390
G01 X25.5137 Y4.7540
G01 X25.5296 Y4.8619
G01 X25.5313 Y4.8708
G01 X25.5570 Y4.9737
G01 X25.5605 Y4.9852
G01 X25.5974 Y5.0878
G01 X25.6299 Y5.1570
G01 X25.4349 Y5.3521
G01 X25.3983 Y5.2924
G01 X25.3119 Y5.0837
G01 X25.2592 Y4.8643
G01 X25.2415 Y4.6389
G00 Z2.0000
G00 X25.9679 Y5.8851
G01 F50.00
G01 Z-0.1300
G01 F70.00
G01 X26.1630 Y5.6901
G01 X26.2322 Y5.7226
G01 X26.3348 Y5.7595
G01 X26.3463 Y5.7630
G01 X26.4492 Y5.7887
G01 X26.4581 Y5.7904
G01 X26.5660 Y5.8063
G01 X26.6810 Y5.8119
G01 X26.7960 Y5.8063
G01 X26.9039 Y5.7904
G01 X26.9128 Y5.7887
G01 X27.0157 Y5.7630
G01 X27.0272 Y5.7595
G01 X27.1298 Y5.7226
G01 X27.1990 Y5.6901
G01 X27.3941 Y5.8851
G01 X27.3344 Y5.9217
G01 X27.1257 Y6.0081
G01 X26.9063 Y6.0608
G01 X26.6809 Y6.0785
G01 X26.4557 Y6.0608
G01 X26.2363 Y6.0081
G01 X26.0276 Y5.9217
G01 X25.9679 Y5.8851
G00 Z2.0000
G00 X37.7041 Y6.0473
G01 F50.00
G01 Z-0.1300
G01 F70.00
G01 X37.8035 Y6.0946
G01 X37.8242 Y6.1035
G01 X37.9237 Y6.1392
G01 X37.9380 Y6.1440
G01 X37.9526 Y6.1480
G01 X38.0125 Y6.1630
G01 X37.9526 Y6.1780
G01 X37.9380 Y6.1820
G01 X37.9237 Y6.1868
G01 X37.8242 Y6.2225
G01 X37.8035 Y6.2314
G01 X37.7040 Y6.2787
G01 X37.7087 Y6.2554
G01 X37.7115 Y6.2327
G01 X37.7164 Y6.1542
G01 X37.7169 Y6.1389
G01 X37.7164 Y6.1160
G01 X37.7141 Y6.0932
G01 X37.7101 Y6.0706
G01 X37.7041 Y6.0473
G00 Z2.0000
G00 X37.7041 Y8.5873
G01 F50.00
G01 Z-0.1300
G01 F70.00
G01 X37.8035 Y8.6346
G01 X37.8242 Y8.6435
G01 X37.9237 Y8.6792
G01 X37.9380 Y8.6840
G01 X37.9526 Y8.6880
G01 X38.0125 Y8.7030
G01 X37.9526 Y8.7180
G01 X37.9380 Y8.7220
G01 X37.9237 Y8.7268
G01 X37.8242 Y8.7625
G01 X37.8035 Y8.7714
G01 X37.7040 Y8.8187
G01 X37.7087 Y8.7954
G01 X37.7115 Y8.7727
G01 X37.7164 Y8.6942
G01 X37.7169 Y8.6789
G01 X37.7164 Y8.6560
G01 X37.7141 Y8.6332
G01 X37.7101 Y8.6106
G01 X37.7041 Y8.5873
G00 Z2.0000
G00 X38.3619 Y11.2802
G01 F50.00
G01 Z-0.1300
G01 F70.00
G01 X38.7351 Y11.2802
G01 X38.7351 Y11.3828
G01 X38.4934 Y11.6245
G01 X38.4934 Y11.6123
G01 X38.4927 Y11.5970
G01 X38.4876 Y11.5262
G01 X38.4852 Y11.5035
G01 X38.4810 Y11.4810
G01 X38.4773 Y11.4661
G01 X38.4728 Y11.4515
G01 X38.4677 Y11.4372
G01 X38.4618 Y11.4231
G01 X38.4553 Y11.4093
G01 X38.4442 Y11.3893
G01 X38.4360 Y11.3764
G01 X38.4271 Y11.3640
G01 X38.3799 Y11.3011
G01 X38.3701 Y11.2892
G01 X38.3619 Y11.2802
G00 Z2.0000
G00 X39.8999 Y11.3312
G01 F50.00
G01 Z-0.1300
G01 F70.00
G01 X39.8999 Y11.2802
G01 X39.9457 Y11.2802
G01 X39.9317 Y11.2946
G01 X39.8999 Y11.3312
G00 Z2.0000
G00 X40.9309 Y8.8187
G01 F50.00
G01 Z-0.1300
G01 F70.00
G01 X40.8315 Y8.7714
G01 X40.8108 Y8.7625
G01 X40.7113 Y8.7268
G01 X40.6970 Y8.7220
G01 X40.6824 Y8.7180
G01 X40.6225 Y8.7030
G01 X40.6824 Y8.6880
G01 X40.6970 Y8.6840
G01 X40.7113 Y8.6792
G01 X40.8108 Y8.6435
G01 X40.8315 Y8.6346
G01 X40.9310 Y8.5873
G01 X40.9263 Y8.6106
G01 X40.9235 Y8.6333
G01 X40.9186 Y8.7118
G01 X40.9181 Y8.7271
G01 X40.9186 Y8.7500
G01 X40.9209 Y8.7728
G01 X40.9249 Y8.7954
G01 X40.9309 Y8.8187
G00 Z2.0000
G00 X40.9309 Y6.2787
G01 F50.00
G01 Z-0.1300
G01 F70.00
G01 X40.8315 Y6.2314
G01 X40.8108 Y6.2225
G01 X40.7113 Y6.1868
G01 X40.6970 Y6.1820
G01 X40.6824 Y6.1780
G01 X40.6225 Y6.1630
G01 X40.6824 Y6.1480
G01 X40.6970 Y6.1440
G01 X40.7113 Y6.1392
G01 X40.8108 Y6.1035
G01 X40.8315 Y6.0946
G01 X40.9310 Y6.0473
G01 X40.9263 Y6.0706
G01 X40.9235 Y6.0933
G01 X40.9186 Y6.1718
G01 X40.9181 Y6.1871
G01 X40.9186 Y6.2100
G01 X40.9209 Y6.2328
G01 X40.9249 Y6.2554
G01 X40.9309 Y6.2787
G00 Z2.0000
G00 X47.3351 Y10.0406
G01 F50.00
G01 Z-0.1300
G01 F70.00
G01 X47.3656 Y9.9330
G01 X47.4597 Y9.7312
G01 X47.5851 Y9.5467
G01 X47.7381 Y9.3849
G01 X47.9151 Y9.2495
G01 X48.1116 Y9.1442
G01 X48.3225 Y9.0715
G01 X48.5443 Y9.0332
G01 X48.5628 Y9.0324
G01 X49.2911 Y9.0324
G01 X49.2911 Y9.2946
G01 X48.6680 Y9.2946
G01 X48.5609 Y9.2997
G01 X48.5519 Y9.3007
G01 X48.4549 Y9.3151
G01 X48.4430 Y9.3175
G01 X48.3420 Y9.3430
G01 X48.2411 Y9.3790
G01 X48.2328 Y9.3825
G01 X48.1387 Y9.4272
G01 X48.0442 Y9.4838
G01 X47.9556 Y9.5495
G01 X47.8784 Y9.6193
G01 X47.8719 Y9.6256
G01 X47.8000 Y9.7051
G01 X47.7378 Y9.7887
G01 X47.7327 Y9.7962
G01 X47.6807 Y9.8829
G01 X47.6763 Y9.8908
G01 X47.6318 Y9.9850
G01 X47.6284 Y9.9934
G01 X47.6115 Y10.0406
G01 X47.3351 Y10.0406
G00 Z2.0000
G00 X47.3317 Y10.7944
G01 F50.00
G01 Z-0.1300
G01 F70.00
G01 X47.6115 Y10.7944
G01 X47.6284 Y10.8416
G01 X47.6318 Y10.8500
G01 X47.6763 Y10.9442
G01 X47.6807 Y10.9521
G01 X47.7327 Y11.0388
G01 X47.7378 Y11.0463
G01 X47.8000 Y11.1299
G01 X47.8719 Y11.2094
G01 X47.8784 Y11.2157
G01 X47.9556 Y11.2855
G01 X48.0442 Y11.3512
G01 X48.1387 Y11.4078
G01 X48.2328 Y11.4525
G01 X48.2411 Y11.4560
G01 X48.3420 Y11.4920
G01 X48.4430 Y11.5175
G01 X48.4549 Y11.5199
G01 X48.5519 Y11.5343
G01 X48.5609 Y11.5353
G01 X48.6680 Y11.5404
G01 X49.2911 Y11.5404
G01 X49.2911 Y11.8026
G01 X48.6120 Y11.8026
G01 X48.4459 Y11.7892
G01 X48.2295 Y11.7361
G01 X48.0243 Y11.6490
G01 X47.8355 Y11.5301
G01 X47.6685 Y11.3829
G01 X47.5270 Y11.2107
G01 X47.4148 Y11.0178
G01 X47.3350 Y10.8100
G01 X47.3317 Y10.7944
G00 Z2.0000
G00 X50.0449 Y11.8026
G01 F50.00
G01 Z-0.1300
G01 F70.00
G01 X50.0449 Y11.5404
G01 X50.6680 Y11.5404
G01 X50.7751 Y11.5353
G01 X50.7841 Y11.5343
G01 X50.8811 Y11.5199
G01 X50.8930 Y11.5175
G01 X50.9940 Y11.4920
G01 X51.0949 Y11.4560
G01 X51.1032 Y11.4525
G01 X51.1973 Y11.4078
G01 X51.2918 Y11.3512
G01 X51.3804 Y11.2855
G01 X51.4576 Y11.2157
G01 X51.4641 Y11.2094
G01 X51.5360 Y11.1299
G01 X51.5982 Y11.0463
G01 X51.6033 Y11.0388
G01 X51.6553 Y10.9521
G01 X51.6597 Y10.9442
G01 X51.7042 Y10.8500
G01 X51.7076 Y10.8416
G01 X51.7245 Y10.7944
G01 X52.0009 Y10.7944
G01 X51.9704 Y10.9020
G01 X51.8763 Y11.1038
G01 X51.7509 Y11.2883
G01 X51.5979 Y11.4501
G01 X51.4209 Y11.5855
G01 X51.2244 Y11.6908
G01 X51.0135 Y11.7635
G01 X50.7917 Y11.8018
G01 X50.7732 Y11.8026
G01 X50.0449 Y11.8026
G00 Z2.0000
G00 X50.0449 Y9.0324
G01 F50.00
G01 Z-0.1300
G01 F70.00
G01 X50.7240 Y9.0324
G01 X50.8901 Y9.0458
G01 X51.1065 Y9.0989
G01 X51.3117 Y9.1860
G01 X51.5005 Y9.3049
G01 X51.6675 Y9.4521
G01 X51.8090 Y9.6243
G01 X51.9212 Y9.8172
G01 X52.0010 Y10.0250
G01 X52.0043 Y10.0406
G01 X51.7245 Y10.0406
G01 X51.7076 Y9.9934
G01 X51.7042 Y9.9850
G01 X51.6597 Y9.8908
G01 X51.6553 Y9.8829
G01 X51.6033 Y9.7962
G01 X51.5982 Y9.7887
G01 X51.5360 Y9.7051
G01 X51.4641 Y9.6256
G01 X51.4576 Y9.6193
G01 X51.3804 Y9.5495
G01 X51.2918 Y9.4838
G01 X51.1973 Y9.4272
G01 X51.1032 Y9.3825
G01 X51.0949 Y9.3790
G01 X50.9940 Y9.3430
G01 X50.8930 Y9.3175
G01 X50.8811 Y9.3151
G01 X50.7841 Y9.3007
G01 X50.7751 Y9.2997
G01 X50.6680 Y9.2946
G01 X50.0449 Y9.2946
G01 X50.0449 Y9.0324
G00 Z2.0000
G00 X49.5673 Y18.3971
G01 F50.00
G01 Z-0.1300
G01 F70.00
G01 X49.5673 Y18.4481
G01 X49.5214 Y18.4481
G01 X49.5353 Y18.4339
G01 X49.5673 Y18.3971
G00 Z2.0000
G00 X49.5179 Y19.6129
G01 F50.00
G01 Z-0.1300
G01 F70.00
G01 X49.5673 Y19.6129
G01 X49.5673 Y19.6559
G01 X49.5578 Y19.6463
G01 X49.5465 Y19.6359
G01 X49.5179 Y19.6129
G00 Z2.0000
G00 X43.5436 Y17.5290
G01 F50.00
G01 Z-0.1300
G01 F70.00
G01 X43.6879 Y17.4775
G01 X43.8365 Y17.4401
G01 X43.8483 Y17.4378
G01 X43.9999 Y17.4154
G01 X44.1530 Y17.4077
G01 X44.1650 Y17.4077
G01 X44.3121 Y17.4150
G01 X44.3241 Y17.4162
G01 X44.4756 Y17.4388
G01 X44.6301 Y17.4775
G01 X44.7801 Y17.5311
G01 X44.9214 Y17.5978
G01 X44.9293 Y17.6022
G01 X45.0606 Y17.6811
G01 X45.1886 Y17.7760
G01 X45.3066 Y17.8829
G01 X45.4096 Y17.9964
G01 X45.4154 Y18.0033
G01 X45.5084 Y18.1289
G01 X45.5873 Y18.2602
G01 X45.5917 Y18.2681
G01 X45.6559 Y18.4039
G01 X45.6595 Y18.4122
G01 X45.7111 Y18.5565
G01 X45.7136 Y18.5652
G01 X45.7305 Y18.6325
G01 X49.7516 Y18.6325
G01 X49.7516 Y17.7965
G01 X49.7570 Y17.6894
G01 X49.7726 Y17.5834
G01 X49.7745 Y17.5745
G01 X49.8000 Y17.4735
G01 X49.8349 Y17.3754
G01 X49.8395 Y17.3643
G01 X49.8842 Y17.2702
G01 X49.9376 Y17.1807
G01 X49.9443 Y17.1707
G01 X50.0028 Y17.0919
G01 X50.0104 Y17.0826
G01 X50.0763 Y17.0099
G01 X50.0849 Y17.0013
G01 X50.1621 Y16.9315
G01 X50.2507 Y16.8658
G01 X50.3452 Y16.8092
G01 X50.4393 Y16.7645
G01 X50.4504 Y16.7599
G01 X50.5485 Y16.7250
G01 X50.6495 Y16.6995
G01 X50.6614 Y16.6971
G01 X50.7644 Y16.6820
G01 X50.8745 Y16.6766
G01 X50.9846 Y16.6820
G01 X51.0876 Y16.6971
G01 X51.0995 Y16.6995
G01 X51.2005 Y16.7250
G01 X51.2986 Y16.7599
G01 X51.3097 Y16.7645
G01 X51.4038 Y16.8092
G01 X51.4933 Y16.8626
G01 X51.5033 Y16.8693
G01 X51.5869 Y16.9315
G01 X51.6641 Y17.0013
G01 X51.6727 Y17.0099
G01 X51.7425 Y17.0871
G01 X51.8047 Y17.1707
G01 X51.8114 Y17.1807
G01 X51.8648 Y17.2702
G01 X51.9095 Y17.3643
G01 X51.9141 Y17.3754
G01 X51.9490 Y17.4735
G01 X51.9752 Y17.5775
G01 X51.9769 Y17.5864
G01 X51.9920 Y17.6894
G01 X51.9974 Y17.7995
G01 X51.9974 Y19.7995
G01 X51.9924 Y19.9035
G01 X51.9913 Y19.9156
G01 X51.9758 Y20.0186
G01 X51.9490 Y20.1255
G01 X51.9119 Y20.2292
G01 X51.8675 Y20.3234
G01 X51.8618 Y20.3341
G01 X51.8114 Y20.4183
G01 X51.8047 Y20.4283
G01 X51.7425 Y20.5119
G01 X51.6685 Y20.5935
G01 X51.5869 Y20.6675
G01 X51.4983 Y20.7332
G01 X51.4038 Y20.7898
G01 X51.3042 Y20.8369
G01 X51.2005 Y20.8740
G01 X51.0995 Y20.8995
G01 X51.0876 Y20.9019
G01 X50.9906 Y20.9163
G01 X50.9785 Y20.9174
G01 X50.8745 Y20.9224
G01 X50.7705 Y20.9174
G01 X50.7614 Y20.9167
G01 X50.6554 Y20.9008
G01 X50.5544 Y20.8757
G01 X50.5428 Y20.8722
G01 X50.4448 Y20.8369
G01 X50.3506 Y20.7925
G01 X50.3399 Y20.7868
G01 X50.2557 Y20.7364
G01 X50.2457 Y20.7297
G01 X50.1621 Y20.6675
G01 X50.0805 Y20.5935
G01 X50.0065 Y20.5119
G01 X49.9408 Y20.4233
G01 X49.8842 Y20.3288
G01 X49.8371 Y20.2292
G01 X49.8000 Y20.1255
G01 X49.7732 Y20.0186
G01 X49.7570 Y19.9096
G01 X49.7516 Y19.8025
G01 X49.7516 Y19.4285
G01 X45.7305 Y19.4285
G01 X45.7136 Y19.4958
G01 X45.7111 Y19.5045
G01 X45.6595 Y19.6488
G01 X45.6559 Y19.6571
G01 X45.5917 Y19.7929
G01 X45.5873 Y19.8008
G01 X45.5084 Y19.9321
G01 X45.4154 Y20.0577
G01 X45.4096 Y20.0646
G01 X45.3066 Y20.1781
G01 X45.1886 Y20.2850
G01 X45.0606 Y20.3799
G01 X44.9267 Y20.4603
G01 X44.9186 Y20.4645
G01 X44.7801 Y20.5299
G01 X44.6301 Y20.5835
G01 X44.4756 Y20.6222
G01 X44.3181 Y20.6456
G01 X44.1590 Y20.6534
G01 X43.9999 Y20.6456
G01 X43.8424 Y20.6222
G01 X43.6879 Y20.5835
G01 X43.5379 Y20.5299
G01 X43.3994 Y20.4645
G01 X43.3887 Y20.4588
G01 X43.2574 Y20.3799
G01 X43.1294 Y20.2850
G01 X43.0158 Y20.1822
G01 X43.0073 Y20.1737
G01 X42.9084 Y20.0646
G01 X42.9008 Y20.0553
G01 X42.8096 Y19.9321
G01 X42.7307 Y19.8008
G01 X42.7250 Y19.7901
G01 X42.6621 Y19.6571
G01 X42.6575 Y19.6459
G01 X42.6060 Y19.5016
G01 X42.5673 Y19.3471
G01 X42.5439 Y19.1896
G01 X42.5362 Y19.0365
G01 X42.5362 Y19.0245
G01 X42.5435 Y18.8774
G01 X42.5447 Y18.8654
G01 X42.5673 Y18.7139
G01 X42.6060 Y18.5594
G01 X42.6575 Y18.4151
G01 X42.6621 Y18.4039
G01 X42.7277 Y18.2655
G01 X42.8096 Y18.1289
G01 X42.9045 Y18.0009
G01 X43.0073 Y17.8873
G01 X43.0158 Y17.8788
G01 X43.1294 Y17.7760
G01 X43.2574 Y17.6811
G01 X43.3887 Y17.6022
G01 X43.3994 Y17.5965
G01 X43.5324 Y17.5336
G01 X43.5436 Y17.5290
G00 Z2.0000
G00 X42.2691 Y19.0503
G01 F50.00
G01 Z-0.1300
G01 F70.00
G01 X42.2839 Y18.7936
G01 X42.3334 Y18.5413
G01 X42.4167 Y18.2981
G01 X42.5322 Y18.0684
G01 X42.6778 Y17.8565
G01 X42.8508 Y17.6664
G01 X43.0481 Y17.5015
G01 X43.2659 Y17.3648
G01 X43.5002 Y17.2590
G01 X43.7467 Y17.1860
G01 X44.0008 Y17.1471
G01 X44.2579 Y17.1431
G01 X44.5132 Y17.1740
G01 X44.7618 Y17.2392
G01 X44.9994 Y17.3376
G01 X45.2213 Y17.4673
G01 X45.4237 Y17.6260
G01 X45.6026 Y17.8106
G01 X45.7548 Y18.0178
G01 X45.8767 Y18.2423
G01 X45.8848 Y18.2545
G01 X45.8942 Y18.2657
G01 X45.9506 Y18.3223
G01 X45.9599 Y18.3299
G01 X45.9724 Y18.3381
G01 X45.9858 Y18.3448
G01 X45.9971 Y18.3489
G01 X46.0665 Y18.3668
G01 X46.0817 Y18.3693
G01 X46.0941 Y18.3699
G01 X49.2400 Y18.3699
G01 X49.2517 Y18.3693
G01 X49.2633 Y18.3677
G01 X49.2718 Y18.3657
G01 X49.3457 Y18.3440
G01 X49.3543 Y18.3409
G01 X49.3626 Y18.3372
G01 X49.3707 Y18.3328
G01 X49.3784 Y18.3278
G01 X49.3903 Y18.3184
G01 X49.3990 Y18.3098
G01 X49.4495 Y18.2515
G01 X49.4551 Y18.2442
G01 X49.4616 Y18.2338
G01 X49.4671 Y18.2228
G01 X49.4705 Y18.2142
G01 X49.4740 Y18.2025
G01 X49.4861 Y18.1471
G01 X49.4880 Y18.1356
G01 X49.4888 Y18.1268
G01 X49.4889 Y17.7434
G01 X49.5023 Y17.5773
G01 X49.5555 Y17.3607
G01 X49.5908 Y17.2774
G01 X49.6426 Y17.1555
G01 X49.7614 Y16.9668
G01 X49.9088 Y16.7995
G01 X50.0811 Y16.6580
G01 X50.2739 Y16.5459
G01 X50.4820 Y16.4659
G01 X50.7003 Y16.4204
G01 X50.9230 Y16.4102
G01 X51.1445 Y16.4359
G01 X51.3591 Y16.4966
G01 X51.5611 Y16.5908
G01 X51.7455 Y16.7161
G01 X51.9076 Y16.8693
G01 X52.0430 Y17.0465
G01 X52.1483 Y17.2430
G01 X52.2209 Y17.4538
G01 X52.2593 Y17.6756
G01 X52.2601 Y17.6942
G01 X52.2601 Y19.8556
G01 X52.2467 Y20.0218
G01 X52.1935 Y20.2383
G01 X52.1064 Y20.4435
G01 X51.9876 Y20.6322
G01 X51.8402 Y20.7995
G01 X51.6679 Y20.9410
G01 X51.4751 Y21.0531
G01 X51.2670 Y21.1331
G01 X51.0487 Y21.1786
G01 X50.8260 Y21.1888
G01 X50.6045 Y21.1631
G01 X50.3899 Y21.1024
G01 X50.1879 Y21.0082
G01 X50.0035 Y20.8829
G01 X49.8414 Y20.7297
G01 X49.7060 Y20.5525
G01 X49.6007 Y20.3560
G01 X49.5281 Y20.1452
G01 X49.4896 Y19.9227
G01 X49.4881 Y19.9095
G01 X49.4864 Y19.9007
G01 X49.4830 Y19.8891
G01 X49.4798 Y19.8806
G01 X49.4759 Y19.8723
G01 X49.4593 Y19.8243
G01 X49.4545 Y19.8131
G01 X49.4486 Y19.8024
G01 X49.4435 Y19.7948
G01 X49.4379 Y19.7876
G01 X49.4317 Y19.7809
G01 X49.4250 Y19.7746
G01 X49.3622 Y19.7248
G01 X49.3546 Y19.7195
G01 X49.3466 Y19.7149
G01 X49.3326 Y19.7084
G01 X49.3179 Y19.7038
G01 X49.2618 Y19.6928
G01 X49.2472 Y19.6912
G01 X46.0917 Y19.6911
G01 X46.0800 Y19.6917
G01 X46.0655 Y19.6939
G01 X46.0570 Y19.6961
G01 X45.9860 Y19.7170
G01 X45.9718 Y19.7225
G01 X45.9609 Y19.7282
G01 X45.9483 Y19.7368
G01 X45.9368 Y19.7469
G01 X45.8868 Y19.8017
G01 X45.8796 Y19.8109
G01 X45.8718 Y19.8233
G01 X45.7756 Y20.0096
G01 X45.6278 Y20.2199
G01 X45.4528 Y20.4083
G01 X45.2538 Y20.5711
G01 X45.0346 Y20.7054
G01 X44.7992 Y20.8088
G01 X44.5520 Y20.8792
G01 X44.2974 Y20.9154
G01 X44.0403 Y20.9168
G01 X43.7854 Y20.8832
G01 X43.5374 Y20.8154
G01 X43.3010 Y20.7145
G01 X43.0803 Y20.5825
G01 X42.8797 Y20.4217
G01 X42.7027 Y20.2352
G01 X42.5527 Y20.0265
G01 X42.4324 Y19.7992
G01 X42.3440 Y19.5578
G01 X42.2893 Y19.3066
G01 X42.2691 Y19.0503
G00 Z2.0000
G00 X31.6802 Y19.8149
G01 F50.00
G01 Z-0.1300
G01 F70.00
G01 X31.6335 Y19.7370
G01 X31.6254 Y19.7242
G01 X31.6168 Y19.7119
G01 X31.5583 Y19.6331
G01 X31.5490 Y19.6212
G01 X31.5419 Y19.6129
G01 X31.8119 Y19.6129
G01 X31.7981 Y19.6271
G01 X31.7465 Y19.6865
G01 X31.7322 Y19.7043
G01 X31.7234 Y19.7168
G01 X31.7114 Y19.7362
G01 X31.7042 Y19.7497
G01 X31.6977 Y19.7635
G01 X31.6919 Y19.7776
G01 X31.6868 Y19.7920
G01 X31.6802 Y19.8149
G00 Z2.0000
G00 X28.5385 Y19.3276
G01 F50.00
G01 Z-0.1300
G01 F70.00
G01 X30.0985 Y19.3276
G01 X30.6770 Y18.7490
G01 X30.7037 Y18.7248
G01 X30.7324 Y18.7030
G01 X30.7425 Y18.6963
G01 X30.7709 Y18.6795
G01 X30.8062 Y18.6628
G01 X30.8372 Y18.6515
G01 X30.8488 Y18.6480
G01 X30.8808 Y18.6401
G01 X30.9195 Y18.6344
G01 X30.9585 Y18.6325
G01 X36.5875 Y18.6325
G01 X36.6044 Y18.5652
G01 X36.6069 Y18.5565
G01 X36.6585 Y18.4122
G01 X36.6621 Y18.4039
G01 X36.7250 Y18.2709
G01 X36.7292 Y18.2628
G01 X36.8096 Y18.1289
G01 X36.9008 Y18.0057
G01 X36.9084 Y17.9964
G01 X37.0114 Y17.8829
G01 X37.1249 Y17.7799
G01 X37.1342 Y17.7723
G01 X37.2574 Y17.6811
G01 X37.3913 Y17.6007
G01 X37.3994 Y17.5965
G01 X37.5324 Y17.5336
G01 X37.5407 Y17.5300
G01 X37.6850 Y17.4784
G01 X37.6937 Y17.4759
G01 X37.7610 Y17.4590
G01 X37.7611 Y16.2055
G01 X37.7629 Y16.1725
G01 X37.7676 Y16.1398
G01 X37.7699 Y16.1280
G01 X37.7781 Y16.0960
G01 X37.7913 Y16.0592
G01 X37.8053 Y16.0293
G01 X37.8109 Y16.0186
G01 X37.8280 Y15.9904
G01 X37.8513 Y15.9590
G01 X37.8775 Y15.9300
G01 X39.2265 Y14.5810
G01 X39.2555 Y14.5548
G01 X39.2819 Y14.5350
G01 X39.2894 Y14.5299
G01 X39.3204 Y14.5115
G01 X39.3502 Y14.4972
G01 X39.3613 Y14.4926
G01 X39.3925 Y14.4816
G01 X39.4245 Y14.4734
G01 X39.4363 Y14.4711
G01 X39.4690 Y14.4664
G01 X39.5050 Y14.4645
G01 X43.2166 Y14.4645
G01 X43.6185 Y14.0626
G01 X43.6185 Y8.7409
G01 X42.7086 Y7.8310
G01 X41.3664 Y7.8310
G01 X41.3571 Y7.8571
G01 X41.3537 Y7.8655
G01 X41.3092 Y7.9597
G01 X41.3048 Y7.9676
G01 X41.2544 Y8.0518
G01 X41.2495 Y8.0593
G01 X41.1855 Y8.1454
G01 X41.1157 Y8.2226
G01 X41.1071 Y8.2312
G01 X41.0344 Y8.2971
G01 X41.0275 Y8.3029
G01 X40.9413 Y8.3667
G01 X40.8521 Y8.4203
G01 X40.8414 Y8.4260
G01 X40.7472 Y8.4704
G01 X40.6492 Y8.5057
G01 X40.6376 Y8.5092
G01 X40.5366 Y8.5343
G01 X40.4306 Y8.5502
G01 X40.4215 Y8.5509
G01 X40.3175 Y8.5559
G01 X38.3145 Y8.5559
G01 X38.2074 Y8.5505
G01 X38.0984 Y8.5343
G01 X37.9915 Y8.5075
G01 X37.8906 Y8.4715
G01 X37.8823 Y8.4680
G01 X37.7936 Y8.4260
G01 X37.7829 Y8.4203
G01 X37.6937 Y8.3667
G01 X37.6099 Y8.3047
G01 X37.6006 Y8.2971
G01 X37.5235 Y8.2270
G01 X37.4534 Y8.1499
G01 X37.4458 Y8.1406
G01 X37.3838 Y8.0568
G01 X37.3302 Y7.9676
G01 X37.3245 Y7.9569
G01 X37.2801 Y7.8627
G01 X37.2448 Y7.7647
G01 X37.2413 Y7.7531
G01 X37.2162 Y7.6521
G01 X37.2000 Y7.5431
G01 X37.1947 Y7.4390
G01 X37.1947 Y7.4270
G01 X37.2000 Y7.3229
G01 X37.2151 Y7.2199
G01 X37.2175 Y7.2080
G01 X37.2430 Y7.1070
G01 X37.2779 Y7.0089
G01 X37.2825 Y6.9978
G01 X37.3272 Y6.9037
G01 X37.3806 Y6.8142
G01 X37.3873 Y6.8042
G01 X37.4495 Y6.7206
G01 X37.5193 Y6.6434
G01 X37.5279 Y6.6348
G01 X37.6051 Y6.5650
G01 X37.6912 Y6.5010
G01 X37.6987 Y6.4961
G01 X37.7829 Y6.4457
G01 X37.7936 Y6.4400
G01 X37.8878 Y6.3956
G01 X37.9915 Y6.3585
G01 X38.0925 Y6.3330
G01 X38.1044 Y6.3306
G01 X38.2074 Y6.3155
G01 X38.3115 Y6.3102
G01 X40.3205 Y6.3101
G01 X40.4215 Y6.3151
G01 X40.4336 Y6.3162
G01 X40.5366 Y6.3317
G01 X40.6406 Y6.3576
G01 X40.6492 Y6.3603
G01 X40.7472 Y6.3956
G01 X40.8414 Y6.4400
G01 X40.8521 Y6.4457
G01 X40.9413 Y6.4993
G01 X41.0251 Y6.5613
G01 X41.0344 Y6.5689
G01 X41.1094 Y6.6369
G01 X41.1157 Y6.6434
G01 X41.1855 Y6.7206
G01 X41.2477 Y6.8042
G01 X41.2528 Y6.8117
G01 X41.3048 Y6.8984
G01 X41.3092 Y6.9063
G01 X41.3537 Y7.0005
G01 X41.3571 Y7.0089
G01 X41.3664 Y7.0350
G01 X42.8765 Y7.0350
G01 X42.9095 Y7.0366
G01 X42.9185 Y7.0376
G01 X42.9512 Y7.0426
G01 X42.9832 Y7.0505
G01 X42.9948 Y7.0540
G01 X43.0258 Y7.0653
G01 X43.0611 Y7.0820
G01 X43.0946 Y7.1020
G01 X43.1213 Y7.1216
G01 X43.1306 Y7.1293
G01 X43.1550 Y7.1515
G01 X44.2980 Y8.2945
G01 X44.3242 Y8.3235
G01 X44.3457 Y8.3524
G01 X44.3646 Y8.3831
G01 X44.3702 Y8.3938
G01 X44.3842 Y8.4237
G01 X44.3974 Y8.4605
G01 X44.4069 Y8.4983
G01 X44.4119 Y8.5310
G01 X44.4131 Y8.5430
G01 X44.4145 Y8.5760
G01 X44.4145 Y14.2275
G01 X44.4126 Y14.2665
G01 X44.4069 Y14.3052
G01 X44.3974 Y14.3430
G01 X44.3864 Y14.3742
G01 X44.3831 Y14.3826
G01 X44.3675 Y14.4151
G01 X44.3475 Y14.4486
G01 X44.3242 Y14.4800
G01 X44.3001 Y14.5068
G01 X43.6608 Y15.1461
G01 X43.6340 Y15.1702
G01 X43.6076 Y15.1900
G01 X43.5975 Y15.1967
G01 X43.5691 Y15.2135
G01 X43.5338 Y15.2302
G01 X43.5028 Y15.2415
G01 X43.4912 Y15.2450
G01 X43.4592 Y15.2529
G01 X43.4205 Y15.2586
G01 X43.3815 Y15.2605
G01 X39.6729 Y15.2605
G01 X38.5570 Y16.3764
G01 X38.5570 Y17.4590
G01 X38.6243 Y17.4759
G01 X38.6330 Y17.4784
G01 X38.7744 Y17.5290
G01 X38.7828 Y17.5323
G01 X38.9240 Y17.5992
G01 X39.0581 Y17.6795
G01 X39.0656 Y17.6846
G01 X39.1838 Y17.7723
G01 X39.1931 Y17.7799
G01 X39.3066 Y17.8829
G01 X39.4116 Y17.9986
G01 X39.4172 Y18.0057
G01 X39.5049 Y18.1239
G01 X39.5116 Y18.1340
G01 X39.5903 Y18.2655
G01 X39.6584 Y18.4094
G01 X39.7101 Y18.5537
G01 X39.7136 Y18.5652
G01 X39.7507 Y18.7139
G01 X39.7738 Y18.8684
G01 X39.7745 Y18.8774
G01 X39.7818 Y19.0245
G01 X39.7818 Y19.0365
G01 X39.7741 Y19.1896
G01 X39.7517 Y19.3412
G01 X39.7494 Y19.3530
G01 X39.7120 Y19.5016
G01 X39.6605 Y19.6459
G01 X39.6559 Y19.6571
G01 X39.5903 Y19.7955
G01 X39.5116 Y19.9270
G01 X39.5049 Y19.9371
G01 X39.4135 Y20.0601
G01 X39.3107 Y20.1737
G01 X39.3022 Y20.1822
G01 X39.1886 Y20.2850
G01 X39.0631 Y20.3782
G01 X39.0555 Y20.3831
G01 X38.9240 Y20.4618
G01 X38.7856 Y20.5274
G01 X38.7744 Y20.5320
G01 X38.6301 Y20.5835
G01 X38.4815 Y20.6209
G01 X38.4697 Y20.6232
G01 X38.3181 Y20.6456
G01 X38.1590 Y20.6534
G01 X38.0059 Y20.6460
G01 X37.9939 Y20.6448
G01 X37.8424 Y20.6222
G01 X37.6937 Y20.5851
G01 X37.6822 Y20.5816
G01 X37.5407 Y20.5310
G01 X37.5324 Y20.5274
G01 X37.3940 Y20.4618
G01 X37.2625 Y20.3831
G01 X37.2524 Y20.3764
G01 X37.1294 Y20.2850
G01 X37.0158 Y20.1822
G01 X37.0073 Y20.1737
G01 X36.9064 Y20.0624
G01 X36.9008 Y20.0553
G01 X36.8096 Y19.9321
G01 X36.7307 Y19.8008
G01 X36.7263 Y19.7929
G01 X36.6621 Y19.6571
G01 X36.6585 Y19.6488
G01 X36.6069 Y19.5045
G01 X36.6044 Y19.4958
G01 X36.5875 Y19.4285
G01 X31.1234 Y19.4285
G01 X31.0829 Y19.4690
G01 X31.1623 Y19.5168
G01 X31.2461 Y19.5788
G01 X31.2554 Y19.5864
G01 X31.3325 Y19.6565
G01 X31.4026 Y19.7336
G01 X31.4102 Y19.7429
G01 X31.4722 Y19.8267
G01 X31.5274 Y19.9185
G01 X31.5315 Y19.9266
G01 X31.5759 Y20.0208
G01 X31.6130 Y20.1245
G01 X31.6398 Y20.2314
G01 X31.6553 Y20.3344
G01 X31.6563 Y20.3434
G01 X31.6613 Y20.4445
G01 X31.6613 Y20.4565
G01 X31.6560 Y20.5606
G01 X31.6409 Y20.6636
G01 X31.6385 Y20.6755
G01 X31.6130 Y20.7765
G01 X31.5759 Y20.8802
G01 X31.5315 Y20.9744
G01 X31.5258 Y20.9851
G01 X31.4722 Y21.0743
G01 X31.4102 Y21.1581
G01 X31.4026 Y21.1674
G01 X31.3325 Y21.2445
G01 X31.2554 Y21.3146
G01 X31.2485 Y21.3204
G01 X31.1623 Y21.3842
G01 X31.0731 Y21.4378
G01 X31.0624 Y21.4435
G01 X30.9682 Y21.4879
G01 X30.8702 Y21.5232
G01 X30.8586 Y21.5267
G01 X30.7576 Y21.5518
G01 X30.6486 Y21.5680
G01 X30.5385 Y21.5734
G01 X28.5385 Y21.5734
G01 X28.4284 Y21.5680
G01 X28.3194 Y21.5518
G01 X28.2125 Y21.5250
G01 X28.1088 Y21.4879
G01 X28.0092 Y21.4408
G01 X27.9147 Y21.3842
G01 X27.8261 Y21.3185
G01 X27.7445 Y21.2445
G01 X27.6744 Y21.1674
G01 X27.6668 Y21.1581
G01 X27.6048 Y21.0743
G01 X27.5512 Y20.9851
G01 X27.5455 Y20.9744
G01 X27.5035 Y20.8857
G01 X27.4989 Y20.8746
G01 X27.4640 Y20.7765
G01 X27.4372 Y20.6696
G01 X27.4210 Y20.5606
G01 X27.4157 Y20.4565
G01 X27.4157 Y20.4445
G01 X27.4210 Y20.3404
G01 X27.4372 Y20.2314
G01 X27.4640 Y20.1245
G01 X27.5011 Y20.0208
G01 X27.5482 Y19.9212
G01 X27.6048 Y19.8267
G01 X27.6705 Y19.7381
G01 X27.7445 Y19.6565
G01 X27.8261 Y19.5825
G01 X27.9147 Y19.5168
G01 X28.0092 Y19.4602
G01 X28.1088 Y19.4131
G01 X28.2125 Y19.3760
G01 X28.3194 Y19.3492
G01 X28.4284 Y19.3330
G01 X28.5385 Y19.3276
G00 Z2.0000
G00 X36.4838 Y31.3533
G01 F50.00
G01 Z-0.1300
G01 F70.00
G01 X36.4758 Y31.3359
G01 X36.4686 Y31.3225
G01 X36.4608 Y31.3094
G01 X36.4478 Y31.2905
G01 X36.3947 Y31.2225
G01 X36.3795 Y31.2054
G01 X36.3669 Y31.1929
G01 X36.4978 Y31.1929
G01 X36.5386 Y31.2338
G01 X36.4954 Y31.3251
G01 X36.4893 Y31.3389
G01 X36.4838 Y31.3533
G00 Z2.0000
G00 X42.2691 Y32.0503
G01 F50.00
G01 Z-0.1300
G01 F70.00
G01 X42.2839 Y31.7936
G01 X42.3334 Y31.5413
G01 X42.4167 Y31.2981
G01 X42.5322 Y31.0684
G01 X42.6778 Y30.8565
G01 X42.8508 Y30.6664
G01 X43.0481 Y30.5015
G01 X43.2659 Y30.3648
G01 X43.5002 Y30.2590
G01 X43.7467 Y30.1860
G01 X44.0008 Y30.1471
G01 X44.2579 Y30.1431
G01 X44.5132 Y30.1740
G01 X44.7618 Y30.2392
G01 X44.9994 Y30.3376
G01 X45.2213 Y30.4673
G01 X45.4237 Y30.6260
G01 X45.6026 Y30.8106
G01 X45.7548 Y31.0178
G01 X45.8767 Y31.2423
G01 X45.8848 Y31.2545
G01 X45.8942 Y31.2657
G01 X45.9506 Y31.3223
G01 X45.9623 Y31.3317
G01 X45.9724 Y31.3381
G01 X45.9831 Y31.3436
G01 X45.9971 Y31.3489
G01 X46.0665 Y31.3668
G01 X46.0817 Y31.3693
G01 X46.0941 Y31.3699
G01 X49.3670 Y31.3699
G01 X49.3816 Y31.3690
G01 X49.3903 Y31.3677
G01 X49.3988 Y31.3657
G01 X49.4756 Y31.3431
G01 X49.4841 Y31.3397
G01 X49.4923 Y31.3358
G01 X49.5003 Y31.3312
G01 X49.5079 Y31.3261
G01 X49.5173 Y31.3184
G01 X49.5260 Y31.3098
G01 X49.5784 Y31.2491
G01 X49.5855 Y31.2390
G01 X49.5901 Y31.2311
G01 X49.5941 Y31.2228
G01 X49.5985 Y31.2113
G01 X49.6017 Y31.1995
G01 X49.6137 Y31.1443
G01 X49.6150 Y31.1356
G01 X49.6158 Y31.1268
G01 X49.6159 Y30.6339
G01 X49.6293 Y30.4678
G01 X49.6825 Y30.2512
G01 X49.7193 Y30.1645
G01 X49.7696 Y30.0460
G01 X49.8884 Y29.8573
G01 X50.0358 Y29.6900
G01 X50.2081 Y29.5485
G01 X50.4009 Y29.4364
G01 X50.6090 Y29.3564
G01 X50.8273 Y29.3109
G01 X51.0500 Y29.3007
G01 X51.2715 Y29.3264
G01 X51.4861 Y29.3871
G01 X51.6881 Y29.4813
G01 X51.8725 Y29.6066
G01 X52.0346 Y29.7598
G01 X52.1700 Y29.9370
G01 X52.2753 Y30.1335
G01 X52.3479 Y30.3443
G01 X52.3863 Y30.5661
G01 X52.3871 Y30.5847
G01 X52.3871 Y32.7461
G01 X52.3737 Y32.9122
G01 X52.3205 Y33.1288
G01 X52.2334 Y33.3340
G01 X52.1146 Y33.5227
G01 X51.9672 Y33.6900
G01 X51.7949 Y33.8315
G01 X51.6021 Y33.9436
G01 X51.3940 Y34.0236
G01 X51.1757 Y34.0691
G01 X50.9530 Y34.0793
G01 X50.7315 Y34.0536
G01 X50.5169 Y33.9929
G01 X50.3149 Y33.8987
G01 X50.1305 Y33.7734
G01 X49.9684 Y33.6202
G01 X49.8330 Y33.4430
G01 X49.7277 Y33.2465
G01 X49.6551 Y33.0357
G01 X49.6312 Y32.8976
G01 X49.6294 Y32.8890
G01 X49.6270 Y32.8806
G01 X49.6217 Y32.8670
G01 X49.5891 Y32.8006
G01 X49.5848 Y32.7926
G01 X49.5798 Y32.7849
G01 X49.5724 Y32.7752
G01 X49.5662 Y32.7684
G01 X49.5595 Y32.7622
G01 X49.5500 Y32.7546
G01 X49.5423 Y32.7496
G01 X49.4815 Y32.7129
G01 X49.4710 Y32.7072
G01 X49.4571 Y32.7016
G01 X49.4426 Y32.6977
G01 X49.4338 Y32.6963
G01 X49.4017 Y32.6921
G01 X49.3891 Y32.6911
G01 X46.0917 Y32.6911
G01 X46.0771 Y32.6920
G01 X46.0655 Y32.6939
G01 X46.0570 Y32.6961
G01 X45.9860 Y32.7170
G01 X45.9745 Y32.7213
G01 X45.9609 Y32.7282
G01 X45.9483 Y32.7368
G01 X45.9368 Y32.7469
G01 X45.8868 Y32.8017
G01 X45.8796 Y32.8109
G01 X45.8718 Y32.8233
G01 X45.7756 Y33.0096
G01 X45.6278 Y33.2199
G01 X45.4528 Y33.4083
G01 X45.2538 Y33.5711
G01 X45.0346 Y33.7054
G01 X44.7992 Y33.8088
G01 X44.5520 Y33.8792
G01 X44.2974 Y33.9154
G01 X44.0403 Y33.9168
G01 X43.7854 Y33.8832
G01 X43.5374 Y33.8154
G01 X43.3010 Y33.7145
G01 X43.0803 Y33.5825
G01 X42.8797 Y33.4217
G01 X42.7027 Y33.2352
G01 X42.5527 Y33.0265
G01 X42.4324 Y32.7992
G01 X42.3440 Y32.5578
G01 X42.2893 Y32.3066
G01 X42.2691 Y32.0503
G00 Z2.0000
G00 X43.5436 Y30.5290
G01 F50.00
G01 Z-0.1300
G01 F70.00
G01 X43.6879 Y30.4775
G01 X43.8365 Y30.4401
G01 X43.8483 Y30.4378
G01 X43.9999 Y30.4154
G01 X44.1530 Y30.4077
G01 X44.1650 Y30.4077
G01 X44.3121 Y30.4150
G01 X44.3241 Y30.4162
G01 X44.4756 Y30.4388
G01 X44.6301 Y30.4775
G01 X44.7801 Y30.5311
G01 X44.9214 Y30.5978
G01 X44.9293 Y30.6022
G01 X45.0606 Y30.6811
G01 X45.1886 Y30.7760
G01 X45.3066 Y30.8829
G01 X45.4096 Y30.9964
G01 X45.4154 Y31.0033
G01 X45.5084 Y31.1289
G01 X45.5873 Y31.2602
G01 X45.5917 Y31.2681
G01 X45.6559 Y31.4039
G01 X45.6595 Y31.4122
G01 X45.7111 Y31.5565
G01 X45.7136 Y31.5652
G01 X45.7305 Y31.6325
G01 X49.8786 Y31.6325
G01 X49.8786 Y30.6900
G01 X49.8836 Y30.5860
G01 X49.8843 Y30.5769
G01 X49.8991 Y30.4769
G01 X49.9015 Y30.4650
G01 X49.9270 Y30.3640
G01 X49.9619 Y30.2659
G01 X49.9665 Y30.2548
G01 X50.0112 Y30.1607
G01 X50.0646 Y30.0712
G01 X50.0695 Y30.0637
G01 X50.1335 Y29.9776
G01 X50.2033 Y29.9004
G01 X50.2119 Y29.8918
G01 X50.2846 Y29.8259
G01 X50.2939 Y29.8183
G01 X50.3777 Y29.7563
G01 X50.4722 Y29.6997
G01 X50.5718 Y29.6526
G01 X50.6698 Y29.6173
G01 X50.6814 Y29.6138
G01 X50.7765 Y29.5900
G01 X50.7884 Y29.5876
G01 X50.8914 Y29.5725
G01 X51.0015 Y29.5671
G01 X51.1116 Y29.5725
G01 X51.2146 Y29.5876
G01 X51.2265 Y29.5900
G01 X51.3275 Y29.6155
G01 X51.4256 Y29.6504
G01 X51.4367 Y29.6550
G01 X51.5308 Y29.6997
G01 X51.6203 Y29.7531
G01 X51.6303 Y29.7598
G01 X51.7139 Y29.8220
G01 X51.7911 Y29.8918
G01 X51.7997 Y29.9004
G01 X51.8695 Y29.9776
G01 X51.9317 Y30.0612
G01 X51.9384 Y30.0712
G01 X51.9918 Y30.1607
G01 X52.0365 Y30.2548
G01 X52.0411 Y30.2659
G01 X52.0760 Y30.3640
G01 X52.1022 Y30.4680
G01 X52.1039 Y30.4769
G01 X52.1190 Y30.5799
G01 X52.1244 Y30.6900
G01 X52.1244 Y32.6900
G01 X52.1194 Y32.7940
G01 X52.1183 Y32.8061
G01 X52.1028 Y32.9091
G01 X52.0760 Y33.0160
G01 X52.0389 Y33.1197
G01 X51.9945 Y33.2139
G01 X51.9888 Y33.2246
G01 X51.9384 Y33.3088
G01 X51.9317 Y33.3188
G01 X51.8695 Y33.4024
G01 X51.7955 Y33.4840
G01 X51.7139 Y33.5580
G01 X51.6253 Y33.6237
G01 X51.5308 Y33.6803
G01 X51.4312 Y33.7274
G01 X51.3275 Y33.7645
G01 X51.2265 Y33.7900
G01 X51.2146 Y33.7924
G01 X51.1176 Y33.8068
G01 X51.1055 Y33.8079
G01 X51.0015 Y33.8129
G01 X50.8914 Y33.8075
G01 X50.7824 Y33.7913
G01 X50.6755 Y33.7645
G01 X50.5718 Y33.7274
G01 X50.4776 Y33.6830
G01 X50.4669 Y33.6773
G01 X50.3827 Y33.6269
G01 X50.3727 Y33.6202
G01 X50.2891 Y33.5580
G01 X50.2119 Y33.4882
G01 X50.2033 Y33.4796
G01 X50.1335 Y33.4024
G01 X50.0713 Y33.3188
G01 X50.0646 Y33.3088
G01 X50.0112 Y33.2193
G01 X49.9641 Y33.1197
G01 X49.9270 Y33.0160
G01 X49.9008 Y32.9120
G01 X49.8991 Y32.9031
G01 X49.8840 Y32.8001
G01 X49.8787 Y32.6960
G01 X49.8786 Y32.4285
G01 X45.7305 Y32.4285
G01 X45.7136 Y32.4958
G01 X45.7111 Y32.5045
G01 X45.6595 Y32.6488
G01 X45.6559 Y32.6571
G01 X45.5917 Y32.7929
G01 X45.5873 Y32.8008
G01 X45.5084 Y32.9321
G01 X45.4154 Y33.0577
G01 X45.4096 Y33.0646
G01 X45.3066 Y33.1781
G01 X45.1886 Y33.2850
G01 X45.0606 Y33.3799
G01 X44.9267 Y33.4603
G01 X44.9186 Y33.4645
G01 X44.7801 Y33.5299
G01 X44.6301 Y33.5835
G01 X44.4756 Y33.6222
G01 X44.3181 Y33.6456
G01 X44.1590 Y33.6534
G01 X43.9999 Y33.6456
G01 X43.8424 Y33.6222
G01 X43.6879 Y33.5835
G01 X43.5379 Y33.5299
G01 X43.3994 Y33.4645
G01 X43.3887 Y33.4588
G01 X43.2574 Y33.3799
G01 X43.1294 Y33.2850
G01 X43.0158 Y33.1822
G01 X43.0073 Y33.1737
G01 X42.9084 Y33.0646
G01 X42.9008 Y33.0553
G01 X42.8096 Y32.9321
G01 X42.7307 Y32.8008
G01 X42.7250 Y32.7901
G01 X42.6621 Y32.6571
G01 X42.6575 Y32.6459
G01 X42.6060 Y32.5016
G01 X42.5673 Y32.3471
G01 X42.5439 Y32.1896
G01 X42.5362 Y32.0365
G01 X42.5362 Y32.0245
G01 X42.5435 Y31.8774
G01 X42.5447 Y31.8654
G01 X42.5673 Y31.7139
G01 X42.6060 Y31.5594
G01 X42.6575 Y31.4151
G01 X42.6621 Y31.4039
G01 X42.7277 Y31.2655
G01 X42.8096 Y31.1289
G01 X42.9045 Y31.0009
G01 X43.0073 Y30.8873
G01 X43.0158 Y30.8788
G01 X43.1294 Y30.7760
G01 X43.2574 Y30.6811
G01 X43.3887 Y30.6022
G01 X43.3994 Y30.5965
G01 X43.5324 Y30.5336
G01 X43.5436 Y30.5290
G00 Z2.0000
G00 X49.6943 Y31.3971
G01 F50.00
G01 Z-0.1300
G01 F70.00
G01 X49.6943 Y31.4481
G01 X49.6484 Y31.4481
G01 X49.6623 Y31.4339
G01 X49.6943 Y31.3971
G00 Z2.0000
G00 X49.6682 Y32.6129
G01 F50.00
G01 Z-0.1300
G01 F70.00
G01 X49.6943 Y32.6129
G01 X49.6943 Y32.6358
G01 X49.6807 Y32.6232
G01 X49.6682 Y32.6129
G00 Z2.0000
G00 X47.3144 Y53.2863
G01 F50.00
G01 Z-0.1300
G01 F70.00
G01 X47.3144 Y53.0241
G01 X47.9936 Y53.0241
G01 X48.1598 Y53.0374
G01 X48.3762 Y53.0906
G01 X48.5812 Y53.1776
G01 X48.7698 Y53.2964
G01 X48.9372 Y53.4439
G01 X49.0785 Y53.6160
G01 X49.1906 Y53.8086
G01 X49.2705 Y54.0167
G01 X49.2738 Y54.0323
G01 X48.9940 Y54.0323
G01 X48.9771 Y53.9851
G01 X48.9737 Y53.9767
G01 X48.9292 Y53.8825
G01 X48.9248 Y53.8746
G01 X48.8728 Y53.7878
G01 X48.8677 Y53.7804
G01 X48.8055 Y53.6968
G01 X48.7336 Y53.6173
G01 X48.7271 Y53.6110
G01 X48.6499 Y53.5411
G01 X48.5613 Y53.4755
G01 X48.4668 Y53.4188
G01 X48.3727 Y53.3742
G01 X48.3644 Y53.3706
G01 X48.2635 Y53.3346
G01 X48.1625 Y53.3091
G01 X48.1506 Y53.3068
G01 X48.0536 Y53.2924
G01 X48.0446 Y53.2914
G01 X47.9375 Y53.2863
G01 X47.3144 Y53.2863
G00 Z2.0000
G00 X48.3200 Y55.6592
G01 F50.00
G01 Z-0.1300
G01 F70.00
G01 X48.4237 Y55.6223
G01 X48.4378 Y55.6169
G01 X48.4515 Y55.6108
G01 X48.5470 Y55.5655
G01 X48.5603 Y55.5584
G01 X48.5736 Y55.5506
G01 X48.5702 Y55.5678
G01 X48.5674 Y55.5906
G01 X48.5625 Y55.6690
G01 X48.5620 Y55.6843
G01 X48.5626 Y55.7072
G01 X48.5639 Y55.7225
G01 X48.5673 Y55.7452
G01 X48.5723 Y55.7670
G01 X48.5537 Y55.7563
G01 X48.5403 Y55.7495
G01 X48.4515 Y55.7075
G01 X48.4378 Y55.7014
G01 X48.4237 Y55.6960
G01 X48.3200 Y55.6592
G00 Z2.0000
G00 X45.3013 Y55.7678
G01 F50.00
G01 Z-0.1300
G01 F70.00
G01 X45.3048 Y55.7498
G01 X45.3076 Y55.7271
G01 X45.3125 Y55.6486
G01 X45.3131 Y55.6333
G01 X45.3129 Y55.6181
G01 X45.3111 Y55.5952
G01 X45.3077 Y55.5725
G01 X45.3029 Y55.5515
G01 X45.3213 Y55.5620
G01 X45.3347 Y55.5688
G01 X45.4235 Y55.6108
G01 X45.4372 Y55.6169
G01 X45.4513 Y55.6223
G01 X45.5550 Y55.6592
G01 X45.4513 Y55.6960
G01 X45.4372 Y55.7014
G01 X45.4235 Y55.7075
G01 X45.3280 Y55.7528
G01 X45.3147 Y55.7599
G01 X45.3013 Y55.7678
G00 Z2.0000
G00 X44.6046 Y54.0323
G01 F50.00
G01 Z-0.1300
G01 F70.00
G01 X44.6351 Y53.9247
G01 X44.7292 Y53.7229
G01 X44.8546 Y53.5383
G01 X45.0076 Y53.3766
G01 X45.1846 Y53.2412
G01 X45.3811 Y53.1358
G01 X45.5920 Y53.0632
G01 X45.8138 Y53.0249
G01 X45.8323 Y53.0241
G01 X46.5606 Y53.0241
G01 X46.5606 Y53.2863
G01 X45.9375 Y53.2863
G01 X45.8304 Y53.2914
G01 X45.8214 Y53.2924
G01 X45.7244 Y53.3068
G01 X45.7125 Y53.3091
G01 X45.6115 Y53.3346
G01 X45.5106 Y53.3706
G01 X45.5023 Y53.3742
G01 X45.4082 Y53.4188
G01 X45.3137 Y53.4755
G01 X45.2251 Y53.5411
G01 X45.1479 Y53.6110
G01 X45.1414 Y53.6173
G01 X45.0695 Y53.6968
G01 X45.0073 Y53.7804
G01 X45.0022 Y53.7878
G01 X44.9502 Y53.8746
G01 X44.9458 Y53.8825
G01 X44.9013 Y53.9767
G01 X44.8979 Y53.9851
G01 X44.8810 Y54.0323
G01 X44.6046 Y54.0323
G00 Z2.0000
G00 X39.9634 Y55.4194
G01 F50.00
G01 Z-0.1300
G01 F70.00
G01 X39.9776 Y55.4333
G01 X40.0144 Y55.4653
G01 X39.9634 Y55.4653
G01 X39.9634 Y55.4194
G00 Z2.0000
G00 X38.7528 Y55.4653
G01 F50.00
G01 Z-0.1300
G01 F70.00
G01 X38.7668 Y55.4509
G01 X38.7986 Y55.4143
G01 X38.7986 Y55.4653
G01 X38.7528 Y55.4653
G00 Z2.0000
G00 X33.9159 Y52.9271
G01 F50.00
G01 Z-0.1300
G01 F70.00
G01 X33.9159 Y52.6649
G01 X34.5390 Y52.6649
G01 X34.6461 Y52.6598
G01 X34.6551 Y52.6588
G01 X34.7521 Y52.6444
G01 X34.7640 Y52.6420
G01 X34.8650 Y52.6165
G01 X34.9659 Y52.5805
G01 X34.9742 Y52.5770
G01 X35.0683 Y52.5323
G01 X35.1628 Y52.4757
G01 X35.2514 Y52.4100
G01 X35.3286 Y52.3402
G01 X35.3351 Y52.3339
G01 X35.4070 Y52.2544
G01 X35.4692 Y52.1708
G01 X35.4743 Y52.1633
G01 X35.5263 Y52.0766
G01 X35.5307 Y52.0687
G01 X35.5752 Y51.9745
G01 X35.5786 Y51.9661
G01 X35.5955 Y51.9189
G01 X35.8719 Y51.9189
G01 X35.8414 Y52.0265
G01 X35.7473 Y52.2283
G01 X35.6219 Y52.4128
G01 X35.4689 Y52.5746
G01 X35.2919 Y52.7100
G01 X35.0954 Y52.8153
G01 X34.8845 Y52.8880
G01 X34.6627 Y52.9263
G01 X34.6442 Y52.9271
G01 X33.9159 Y52.9271
G00 Z2.0000
G00 X33.9159 Y50.1569
G01 F50.00
G01 Z-0.1300
G01 F70.00
G01 X34.5950 Y50.1569
G01 X34.7611 Y50.1703
G01 X34.9775 Y50.2234
G01 X35.1827 Y50.3105
G01 X35.3715 Y50.4294
G01 X35.5385 Y50.5766
G01 X35.6800 Y50.7488
G01 X35.7922 Y50.9417
G01 X35.8720 Y51.1495
G01 X35.8753 Y51.1651
G01 X35.5955 Y51.1651
G01 X35.5786 Y51.1179
G01 X35.5752 Y51.1095
G01 X35.5307 Y51.0153
G01 X35.5263 Y51.0074
G01 X35.4743 Y50.9207
G01 X35.4692 Y50.9132
G01 X35.4070 Y50.8296
G01 X35.3351 Y50.7501
G01 X35.3286 Y50.7438
G01 X35.2514 Y50.6740
G01 X35.1628 Y50.6083
G01 X35.0683 Y50.5517
G01 X34.9742 Y50.5070
G01 X34.9659 Y50.5035
G01 X34.8650 Y50.4675
G01 X34.7640 Y50.4420
G01 X34.7521 Y50.4396
G01 X34.6551 Y50.4252
G01 X34.6461 Y50.4242
G01 X34.5390 Y50.4191
G01 X33.9159 Y50.4191
G01 X33.9159 Y50.1569
G00 Z2.0000
G00 X31.2061 Y51.1651
G01 F50.00
G01 Z-0.1300
G01 F70.00
G01 X31.2366 Y51.0575
G01 X31.3307 Y50.8557
G01 X31.4561 Y50.6712
G01 X31.6091 Y50.5094
G01 X31.7861 Y50.3740
G01 X31.9826 Y50.2687
G01 X32.1935 Y50.1960
G01 X32.4153 Y50.1577
G01 X32.4338 Y50.1569
G01 X33.1621 Y50.1569
G01 X33.1621 Y50.4191
G01 X32.5390 Y50.4191
G01 X32.4319 Y50.4242
G01 X32.4229 Y50.4252
G01 X32.3259 Y50.4396
G01 X32.3140 Y50.4420
G01 X32.2130 Y50.4675
G01 X32.1121 Y50.5035
G01 X32.1038 Y50.5070
G01 X32.0097 Y50.5517
G01 X31.9152 Y50.6083
G01 X31.8266 Y50.6740
G01 X31.7494 Y50.7438
G01 X31.7429 Y50.7501
G01 X31.6710 Y50.8296
G01 X31.6088 Y50.9132
G01 X31.6037 Y50.9207
G01 X31.5517 Y51.0074
G01 X31.5473 Y51.0153
G01 X31.5028 Y51.1095
G01 X31.4994 Y51.1179
G01 X31.4825 Y51.1651
G01 X31.2061 Y51.1651
G00 Z2.0000
G00 X31.2027 Y51.9189
G01 F50.00
G01 Z-0.1300
G01 F70.00
G01 X31.4825 Y51.9189
G01 X31.4994 Y51.9661
G01 X31.5028 Y51.9745
G01 X31.5473 Y52.0687
G01 X31.5517 Y52.0766
G01 X31.6037 Y52.1633
G01 X31.6088 Y52.1708
G01 X31.6710 Y52.2544
G01 X31.7429 Y52.3339
G01 X31.7494 Y52.3402
G01 X31.8266 Y52.4100
G01 X31.9152 Y52.4757
G01 X32.0097 Y52.5323
G01 X32.1038 Y52.5770
G01 X32.1121 Y52.5805
G01 X32.2130 Y52.6165
G01 X32.3140 Y52.6420
G01 X32.3259 Y52.6444
G01 X32.4229 Y52.6588
G01 X32.4319 Y52.6598
G01 X32.5390 Y52.6649
G01 X33.1621 Y52.6649
G01 X33.1621 Y52.9271
G01 X32.4830 Y52.9271
G01 X32.3169 Y52.9137
G01 X32.1005 Y52.8606
G01 X31.8953 Y52.7735
G01 X31.7065 Y52.6546
G01 X31.5395 Y52.5074
G01 X31.3980 Y52.3352
G01 X31.2858 Y52.1423
G01 X31.2060 Y51.9345
G01 X31.2027 Y51.9189
G00 Z2.0000
G00 X28.9357 Y55.9138
G01 F50.00
G01 Z-0.1300
G01 F70.00
G01 X28.9501 Y55.9278
G01 X28.9867 Y55.9596
G01 X28.9357 Y55.9596
G01 X28.9357 Y55.9138
G00 Z2.0000
G00 X28.9770 Y57.1244
G01 F50.00
G01 Z-0.1300
G01 F70.00
G01 X28.9631 Y57.1386
G01 X28.9357 Y57.1700
G01 X28.9357 Y57.1244
G01 X28.9770 Y57.1244
G00 Z2.0000
G00 X26.3585 Y57.6330
G01 F50.00
G01 Z-0.1300
G01 F70.00
G01 X26.3735 Y57.6929
G01 X26.3775 Y57.7075
G01 X26.3823 Y57.7218
G01 X26.4180 Y57.8213
G01 X26.4269 Y57.8420
G01 X26.4742 Y57.9415
G01 X26.4509 Y57.9368
G01 X26.4282 Y57.9340
G01 X26.3497 Y57.9291
G01 X26.3344 Y57.9286
G01 X26.3115 Y57.9291
G01 X26.2887 Y57.9314
G01 X26.2661 Y57.9354
G01 X26.2428 Y57.9414
G01 X26.2901 Y57.8420
G01 X26.2990 Y57.8213
G01 X26.3347 Y57.7218
G01 X26.3395 Y57.7075
G01 X26.3435 Y57.6929
G01 X26.3585 Y57.6330
G00 Z2.0000
G00 X23.7813 Y56.9562
G01 F50.00
G01 Z-0.1300
G01 F70.00
G01 X23.7669 Y56.9422
G01 X23.7303 Y56.9104
G01 X23.7813 Y56.9104
G01 X23.7813 Y56.9562
G00 Z2.0000
G00 X23.7354 Y55.7456
G01 F50.00
G01 Z-0.1300
G01 F70.00
G01 X23.7493 Y55.7314
G01 X23.7813 Y55.6946
G01 X23.7813 Y55.7456
G01 X23.7354 Y55.7456
G00 Z2.0000
G00 X26.2428 Y54.7145
G01 F50.00
G01 Z-0.1300
G01 F70.00
G01 X26.2661 Y54.7192
G01 X26.2888 Y54.7220
G01 X26.3673 Y54.7269
G01 X26.3826 Y54.7274
G01 X26.4055 Y54.7269
G01 X26.4283 Y54.7246
G01 X26.4509 Y54.7206
G01 X26.4742 Y54.7146
G01 X26.4269 Y54.8140
G01 X26.4180 Y54.8347
G01 X26.3823 Y54.9342
G01 X26.3775 Y54.9485
G01 X26.3735 Y54.9631
G01 X26.3585 Y55.0230
G01 X26.3435 Y54.9631
G01 X26.3395 Y54.9485
G01 X26.3347 Y54.9342
G01 X26.2990 Y54.8347
G01 X26.2901 Y54.8140
G01 X26.2428 Y54.7145
G00 Z2.0000
G00 X20.3269 Y52.7601
G01 F50.00
G01 Z-0.1300
G01 F70.00
G01 X20.3269 Y52.4979
G01 X20.9500 Y52.4979
G01 X21.0571 Y52.4928
G01 X21.0661 Y52.4918
G01 X21.1631 Y52.4774
G01 X21.1750 Y52.4750
G01 X21.2760 Y52.4495
G01 X21.3769 Y52.4135
G01 X21.3852 Y52.4100
G01 X21.4793 Y52.3653
G01 X21.5738 Y52.3087
G01 X21.6624 Y52.2430
G01 X21.7396 Y52.1732
G01 X21.7461 Y52.1669
G01 X21.8180 Y52.0874
G01 X21.8802 Y52.0038
G01 X21.8853 Y51.9963
G01 X21.9373 Y51.9096
G01 X21.9417 Y51.9017
G01 X21.9862 Y51.8075
G01 X21.9896 Y51.7991
G01 X22.0065 Y51.7519
G01 X22.2829 Y51.7519
G01 X22.2524 Y51.8595
G01 X22.1583 Y52.0613
G01 X22.0329 Y52.2458
G01 X21.8799 Y52.4076
G01 X21.7029 Y52.5430
G01 X21.5064 Y52.6483
G01 X21.2955 Y52.7210
G01 X21.0737 Y52.7593
G01 X21.0552 Y52.7601
G01 X20.3269 Y52.7601
G00 Z2.0000
G00 X20.3269 Y49.9899
G01 F50.00
G01 Z-0.1300
G01 F70.00
G01 X21.0060 Y49.9899
G01 X21.1721 Y50.0033
G01 X21.3885 Y50.0564
G01 X21.5937 Y50.1435
G01 X21.7825 Y50.2624
G01 X21.9495 Y50.4096
G01 X22.0910 Y50.5818
G01 X22.2032 Y50.7747
G01 X22.2830 Y50.9825
G01 X22.2863 Y50.9981
G01 X22.0065 Y50.9981
G01 X21.9896 Y50.9509
G01 X21.9862 Y50.9425
G01 X21.9417 Y50.8483
G01 X21.9373 Y50.8404
G01 X21.8853 Y50.7537
G01 X21.8802 Y50.7462
G01 X21.8180 Y50.6626
G01 X21.7461 Y50.5831
G01 X21.7396 Y50.5768
G01 X21.6624 Y50.5070
G01 X21.5738 Y50.4413
G01 X21.4793 Y50.3847
G01 X21.3852 Y50.3400
G01 X21.3769 Y50.3365
G01 X21.2760 Y50.3005
G01 X21.1750 Y50.2750
G01 X21.1631 Y50.2726
G01 X21.0661 Y50.2582
G01 X21.0571 Y50.2572
G01 X20.9500 Y50.2521
G01 X20.3269 Y50.2521
G01 X20.3269 Y49.9899
G00 Z2.0000
G00 X17.6171 Y50.9981
G01 F50.00
G01 Z-0.1300
G01 F70.00
G01 X17.6476 Y50.8905
G01 X17.7417 Y50.6887
G01 X17.8671 Y50.5042
G01 X18.0201 Y50.3424
G01 X18.1971 Y50.2070
G01 X18.3936 Y50.1017
G01 X18.6045 Y50.0290
G01 X18.8263 Y49.9907
G01 X18.8448 Y49.9899
G01 X19.5731 Y49.9899
G01 X19.5731 Y50.2521
G01 X18.9500 Y50.2521
G01 X18.8429 Y50.2572
G01 X18.8339 Y50.2582
G01 X18.7369 Y50.2726
G01 X18.7250 Y50.2750
G01 X18.6240 Y50.3005
G01 X18.5231 Y50.3365
G01 X18.5148 Y50.3400
G01 X18.4207 Y50.3847
G01 X18.3262 Y50.4413
G01 X18.2376 Y50.5070
G01 X18.1604 Y50.5768
G01 X18.1539 Y50.5831
G01 X18.0820 Y50.6626
G01 X18.0198 Y50.7462
G01 X18.0147 Y50.7537
G01 X17.9627 Y50.8404
G01 X17.9583 Y50.8483
G01 X17.9138 Y50.9425
G01 X17.9104 Y50.9509
G01 X17.8935 Y50.9981
G01 X17.6171 Y50.9981
G00 Z2.0000
G00 X17.6137 Y51.7519
G01 F50.00
G01 Z-0.1300
G01 F70.00
G01 X17.8935 Y51.7519
G01 X17.9104 Y51.7991
G01 X17.9138 Y51.8075
G01 X17.9583 Y51.9017
G01 X17.9627 Y51.9096
G01 X18.0147 Y51.9963
G01 X18.0198 Y52.0038
G01 X18.0820 Y52.0874
G01 X18.1539 Y52.1669
G01 X18.1604 Y52.1732
G01 X18.2376 Y52.2430
G01 X18.3262 Y52.3087
G01 X18.4207 Y52.3653
G01 X18.5148 Y52.4100
G01 X18.5231 Y52.4135
G01 X18.6240 Y52.4495
G01 X18.7250 Y52.4750
G01 X18.7369 Y52.4774
G01 X18.8339 Y52.4918
G01 X18.8429 Y52.4928
G01 X18.9500 Y52.4979
G01 X19.5731 Y52.4979
G01 X19.5731 Y52.7601
G01 X18.8940 Y52.7601
G01 X18.7279 Y52.7467
G01 X18.5115 Y52.6936
G01 X18.3063 Y52.6065
G01 X18.1175 Y52.4876
G01 X17.9505 Y52.3404
G01 X17.8090 Y52.1682
G01 X17.6968 Y51.9753
G01 X17.6170 Y51.7675
G01 X17.6137 Y51.7519
G00 Z2.0000
G00 X18.9500 Y55.3321
G01 F50.00
G01 Z-0.1300
G01 F70.00
G01 X20.9500 Y55.3321
G01 X21.0540 Y55.3371
G01 X21.0631 Y55.3378
G01 X21.1631 Y55.3526
G01 X21.1750 Y55.3550
G01 X21.2760 Y55.3805
G01 X21.3741 Y55.4154
G01 X21.3852 Y55.4200
G01 X21.4793 Y55.4647
G01 X21.5738 Y55.5213
G01 X21.6576 Y55.5833
G01 X21.6669 Y55.5909
G01 X21.7440 Y55.6610
G01 X21.8141 Y55.7381
G01 X21.8217 Y55.7474
G01 X21.8837 Y55.8312
G01 X21.9373 Y55.9204
G01 X21.9425 Y55.9300
G01 X23.9656 Y55.9300
G01 X23.9656 Y55.3250
G01 X23.9710 Y55.2179
G01 X23.9872 Y55.1089
G01 X24.0123 Y55.0079
G01 X24.0158 Y54.9963
G01 X24.0511 Y54.8983
G01 X24.0955 Y54.8041
G01 X24.1012 Y54.7934
G01 X24.1548 Y54.7042
G01 X24.2168 Y54.6204
G01 X24.2224 Y54.6133
G01 X24.2945 Y54.5340
G01 X24.3716 Y54.4639
G01 X24.3809 Y54.4563
G01 X24.4647 Y54.3943
G01 X24.5539 Y54.3407
G01 X24.5646 Y54.3350
G01 X24.6588 Y54.2906
G01 X24.7625 Y54.2535
G01 X24.8694 Y54.2267
G01 X24.9724 Y54.2112
G01 X24.9845 Y54.2101
G01 X25.0885 Y54.2051
G01 X25.1986 Y54.2105
G01 X25.3016 Y54.2256
G01 X25.3135 Y54.2280
G01 X25.4086 Y54.2518
G01 X25.4173 Y54.2544
G01 X25.5182 Y54.2906
G01 X25.6124 Y54.3350
G01 X25.6231 Y54.3407
G01 X25.7123 Y54.3943
G01 X25.7961 Y54.4563
G01 X25.8054 Y54.4639
G01 X25.8825 Y54.5340
G01 X25.9526 Y54.6111
G01 X25.9602 Y54.6204
G01 X26.0222 Y54.7042
G01 X26.0758 Y54.7934
G01 X26.0815 Y54.8041
G01 X26.1259 Y54.8983
G01 X26.1612 Y54.9963
G01 X26.1647 Y55.0079
G01 X26.1892 Y55.1060
G01 X26.1909 Y55.1149
G01 X26.2060 Y55.2179
G01 X26.2114 Y55.3280
G01 X26.2114 Y57.3280
G01 X26.2060 Y57.4381
G01 X26.1909 Y57.5411
G01 X26.1885 Y57.5530
G01 X26.1647 Y57.6481
G01 X26.1621 Y57.6568
G01 X26.1259 Y57.7577
G01 X26.0788 Y57.8573
G01 X26.0222 Y57.9518
G01 X25.9602 Y58.0356
G01 X25.9526 Y58.0449
G01 X25.8867 Y58.1176
G01 X25.8781 Y58.1262
G01 X25.8009 Y58.1960
G01 X25.7173 Y58.2582
G01 X25.7073 Y58.2649
G01 X25.6178 Y58.3183
G01 X25.5237 Y58.3630
G01 X25.5126 Y58.3676
G01 X25.4145 Y58.4025
G01 X25.3076 Y58.4293
G01 X25.1986 Y58.4455
G01 X25.0885 Y58.4509
G01 X24.9784 Y58.4455
G01 X24.8694 Y58.4293
G01 X24.7625 Y58.4025
G01 X24.6588 Y58.3654
G01 X24.5592 Y58.3183
G01 X24.4647 Y58.2617
G01 X24.3761 Y58.1960
G01 X24.2945 Y58.1220
G01 X24.2205 Y58.0404
G01 X24.1548 Y57.9518
G01 X24.0982 Y57.8573
G01 X24.0511 Y57.7577
G01 X24.0140 Y57.6540
G01 X23.9885 Y57.5530
G01 X23.9861 Y57.5411
G01 X23.9717 Y57.4441
G01 X23.9707 Y57.4351
G01 X23.9656 Y57.3280
G01 X23.9656 Y56.7260
G01 X22.0385 Y56.7260
G01 X22.0262 Y56.7751
G01 X22.0236 Y56.7838
G01 X21.9885 Y56.8819
G01 X21.9850 Y56.8902
G01 X21.9430 Y56.9789
G01 X21.9389 Y56.9870
G01 X21.8837 Y57.0788
G01 X21.8217 Y57.1626
G01 X21.8141 Y57.1719
G01 X21.7482 Y57.2446
G01 X21.7419 Y57.2511
G01 X21.6624 Y57.3230
G01 X21.5788 Y57.3852
G01 X21.5688 Y57.3919
G01 X21.4793 Y57.4453
G01 X21.3797 Y57.4924
G01 X21.2817 Y57.5277
G01 X21.2701 Y57.5312
G01 X21.1750 Y57.5550
G01 X21.1631 Y57.5574
G01 X21.0601 Y57.5725
G01 X20.9500 Y57.5779
G01 X18.9500 Y57.5779
G01 X18.8399 Y57.5725
G01 X18.7369 Y57.5574
G01 X18.7250 Y57.5550
G01 X18.6299 Y57.5312
G01 X18.6212 Y57.5286
G01 X18.5203 Y57.4924
G01 X18.4207 Y57.4453
G01 X18.3262 Y57.3887
G01 X18.2424 Y57.3267
G01 X18.2331 Y57.3191
G01 X18.1560 Y57.2490
G01 X18.0859 Y57.1719
G01 X18.0783 Y57.1626
G01 X18.0198 Y57.0838
G01 X18.0131 Y57.0738
G01 X17.9597 Y56.9843
G01 X17.9126 Y56.8847
G01 X17.8755 Y56.7810
G01 X17.8487 Y56.6741
G01 X17.8325 Y56.5651
G01 X17.8271 Y56.4550
G01 X17.8325 Y56.3449
G01 X17.8476 Y56.2419
G01 X17.8500 Y56.2300
G01 X17.8738 Y56.1349
G01 X17.8773 Y56.1233
G01 X17.9126 Y56.0253
G01 X17.9570 Y55.9311
G01 X17.9627 Y55.9204
G01 X18.0163 Y55.8312
G01 X18.0820 Y55.7426
G01 X18.1560 Y55.6610
G01 X18.2376 Y55.5870
G01 X18.3262 Y55.5213
G01 X18.4207 Y55.4647
G01 X18.5203 Y55.4176
G01 X18.6183 Y55.3823
G01 X18.6299 Y55.3788
G01 X18.7250 Y55.3550
G01 X18.7369 Y55.3526
G01 X18.8399 Y55.3375
G01 X18.9500 Y55.3321
G00 Z2.0000
G00 X17.5607 Y56.4065
G01 F50.00
G01 Z-0.1300
G01 F70.00
G01 X17.5864 Y56.1850
G01 X17.6471 Y55.9704
G01 X17.7413 Y55.7684
G01 X17.8666 Y55.5840
G01 X18.0198 Y55.4219
G01 X18.1970 Y55.2865
G01 X18.3935 Y55.1812
G01 X18.6043 Y55.1086
G01 X18.8261 Y55.0702
G01 X18.8447 Y55.0694
G01 X21.0061 Y55.0694
G01 X21.1722 Y55.0828
G01 X21.3888 Y55.1360
G01 X21.5940 Y55.2231
G01 X21.7827 Y55.3419
G01 X21.9500 Y55.4893
G01 X22.0234 Y55.5787
G01 X22.0294 Y55.5852
G01 X22.0358 Y55.5912
G01 X22.0474 Y55.6001
G01 X22.1111 Y55.6433
G01 X22.1217 Y55.6491
G01 X22.1300 Y55.6527
G01 X22.1385 Y55.6557
G01 X22.1472 Y55.6581
G01 X22.1561 Y55.6598
G01 X22.1979 Y55.6664
G01 X22.2139 Y55.6674
G01 X23.4540 Y55.6674
G01 X23.4686 Y55.6665
G01 X23.4830 Y55.6639
G01 X23.5597 Y55.6415
G01 X23.5739 Y55.6360
G01 X23.5873 Y55.6287
G01 X23.5997 Y55.6198
G01 X23.6109 Y55.6095
G01 X23.6615 Y55.5513
G01 X23.6673 Y55.5441
G01 X23.6725 Y55.5365
G01 X23.6771 Y55.5286
G01 X23.6811 Y55.5203
G01 X23.6845 Y55.5117
G01 X23.6880 Y55.5000
G01 X23.7001 Y55.4446
G01 X23.7016 Y55.4360
G01 X23.7026 Y55.4273
G01 X23.7029 Y55.4185
G01 X23.7029 Y55.2719
G01 X23.7163 Y55.1057
G01 X23.7695 Y54.8892
G01 X23.8566 Y54.6840
G01 X23.9754 Y54.4953
G01 X24.1228 Y54.3280
G01 X24.2951 Y54.1865
G01 X24.4879 Y54.0744
G01 X24.6960 Y53.9944
G01 X24.9143 Y53.9489
G01 X25.1370 Y53.9387
G01 X25.3585 Y53.9644
G01 X25.5731 Y54.0251
G01 X25.7751 Y54.1193
G01 X25.9595 Y54.2446
G01 X26.1216 Y54.3978
G01 X26.1621 Y54.4509
G01 X26.1679 Y54.4575
G01 X26.1741 Y54.4637
G01 X26.1853 Y54.4730
G01 X26.2426 Y54.5150
G01 X26.2502 Y54.5201
G01 X26.2608 Y54.5261
G01 X26.2720 Y54.5309
G01 X26.2836 Y54.5346
G01 X26.2956 Y54.5372
G01 X26.3077 Y54.5385
G01 X26.3847 Y54.5431
G01 X26.4000 Y54.5423
G01 X26.4120 Y54.5404
G01 X26.4267 Y54.5362
G01 X26.4381 Y54.5316
G01 X26.4489 Y54.5259
G01 X26.5154 Y54.4863
G01 X26.5228 Y54.4816
G01 X26.5299 Y54.4762
G01 X26.5366 Y54.4704
G01 X26.5448 Y54.4620
G01 X26.6628 Y54.3280
G01 X26.8351 Y54.1865
G01 X27.0279 Y54.0744
G01 X27.2360 Y53.9944
G01 X27.4543 Y53.9489
G01 X27.6770 Y53.9387
G01 X27.8985 Y53.9644
G01 X28.1131 Y54.0251
G01 X28.3151 Y54.1193
G01 X28.4995 Y54.2446
G01 X28.6616 Y54.3978
G01 X28.7970 Y54.5750
G01 X28.9023 Y54.7715
G01 X28.9749 Y54.9823
G01 X29.0133 Y55.2041
G01 X29.0141 Y55.2227
G01 X29.0142 Y55.6383
G01 X29.0154 Y55.6500
G01 X29.0183 Y55.6643
G01 X29.0409 Y55.7411
G01 X29.0455 Y55.7524
G01 X29.0528 Y55.7658
G01 X29.0598 Y55.7758
G01 X29.0677 Y55.7851
G01 X29.0765 Y55.7935
G01 X29.1302 Y55.8400
G01 X29.1424 Y55.8493
G01 X29.1502 Y55.8541
G01 X29.1584 Y55.8584
G01 X29.1669 Y55.8620
G01 X29.1756 Y55.8649
G01 X29.1845 Y55.8672
G01 X29.2369 Y55.8786
G01 X29.2513 Y55.8808
G01 X29.2630 Y55.8814
G01 X31.1808 Y55.8814
G01 X31.1925 Y55.8808
G01 X31.2070 Y55.8786
G01 X31.2155 Y55.8764
G01 X31.2836 Y55.8564
G01 X31.2949 Y55.8525
G01 X31.3057 Y55.8475
G01 X31.3135 Y55.8431
G01 X31.3210 Y55.8381
G01 X31.3303 Y55.8306
G01 X31.3708 Y55.7913
G01 X31.3812 Y55.7799
G01 X31.3867 Y55.7724
G01 X31.4556 Y55.6710
G01 X31.6088 Y55.5089
G01 X31.7860 Y55.3735
G01 X31.9825 Y55.2682
G01 X32.1933 Y55.1956
G01 X32.4151 Y55.1572
G01 X32.4337 Y55.1564
G01 X34.5951 Y55.1564
G01 X34.7612 Y55.1698
G01 X34.9778 Y55.2230
G01 X35.1830 Y55.3101
G01 X35.3717 Y55.4289
G01 X35.5390 Y55.5763
G01 X35.6805 Y55.7486
G01 X35.7926 Y55.9414
G01 X35.7979 Y55.9549
G01 X35.8015 Y55.9629
G01 X35.8072 Y55.9731
G01 X35.8121 Y55.9804
G01 X35.8569 Y56.0392
G01 X35.8669 Y56.0507
G01 X35.8759 Y56.0590
G01 X35.8882 Y56.0680
G01 X35.8988 Y56.0741
G01 X35.9099 Y56.0791
G01 X35.9795 Y56.1043
G01 X35.9881 Y56.1071
G01 X35.9968 Y56.1092
G01 X36.0057 Y56.1106
G01 X36.0146 Y56.1115
G01 X36.0254 Y56.1118
G01 X37.0228 Y56.1119
G01 X37.0316 Y56.1116
G01 X37.0432 Y56.1102
G01 X37.0546 Y56.1077
G01 X37.1313 Y56.0851
G01 X37.1424 Y56.0806
G01 X37.1504 Y56.0766
G01 X37.1581 Y56.0719
G01 X37.1654 Y56.0668
G01 X37.1746 Y56.0591
G01 X37.2128 Y56.0218
G01 X37.2232 Y56.0104
G01 X37.2287 Y56.0029
G01 X37.2976 Y55.9015
G01 X37.4508 Y55.7394
G01 X37.6280 Y55.6040
G01 X37.8245 Y55.4987
G01 X38.0353 Y55.4261
G01 X38.2571 Y55.3877
G01 X38.2757 Y55.3869
G01 X38.4744 Y55.3869
G01 X38.4890 Y55.3856
G01 X38.5033 Y55.3827
G01 X38.5801 Y55.3601
G01 X38.5914 Y55.3555
G01 X38.6048 Y55.3482
G01 X38.6172 Y55.3393
G01 X38.6284 Y55.3290
G01 X38.6790 Y55.2708
G01 X38.6866 Y55.2612
G01 X38.6931 Y55.2508
G01 X38.6986 Y55.2398
G01 X38.7030 Y55.2283
G01 X38.7062 Y55.2165
G01 X38.7182 Y55.1613
G01 X38.7198 Y55.1497
G01 X38.7204 Y55.1380
G01 X38.7204 Y36.5117
G01 X38.7201 Y36.5030
G01 X38.7191 Y36.4942
G01 X38.7162 Y36.4799
G01 X38.6945 Y36.4061
G01 X38.6891 Y36.3921
G01 X38.6835 Y36.3814
G01 X38.6769 Y36.3713
G01 X38.6563 Y36.3455
G01 X38.6475 Y36.3357
G01 X37.6983 Y35.3865
G01 X37.6438 Y35.3332
G01 X37.6269 Y35.3070
G01 X37.6177 Y35.2941
G01 X37.5965 Y35.2672
G01 X37.5867 Y35.2473
G01 X37.5774 Y35.2306
G01 X37.5635 Y35.2086
G01 X37.5517 Y35.1765
G01 X37.5455 Y35.1619
G01 X37.5320 Y35.1338
G01 X37.5259 Y35.1085
G01 X37.5204 Y35.0902
G01 X37.5129 Y35.0693
G01 X37.5089 Y35.0384
G01 X37.5062 Y35.0228
G01 X37.4986 Y34.9894
G01 X37.4981 Y34.8342
G01 X37.4984 Y34.8251
G01 X37.4984 Y33.9602
G01 X37.4971 Y33.9457
G01 X37.4949 Y33.9342
G01 X37.4716 Y33.8547
G01 X37.4671 Y33.8436
G01 X37.4616 Y33.8330
G01 X37.4533 Y33.8206
G01 X37.4456 Y33.8115
G01 X37.4348 Y33.8011
G01 X37.3782 Y33.7534
G01 X37.3710 Y33.7477
G01 X37.3608 Y33.7411
G01 X37.3527 Y33.7367
G01 X37.3010 Y33.7145
G01 X37.0803 Y33.5825
G01 X36.8797 Y33.4217
G01 X36.7027 Y33.2352
G01 X36.5527 Y33.0265
G01 X36.4324 Y32.7992
G01 X36.3440 Y32.5578
G01 X36.2893 Y32.3066
G01 X36.2691 Y32.0503
G01 X36.2839 Y31.7936
G01 X36.3282 Y31.5679
G01 X36.3299 Y31.5563
G01 X36.3304 Y31.5476
G01 X36.3302 Y31.5359
G01 X36.3227 Y31.4562
G01 X36.3196 Y31.4413
G01 X36.3147 Y31.4268
G01 X36.3081 Y31.4131
G01 X36.2998 Y31.4003
G01 X36.2542 Y31.3420
G01 X36.2462 Y31.3327
G01 X36.2374 Y31.3243
