(G-CODE GENERATED BY FLATCAM v8.992 - www.flatcam.org - Version Date: 2020/05/03)

(Name: Inductor Saturation Test-F_Cu.gbr_iso_cnc)
(Type: G-code from Geometry)
(Units: MM)

(Created on Wednesday, 18 January 2023 at 17:29)

(This preprocessor is the default preprocessor used by FlatCAM.)
(It is made to work with MACH3 compatible motion controllers.)

(TOOL DIAMETER: 0.2423 mm)
(Feedrate_XY: 50.0 mm/min)
(Feedrate_Z: 40.0 mm/min)
(Feedrate rapids 1500.0 mm/min)

(Z_Cut: -0.12 mm)
(Z_Move: 2.0 mm)
(Z Start: None mm)
(Z End: 10.0 mm)
(Steps per circle: 64)
(Preprocessor Geometry: default)

(X range:    0.3248 ...   56.2122  mm)
(Y range:    0.3808 ...   72.8417  mm)

(Spindle Speed: None RPM)
G21
G90
G94



G01 F50.00
G00 Z2.0000

M03
G00 X4.7697 Y8.0462
G01 F40.00
G01 Z-0.1200
G01 F50.00
G01 X4.7811 Y7.8105
G01 X4.8271 Y7.5791
G01 X4.9068 Y7.3571
G01 X5.0185 Y7.1492
G01 X5.1596 Y6.9602
G01 X5.3272 Y6.7941
G01 X5.5175 Y6.6546
G01 X5.7263 Y6.5447
G01 X5.9490 Y6.4669
G01 X6.1808 Y6.4229
G01 X6.4166 Y6.4137
G01 X6.6511 Y6.4393
G01 X6.7010 Y6.4525
G01 X6.8792 Y6.4994
G01 X7.0960 Y6.5925
G01 X7.2966 Y6.7167
G01 X7.4767 Y6.8691
G01 X7.6323 Y7.0465
G01 X7.7599 Y7.2450
G01 X7.8568 Y7.4601
G01 X7.9209 Y7.6871
G01 X7.9510 Y7.9241
G01 X7.9530 Y8.0016
G01 X7.9353 Y8.2398
G01 X7.8833 Y8.4699
G01 X7.8788 Y8.4814
G01 X7.7977 Y8.6898
G01 X7.6807 Y8.8946
G01 X7.5346 Y9.0799
G01 X7.3628 Y9.2416
G01 X7.1689 Y9.3760
G01 X7.1586 Y9.3812
G01 X7.1511 Y9.3854
G01 X7.1439 Y9.3902
G01 X7.1349 Y9.3974
G01 X7.0805 Y9.4474
G01 X7.0703 Y9.4580
G01 X7.0632 Y9.4672
G01 X7.0555 Y9.4797
G01 X7.0495 Y9.4931
G01 X7.0458 Y9.5042
G01 X7.0263 Y9.5749
G01 X7.0243 Y9.5866
G01 X7.0234 Y9.5985
G01 X7.0234 Y11.2473
G01 X7.0242 Y11.2617
G01 X7.0268 Y11.2758
G01 X7.0491 Y11.3524
G01 X7.0522 Y11.3608
G01 X7.0558 Y11.3689
G01 X7.0632 Y11.3818
G01 X7.0683 Y11.3891
G01 X7.0871 Y11.4124
G01 X7.0957 Y11.4220
G01 X9.6745 Y14.0008
G01 X9.6852 Y14.0103
G01 X9.6971 Y14.0185
G01 X9.7644 Y14.0555
G01 X9.7724 Y14.0594
G01 X9.7834 Y14.0638
G01 X9.7920 Y14.0664
G01 X9.8007 Y14.0683
G01 X9.8363 Y14.0725
G01 X9.8492 Y14.0731
G01 X15.2420 Y14.0731
G01 X15.3219 Y14.0723
G01 X15.3384 Y14.0731
G01 X35.8293 Y14.0731
G01 X35.8379 Y14.0728
G01 X35.8494 Y14.0715
G01 X35.8606 Y14.0690
G01 X35.9315 Y14.0482
G01 X35.9455 Y14.0432
G01 X35.9562 Y14.0379
G01 X35.9687 Y14.0299
G01 X35.9944 Y14.0094
G01 X36.0040 Y14.0008
G01 X38.2399 Y11.7649
G01 X38.2474 Y11.7561
G01 X38.2557 Y11.7443
G01 X38.2940 Y11.6743
G01 X38.2978 Y11.6662
G01 X38.3010 Y11.6577
G01 X38.3043 Y11.6462
G01 X38.3060 Y11.6373
G01 X38.3072 Y11.6253
G01 X38.3073 Y11.6133
G01 X38.3018 Y11.5365
G01 X38.3006 Y11.5275
G01 X38.2987 Y11.5187
G01 X38.2962 Y11.5100
G01 X38.2930 Y11.5016
G01 X38.2864 Y11.4881
G01 X38.2799 Y11.4780
G01 X38.2338 Y11.4163
G01 X38.2278 Y11.4093
G01 X38.2214 Y11.4029
G01 X38.2146 Y11.3969
G01 X38.2072 Y11.3915
G01 X38.1996 Y11.3866
G01 X38.1888 Y11.3810
G01 X38.1306 Y11.3563
G01 X38.1169 Y11.3514
G01 X38.1083 Y11.3493
G01 X38.0958 Y11.3472
G01 X37.8782 Y11.2937
G01 X37.6727 Y11.2065
G01 X37.4837 Y11.0875
G01 X37.3163 Y10.9399
G01 X37.1746 Y10.7674
G01 X37.0623 Y10.5744
G01 X36.9823 Y10.3660
G01 X36.9366 Y10.1474
G01 X36.9265 Y9.9244
G01 X36.9521 Y9.7027
G01 X37.0129 Y9.4878
G01 X37.1073 Y9.2855
G01 X37.2328 Y9.1009
G01 X37.3862 Y8.9386
G01 X37.4393 Y8.8980
G01 X37.4458 Y8.8923
G01 X37.4519 Y8.8862
G01 X37.4611 Y8.8751
G01 X37.5031 Y8.8179
G01 X37.5082 Y8.8104
G01 X37.5140 Y8.7999
G01 X37.5188 Y8.7889
G01 X37.5225 Y8.7774
G01 X37.5250 Y8.7656
G01 X37.5263 Y8.7537
G01 X37.5308 Y8.6798
G01 X37.5306 Y8.6677
G01 X37.5287 Y8.6528
G01 X37.5259 Y8.6411
G01 X37.5207 Y8.6269
G01 X37.5139 Y8.6135
G01 X37.4743 Y8.5470
G01 X37.4679 Y8.5373
G01 X37.4606 Y8.5283
G01 X37.4525 Y8.5200
G01 X37.3163 Y8.3999
G01 X37.1746 Y8.2274
G01 X37.0623 Y8.0344
G01 X36.9823 Y7.8260
G01 X36.9366 Y7.6074
G01 X36.9265 Y7.3844
G01 X36.9521 Y7.1627
G01 X37.0129 Y6.9478
G01 X37.1073 Y6.7455
G01 X37.2328 Y6.5609
G01 X37.3862 Y6.3986
G01 X37.4393 Y6.3580
G01 X37.4479 Y6.3504
G01 X37.4558 Y6.3419
G01 X37.4611 Y6.3351
G01 X37.5031 Y6.2779
G01 X37.5112 Y6.2652
G01 X37.5165 Y6.2544
G01 X37.5208 Y6.2432
G01 X37.5239 Y6.2316
G01 X37.5258 Y6.2197
G01 X37.5309 Y6.1368
G01 X37.5301 Y6.1217
G01 X37.5275 Y6.1069
G01 X37.5230 Y6.0925
G01 X37.5168 Y6.0788
G01 X37.4713 Y6.0021
G01 X37.4625 Y5.9905
G01 X37.4525 Y5.9800
G01 X37.3163 Y5.8599
G01 X37.1746 Y5.6874
G01 X37.1677 Y5.6757
G01 X37.1630 Y5.6685
G01 X37.1577 Y5.6617
G01 X37.1519 Y5.6552
G01 X37.0918 Y5.5983
G01 X37.0798 Y5.5892
G01 X37.0694 Y5.5831
G01 X37.0557 Y5.5769
G01 X37.0442 Y5.5733
G01 X36.9812 Y5.5581
G01 X36.9727 Y5.5566
G01 X36.9642 Y5.5557
G01 X36.9556 Y5.5554
G01 X36.4557 Y5.5554
G01 X36.4471 Y5.5557
G01 X36.4356 Y5.5570
G01 X36.4244 Y5.5595
G01 X36.3506 Y5.5811
G01 X36.3422 Y5.5842
G01 X36.3341 Y5.5878
G01 X36.3262 Y5.5920
G01 X36.3187 Y5.5968
G01 X36.2906 Y5.6191
G01 X36.2810 Y5.6277
G01 X34.2678 Y7.6410
G01 X34.2143 Y7.6955
G01 X34.1880 Y7.7125
G01 X34.1752 Y7.7217
G01 X34.1482 Y7.7430
G01 X34.1281 Y7.7528
G01 X34.1114 Y7.7621
G01 X34.0894 Y7.7760
G01 X34.0571 Y7.7879
G01 X34.0426 Y7.7941
G01 X34.0144 Y7.8077
G01 X33.9890 Y7.8138
G01 X33.9708 Y7.8193
G01 X33.9497 Y7.8269
G01 X33.9187 Y7.8308
G01 X33.9031 Y7.8336
G01 X33.8696 Y7.8411
G01 X33.7142 Y7.8417
G01 X33.7051 Y7.8414
G01 X32.1803 Y7.8414
G01 X32.1659 Y7.8426
G01 X32.1546 Y7.8448
G01 X32.0809 Y7.8663
G01 X32.0723 Y7.8691
G01 X32.0640 Y7.8726
G01 X32.0508 Y7.8798
G01 X32.0386 Y7.8885
G01 X32.0275 Y7.8987
G01 X31.9770 Y7.9568
G01 X31.9713 Y7.9639
G01 X31.9631 Y7.9765
G01 X31.9565 Y7.9900
G01 X31.9517 Y8.0042
G01 X31.9491 Y8.0159
G01 X31.9378 Y8.0952
G01 X31.9374 Y8.1102
G01 X31.9380 Y8.1192
G01 X31.9393 Y8.1281
G01 X31.9429 Y8.1427
G01 X31.9482 Y8.1568
G01 X31.9790 Y8.2241
G01 X31.9848 Y8.2346
G01 X31.9898 Y8.2421
G01 X31.9954 Y8.2492
G01 X32.0015 Y8.2559
G01 X32.0103 Y8.2640
G01 X32.0175 Y8.2696
G01 X32.0250 Y8.2745
G01 X32.0908 Y8.3145
G01 X32.1010 Y8.3201
G01 X32.1116 Y8.3246
G01 X32.1227 Y8.3281
G01 X32.2065 Y8.3483
G01 X32.4152 Y8.4347
G01 X32.4769 Y8.4725
G01 X32.2794 Y8.6701
G01 X32.2092 Y8.6370
G01 X32.1066 Y8.6001
G01 X32.0952 Y8.5967
G01 X31.9924 Y8.5710
G01 X31.9836 Y8.5693
G01 X31.8758 Y8.5535
G01 X31.7610 Y8.5479
G01 X31.6462 Y8.5535
G01 X31.5384 Y8.5693
G01 X31.5296 Y8.5710
G01 X31.4268 Y8.5967
G01 X31.4154 Y8.6001
G01 X31.3128 Y8.6370
G01 X31.2426 Y8.6701
G01 X31.0451 Y8.4725
G01 X31.1068 Y8.4347
G01 X31.3155 Y8.3483
G01 X31.3993 Y8.3281
G01 X31.4130 Y8.3236
G01 X31.4209 Y8.3201
G01 X31.4286 Y8.3161
G01 X31.4953 Y8.2776
G01 X31.5051 Y8.2706
G01 X31.5163 Y8.2606
G01 X31.5261 Y8.2492
G01 X31.5345 Y8.2367
G01 X31.5727 Y8.1630
G01 X31.5761 Y8.1547
G01 X31.5789 Y8.1461
G01 X31.5811 Y8.1373
G01 X31.5826 Y8.1284
G01 X31.5836 Y8.1164
G01 X31.5834 Y8.1044
G01 X31.5766 Y8.0307
G01 X31.5742 Y8.0159
G01 X31.5701 Y8.0014
G01 X31.5668 Y7.9930
G01 X31.5628 Y7.9849
G01 X31.5549 Y7.9721
G01 X31.5057 Y7.9090
G01 X31.4976 Y7.9001
G01 X31.4863 Y7.8902
G01 X31.4739 Y7.8818
G01 X31.4605 Y7.8749
G01 X31.4492 Y7.8707
G01 X31.3731 Y7.8463
G01 X31.3619 Y7.8436
G01 X31.3475 Y7.8417
G01 X31.3388 Y7.8414
G01 X30.6364 Y7.8414
G01 X30.6220 Y7.8426
G01 X30.6079 Y7.8455
G01 X30.5370 Y7.8663
G01 X30.5259 Y7.8701
G01 X30.5178 Y7.8737
G01 X30.5075 Y7.8794
G01 X30.5002 Y7.8843
G01 X30.4932 Y7.8898
G01 X30.4846 Y7.8978
G01 X30.4411 Y7.9424
G01 X30.4354 Y7.9494
G01 X30.4302 Y7.9568
G01 X30.3874 Y8.0265
G01 X30.2405 Y8.1985
G01 X30.0685 Y8.3454
G01 X29.8756 Y8.4636
G01 X29.6665 Y8.5502
G01 X29.4465 Y8.6030
G01 X29.2210 Y8.6208
G01 X28.9955 Y8.6030
G01 X28.8488 Y8.5678
G01 X28.7755 Y8.5502
G01 X28.5664 Y8.4636
G01 X28.3735 Y8.3454
G01 X28.2015 Y8.1985
G01 X28.0546 Y8.0265
G01 X27.9364 Y7.8336
G01 X27.8498 Y7.6245
G01 X27.7970 Y7.4045
G01 X27.7792 Y7.1790
G01 X27.7970 Y6.9535
G01 X27.8498 Y6.7335
G01 X27.9364 Y6.5244
G01 X28.0546 Y6.3315
G01 X28.2015 Y6.1595
G01 X28.3735 Y6.0126
G01 X28.5664 Y5.8944
G01 X28.7755 Y5.8078
G01 X28.9955 Y5.7550
G01 X29.2210 Y5.7372
G01 X29.4465 Y5.7550
G01 X29.6665 Y5.8078
G01 X29.8756 Y5.8944
G01 X30.0685 Y6.0126
G01 X30.2405 Y6.1595
G01 X30.3874 Y6.3315
G01 X30.4301 Y6.4011
G01 X30.4350 Y6.4082
G01 X30.4424 Y6.4170
G01 X30.4506 Y6.4252
G01 X30.5077 Y6.4766
G01 X30.5147 Y6.4820
G01 X30.5221 Y6.4868
G01 X30.5325 Y6.4924
G01 X30.5406 Y6.4959
G01 X30.5546 Y6.5004
G01 X30.6123 Y6.5136
G01 X30.6242 Y6.5157
G01 X30.6363 Y6.5166
G01 X31.3388 Y6.5166
G01 X31.3532 Y6.5158
G01 X31.3618 Y6.5145
G01 X31.3702 Y6.5125
G01 X31.4440 Y6.4909
G01 X31.4580 Y6.4854
G01 X31.4686 Y6.4798
G01 X31.4811 Y6.4713
G01 X31.4880 Y6.4656
G01 X31.4945 Y6.4593
G01 X31.5470 Y6.3989
G01 X31.5558 Y6.3867
G01 X31.5617 Y6.3762
G01 X31.5676 Y6.3624
G01 X31.5718 Y6.3480
G01 X31.5734 Y6.3391
G01 X31.5839 Y6.2658
G01 X31.5847 Y6.2508
G01 X31.5837 Y6.2358
G01 X31.5808 Y6.2211
G01 X31.5761 Y6.2068
G01 X31.5443 Y6.1367
G01 X31.5402 Y6.1286
G01 X31.5322 Y6.1159
G01 X31.5226 Y6.1043
G01 X31.5117 Y6.0940
G01 X31.4995 Y6.0851
G01 X31.4287 Y6.0420
G01 X31.4158 Y6.0355
G01 X31.4076 Y6.0324
G01 X31.3993 Y6.0299
G01 X31.3155 Y6.0097
G01 X31.1068 Y5.9233
G01 X31.0451 Y5.8855
G01 X31.2426 Y5.6879
G01 X31.3128 Y5.7210
G01 X31.4154 Y5.7579
G01 X31.4268 Y5.7613
G01 X31.5296 Y5.7870
G01 X31.5384 Y5.7887
G01 X31.6462 Y5.8045
G01 X31.7610 Y5.8101
G01 X31.8758 Y5.8045
G01 X31.9836 Y5.7887
G01 X31.9924 Y5.7870
G01 X32.0952 Y5.7613
G01 X32.1066 Y5.7579
G01 X32.2092 Y5.7210
G01 X32.2794 Y5.6879
G01 X32.4769 Y5.8855
G01 X32.4152 Y5.9233
G01 X32.2065 Y6.0097
G01 X32.1227 Y6.0299
G01 X32.1144 Y6.0324
G01 X32.1037 Y6.0367
G01 X32.0934 Y6.0419
G01 X32.0319 Y6.0773
G01 X32.0242 Y6.0821
G01 X32.0169 Y6.0874
G01 X32.0101 Y6.0933
G01 X32.0016 Y6.1018
G01 X31.9959 Y6.1088
G01 X31.9907 Y6.1162
G01 X31.9860 Y6.1239
G01 X31.9506 Y6.1923
G01 X31.9459 Y6.2033
G01 X31.9415 Y6.2177
G01 X31.9390 Y6.2326
G01 X31.9384 Y6.2416
G01 X31.9385 Y6.2506
G01 X31.9458 Y6.3303
G01 X31.9478 Y6.3421
G01 X31.9519 Y6.3566
G01 X31.9578 Y6.3704
G01 X31.9654 Y6.3834
G01 X31.9707 Y6.3907
G01 X32.0182 Y6.4513
G01 X32.0288 Y6.4620
G01 X32.0406 Y6.4714
G01 X32.0481 Y6.4762
G01 X32.0561 Y6.4805
G01 X32.0643 Y6.4842
G01 X32.0728 Y6.4873
G01 X32.1517 Y6.5125
G01 X32.1659 Y6.5154
G01 X32.1803 Y6.5166
G01 X33.4163 Y6.5166
G01 X33.4307 Y6.5158
G01 X33.4392 Y6.5145
G01 X33.4476 Y6.5125
G01 X33.5214 Y6.4909
G01 X33.5352 Y6.4855
G01 X33.5458 Y6.4800
G01 X33.5557 Y6.4734
G01 X33.5814 Y6.4529
G01 X33.5887 Y6.4465
G01 X35.6042 Y4.4310
G01 X35.6577 Y4.3765
G01 X35.6840 Y4.3595
G01 X35.6968 Y4.3503
G01 X35.7238 Y4.3290
G01 X35.7439 Y4.3192
G01 X35.7606 Y4.3099
G01 X35.7826 Y4.2960
G01 X35.8149 Y4.2841
G01 X35.8294 Y4.2779
G01 X35.8576 Y4.2643
G01 X35.8829 Y4.2582
G01 X35.9012 Y4.2527
G01 X35.9223 Y4.2451
G01 X35.9533 Y4.2412
G01 X35.9689 Y4.2384
G01 X36.0024 Y4.2309
G01 X36.1578 Y4.2303
G01 X36.1669 Y4.2306
G01 X36.9622 Y4.2306
G01 X36.9737 Y4.2298
G01 X36.9879 Y4.2272
G01 X37.0644 Y4.2049
G01 X37.0754 Y4.2007
G01 X37.0834 Y4.1969
G01 X37.0911 Y4.1926
G01 X37.1008 Y4.1859
G01 X37.1120 Y4.1763
G01 X37.1524 Y4.1367
G01 X37.1583 Y4.1298
G01 X37.1637 Y4.1224
G01 X37.2328 Y4.0209
G01 X37.3862 Y3.8586
G01 X37.5635 Y3.7230
G01 X37.7603 Y3.6175
G01 X37.9714 Y3.5449
G01 X38.1934 Y3.5065
G01 X38.2122 Y3.5056
G01 X40.3736 Y3.5056
G01 X40.5400 Y3.5190
G01 X40.7568 Y3.5723
G01 X40.9623 Y3.6595
G01 X41.1513 Y3.7785
G01 X41.3187 Y3.9261
G01 X41.4604 Y4.0986
G01 X41.4704 Y4.1151
G01 X41.4792 Y4.1265
G01 X41.4872 Y4.1349
G01 X41.5387 Y4.1837
G01 X41.5455 Y4.1896
G01 X41.5552 Y4.1968
G01 X41.5629 Y4.2015
G01 X41.5737 Y4.2068
G01 X41.5850 Y4.2110
G01 X41.5937 Y4.2135
G01 X41.6538 Y4.2279
G01 X41.6651 Y4.2298
G01 X41.6737 Y4.2305
G01 X47.7507 Y4.2306
G01 X47.7651 Y4.2294
G01 X47.7792 Y4.2265
G01 X47.8530 Y4.2048
G01 X47.8671 Y4.1993
G01 X47.8752 Y4.1951
G01 X47.8830 Y4.1904
G01 X47.8960 Y4.1813
G01 X47.9140 Y4.1675
G01 X48.1108 Y4.0620
G01 X48.3219 Y3.9894
G01 X48.5439 Y3.9510
G01 X48.5627 Y3.9501
G01 X50.7241 Y3.9501
G01 X50.8905 Y3.9635
G01 X51.1073 Y4.0168
G01 X51.3128 Y4.1040
G01 X51.5018 Y4.2230
G01 X51.6692 Y4.3706
G01 X51.8109 Y4.5431
G01 X51.9232 Y4.7361
G01 X52.0032 Y4.9445
G01 X52.0489 Y5.1631
G01 X52.0590 Y5.3861
G01 X52.0334 Y5.6078
G01 X52.0077 Y5.6987
G01 X51.9726 Y5.8227
G01 X51.8782 Y6.0250
G01 X51.7527 Y6.2096
G01 X51.5993 Y6.3719
G01 X51.4220 Y6.5075
G01 X51.2252 Y6.6130
G01 X51.0141 Y6.6856
G01 X50.7921 Y6.7240
G01 X50.7733 Y6.7249
G01 X48.6119 Y6.7249
G01 X48.4455 Y6.7115
G01 X48.2287 Y6.6582
G01 X48.0232 Y6.5710
G01 X47.8342 Y6.4520
G01 X47.6668 Y6.3044
G01 X47.5251 Y6.1319
G01 X47.4128 Y5.9389
G01 X47.3271 Y5.7162
G01 X47.3235 Y5.7086
G01 X47.3193 Y5.7012
G01 X47.2770 Y5.6363
G01 X47.2676 Y5.6248
G01 X47.2568 Y5.6145
G01 X47.2448 Y5.6056
G01 X47.2344 Y5.5996
G01 X47.1592 Y5.5653
G01 X47.1510 Y5.5624
G01 X47.1427 Y5.5600
G01 X47.1285 Y5.5575
G01 X47.1050 Y5.5557
G01 X47.0963 Y5.5554
G01 X41.6757 Y5.5554
G01 X41.6613 Y5.5562
G01 X41.6471 Y5.5588
G01 X41.5706 Y5.5811
G01 X41.5596 Y5.5853
G01 X41.5516 Y5.5891
G01 X41.5414 Y5.5950
G01 X41.5342 Y5.6001
G01 X41.5251 Y5.6077
G01 X41.4869 Y5.6449
G01 X41.4767 Y5.6562
G01 X41.4713 Y5.6636
G01 X41.4022 Y5.7651
G01 X41.2488 Y5.9274
G01 X41.1957 Y5.9680
G01 X41.1892 Y5.9737
G01 X41.1831 Y5.9798
G01 X41.1739 Y5.9909
G01 X41.1319 Y6.0481
G01 X41.1238 Y6.0608
G01 X41.1185 Y6.0716
G01 X41.1142 Y6.0828
G01 X41.1106 Y6.0974
G01 X41.1087 Y6.1123
G01 X41.1044 Y6.1832
G01 X41.1041 Y6.1922
G01 X41.1049 Y6.2043
G01 X41.1069 Y6.2162
G01 X41.1109 Y6.2307
G01 X41.1155 Y6.2418
G01 X41.1211 Y6.2525
G01 X41.1607 Y6.3190
G01 X41.1654 Y6.3263
G01 X41.1706 Y6.3333
G01 X41.1784 Y6.3420
G01 X41.1847 Y6.3480
G01 X41.3187 Y6.4661
G01 X41.4604 Y6.6386
G01 X41.4704 Y6.6551
G01 X41.4792 Y6.6665
G01 X41.4872 Y6.6749
G01 X41.5409 Y6.7257
G01 X41.5503 Y6.7333
G01 X41.5603 Y6.7399
G01 X41.5737 Y6.7468
G01 X41.5850 Y6.7510
G01 X41.5937 Y6.7535
G01 X41.6538 Y6.7679
G01 X41.6651 Y6.7698
G01 X41.6765 Y6.7706
G01 X42.8645 Y6.7706
G01 X42.9409 Y6.7699
G01 X42.9714 Y6.7764
G01 X42.9870 Y6.7790
G01 X43.0212 Y6.7830
G01 X43.0423 Y6.7903
G01 X43.0607 Y6.7955
G01 X43.0861 Y6.8013
G01 X43.1145 Y6.8145
G01 X43.1291 Y6.8204
G01 X43.1615 Y6.8319
G01 X43.1837 Y6.8455
G01 X43.2005 Y6.8546
G01 X43.2208 Y6.8641
G01 X43.2455 Y6.8832
G01 X43.2585 Y6.8923
G01 X43.2875 Y6.9106
G01 X43.3978 Y7.0202
G01 X43.4040 Y7.0268
G01 X44.4785 Y8.1012
G01 X44.5330 Y8.1547
G01 X44.5500 Y8.1810
G01 X44.5592 Y8.1938
G01 X44.5805 Y8.2208
G01 X44.5903 Y8.2409
G01 X44.5996 Y8.2576
G01 X44.6135 Y8.2796
G01 X44.6254 Y8.3119
G01 X44.6316 Y8.3264
G01 X44.6452 Y8.3546
G01 X44.6513 Y8.3800
G01 X44.6568 Y8.3982
G01 X44.6644 Y8.4193
G01 X44.6683 Y8.4503
G01 X44.6711 Y8.4659
G01 X44.6786 Y8.4994
G01 X44.6792 Y8.6548
G01 X44.6789 Y8.6639
G01 X44.6789 Y14.2185
G01 X44.6796 Y14.2949
G01 X44.6731 Y14.3255
G01 X44.6705 Y14.3411
G01 X44.6665 Y14.3752
G01 X44.6592 Y14.3963
G01 X44.6540 Y14.4147
G01 X44.6482 Y14.4401
G01 X44.6350 Y14.4685
G01 X44.6291 Y14.4831
G01 X44.6176 Y14.5155
G01 X44.6040 Y14.5377
G01 X44.5949 Y14.5545
G01 X44.5854 Y14.5748
G01 X44.5663 Y14.5995
G01 X44.5572 Y14.6125
G01 X44.5389 Y14.6415
G01 X44.4293 Y14.7518
G01 X44.4227 Y14.7580
G01 X43.8563 Y15.3245
G01 X43.8028 Y15.3790
G01 X43.7765 Y15.3960
G01 X43.7637 Y15.4052
G01 X43.7367 Y15.4265
G01 X43.7166 Y15.4363
G01 X43.6999 Y15.4456
G01 X43.6779 Y15.4595
G01 X43.6456 Y15.4714
G01 X43.6311 Y15.4776
G01 X43.6029 Y15.4912
G01 X43.5775 Y15.4973
G01 X43.5593 Y15.5028
G01 X43.5382 Y15.5104
G01 X43.5072 Y15.5143
G01 X43.4916 Y15.5171
G01 X43.4581 Y15.5246
G01 X43.3027 Y15.5252
G01 X43.2936 Y15.5249
G01 X39.8847 Y15.5249
G01 X39.8732 Y15.5254
G01 X39.8618 Y15.5270
G01 X39.8506 Y15.5298
G01 X39.7825 Y15.5498
G01 X39.7685 Y15.5548
G01 X39.7578 Y15.5601
G01 X39.7477 Y15.5663
G01 X39.7406 Y15.5717
G01 X39.7147 Y15.5928
G01 X38.8898 Y16.4176
G01 X38.8807 Y16.4289
G01 X38.8745 Y16.4386
G01 X38.8390 Y16.5034
G01 X38.8339 Y16.5141
G01 X38.8298 Y16.5252
G01 X38.8262 Y16.5397
G01 X38.8249 Y16.5485
G01 X38.8215 Y16.5817
G01 X38.8215 Y17.1026
G01 X38.8230 Y17.1169
G01 X38.8255 Y17.1282
G01 X38.8471 Y17.2019
G01 X38.8525 Y17.2158
G01 X38.8580 Y17.2263
G01 X38.8646 Y17.2362
G01 X38.8701 Y17.2433
G01 X38.8782 Y17.2519
G01 X38.8848 Y17.2579
G01 X38.9426 Y17.3062
G01 X38.9499 Y17.3118
G01 X38.9602 Y17.3184
G01 X38.9683 Y17.3227
G01 X39.0001 Y17.3360
G01 X39.2223 Y17.4659
G01 X39.4248 Y17.6246
G01 X39.6039 Y17.8094
G01 X39.7563 Y18.0168
G01 X39.8791 Y18.2430
G01 X39.9700 Y18.4837
G01 X40.0275 Y18.7346
G01 X40.0507 Y18.9944
G01 X40.0510 Y19.0270
G01 X40.0333 Y19.2872
G01 X39.9811 Y19.5392
G01 X39.8952 Y19.7818
G01 X39.7771 Y20.0105
G01 X39.6292 Y20.2210
G01 X39.4540 Y20.4095
G01 X39.2549 Y20.5725
G01 X39.0354 Y20.7070
G01 X38.7998 Y20.8104
G01 X38.5523 Y20.8809
G01 X38.2975 Y20.9172
G01 X38.0402 Y20.9185
G01 X37.7851 Y20.8849
G01 X37.5369 Y20.8170
G01 X37.3002 Y20.7161
G01 X37.0793 Y20.5839
G01 X36.8785 Y20.4230
G01 X36.7014 Y20.2364
G01 X36.5512 Y20.0274
G01 X36.4423 Y19.8218
G01 X36.4362 Y19.8120
G01 X36.4273 Y19.8007
G01 X36.3696 Y19.7415
G01 X36.3605 Y19.7338
G01 X36.3481 Y19.7255
G01 X36.3347 Y19.7188
G01 X36.3207 Y19.7138
G01 X36.2560 Y19.6968
G01 X36.2438 Y19.6943
G01 X36.2346 Y19.6932
G01 X36.2253 Y19.6929
G01 X32.0934 Y19.6929
G01 X32.0847 Y19.6932
G01 X32.0761 Y19.6941
G01 X32.0676 Y19.6956
G01 X32.0592 Y19.6978
G01 X31.9854 Y19.7196
G01 X31.9770 Y19.7229
G01 X31.9688 Y19.7268
G01 X31.9585 Y19.7329
G01 X31.9511 Y19.7382
G01 X31.9442 Y19.7439
G01 X31.9357 Y19.7524
G01 X31.8872 Y19.8083
G01 X31.8815 Y19.8154
G01 X31.8748 Y19.8254
G01 X31.8692 Y19.8360
G01 X31.8646 Y19.8471
G01 X31.8604 Y19.8615
G01 X31.8588 Y19.8704
G01 X31.8483 Y19.9437
G01 X31.8475 Y19.9587
G01 X31.8482 Y19.9707
G01 X31.8507 Y19.9855
G01 X31.8592 Y20.0183
G01 X31.8617 Y20.0260
G01 X31.8737 Y20.0575
G01 X31.9194 Y20.2761
G01 X31.9295 Y20.4991
G01 X31.9039 Y20.7208
G01 X31.8674 Y20.8495
G01 X31.8431 Y20.9357
G01 X31.7487 Y21.1380
G01 X31.6232 Y21.3226
G01 X31.4698 Y21.4849
G01 X31.2925 Y21.6205
G01 X31.0957 Y21.7260
G01 X30.8846 Y21.7986
G01 X30.6626 Y21.8370
G01 X30.6438 Y21.8379
G01 X28.4824 Y21.8379
G01 X28.3160 Y21.8245
G01 X28.0992 Y21.7712
G01 X27.8937 Y21.6840
G01 X27.7047 Y21.5650
G01 X27.5373 Y21.4174
G01 X27.3956 Y21.2449
G01 X27.2833 Y21.0519
G01 X27.2033 Y20.8435
G01 X27.1576 Y20.6249
G01 X27.1475 Y20.4019
G01 X27.1731 Y20.1801
G01 X27.2339 Y19.9653
G01 X27.3283 Y19.7630
G01 X27.4538 Y19.5784
G01 X27.6072 Y19.4161
G01 X27.7845 Y19.2805
G01 X27.9813 Y19.1750
G01 X28.1924 Y19.1024
G01 X28.4144 Y19.0640
G01 X28.4332 Y19.0631
G01 X29.8868 Y19.0631
G01 X29.8954 Y19.0628
G01 X29.9040 Y19.0619
G01 X29.9181 Y19.0590
G01 X29.9919 Y19.0374
G01 X30.0057 Y19.0320
G01 X30.0162 Y19.0265
G01 X30.0262 Y19.0199
G01 X30.0544 Y18.9974
G01 X30.0615 Y18.9908
G01 X30.4838 Y18.5685
G01 X30.5372 Y18.5140
G01 X30.5635 Y18.4970
G01 X30.5764 Y18.4878
G01 X30.6033 Y18.4665
G01 X30.6234 Y18.4567
G01 X30.6401 Y18.4474
G01 X30.6621 Y18.4335
G01 X30.6944 Y18.4216
G01 X30.7089 Y18.4154
G01 X30.7371 Y18.4018
G01 X30.7624 Y18.3957
G01 X30.7807 Y18.3902
G01 X30.8018 Y18.3826
G01 X30.8328 Y18.3787
G01 X30.8484 Y18.3759
G01 X30.8819 Y18.3684
G01 X31.0373 Y18.3678
G01 X31.0464 Y18.3681
G01 X36.2271 Y18.3681
G01 X36.2415 Y18.3673
G01 X36.2557 Y18.3647
G01 X36.3349 Y18.3415
G01 X36.3457 Y18.3371
G01 X36.3561 Y18.3318
G01 X36.3658 Y18.3255
G01 X36.3749 Y18.3182
G01 X36.3853 Y18.3080
G01 X36.4297 Y18.2587
G01 X36.4354 Y18.2519
G01 X36.4421 Y18.2423
G01 X36.4479 Y18.2320
G01 X36.5307 Y18.0675
G01 X36.6764 Y17.8554
G01 X36.8496 Y17.6651
G01 X37.0471 Y17.5000
G01 X37.2650 Y17.3633
G01 X37.3538 Y17.3232
G01 X37.3615 Y17.3191
G01 X37.3712 Y17.3129
G01 X37.3803 Y17.3059
G01 X37.4341 Y17.2596
G01 X37.4408 Y17.2534
G01 X37.4470 Y17.2468
G01 X37.4526 Y17.2397
G01 X37.4593 Y17.2297
G01 X37.4636 Y17.2217
G01 X37.4674 Y17.2135
G01 X37.4705 Y17.2050
G01 X37.4925 Y17.1307
G01 X37.4954 Y17.1165
G01 X37.4966 Y17.1020
G01 X37.4966 Y16.2205
G01 X37.4959 Y16.1441
G01 X37.5024 Y16.1136
G01 X37.5050 Y16.0980
G01 X37.5090 Y16.0638
G01 X37.5163 Y16.0427
G01 X37.5215 Y16.0243
G01 X37.5273 Y15.9989
G01 X37.5405 Y15.9705
G01 X37.5464 Y15.9559
G01 X37.5579 Y15.9235
G01 X37.5715 Y15.9013
G01 X37.5806 Y15.8845
G01 X37.5901 Y15.8642
G01 X37.6092 Y15.8395
G01 X37.6183 Y15.8265
G01 X37.6366 Y15.7975
G01 X37.7462 Y15.6872
G01 X37.7528 Y15.6810
G01 X39.0332 Y14.4005
G01 X39.0867 Y14.3460
G01 X39.1130 Y14.3290
G01 X39.1258 Y14.3198
G01 X39.1528 Y14.2985
G01 X39.1729 Y14.2887
G01 X39.1896 Y14.2794
G01 X39.2116 Y14.2655
G01 X39.2439 Y14.2536
G01 X39.2584 Y14.2474
G01 X39.2866 Y14.2338
G01 X39.3120 Y14.2277
G01 X39.3302 Y14.2222
G01 X39.3513 Y14.2146
G01 X39.3823 Y14.2107
G01 X39.3979 Y14.2079
G01 X39.4314 Y14.2004
G01 X39.5868 Y14.1998
G01 X39.5959 Y14.2001
G01 X43.0048 Y14.2001
G01 X43.0134 Y14.1998
G01 X43.0249 Y14.1985
G01 X43.0361 Y14.1960
G01 X43.1099 Y14.1744
G01 X43.1183 Y14.1713
G01 X43.1264 Y14.1677
G01 X43.1393 Y14.1603
G01 X43.1489 Y14.1533
G01 X43.1699 Y14.1364
G01 X43.1772 Y14.1300
G01 X43.2818 Y14.0255
G01 X43.2877 Y14.0192
G01 X43.2948 Y14.0101
G01 X43.3010 Y14.0004
G01 X43.3365 Y13.9356
G01 X43.3428 Y13.9222
G01 X43.3474 Y13.9080
G01 X43.3498 Y13.8964
G01 X43.3535 Y13.8637
G01 X43.3541 Y13.8508
G01 X43.3541 Y8.9527
G01 X43.3536 Y8.9412
G01 X43.3520 Y8.9298
G01 X43.3492 Y8.9186
G01 X43.3292 Y8.8505
G01 X43.3242 Y8.8365
G01 X43.3189 Y8.8258
G01 X43.3127 Y8.8157
G01 X43.3073 Y8.8086
G01 X43.2862 Y8.7827
G01 X42.6715 Y8.1677
G01 X42.6652 Y8.1618
G01 X42.6561 Y8.1547
G01 X42.6464 Y8.1485
G01 X42.5816 Y8.1130
G01 X42.5682 Y8.1067
G01 X42.5569 Y8.1029
G01 X42.5453 Y8.1002
G01 X42.5365 Y8.0989
G01 X42.5033 Y8.0955
G01 X41.6757 Y8.0954
G01 X41.6613 Y8.0962
G01 X41.6471 Y8.0988
G01 X41.5734 Y8.1203
G01 X41.5623 Y8.1241
G01 X41.5516 Y8.1291
G01 X41.5414 Y8.1350
G01 X41.5342 Y8.1401
G01 X41.5251 Y8.1477
G01 X41.4847 Y8.1871
G01 X41.4767 Y8.1962
G01 X41.4713 Y8.2036
G01 X41.4022 Y8.3051
G01 X41.2488 Y8.4674
G01 X41.1957 Y8.5080
G01 X41.1871 Y8.5156
G01 X41.1811 Y8.5219
G01 X41.1739 Y8.5309
G01 X41.1285 Y8.5931
G01 X41.1238 Y8.6008
G01 X41.1185 Y8.6116
G01 X41.1152 Y8.6200
G01 X41.1125 Y8.6286
G01 X41.1106 Y8.6374
G01 X41.1089 Y8.6493
G01 X41.1044 Y8.7232
G01 X41.1041 Y8.7322
G01 X41.1049 Y8.7443
G01 X41.1069 Y8.7562
G01 X41.1091 Y8.7649
G01 X41.1131 Y8.7763
G01 X41.1196 Y8.7899
G01 X41.1607 Y8.8590
G01 X41.1671 Y8.8687
G01 X41.1725 Y8.8755
G01 X41.1784 Y8.8820
G01 X41.1847 Y8.8880
G01 X41.3187 Y9.0061
G01 X41.4604 Y9.1786
G01 X41.5727 Y9.3716
G01 X41.6527 Y9.5800
G01 X41.6984 Y9.7986
G01 X41.7085 Y10.0216
G01 X41.6829 Y10.2433
G01 X41.6464 Y10.3720
G01 X41.6221 Y10.4582
G01 X41.5277 Y10.6605
G01 X41.4022 Y10.8451
G01 X41.2488 Y11.0074
G01 X41.0715 Y11.1430
G01 X40.8747 Y11.2485
G01 X40.6636 Y11.3211
G01 X40.4416 Y11.3595
G01 X40.4228 Y11.3604
G01 X40.2270 Y11.3604
G01 X40.2184 Y11.3607
G01 X40.2098 Y11.3616
G01 X40.2012 Y11.3631
G01 X40.1929 Y11.3653
G01 X40.1247 Y11.3853
G01 X40.1162 Y11.3881
G01 X40.1052 Y11.3929
G01 X40.0972 Y11.3972
G01 X40.0872 Y11.4038
G01 X40.0779 Y11.4114
G01 X40.0673 Y11.4222
G01 X40.0170 Y11.4805
G01 X40.0117 Y11.4879
G01 X40.0069 Y11.4956
G01 X40.0027 Y11.5037
G01 X39.9992 Y11.5120
G01 X39.9963 Y11.5206
G01 X39.9940 Y11.5294
G01 X39.9820 Y11.5846
G01 X39.9804 Y11.5960
G01 X39.9799 Y11.6046
G01 X39.9799 Y11.6151
G01 X39.9806 Y11.6914
G01 X39.9741 Y11.7219
G01 X39.9715 Y11.7375
G01 X39.9675 Y11.7717
G01 X39.9591 Y11.7964
G01 X39.9540 Y11.8148
G01 X39.9492 Y11.8366
G01 X39.9360 Y11.8650
G01 X39.9301 Y11.8796
G01 X39.9186 Y11.9120
G01 X39.9050 Y11.9342
G01 X39.8959 Y11.9510
G01 X39.8864 Y11.9713
G01 X39.8673 Y11.9960
G01 X39.8582 Y12.0090
G01 X39.8399 Y12.0380
G01 X39.7303 Y12.1483
G01 X39.7237 Y12.1545
G01 X36.6808 Y15.1975
G01 X36.6273 Y15.2520
G01 X36.6010 Y15.2690
G01 X36.5882 Y15.2782
G01 X36.5612 Y15.2995
G01 X36.5411 Y15.3093
G01 X36.5244 Y15.3186
G01 X36.5024 Y15.3325
G01 X36.4701 Y15.3444
G01 X36.4556 Y15.3506
G01 X36.4274 Y15.3642
G01 X36.4020 Y15.3703
G01 X36.3838 Y15.3758
G01 X36.3627 Y15.3834
G01 X36.3317 Y15.3873
G01 X36.3161 Y15.3901
G01 X36.2826 Y15.3976
G01 X36.1272 Y15.3982
G01 X36.1181 Y15.3979
G01 X16.5415 Y15.3979
G01 X16.5271 Y15.3987
G01 X16.5186 Y15.4000
G01 X16.5101 Y15.4020
G01 X16.4364 Y15.4236
G01 X16.4224 Y15.4291
G01 X16.4143 Y15.4332
G01 X16.4041 Y15.4396
G01 X16.3946 Y15.4470
G01 X16.3880 Y15.4531
G01 X16.3818 Y15.4597
G01 X16.3353 Y15.5133
G01 X16.3296 Y15.5204
G01 X16.3245 Y15.5279
G01 X16.3172 Y15.5412
G01 X16.3137 Y15.5495
G01 X16.3108 Y15.5581
G01 X16.3085 Y15.5669
G01 X16.2971 Y15.6192
G01 X16.2956 Y15.6278
G01 X16.2947 Y15.6364
G01 X16.2944 Y15.6450
G01 X16.2945 Y16.0661
G01 X16.2956 Y16.0776
G01 X16.2985 Y16.0917
G01 X16.3201 Y16.1654
G01 X16.3243 Y16.1764
G01 X16.3281 Y16.1844
G01 X16.3340 Y16.1946
G01 X16.3391 Y16.2018
G01 X16.3487 Y16.2130
G01 X16.3883 Y16.2534
G01 X16.3952 Y16.2593
G01 X16.4026 Y16.2648
G01 X16.5041 Y16.3338
G01 X16.6664 Y16.4872
G01 X16.8020 Y16.6645
G01 X16.9075 Y16.8613
G01 X16.9801 Y17.0724
G01 X17.0185 Y17.2944
G01 X17.0194 Y17.3132
G01 X17.0194 Y19.4746
G01 X17.0060 Y19.6410
G01 X16.9527 Y19.8578
G01 X16.8655 Y20.0633
G01 X16.7465 Y20.2523
G01 X16.5989 Y20.4197
G01 X16.4264 Y20.5614
G01 X16.2334 Y20.6737
G01 X16.0250 Y20.7537
G01 X15.8064 Y20.7994
G01 X15.5834 Y20.8095
G01 X15.3617 Y20.7839
G01 X15.1468 Y20.7231
G01 X14.9445 Y20.6287
G01 X14.7599 Y20.5032
G01 X14.5976 Y20.3498
G01 X14.4620 Y20.1725
G01 X14.3565 Y19.9757
G01 X14.2839 Y19.7646
G01 X14.2455 Y19.5426
G01 X14.2446 Y19.5238
G01 X14.2446 Y17.3624
G01 X14.2580 Y17.1960
G01 X14.3113 Y16.9792
G01 X14.3985 Y16.7737
G01 X14.5175 Y16.5847
G01 X14.6651 Y16.4173
G01 X14.8376 Y16.2756
G01 X14.8541 Y16.2656
G01 X14.8611 Y16.2605
G01 X14.8677 Y16.2549
G01 X14.8739 Y16.2488
G01 X14.9227 Y16.1973
G01 X14.9286 Y16.1905
G01 X14.9358 Y16.1808
G01 X14.9405 Y16.1731
G01 X14.9446 Y16.1650
G01 X14.9481 Y16.1567
G01 X14.9525 Y16.1423
G01 X14.9669 Y16.0822
G01 X14.9688 Y16.0709
G01 X14.9695 Y16.0623
G01 X14.9695 Y15.6392
G01 X14.9680 Y15.6249
G01 X14.9655 Y15.6136
G01 X14.9429 Y15.5370
G01 X14.9384 Y15.5259
G01 X14.9328 Y15.5152
G01 X14.9262 Y15.5052
G01 X14.9205 Y15.4981
G01 X14.9101 Y15.4873
G01 X14.8519 Y15.4369
G01 X14.8396 Y15.4280
G01 X14.8291 Y15.4221
G01 X14.8180 Y15.4172
G01 X14.8035 Y15.4127
G01 X14.7454 Y15.4000
G01 X14.7340 Y15.3984
G01 X14.7254 Y15.3979
G01 X9.4814 Y15.3979
G01 X9.4051 Y15.3986
G01 X9.3715 Y15.3915
G01 X9.3559 Y15.3890
G01 X9.3248 Y15.3855
G01 X9.3001 Y15.3771
G01 X9.2817 Y15.3720
G01 X9.2599 Y15.3672
G01 X9.2315 Y15.3540
G01 X9.2169 Y15.3481
G01 X9.1845 Y15.3366
G01 X9.1623 Y15.3230
G01 X9.1455 Y15.3139
G01 X9.1252 Y15.3044
G01 X9.1005 Y15.2853
G01 X9.0875 Y15.2762
G01 X9.0585 Y15.2579
G01 X8.9482 Y15.1483
G01 X8.9420 Y15.1417
G01 X5.8990 Y12.0988
G01 X5.8445 Y12.0453
G01 X5.8275 Y12.0190
G01 X5.8183 Y12.0062
G01 X5.7970 Y11.9792
G01 X5.7872 Y11.9591
G01 X5.7779 Y11.9424
G01 X5.7640 Y11.9204
G01 X5.7521 Y11.8881
G01 X5.7459 Y11.8736
G01 X5.7323 Y11.8454
G01 X5.7262 Y11.8200
G01 X5.7207 Y11.8018
G01 X5.7131 Y11.7807
G01 X5.7092 Y11.7497
G01 X5.7064 Y11.7341
G01 X5.6989 Y11.7006
G01 X5.6983 Y11.5452
G01 X5.6986 Y11.5361
G01 X5.6986 Y9.6019
G01 X5.6983 Y9.5933
G01 X5.6974 Y9.5847
G01 X5.6945 Y9.5706
G01 X5.6729 Y9.4968
G01 X5.6686 Y9.4856
G01 X5.6633 Y9.4748
G01 X5.6570 Y9.4647
G01 X5.6477 Y9.4529
G01 X5.6046 Y9.4093
G01 X5.5961 Y9.4019
G01 X5.5870 Y9.3952
G01 X5.3920 Y9.2674
G01 X5.2159 Y9.1103
G01 X5.0651 Y8.9289
G01 X4.9427 Y8.7272
G01 X4.8515 Y8.5096
G01 X4.7934 Y8.2809
G01 X4.7697 Y8.0462
G00 Z2.0000
G00 X5.8193 Y9.3667
G01 F40.00
G01 Z-0.1200
G01 F50.00
G01 X5.8193 Y9.4795
G01 X5.8113 Y9.4524
G01 X5.8046 Y9.4338
G01 X5.7964 Y9.4157
G01 X5.7870 Y9.3983
G01 X5.7800 Y9.3871
G01 X5.7725 Y9.3763
G01 X5.7602 Y9.3608
G01 X5.7514 Y9.3509
G01 X5.7254 Y9.3246
G01 X5.7938 Y9.3568
G01 X5.8059 Y9.3618
G01 X5.8193 Y9.3667
G00 Z2.0000
G00 X5.9647 Y9.2643
G01 F40.00
G01 Z-0.1200
G01 F50.00
G01 X5.8554 Y9.2251
G01 X5.7382 Y9.1697
G01 X5.6270 Y9.1030
G01 X5.5229 Y9.0258
G01 X5.4268 Y8.9387
G01 X5.3397 Y8.8426
G01 X5.2625 Y8.7385
G01 X5.1958 Y8.6273
G01 X5.1404 Y8.5101
G01 X5.0967 Y8.3880
G01 X5.0652 Y8.2622
G01 X5.0462 Y8.1340
G01 X5.0399 Y8.0045
G01 X5.0462 Y7.8750
G01 X5.0652 Y7.7468
G01 X5.0967 Y7.6210
G01 X5.1404 Y7.4989
G01 X5.1958 Y7.3817
G01 X5.2625 Y7.2705
G01 X5.3397 Y7.1664
G01 X5.4268 Y7.0703
G01 X5.5229 Y6.9832
G01 X5.6270 Y6.9060
G01 X5.7382 Y6.8393
G01 X5.8554 Y6.7839
G01 X5.9775 Y6.7402
G01 X6.1033 Y6.7087
G01 X6.2315 Y6.6897
G01 X6.3610 Y6.6834
G01 X6.4905 Y6.6897
G01 X6.6187 Y6.7087
G01 X6.7445 Y6.7402
G01 X6.8666 Y6.7839
G01 X6.9785 Y6.8367
G01 X6.9890 Y6.8423
G01 X7.0950 Y6.9060
G01 X7.1991 Y6.9832
G01 X7.2909 Y7.0662
G01 X7.2993 Y7.0746
G01 X7.3784 Y7.1619
G01 X7.3859 Y7.1711
G01 X7.4595 Y7.2705
G01 X7.5262 Y7.3817
G01 X7.5816 Y7.4989
G01 X7.6234 Y7.6153
G01 X7.6268 Y7.6267
G01 X7.6555 Y7.7410
G01 X7.6578 Y7.7526
G01 X7.6758 Y7.8750
G01 X7.6821 Y8.0045
G01 X7.6762 Y8.1281
G01 X7.6751 Y8.1399
G01 X7.6568 Y8.2622
G01 X7.6253 Y8.3880
G01 X7.5816 Y8.5101
G01 X7.5288 Y8.6220
G01 X7.5232 Y8.6325
G01 X7.4627 Y8.7335
G01 X7.4561 Y8.7434
G01 X7.3823 Y8.8426
G01 X7.2993 Y8.9344
G01 X7.2909 Y8.9428
G01 X7.2036 Y9.0219
G01 X7.1944 Y9.0294
G01 X7.0950 Y9.1030
G01 X6.9838 Y9.1697
G01 X6.8666 Y9.2251
G01 X6.7573 Y9.2643
G01 X6.7573 Y11.4599
G01 X9.6366 Y14.3392
G01 X36.0419 Y14.3392
G01 X38.9212 Y11.4599
G01 X38.9212 Y11.0941
G01 X38.3175 Y11.0941
G01 X38.2106 Y11.0890
G01 X38.2017 Y11.0880
G01 X38.1046 Y11.0736
G01 X38.0930 Y11.0713
G01 X37.9920 Y11.0459
G01 X37.8940 Y11.0109
G01 X37.8830 Y11.0064
G01 X37.7890 Y10.9618
G01 X37.6996 Y10.9084
G01 X37.6898 Y10.9018
G01 X37.6109 Y10.8433
G01 X37.6017 Y10.8358
G01 X37.5247 Y10.7658
G01 X37.4508 Y10.6842
G01 X37.3853 Y10.5959
G01 X37.3302 Y10.5041
G01 X37.3261 Y10.4962
G01 X37.2817 Y10.4020
G01 X37.2465 Y10.3041
G01 X37.2430 Y10.2927
G01 X37.2192 Y10.1975
G01 X37.2169 Y10.1859
G01 X37.2017 Y10.0829
G01 X37.1964 Y9.9730
G01 X37.2017 Y9.8631
G01 X37.2179 Y9.7543
G01 X37.2446 Y9.6475
G01 X37.2817 Y9.5440
G01 X37.3287 Y9.4445
G01 X37.3821 Y9.3551
G01 X37.3887 Y9.3453
G01 X37.4472 Y9.2664
G01 X37.4547 Y9.2572
G01 X37.5247 Y9.1802
G01 X37.6063 Y9.1063
G01 X37.6946 Y9.0408
G01 X37.7838 Y8.9872
G01 X37.7943 Y8.9816
G01 X37.8885 Y8.9372
G01 X37.9920 Y8.9001
G01 X38.0930 Y8.8747
G01 X38.1046 Y8.8724
G01 X38.2017 Y8.8580
G01 X38.2106 Y8.8570
G01 X38.3175 Y8.8519
G01 X40.3175 Y8.8519
G01 X40.4274 Y8.8572
G01 X40.5304 Y8.8724
G01 X40.5391 Y8.8740
G01 X40.6430 Y8.9001
G01 X40.7465 Y8.9372
G01 X40.8460 Y8.9842
G01 X40.9354 Y9.0376
G01 X40.9452 Y9.0442
G01 X41.0241 Y9.1027
G01 X41.0333 Y9.1102
G01 X41.1103 Y9.1802
G01 X41.1842 Y9.2618
G01 X41.2497 Y9.3501
G01 X41.3063 Y9.4445
G01 X41.3533 Y9.5440
G01 X41.3885 Y9.6419
G01 X41.3920 Y9.6533
G01 X41.4158 Y9.7485
G01 X41.4181 Y9.7601
G01 X41.4333 Y9.8631
G01 X41.4385 Y9.9671
G01 X41.4386 Y9.9760
G01 X41.4337 Y10.0770
G01 X41.4325 Y10.0888
G01 X41.4171 Y10.1917
G01 X41.3920 Y10.2927
G01 X41.3885 Y10.3041
G01 X41.3533 Y10.4020
G01 X41.3063 Y10.5015
G01 X41.2529 Y10.5909
G01 X41.2463 Y10.6007
G01 X41.1842 Y10.6842
G01 X41.1144 Y10.7615
G01 X41.1060 Y10.7699
G01 X41.0287 Y10.8397
G01 X40.9452 Y10.9018
G01 X40.9379 Y10.9068
G01 X40.8460 Y10.9618
G01 X40.7465 Y11.0088
G01 X40.6430 Y11.0459
G01 X40.5420 Y11.0713
G01 X40.5304 Y11.0736
G01 X40.4274 Y11.0888
G01 X40.3205 Y11.0941
G01 X39.7138 Y11.0941
G01 X39.7138 Y11.6240
G01 X39.7123 Y11.6569
G01 X39.7116 Y11.6658
G01 X39.7062 Y11.7013
G01 X39.6983 Y11.7333
G01 X39.6949 Y11.7447
G01 X39.6836 Y11.7757
G01 X39.6670 Y11.8108
G01 X39.6502 Y11.8391
G01 X39.6436 Y11.8490
G01 X39.6219 Y11.8777
G01 X39.5977 Y11.9042
G01 X36.4841 Y15.0178
G01 X36.4574 Y15.0418
G01 X36.4310 Y15.0616
G01 X36.4211 Y15.0682
G01 X36.3928 Y15.0850
G01 X36.3631 Y15.0992
G01 X36.3521 Y15.1038
G01 X36.3210 Y15.1147
G01 X36.2833 Y15.1242
G01 X36.2448 Y15.1299
G01 X36.2060 Y15.1318
G01 X16.0283 Y15.1324
G01 X16.0283 Y16.3708
G01 X16.0555 Y16.3806
G01 X16.0638 Y16.3839
G01 X16.1579 Y16.4284
G01 X16.1657 Y16.4327
G01 X16.2499 Y16.4831
G01 X16.2573 Y16.4880
G01 X16.3432 Y16.5518
G01 X16.4205 Y16.6216
G01 X16.4289 Y16.6300
G01 X16.4967 Y16.7050
G01 X16.5023 Y16.7119
G01 X16.5608 Y16.7908
G01 X16.5674 Y16.8006
G01 X16.6208 Y16.8900
G01 X16.6654 Y16.9840
G01 X16.6699 Y16.9950
G01 X16.7049 Y17.0930
G01 X16.7303 Y17.1940
G01 X16.7322 Y17.2027
G01 X16.7478 Y17.3086
G01 X16.7531 Y17.4185
G01 X16.7531 Y19.4185
G01 X16.7480 Y19.5254
G01 X16.7470 Y19.5343
G01 X16.7316 Y19.6372
G01 X16.7049 Y19.7440
G01 X16.6678 Y19.8475
G01 X16.6234 Y19.9417
G01 X16.6178 Y19.9522
G01 X16.5674 Y20.0364
G01 X16.5608 Y20.0462
G01 X16.4987 Y20.1297
G01 X16.4289 Y20.2070
G01 X16.4205 Y20.2154
G01 X16.3432 Y20.2852
G01 X16.2549 Y20.3507
G01 X16.1605 Y20.4073
G01 X16.0610 Y20.4543
G01 X15.9575 Y20.4914
G01 X15.8507 Y20.5181
G01 X15.7419 Y20.5343
G01 X15.6379 Y20.5395
G01 X15.6290 Y20.5396
G01 X15.5221 Y20.5343
G01 X15.4133 Y20.5181
G01 X15.3065 Y20.4914
G01 X15.2030 Y20.4543
G01 X15.1035 Y20.4073
G01 X15.0091 Y20.3507
G01 X14.9208 Y20.2852
G01 X14.8435 Y20.2154
G01 X14.8351 Y20.2070
G01 X14.7653 Y20.1297
G01 X14.7032 Y20.0462
G01 X14.6966 Y20.0364
G01 X14.6462 Y19.9522
G01 X14.6406 Y19.9417
G01 X14.5962 Y19.8475
G01 X14.5591 Y19.7440
G01 X14.5324 Y19.6372
G01 X14.5170 Y19.5343
G01 X14.5160 Y19.5254
G01 X14.5109 Y19.4185
G01 X14.5109 Y17.4185
G01 X14.5162 Y17.3086
G01 X14.5318 Y17.2027
G01 X14.5337 Y17.1940
G01 X14.5575 Y17.0988
G01 X14.5610 Y17.0874
G01 X14.5962 Y16.9895
G01 X14.6406 Y16.8953
G01 X14.6462 Y16.8848
G01 X14.6998 Y16.7956
G01 X14.7617 Y16.7119
G01 X14.7673 Y16.7050
G01 X14.8351 Y16.6300
G01 X14.8435 Y16.6216
G01 X14.9208 Y16.5518
G01 X15.0067 Y16.4880
G01 X15.0141 Y16.4831
G01 X15.0983 Y16.4327
G01 X15.1061 Y16.4284
G01 X15.2002 Y16.3839
G01 X15.2085 Y16.3806
G01 X15.2357 Y16.3708
G01 X15.2357 Y15.2806
G01 X15.0869 Y15.1318
G01 X9.4725 Y15.1318
G01 X9.4396 Y15.1303
G01 X9.4278 Y15.1292
G01 X9.3952 Y15.1242
G01 X9.3575 Y15.1147
G01 X9.3264 Y15.1038
G01 X9.3154 Y15.0992
G01 X9.2857 Y15.0850
G01 X9.2548 Y15.0666
G01 X9.2475 Y15.0616
G01 X9.2211 Y15.0418
G01 X9.1923 Y15.0157
G01 X6.0808 Y11.9042
G01 X6.0585 Y11.8799
G01 X6.0510 Y11.8707
G01 X6.0315 Y11.8442
G01 X6.0129 Y11.8134
G01 X6.0088 Y11.8055
G01 X5.9949 Y11.7757
G01 X5.9836 Y11.7447
G01 X5.9802 Y11.7333
G01 X5.9723 Y11.7013
G01 X5.9673 Y11.6687
G01 X5.9664 Y11.6599
G01 X5.9647 Y11.6270
G01 X5.9647 Y9.2643
G00 Z2.0000
G00 X6.9027 Y9.4762
G01 F40.00
G01 Z-0.1200
G01 F50.00
G01 X6.9027 Y9.3667
G01 X6.9161 Y9.3618
G01 X6.9282 Y9.3568
G01 X7.0022 Y9.3219
G01 X6.9774 Y9.3449
G01 X6.9640 Y9.3588
G01 X6.9516 Y9.3736
G01 X6.9440 Y9.3840
G01 X6.9368 Y9.3948
G01 X6.9272 Y9.4115
G01 X6.9214 Y9.4230
G01 X6.9162 Y9.4348
G01 X6.9094 Y9.4530
G01 X6.9027 Y9.4762
G00 Z2.0000
G00 X6.9168 Y11.4138
G01 F40.00
G01 Z-0.1200
G01 F50.00
G01 X6.9027 Y11.3996
G01 X6.9027 Y11.3697
G01 X6.9107 Y11.3967
G01 X6.9168 Y11.4138
G00 Z2.0000
G00 X9.7169 Y14.1938
G01 F40.00
G01 Z-0.1200
G01 F50.00
G01 X9.6969 Y14.1938
G01 X9.6757 Y14.1727
G01 X9.7005 Y14.1861
G01 X9.7169 Y14.1938
G00 Z2.0000
G00 X14.8580 Y15.2772
G01 F40.00
G01 Z-0.1200
G01 F50.00
G01 X15.0266 Y15.2772
G01 X15.0903 Y15.3409
G01 X15.0903 Y15.5226
G01 X15.0823 Y15.4955
G01 X15.0779 Y15.4830
G01 X15.0730 Y15.4707
G01 X15.0644 Y15.4528
G01 X15.0545 Y15.4356
G01 X15.0472 Y15.4245
G01 X15.0352 Y15.4087
G01 X15.0222 Y15.3938
G01 X15.0080 Y15.3798
G01 X14.9494 Y15.3290
G01 X14.9391 Y15.3205
G01 X14.9284 Y15.3125
G01 X14.9117 Y15.3017
G01 X14.8941 Y15.2920
G01 X14.8760 Y15.2838
G01 X14.8580 Y15.2772
G00 Z2.0000
G00 X15.0903 Y16.1894
G01 F40.00
G01 Z-0.1200
G01 F50.00
G01 X15.0903 Y16.2750
G01 X15.0408 Y16.2985
G01 X15.0292 Y16.3047
G01 X15.0108 Y16.3156
G01 X15.0327 Y16.2924
G01 X15.0413 Y16.2823
G01 X15.0533 Y16.2664
G01 X15.0606 Y16.2554
G01 X15.0674 Y16.2440
G01 X15.0764 Y16.2263
G01 X15.0841 Y16.2080
G01 X15.0903 Y16.1894
G00 Z2.0000
G00 X16.2364 Y16.3056
G01 F40.00
G01 Z-0.1200
G01 F50.00
G01 X16.2232 Y16.2985
G01 X16.1737 Y16.2750
G01 X16.1737 Y16.1828
G01 X16.1817 Y16.2097
G01 X16.1859 Y16.2220
G01 X16.1908 Y16.2340
G01 X16.1991 Y16.2516
G01 X16.2088 Y16.2685
G01 X16.2158 Y16.2794
G01 X16.2274 Y16.2950
G01 X16.2364 Y16.3056
G00 Z2.0000
G00 X16.1737 Y15.5095
G01 F40.00
G01 Z-0.1200
G01 F50.00
G01 X16.1737 Y15.2777
G01 X16.4172 Y15.2777
G01 X16.3920 Y15.2852
G01 X16.3795 Y15.2896
G01 X16.3612 Y15.2972
G01 X16.3493 Y15.3031
G01 X16.3321 Y15.3130
G01 X16.3156 Y15.3242
G01 X16.3052 Y15.3323
G01 X16.2903 Y15.3453
G01 X16.2763 Y15.3595
G01 X16.2255 Y15.4181
G01 X16.2170 Y15.4284
G01 X16.2090 Y15.4391
G01 X16.1982 Y15.4558
G01 X16.1885 Y15.4734
G01 X16.1803 Y15.4915
G01 X16.1737 Y15.5095
G00 Z2.0000
G00 X25.2397 Y9.7188
G01 F40.00
G01 Z-0.1200
G01 F50.00
G01 X25.2575 Y9.4934
G01 X25.3102 Y9.2738
G01 X25.3967 Y9.0648
G01 X25.4345 Y9.0031
G01 X25.6321 Y9.2006
G01 X25.5990 Y9.2708
G01 X25.5621 Y9.3734
G01 X25.5587 Y9.3848
G01 X25.5330 Y9.4876
G01 X25.5313 Y9.4964
G01 X25.5155 Y9.6042
G01 X25.5099 Y9.7190
G01 X25.5155 Y9.8338
G01 X25.5313 Y9.9416
G01 X25.5330 Y9.9504
G01 X25.5587 Y10.0532
G01 X25.5621 Y10.0646
G01 X25.5990 Y10.1672
G01 X25.6321 Y10.2374
G01 X25.4345 Y10.4349
G01 X25.3967 Y10.3732
G01 X25.3102 Y10.1642
G01 X25.2574 Y9.9443
G01 X25.2397 Y9.7188
G00 Z2.0000
G00 X25.9651 Y8.4725
G01 F40.00
G01 Z-0.1200
G01 F50.00
G01 X26.0268 Y8.4347
G01 X26.2358 Y8.3482
G01 X26.4557 Y8.2954
G01 X26.6812 Y8.2777
G01 X26.9066 Y8.2955
G01 X27.1262 Y8.3482
G01 X27.3352 Y8.4347
G01 X27.3969 Y8.4725
G01 X27.1994 Y8.6701
G01 X27.1292 Y8.6370
G01 X27.0266 Y8.6001
G01 X27.0152 Y8.5967
G01 X26.9124 Y8.5710
G01 X26.9036 Y8.5693
G01 X26.7958 Y8.5535
G01 X26.6810 Y8.5479
G01 X26.5662 Y8.5535
G01 X26.4584 Y8.5693
G01 X26.4496 Y8.5710
G01 X26.3468 Y8.5967
G01 X26.3354 Y8.6001
G01 X26.2328 Y8.6370
G01 X26.1626 Y8.6701
G01 X25.9651 Y8.4725
G00 Z2.0000
G00 X27.7299 Y9.2006
G01 F40.00
G01 Z-0.1200
G01 F50.00
G01 X27.9275 Y9.0031
G01 X27.9653 Y9.0648
G01 X28.0517 Y9.2735
G01 X28.1045 Y9.4934
G01 X28.1223 Y9.7192
G01 X28.1045 Y9.9446
G01 X28.0517 Y10.1645
G01 X27.9653 Y10.3732
G01 X27.9275 Y10.4349
G01 X27.7299 Y10.2374
G01 X27.7630 Y10.1672
G01 X27.7999 Y10.0646
G01 X27.8033 Y10.0532
G01 X27.8290 Y9.9504
G01 X27.8307 Y9.9416
G01 X27.8465 Y9.8338
G01 X27.8521 Y9.7190
G01 X27.8465 Y9.6042
G01 X27.8307 Y9.4964
G01 X27.8290 Y9.4876
G01 X27.8033 Y9.3848
G01 X27.7999 Y9.3734
G01 X27.7630 Y9.2708
G01 X27.7299 Y9.2006
G00 Z2.0000
G00 X25.9651 Y10.9655
G01 F40.00
G01 Z-0.1200
G01 F50.00
G01 X26.1626 Y10.7679
G01 X26.2328 Y10.8010
G01 X26.3354 Y10.8379
G01 X26.3468 Y10.8413
G01 X26.4496 Y10.8670
G01 X26.4584 Y10.8687
G01 X26.5662 Y10.8845
G01 X26.6810 Y10.8901
G01 X26.7958 Y10.8845
G01 X26.9036 Y10.8687
G01 X26.9124 Y10.8670
G01 X27.0152 Y10.8413
G01 X27.0266 Y10.8379
G01 X27.1292 Y10.8010
G01 X27.1994 Y10.7679
G01 X27.3969 Y10.9655
G01 X27.3352 Y11.0033
G01 X27.1262 Y11.0898
G01 X26.9063 Y11.1426
G01 X26.6808 Y11.1603
G01 X26.4554 Y11.1425
G01 X26.2358 Y11.0898
G01 X26.0268 Y11.0033
G01 X25.9651 Y10.9655
G00 Z2.0000
G00 X30.5145 Y10.4349
G01 F40.00
G01 Z-0.1200
G01 F50.00
G01 X30.4767 Y10.3732
G01 X30.3902 Y10.1642
G01 X30.3374 Y9.9443
G01 X30.3197 Y9.7188
G01 X30.3375 Y9.4934
G01 X30.3902 Y9.2738
G01 X30.4767 Y9.0648
G01 X30.5145 Y9.0031
G01 X30.7121 Y9.2006
G01 X30.6790 Y9.2708
G01 X30.6421 Y9.3734
G01 X30.6387 Y9.3848
G01 X30.6130 Y9.4876
G01 X30.6113 Y9.4964
G01 X30.5955 Y9.6042
G01 X30.5899 Y9.7190
G01 X30.5955 Y9.8338
G01 X30.6113 Y9.9416
G01 X30.6130 Y9.9504
G01 X30.6387 Y10.0532
G01 X30.6421 Y10.0646
G01 X30.6790 Y10.1672
G01 X30.7121 Y10.2374
G01 X30.5145 Y10.4349
G00 Z2.0000
G00 X31.0451 Y10.9655
G01 F40.00
G01 Z-0.1200
G01 F50.00
G01 X31.2426 Y10.7679
G01 X31.3128 Y10.8010
G01 X31.4154 Y10.8379
G01 X31.4268 Y10.8413
G01 X31.5296 Y10.8670
G01 X31.5384 Y10.8687
G01 X31.6462 Y10.8845
G01 X31.7610 Y10.8901
G01 X31.8758 Y10.8845
G01 X31.9836 Y10.8687
G01 X31.9924 Y10.8670
G01 X32.0952 Y10.8413
G01 X32.1066 Y10.8379
G01 X32.2092 Y10.8010
G01 X32.2794 Y10.7679
G01 X32.4769 Y10.9655
G01 X32.4152 Y11.0033
G01 X32.2062 Y11.0898
G01 X31.9863 Y11.1426
G01 X31.7608 Y11.1603
G01 X31.5354 Y11.1425
G01 X31.3158 Y11.0898
G01 X31.1068 Y11.0033
G01 X31.0451 Y10.9655
G00 Z2.0000
G00 X32.8099 Y10.2374
G01 F40.00
G01 Z-0.1200
G01 F50.00
G01 X32.8430 Y10.1672
G01 X32.8799 Y10.0646
G01 X32.8833 Y10.0532
G01 X32.9090 Y9.9504
G01 X32.9107 Y9.9416
G01 X32.9265 Y9.8338
G01 X32.9321 Y9.7190
G01 X32.9265 Y9.6042
G01 X32.9107 Y9.4964
G01 X32.9090 Y9.4876
G01 X32.8833 Y9.3848
G01 X32.8799 Y9.3734
G01 X32.8430 Y9.2708
G01 X32.8099 Y9.2006
G01 X33.0075 Y9.0031
G01 X33.0453 Y9.0648
G01 X33.1317 Y9.2735
G01 X33.1845 Y9.4934
G01 X33.2023 Y9.7192
G01 X33.1845 Y9.9446
G01 X33.1317 Y10.1645
G01 X33.0453 Y10.3732
G01 X33.0075 Y10.4349
G01 X32.8099 Y10.2374
G00 Z2.0000
G00 X31.4575 Y7.7207
G01 F40.00
G01 Z-0.1200
G01 F50.00
G01 X32.0607 Y7.7207
G01 X32.0273 Y7.7308
G01 X32.0150 Y7.7355
G01 X32.0028 Y7.7407
G01 X31.9910 Y7.7466
G01 X31.9794 Y7.7531
G01 X31.9627 Y7.7638
G01 X31.9520 Y7.7716
G01 X31.9368 Y7.7844
G01 X31.9272 Y7.7935
G01 X31.9180 Y7.8030
G01 X31.8671 Y7.8616
G01 X31.8547 Y7.8771
G01 X31.8434 Y7.8935
G01 X31.8366 Y7.9048
G01 X31.8304 Y7.9165
G01 X31.8221 Y7.9345
G01 X31.8174 Y7.9469
G01 X31.8133 Y7.9595
G01 X31.8083 Y7.9787
G01 X31.8058 Y7.9917
G01 X31.7946 Y8.0685
G01 X31.7931 Y8.0816
G01 X31.7920 Y8.1015
G01 X31.7920 Y8.1147
G01 X31.7928 Y8.1279
G01 X31.7942 Y8.1411
G01 X31.7962 Y8.1542
G01 X31.7989 Y8.1671
G01 X31.8022 Y8.1799
G01 X31.8084 Y8.1988
G01 X31.8160 Y8.2172
G01 X31.8483 Y8.2877
G01 X31.8577 Y8.3052
G01 X31.8683 Y8.3220
G01 X31.8802 Y8.3379
G01 X31.8932 Y8.3529
G01 X31.9024 Y8.3624
G01 X31.9122 Y8.3714
G01 X31.9276 Y8.3839
G01 X31.9383 Y8.3916
G01 X31.9495 Y8.3988
G01 X31.9898 Y8.4233
G01 X31.9030 Y8.4104
G01 X31.8900 Y8.4088
G01 X31.8770 Y8.4078
G01 X31.7741 Y8.4028
G01 X31.7610 Y8.4025
G01 X31.7479 Y8.4028
G01 X31.6450 Y8.4078
G01 X31.6320 Y8.4088
G01 X31.6190 Y8.4104
G01 X31.5344 Y8.4230
G01 X31.5682 Y8.4034
G01 X31.5794 Y8.3963
G01 X31.5901 Y8.3886
G01 X31.6005 Y8.3804
G01 X31.6105 Y8.3716
G01 X31.6200 Y8.3624
G01 X31.6334 Y8.3478
G01 X31.6456 Y8.3321
G01 X31.6531 Y8.3212
G01 X31.6600 Y8.3100
G01 X31.6664 Y8.2984
G01 X31.6991 Y8.2353
G01 X31.7049 Y8.2234
G01 X31.7125 Y8.2051
G01 X31.7168 Y8.1926
G01 X31.7204 Y8.1798
G01 X31.7234 Y8.1669
G01 X31.7258 Y8.1539
G01 X31.7282 Y8.1342
G01 X31.7290 Y8.1144
G01 X31.7284 Y8.0945
G01 X31.7206 Y8.0107
G01 X31.7187 Y7.9976
G01 X31.7162 Y7.9846
G01 X31.7112 Y7.9654
G01 X31.7071 Y7.9528
G01 X31.7024 Y7.9404
G01 X31.6970 Y7.9283
G01 X31.6911 Y7.9165
G01 X31.6811 Y7.8993
G01 X31.6698 Y7.8830
G01 X31.6221 Y7.8218
G01 X31.6093 Y7.8066
G01 X31.5954 Y7.7924
G01 X31.5855 Y7.7836
G01 X31.5752 Y7.7752
G01 X31.5591 Y7.7637
G01 X31.5421 Y7.7533
G01 X31.5244 Y7.7443
G01 X31.5061 Y7.7366
G01 X31.4575 Y7.7207
G00 Z2.0000
G00 X30.3870 Y7.7898
G01 F40.00
G01 Z-0.1200
G01 F50.00
G01 X30.4198 Y7.7207
G01 X30.5169 Y7.7207
G01 X30.4899 Y7.7287
G01 X30.4776 Y7.7329
G01 X30.4597 Y7.7404
G01 X30.4481 Y7.7461
G01 X30.4312 Y7.7557
G01 X30.4150 Y7.7665
G01 X30.3997 Y7.7785
G01 X30.3870 Y7.7898
G00 Z2.0000
G00 X30.3217 Y6.7827
G01 F40.00
G01 Z-0.1200
G01 F50.00
G01 X33.6289 Y6.7827
G01 X35.7988 Y4.6128
G01 X35.8276 Y4.5867
G01 X35.8588 Y4.5635
G01 X35.8870 Y4.5464
G01 X35.8975 Y4.5408
G01 X35.9273 Y4.5269
G01 X35.9640 Y4.5138
G01 X35.9959 Y4.5056
G01 X36.0075 Y4.5033
G01 X36.0402 Y4.4986
G01 X36.0731 Y4.4969
G01 X37.2698 Y4.4967
G01 X37.2796 Y4.4695
G01 X37.2829 Y4.4612
G01 X37.3274 Y4.3671
G01 X37.3317 Y4.3593
G01 X37.3821 Y4.2751
G01 X37.3870 Y4.2677
G01 X37.4508 Y4.1818
G01 X37.5206 Y4.1045
G01 X37.5290 Y4.0961
G01 X37.6017 Y4.0302
G01 X37.6086 Y4.0245
G01 X37.6946 Y3.9608
G01 X37.7838 Y3.9072
G01 X37.7943 Y3.9016
G01 X37.8885 Y3.8572
G01 X37.9920 Y3.8201
G01 X38.0930 Y3.7947
G01 X38.1046 Y3.7924
G01 X38.2017 Y3.7780
G01 X38.2106 Y3.7770
G01 X38.3175 Y3.7719
G01 X40.3175 Y3.7719
G01 X40.4274 Y3.7772
G01 X40.5304 Y3.7924
G01 X40.5391 Y3.7940
G01 X40.6372 Y3.8185
G01 X40.6486 Y3.8220
G01 X40.7465 Y3.8572
G01 X40.8407 Y3.9016
G01 X40.8512 Y3.9072
G01 X40.9404 Y3.9608
G01 X41.0241 Y4.0227
G01 X41.0310 Y4.0283
G01 X41.1060 Y4.0961
G01 X41.1144 Y4.1045
G01 X41.1842 Y4.1818
G01 X41.2480 Y4.2677
G01 X41.2529 Y4.2751
G01 X41.3033 Y4.3593
G01 X41.3076 Y4.3671
G01 X41.3521 Y4.4612
G01 X41.3554 Y4.4695
G01 X41.3652 Y4.4967
G01 X47.9280 Y4.4967
G01 X47.9522 Y4.4747
G01 X47.9591 Y4.4690
G01 X48.0403 Y4.4087
G01 X48.0476 Y4.4037
G01 X48.1395 Y4.3487
G01 X48.2362 Y4.3029
G01 X48.2445 Y4.2996
G01 X48.3369 Y4.2665
G01 X48.3483 Y4.2630
G01 X48.4493 Y4.2379
G01 X48.5581 Y4.2217
G01 X48.6680 Y4.2164
G01 X50.6680 Y4.2164
G01 X50.7779 Y4.2217
G01 X50.8867 Y4.2379
G01 X50.9877 Y4.2630
G01 X50.9991 Y4.2665
G01 X51.0915 Y4.2996
G01 X51.1025 Y4.3041
G01 X51.1965 Y4.3487
G01 X51.2909 Y4.4053
G01 X51.3792 Y4.4708
G01 X51.4608 Y4.5447
G01 X51.5347 Y4.6263
G01 X51.6002 Y4.7146
G01 X51.6568 Y4.8090
G01 X51.7014 Y4.9030
G01 X51.7059 Y4.9140
G01 X51.7390 Y5.0064
G01 X51.7425 Y5.0178
G01 X51.7676 Y5.1188
G01 X51.7830 Y5.2217
G01 X51.7840 Y5.2306
G01 X51.7891 Y5.3375
G01 X51.7838 Y5.4474
G01 X51.7676 Y5.5562
G01 X51.7425 Y5.6572
G01 X51.7390 Y5.6686
G01 X51.7059 Y5.7610
G01 X51.7014 Y5.7720
G01 X51.6568 Y5.8660
G01 X51.6034 Y5.9554
G01 X51.5968 Y5.9652
G01 X51.5347 Y6.0487
G01 X51.4649 Y6.1260
G01 X51.4565 Y6.1344
G01 X51.3792 Y6.2042
G01 X51.2909 Y6.2697
G01 X51.1965 Y6.3263
G01 X51.0970 Y6.3733
G01 X50.9935 Y6.4104
G01 X50.8867 Y6.4371
G01 X50.7779 Y6.4533
G01 X50.6680 Y6.4586
G01 X48.6650 Y6.4586
G01 X48.5581 Y6.4533
G01 X48.4493 Y6.4371
G01 X48.3425 Y6.4104
G01 X48.2417 Y6.3744
G01 X48.2335 Y6.3709
G01 X48.1448 Y6.3289
G01 X48.1343 Y6.3233
G01 X48.0451 Y6.2697
G01 X47.9568 Y6.2042
G01 X47.8752 Y6.1303
G01 X47.8052 Y6.0533
G01 X47.7977 Y6.0441
G01 X47.7392 Y5.9652
G01 X47.7342 Y5.9579
G01 X47.6792 Y5.8660
G01 X47.6346 Y5.7720
G01 X47.6301 Y5.7610
G01 X47.5970 Y5.6686
G01 X47.5943 Y5.6601
G01 X47.5684 Y5.5562
G01 X47.5526 Y5.4503
G01 X47.5518 Y5.4415
G01 X47.5469 Y5.3405
G01 X47.5470 Y5.3316
G01 X47.5491 Y5.2893
G01 X41.3652 Y5.2893
G01 X41.3554 Y5.3165
G01 X41.3521 Y5.3248
G01 X41.3089 Y5.4162
G01 X41.3048 Y5.4241
G01 X41.2497 Y5.5159
G01 X41.1860 Y5.6019
G01 X41.1803 Y5.6088
G01 X41.1144 Y5.6815
G01 X41.1060 Y5.6899
G01 X41.0287 Y5.7597
G01 X40.9428 Y5.8235
G01 X40.9354 Y5.8284
G01 X40.8512 Y5.8788
G01 X40.8407 Y5.8844
G01 X40.7465 Y5.9288
G01 X40.6430 Y5.9659
G01 X40.5362 Y5.9926
G01 X40.4333 Y6.0080
G01 X40.4215 Y6.0092
G01 X40.3175 Y6.0141
G01 X38.3175 Y6.0141
G01 X38.2076 Y6.0088
G01 X38.1017 Y5.9932
G01 X38.0930 Y5.9913
G01 X37.9978 Y5.9675
G01 X37.9864 Y5.9640
G01 X37.8885 Y5.9288
G01 X37.7943 Y5.8844
G01 X37.7838 Y5.8788
G01 X37.6946 Y5.8252
G01 X37.6109 Y5.7633
G01 X37.6040 Y5.7577
G01 X37.5290 Y5.6899
G01 X37.5206 Y5.6815
G01 X37.4508 Y5.6042
G01 X37.3870 Y5.5183
G01 X37.3821 Y5.5109
G01 X37.3317 Y5.4267
G01 X37.3274 Y5.4189
G01 X37.2829 Y5.3248
G01 X37.2796 Y5.3165
G01 X37.2698 Y5.2893
G01 X36.2431 Y5.2893
G01 X34.0711 Y7.4613
G01 X34.0467 Y7.4834
G01 X34.0397 Y7.4890
G01 X34.0132 Y7.5085
G01 X33.9850 Y7.5256
G01 X33.9745 Y7.5312
G01 X33.9447 Y7.5451
G01 X33.9137 Y7.5564
G01 X33.9052 Y7.5591
G01 X33.8703 Y7.5677
G01 X33.8377 Y7.5727
G01 X33.8259 Y7.5738
G01 X33.7930 Y7.5753
G01 X30.3217 Y7.5753
G01 X30.3051 Y7.6216
G01 X30.3018 Y7.6299
G01 X30.2565 Y7.7258
G01 X30.2524 Y7.7337
G01 X30.1948 Y7.8297
G01 X30.1282 Y7.9196
G01 X30.1224 Y7.9265
G01 X30.0532 Y8.0028
G01 X30.0448 Y8.0112
G01 X29.9640 Y8.0843
G01 X29.8741 Y8.1511
G01 X29.8666 Y8.1560
G01 X29.7783 Y8.2089
G01 X29.7678 Y8.2145
G01 X29.6692 Y8.2610
G01 X29.5610 Y8.2997
G01 X29.4553 Y8.3263
G01 X29.4436 Y8.3287
G01 X29.3358 Y8.3445
G01 X29.2210 Y8.3501
G01 X29.1121 Y8.3449
G01 X29.1003 Y8.3438
G01 X28.9925 Y8.3276
G01 X28.8810 Y8.2997
G01 X28.7728 Y8.2610
G01 X28.6742 Y8.2145
G01 X28.6637 Y8.2089
G01 X28.5703 Y8.1528
G01 X28.4780 Y8.0843
G01 X28.3972 Y8.0112
G01 X28.3888 Y8.0028
G01 X28.3157 Y7.9220
G01 X28.2472 Y7.8297
G01 X28.1911 Y7.7363
G01 X28.1855 Y7.7258
G01 X28.1414 Y7.6326
G01 X28.1379 Y7.6244
G01 X28.1003 Y7.5190
G01 X28.0724 Y7.4075
G01 X28.0555 Y7.2938
G01 X28.0499 Y7.1790
G01 X28.0555 Y7.0642
G01 X28.0724 Y6.9505
G01 X28.1003 Y6.8390
G01 X28.1390 Y6.7308
G01 X28.1881 Y6.6269
G01 X28.2472 Y6.5283
G01 X28.3157 Y6.4360
G01 X28.3929 Y6.3509
G01 X28.4780 Y6.2737
G01 X28.5703 Y6.2052
G01 X28.6689 Y6.1461
G01 X28.7674 Y6.0994
G01 X28.7756 Y6.0959
G01 X28.8810 Y6.0583
G01 X28.9925 Y6.0304
G01 X29.1062 Y6.0135
G01 X29.2210 Y6.0079
G01 X29.3358 Y6.0135
G01 X29.4495 Y6.0304
G01 X29.5610 Y6.0583
G01 X29.6636 Y6.0949
G01 X29.6719 Y6.0982
G01 X29.7731 Y6.1461
G01 X29.8717 Y6.2052
G01 X29.9640 Y6.2737
G01 X30.0448 Y6.3468
G01 X30.0512 Y6.3530
G01 X30.1263 Y6.4360
G01 X30.1914 Y6.5235
G01 X30.1964 Y6.5308
G01 X30.2509 Y6.6217
G01 X30.2552 Y6.6296
G01 X30.3018 Y6.7281
G01 X30.3051 Y6.7364
G01 X30.3217 Y6.7827
G00 Z2.0000
G00 X30.4198 Y6.6373
G01 F40.00
G01 Z-0.1200
G01 F50.00
G01 X30.3880 Y6.5701
G01 X30.3829 Y6.5600
G01 X30.4155 Y6.5891
G01 X30.4310 Y6.6008
G01 X30.4417 Y6.6080
G01 X30.4585 Y6.6178
G01 X30.4701 Y6.6237
G01 X30.4879 Y6.6314
G01 X30.5049 Y6.6373
G01 X30.4198 Y6.6373
G00 Z2.0000
G00 X30.5145 Y5.3549
G01 F40.00
G01 Z-0.1200
G01 F50.00
G01 X30.4767 Y5.2932
G01 X30.3902 Y5.0842
G01 X30.3374 Y4.8643
G01 X30.3197 Y4.6388
G01 X30.3375 Y4.4134
G01 X30.3902 Y4.1938
G01 X30.4767 Y3.9848
G01 X30.5145 Y3.9231
G01 X30.7121 Y4.1206
G01 X30.6790 Y4.1908
G01 X30.6421 Y4.2934
G01 X30.6387 Y4.3048
G01 X30.6130 Y4.4076
G01 X30.6113 Y4.4164
G01 X30.5955 Y4.5242
G01 X30.5899 Y4.6390
G01 X30.5955 Y4.7538
G01 X30.6113 Y4.8616
G01 X30.6130 Y4.8704
G01 X30.6387 Y4.9732
G01 X30.6421 Y4.9846
G01 X30.6790 Y5.0872
G01 X30.7121 Y5.1574
G01 X30.5145 Y5.3549
G00 Z2.0000
G00 X32.0645 Y6.6373
G01 F40.00
G01 Z-0.1200
G01 F50.00
G01 X31.4613 Y6.6373
G01 X31.4947 Y6.6272
G01 X31.5070 Y6.6225
G01 X31.5192 Y6.6173
G01 X31.5310 Y6.6114
G01 X31.5483 Y6.6015
G01 X31.5593 Y6.5942
G01 X31.5700 Y6.5864
G01 X31.5802 Y6.5780
G01 X31.5901 Y6.5692
G01 X31.6040 Y6.5550
G01 X31.6549 Y6.4964
G01 X31.6673 Y6.4809
G01 X31.6750 Y6.4701
G01 X31.6820 Y6.4589
G01 X31.6916 Y6.4415
G01 X31.6973 Y6.4295
G01 X31.7023 Y6.4173
G01 X31.7087 Y6.3985
G01 X31.7137 Y6.3793
G01 X31.7162 Y6.3663
G01 X31.7274 Y6.2895
G01 X31.7289 Y6.2764
G01 X31.7300 Y6.2565
G01 X31.7300 Y6.2433
G01 X31.7292 Y6.2301
G01 X31.7278 Y6.2169
G01 X31.7258 Y6.2038
G01 X31.7231 Y6.1909
G01 X31.7198 Y6.1781
G01 X31.7136 Y6.1592
G01 X31.7060 Y6.1408
G01 X31.6737 Y6.0703
G01 X31.6643 Y6.0528
G01 X31.6537 Y6.0360
G01 X31.6418 Y6.0201
G01 X31.6288 Y6.0051
G01 X31.6196 Y5.9956
G01 X31.6098 Y5.9866
G01 X31.5944 Y5.9741
G01 X31.5837 Y5.9664
G01 X31.5725 Y5.9592
G01 X31.5322 Y5.9347
G01 X31.6190 Y5.9476
G01 X31.6320 Y5.9492
G01 X31.6450 Y5.9502
G01 X31.7479 Y5.9552
G01 X31.7610 Y5.9555
G01 X31.7741 Y5.9552
G01 X31.8770 Y5.9502
G01 X31.8900 Y5.9492
G01 X31.9030 Y5.9476
G01 X31.9876 Y5.9350
G01 X31.9538 Y5.9546
G01 X31.9426 Y5.9617
G01 X31.9319 Y5.9694
G01 X31.9215 Y5.9776
G01 X31.9067 Y5.9909
G01 X31.8974 Y6.0004
G01 X31.8886 Y6.0102
G01 X31.8804 Y6.0206
G01 X31.8726 Y6.0313
G01 X31.8620 Y6.0480
G01 X31.8556 Y6.0596
G01 X31.8229 Y6.1227
G01 X31.8171 Y6.1346
G01 X31.8119 Y6.1467
G01 X31.8073 Y6.1592
G01 X31.8016 Y6.1782
G01 X31.7986 Y6.1911
G01 X31.7962 Y6.2041
G01 X31.7938 Y6.2238
G01 X31.7930 Y6.2436
G01 X31.7936 Y6.2635
G01 X31.8014 Y6.3473
G01 X31.8033 Y6.3604
G01 X31.8058 Y6.3734
G01 X31.8108 Y6.3926
G01 X31.8149 Y6.4052
G01 X31.8196 Y6.4176
G01 X31.8250 Y6.4297
G01 X31.8309 Y6.4415
G01 X31.8409 Y6.4587
G01 X31.8522 Y6.4750
G01 X31.8999 Y6.5362
G01 X31.9127 Y6.5514
G01 X31.9219 Y6.5610
G01 X31.9315 Y6.5701
G01 X31.9468 Y6.5828
G01 X31.9629 Y6.5943
G01 X31.9799 Y6.6047
G01 X31.9976 Y6.6137
G01 X32.0159 Y6.6214
G01 X32.0645 Y6.6373
G00 Z2.0000
G00 X33.5828 Y6.6232
G01 F40.00
G01 Z-0.1200
G01 F50.00
G01 X33.5686 Y6.6373
G01 X33.5387 Y6.6373
G01 X33.5657 Y6.6293
G01 X33.5828 Y6.6232
G00 Z2.0000
G00 X32.8099 Y5.1574
G01 F40.00
G01 Z-0.1200
G01 F50.00
G01 X32.8430 Y5.0872
G01 X32.8799 Y4.9846
G01 X32.8833 Y4.9732
G01 X32.9090 Y4.8704
G01 X32.9107 Y4.8616
G01 X32.9265 Y4.7538
G01 X32.9321 Y4.6390
G01 X32.9265 Y4.5242
G01 X32.9107 Y4.4164
G01 X32.9090 Y4.4076
G01 X32.8833 Y4.3048
G01 X32.8799 Y4.2934
G01 X32.8430 Y4.1908
G01 X32.8099 Y4.1206
G01 X33.0075 Y3.9231
G01 X33.0453 Y3.9848
G01 X33.1317 Y4.1935
G01 X33.1845 Y4.4134
G01 X33.2023 Y4.6392
G01 X33.1845 Y4.8646
G01 X33.1317 Y5.0845
G01 X33.0453 Y5.2932
G01 X33.0075 Y5.3549
G01 X32.8099 Y5.1574
G00 Z2.0000
G00 X31.0451 Y3.3925
G01 F40.00
G01 Z-0.1200
G01 F50.00
G01 X31.1068 Y3.3547
G01 X31.3158 Y3.2682
G01 X31.5357 Y3.2154
G01 X31.7612 Y3.1977
G01 X31.9866 Y3.2155
G01 X32.2062 Y3.2682
G01 X32.4152 Y3.3547
G01 X32.4769 Y3.3925
G01 X32.2794 Y3.5901
G01 X32.2092 Y3.5570
G01 X32.1066 Y3.5201
G01 X32.0952 Y3.5167
G01 X31.9924 Y3.4910
G01 X31.9836 Y3.4893
G01 X31.8758 Y3.4735
G01 X31.7610 Y3.4679
G01 X31.6462 Y3.4735
G01 X31.5384 Y3.4893
G01 X31.5296 Y3.4910
G01 X31.4268 Y3.5167
G01 X31.4154 Y3.5201
G01 X31.3128 Y3.5570
G01 X31.2426 Y3.5901
G01 X31.0451 Y3.3925
G00 Z2.0000
G00 X27.7299 Y4.1206
G01 F40.00
G01 Z-0.1200
G01 F50.00
G01 X27.9275 Y3.9231
G01 X27.9653 Y3.9848
G01 X28.0517 Y4.1935
G01 X28.1045 Y4.4134
G01 X28.1223 Y4.6392
G01 X28.1045 Y4.8646
G01 X28.0517 Y5.0845
G01 X27.9653 Y5.2932
G01 X27.9275 Y5.3549
G01 X27.7299 Y5.1574
G01 X27.7630 Y5.0872
G01 X27.7999 Y4.9846
G01 X27.8033 Y4.9732
G01 X27.8290 Y4.8704
G01 X27.8307 Y4.8616
G01 X27.8465 Y4.7538
G01 X27.8521 Y4.6390
G01 X27.8465 Y4.5242
G01 X27.8307 Y4.4164
G01 X27.8290 Y4.4076
G01 X27.8033 Y4.3048
G01 X27.7999 Y4.2934
G01 X27.7630 Y4.1908
G01 X27.7299 Y4.1206
G00 Z2.0000
G00 X25.9651 Y3.3925
G01 F40.00
G01 Z-0.1200
G01 F50.00
G01 X26.0268 Y3.3547
G01 X26.2358 Y3.2682
G01 X26.4557 Y3.2154
G01 X26.6812 Y3.1977
G01 X26.9066 Y3.2155
G01 X27.1262 Y3.2682
G01 X27.3352 Y3.3547
G01 X27.3969 Y3.3925
G01 X27.1994 Y3.5901
G01 X27.1292 Y3.5570
G01 X27.0266 Y3.5201
G01 X27.0152 Y3.5167
G01 X26.9124 Y3.4910
G01 X26.9036 Y3.4893
G01 X26.7958 Y3.4735
G01 X26.6810 Y3.4679
G01 X26.5662 Y3.4735
G01 X26.4584 Y3.4893
G01 X26.4496 Y3.4910
G01 X26.3468 Y3.5167
G01 X26.3354 Y3.5201
G01 X26.2328 Y3.5570
G01 X26.1626 Y3.5901
G01 X25.9651 Y3.3925
G00 Z2.0000
G00 X25.2397 Y4.6388
G01 F40.00
G01 Z-0.1200
G01 F50.00
G01 X25.2575 Y4.4134
G01 X25.3102 Y4.1938
G01 X25.3967 Y3.9848
G01 X25.4345 Y3.9231
G01 X25.6321 Y4.1206
G01 X25.5990 Y4.1908
G01 X25.5621 Y4.2934
G01 X25.5587 Y4.3048
G01 X25.5330 Y4.4076
G01 X25.5313 Y4.4164
G01 X25.5155 Y4.5242
G01 X25.5099 Y4.6390
G01 X25.5155 Y4.7538
G01 X25.5313 Y4.8616
G01 X25.5330 Y4.8704
G01 X25.5587 Y4.9732
G01 X25.5621 Y4.9846
G01 X25.5990 Y5.0872
G01 X25.6321 Y5.1574
G01 X25.4345 Y5.3549
G01 X25.3967 Y5.2932
G01 X25.3102 Y5.0842
G01 X25.2574 Y4.8643
G01 X25.2397 Y4.6388
G00 Z2.0000
G00 X25.9651 Y5.8855
G01 F40.00
G01 Z-0.1200
G01 F50.00
G01 X26.1626 Y5.6879
G01 X26.2328 Y5.7210
G01 X26.3354 Y5.7579
G01 X26.3468 Y5.7613
G01 X26.4496 Y5.7870
G01 X26.4584 Y5.7887
G01 X26.5662 Y5.8045
G01 X26.6810 Y5.8101
G01 X26.7958 Y5.8045
G01 X26.9036 Y5.7887
G01 X26.9124 Y5.7870
G01 X27.0152 Y5.7613
G01 X27.0266 Y5.7579
G01 X27.1292 Y5.7210
G01 X27.1994 Y5.6879
G01 X27.3969 Y5.8855
G01 X27.3352 Y5.9233
G01 X27.1262 Y6.0098
G01 X26.9063 Y6.0626
G01 X26.6808 Y6.0803
G01 X26.4554 Y6.0625
G01 X26.2358 Y6.0098
G01 X26.0268 Y5.9233
G01 X25.9651 Y5.8855
G00 Z2.0000
G00 X36.2892 Y5.4488
G01 F40.00
G01 Z-0.1200
G01 F50.00
G01 X36.3034 Y5.4347
G01 X36.3333 Y5.4347
G01 X36.3063 Y5.4427
G01 X36.2892 Y5.4488
G00 Z2.0000
G00 X37.0884 Y5.4347
G01 F40.00
G01 Z-0.1200
G01 F50.00
G01 X37.1740 Y5.4347
G01 X37.1975 Y5.4842
G01 X37.2037 Y5.4958
G01 X37.2146 Y5.5142
G01 X37.1914 Y5.4923
G01 X37.1813 Y5.4837
G01 X37.1708 Y5.4756
G01 X37.1544 Y5.4644
G01 X37.1372 Y5.4545
G01 X37.1253 Y5.4486
G01 X37.1070 Y5.4409
G01 X37.0884 Y5.4347
G00 Z2.0000
G00 X37.6025 Y5.9380
G01 F40.00
G01 Z-0.1200
G01 F50.00
G01 X37.6139 Y5.9461
G01 X37.6249 Y5.9531
G01 X37.7091 Y6.0035
G01 X37.7205 Y6.0100
G01 X37.7321 Y6.0159
G01 X37.8209 Y6.0578
G01 X37.8328 Y6.0631
G01 X37.8450 Y6.0678
G01 X37.9374 Y6.1009
G01 X37.9498 Y6.1050
G01 X37.9625 Y6.1085
G01 X38.0576 Y6.1323
G01 X38.0704 Y6.1352
G01 X38.0833 Y6.1374
G01 X38.1804 Y6.1518
G01 X38.1934 Y6.1534
G01 X38.2064 Y6.1544
G01 X38.3044 Y6.1592
G01 X38.3175 Y6.1595
G01 X40.3175 Y6.1595
G01 X40.3306 Y6.1592
G01 X40.4351 Y6.1540
G01 X40.4546 Y6.1518
G01 X40.5517 Y6.1374
G01 X40.5646 Y6.1352
G01 X40.5774 Y6.1323
G01 X40.6725 Y6.1085
G01 X40.6852 Y6.1050
G01 X40.6976 Y6.1009
G01 X40.7900 Y6.0678
G01 X40.8022 Y6.0631
G01 X40.8141 Y6.0578
G01 X40.9029 Y6.0159
G01 X40.9145 Y6.0100
G01 X40.9259 Y6.0035
G01 X41.0101 Y5.9531
G01 X41.0211 Y5.9461
G01 X41.0321 Y5.9383
G01 X41.0108 Y5.9676
G01 X41.0035 Y5.9786
G01 X40.9968 Y5.9900
G01 X40.9906 Y6.0017
G01 X40.9851 Y6.0137
G01 X40.9801 Y6.0260
G01 X40.9738 Y6.0449
G01 X40.9704 Y6.0576
G01 X40.9677 Y6.0706
G01 X40.9647 Y6.0902
G01 X40.9636 Y6.1034
G01 X40.9592 Y6.1743
G01 X40.9588 Y6.1875
G01 X40.9589 Y6.2008
G01 X40.9598 Y6.2141
G01 X40.9613 Y6.2272
G01 X40.9634 Y6.2403
G01 X40.9662 Y6.2533
G01 X40.9697 Y6.2661
G01 X40.9760 Y6.2850
G01 X40.9838 Y6.3033
G01 X40.9928 Y6.3210
G01 X41.0325 Y6.3880
G01 X41.0211 Y6.3799
G01 X41.0101 Y6.3729
G01 X40.9259 Y6.3225
G01 X40.9145 Y6.3160
G01 X40.9029 Y6.3101
G01 X40.8141 Y6.2682
G01 X40.8022 Y6.2629
G01 X40.7900 Y6.2582
G01 X40.6976 Y6.2251
G01 X40.6852 Y6.2210
G01 X40.6725 Y6.2175
G01 X40.5774 Y6.1937
G01 X40.5646 Y6.1908
G01 X40.5517 Y6.1886
G01 X40.4546 Y6.1742
G01 X40.4416 Y6.1726
G01 X40.4286 Y6.1716
G01 X40.3306 Y6.1668
G01 X40.3175 Y6.1665
G01 X38.3175 Y6.1665
G01 X38.3044 Y6.1668
G01 X38.1999 Y6.1720
G01 X38.1804 Y6.1742
G01 X38.0833 Y6.1886
G01 X38.0704 Y6.1908
G01 X38.0576 Y6.1937
G01 X37.9625 Y6.2175
G01 X37.9498 Y6.2210
G01 X37.9374 Y6.2251
G01 X37.8450 Y6.2582
G01 X37.8328 Y6.2629
G01 X37.8209 Y6.2682
G01 X37.7321 Y6.3101
G01 X37.7205 Y6.3160
G01 X37.7091 Y6.3225
G01 X37.6249 Y6.3729
G01 X37.6139 Y6.3799
G01 X37.6029 Y6.3877
G01 X37.6242 Y6.3584
G01 X37.6315 Y6.3474
G01 X37.6382 Y6.3360
G01 X37.6444 Y6.3243
G01 X37.6499 Y6.3123
G01 X37.6571 Y6.2938
G01 X37.6612 Y6.2811
G01 X37.6646 Y6.2684
G01 X37.6673 Y6.2554
G01 X37.6703 Y6.2358
G01 X37.6714 Y6.2226
G01 X37.6758 Y6.1517
G01 X37.6762 Y6.1385
G01 X37.6761 Y6.1252
G01 X37.6752 Y6.1119
G01 X37.6737 Y6.0988
G01 X37.6716 Y6.0857
G01 X37.6688 Y6.0727
G01 X37.6653 Y6.0599
G01 X37.6590 Y6.0410
G01 X37.6512 Y6.0227
G01 X37.6422 Y6.0050
G01 X37.6025 Y5.9380
G00 Z2.0000
G00 X37.2046 Y4.2886
G01 F40.00
G01 Z-0.1200
G01 F50.00
G01 X37.1975 Y4.3018
G01 X37.1740 Y4.3513
G01 X37.0818 Y4.3513
G01 X37.1087 Y4.3433
G01 X37.1210 Y4.3391
G01 X37.1330 Y4.3342
G01 X37.1506 Y4.3259
G01 X37.1675 Y4.3162
G01 X37.1784 Y4.3092
G01 X37.1940 Y4.2976
G01 X37.2046 Y4.2886
G00 Z2.0000
G00 X41.5466 Y4.3513
G01 F40.00
G01 Z-0.1200
G01 F50.00
G01 X41.4610 Y4.3513
G01 X41.4375 Y4.3018
G01 X41.4313 Y4.2902
G01 X41.4204 Y4.2718
G01 X41.4436 Y4.2937
G01 X41.4537 Y4.3023
G01 X41.4696 Y4.3143
G01 X41.4806 Y4.3216
G01 X41.4920 Y4.3284
G01 X41.5097 Y4.3374
G01 X41.5280 Y4.3451
G01 X41.5466 Y4.3513
G00 Z2.0000
G00 X41.4304 Y5.4974
G01 F40.00
G01 Z-0.1200
G01 F50.00
G01 X41.4375 Y5.4842
G01 X41.4610 Y5.4347
G01 X41.5532 Y5.4347
G01 X41.5263 Y5.4427
G01 X41.5140 Y5.4469
G01 X41.5020 Y5.4518
G01 X41.4844 Y5.4601
G01 X41.4675 Y5.4698
G01 X41.4566 Y5.4768
G01 X41.4410 Y5.4884
G01 X41.4304 Y5.4974
G00 Z2.0000
G00 X41.5466 Y6.8913
G01 F40.00
G01 Z-0.1200
G01 F50.00
G01 X41.4610 Y6.8913
G01 X41.4375 Y6.8418
G01 X41.4313 Y6.8302
G01 X41.4204 Y6.8118
G01 X41.4436 Y6.8337
G01 X41.4537 Y6.8423
G01 X41.4696 Y6.8543
G01 X41.4806 Y6.8616
G01 X41.4920 Y6.8684
G01 X41.5097 Y6.8774
G01 X41.5280 Y6.8851
G01 X41.5466 Y6.8913
G00 Z2.0000
G00 X41.4304 Y8.0374
G01 F40.00
G01 Z-0.1200
G01 F50.00
G01 X41.4375 Y8.0242
G01 X41.4610 Y7.9747
G01 X41.5532 Y7.9747
G01 X41.5263 Y7.9827
G01 X41.5140 Y7.9869
G01 X41.4960 Y7.9944
G01 X41.4844 Y8.0001
G01 X41.4730 Y8.0064
G01 X41.4566 Y8.0168
G01 X41.4410 Y8.0284
G01 X41.4304 Y8.0374
G00 Z2.0000
G00 X41.0325 Y8.9280
G01 F40.00
G01 Z-0.1200
G01 F50.00
G01 X41.0211 Y8.9199
G01 X41.0101 Y8.9129
G01 X40.9259 Y8.8625
G01 X40.9145 Y8.8560
G01 X40.9029 Y8.8501
G01 X40.8141 Y8.8082
G01 X40.8022 Y8.8029
G01 X40.7900 Y8.7982
G01 X40.6976 Y8.7651
G01 X40.6852 Y8.7610
G01 X40.6725 Y8.7575
G01 X40.5774 Y8.7337
G01 X40.5646 Y8.7308
G01 X40.5517 Y8.7286
G01 X40.4546 Y8.7142
G01 X40.4416 Y8.7126
G01 X40.4286 Y8.7116
G01 X40.3306 Y8.7068
G01 X40.3175 Y8.7065
G01 X38.3175 Y8.7065
G01 X38.3044 Y8.7068
G01 X38.1999 Y8.7120
G01 X38.1804 Y8.7142
G01 X38.0833 Y8.7286
G01 X38.0704 Y8.7308
G01 X38.0576 Y8.7337
G01 X37.9625 Y8.7575
G01 X37.9498 Y8.7610
G01 X37.9374 Y8.7651
G01 X37.8450 Y8.7982
G01 X37.8328 Y8.8029
G01 X37.8209 Y8.8082
G01 X37.7321 Y8.8501
G01 X37.7205 Y8.8560
G01 X37.7091 Y8.8625
G01 X37.6249 Y8.9129
G01 X37.6139 Y8.9199
G01 X37.6029 Y8.9277
G01 X37.6242 Y8.8984
G01 X37.6315 Y8.8874
G01 X37.6382 Y8.8760
G01 X37.6444 Y8.8643
G01 X37.6499 Y8.8523
G01 X37.6571 Y8.8338
G01 X37.6612 Y8.8211
G01 X37.6646 Y8.8084
G01 X37.6673 Y8.7954
G01 X37.6703 Y8.7758
G01 X37.6714 Y8.7626
G01 X37.6758 Y8.6917
G01 X37.6762 Y8.6785
G01 X37.6757 Y8.6586
G01 X37.6745 Y8.6453
G01 X37.6727 Y8.6322
G01 X37.6702 Y8.6192
G01 X37.6671 Y8.6063
G01 X37.6634 Y8.5935
G01 X37.6590 Y8.5810
G01 X37.6512 Y8.5627
G01 X37.6422 Y8.5450
G01 X37.6025 Y8.4780
G01 X37.6139 Y8.4861
G01 X37.6249 Y8.4931
G01 X37.7091 Y8.5435
G01 X37.7205 Y8.5500
G01 X37.7321 Y8.5559
G01 X37.8209 Y8.5978
G01 X37.8328 Y8.6031
G01 X37.8450 Y8.6078
G01 X37.9374 Y8.6409
G01 X37.9498 Y8.6450
G01 X37.9625 Y8.6485
G01 X38.0576 Y8.6723
G01 X38.0704 Y8.6752
G01 X38.0833 Y8.6774
G01 X38.1804 Y8.6918
G01 X38.1934 Y8.6934
G01 X38.2064 Y8.6944
G01 X38.3044 Y8.6992
G01 X38.3175 Y8.6995
G01 X40.3175 Y8.6995
G01 X40.3306 Y8.6992
G01 X40.4351 Y8.6940
G01 X40.4546 Y8.6918
G01 X40.5517 Y8.6774
G01 X40.5646 Y8.6752
G01 X40.5774 Y8.6723
G01 X40.6725 Y8.6485
G01 X40.6852 Y8.6450
G01 X40.6976 Y8.6409
G01 X40.7900 Y8.6078
G01 X40.8022 Y8.6031
G01 X40.8141 Y8.5978
G01 X40.9029 Y8.5559
G01 X40.9145 Y8.5500
G01 X40.9259 Y8.5435
G01 X41.0101 Y8.4931
G01 X41.0211 Y8.4861
G01 X41.0321 Y8.4783
G01 X41.0108 Y8.5076
G01 X41.0035 Y8.5186
G01 X40.9968 Y8.5300
G01 X40.9906 Y8.5417
G01 X40.9851 Y8.5537
G01 X40.9801 Y8.5660
G01 X40.9738 Y8.5849
G01 X40.9704 Y8.5976
G01 X40.9677 Y8.6106
G01 X40.9647 Y8.6302
G01 X40.9636 Y8.6434
G01 X40.9592 Y8.7143
G01 X40.9588 Y8.7275
G01 X40.9593 Y8.7474
G01 X40.9605 Y8.7607
G01 X40.9623 Y8.7738
G01 X40.9648 Y8.7868
G01 X40.9679 Y8.7997
G01 X40.9716 Y8.8125
G01 X40.9760 Y8.8250
G01 X40.9838 Y8.8433
G01 X40.9928 Y8.8610
G01 X41.0325 Y8.9280
G00 Z2.0000
G00 X42.6291 Y7.9747
G01 F40.00
G01 Z-0.1200
G01 F50.00
G01 X42.6491 Y7.9747
G01 X42.6703 Y7.9958
G01 X42.6455 Y7.9824
G01 X42.6291 Y7.9747
G00 Z2.0000
G00 X43.4607 Y8.7862
G01 F40.00
G01 Z-0.1200
G01 F50.00
G01 X43.4748 Y8.8004
G01 X43.4748 Y8.8303
G01 X43.4668 Y8.8033
G01 X43.4607 Y8.7862
G00 Z2.0000
G00 X47.3328 Y10.0424
G01 F40.00
G01 Z-0.1200
G01 F50.00
G01 X47.3640 Y9.9324
G01 X47.4581 Y9.7304
G01 X47.5838 Y9.5455
G01 X47.7369 Y9.3837
G01 X47.9141 Y9.2481
G01 X48.1108 Y9.1426
G01 X48.3222 Y9.0698
G01 X48.5441 Y9.0315
G01 X48.5628 Y9.0306
G01 X49.2929 Y9.0306
G01 X49.2929 Y9.2964
G01 X48.6680 Y9.2964
G01 X48.5611 Y9.3015
G01 X48.5522 Y9.3025
G01 X48.4551 Y9.3169
G01 X48.4435 Y9.3192
G01 X48.3425 Y9.3446
G01 X48.2417 Y9.3806
G01 X48.2335 Y9.3841
G01 X48.1395 Y9.4287
G01 X48.0451 Y9.4853
G01 X47.9568 Y9.5508
G01 X47.8795 Y9.6206
G01 X47.8732 Y9.6269
G01 X47.8013 Y9.7063
G01 X47.7392 Y9.7898
G01 X47.7342 Y9.7971
G01 X47.6822 Y9.8838
G01 X47.6779 Y9.8916
G01 X47.6334 Y9.9857
G01 X47.6301 Y9.9940
G01 X47.6128 Y10.0424
G01 X47.3328 Y10.0424
G00 Z2.0000
G00 X47.3295 Y10.7926
G01 F40.00
G01 Z-0.1200
G01 F50.00
G01 X47.6128 Y10.7926
G01 X47.6301 Y10.8410
G01 X47.6334 Y10.8493
G01 X47.6779 Y10.9434
G01 X47.6822 Y10.9512
G01 X47.7342 Y11.0379
G01 X47.7392 Y11.0452
G01 X47.8013 Y11.1287
G01 X47.8732 Y11.2081
G01 X47.8795 Y11.2144
G01 X47.9568 Y11.2842
G01 X48.0451 Y11.3497
G01 X48.1395 Y11.4063
G01 X48.2335 Y11.4509
G01 X48.2417 Y11.4544
G01 X48.3425 Y11.4904
G01 X48.4435 Y11.5158
G01 X48.4551 Y11.5181
G01 X48.5522 Y11.5325
G01 X48.5611 Y11.5335
G01 X48.6680 Y11.5386
G01 X49.2929 Y11.5386
G01 X49.2929 Y11.8044
G01 X48.6120 Y11.8044
G01 X48.4457 Y11.7910
G01 X48.2290 Y11.7378
G01 X48.0236 Y11.6506
G01 X47.8344 Y11.5315
G01 X47.6673 Y11.3841
G01 X47.5256 Y11.2117
G01 X47.4132 Y11.0185
G01 X47.3333 Y10.8105
G01 X47.3295 Y10.7926
G00 Z2.0000
G00 X50.0431 Y11.8044
G01 F40.00
G01 Z-0.1200
G01 F50.00
G01 X50.0431 Y11.5386
G01 X50.6680 Y11.5386
G01 X50.7749 Y11.5335
G01 X50.7838 Y11.5325
G01 X50.8809 Y11.5181
G01 X50.8925 Y11.5158
G01 X50.9935 Y11.4904
G01 X51.0943 Y11.4544
G01 X51.1025 Y11.4509
G01 X51.1965 Y11.4063
G01 X51.2909 Y11.3497
G01 X51.3792 Y11.2842
G01 X51.4565 Y11.2144
G01 X51.4628 Y11.2081
G01 X51.5347 Y11.1287
G01 X51.5968 Y11.0452
G01 X51.6018 Y11.0379
G01 X51.6538 Y10.9512
G01 X51.6581 Y10.9434
G01 X51.7026 Y10.8493
G01 X51.7059 Y10.8410
G01 X51.7232 Y10.7926
G01 X52.0032 Y10.7926
G01 X51.9720 Y10.9026
G01 X51.8779 Y11.1046
G01 X51.7522 Y11.2895
G01 X51.5991 Y11.4513
G01 X51.4219 Y11.5869
G01 X51.2252 Y11.6924
G01 X51.0138 Y11.7652
G01 X50.7919 Y11.8035
G01 X50.7732 Y11.8044
G01 X50.0431 Y11.8044
G00 Z2.0000
G00 X50.0431 Y9.0306
G01 F40.00
G01 Z-0.1200
G01 F50.00
G01 X50.7240 Y9.0306
G01 X50.8903 Y9.0440
G01 X51.1070 Y9.0972
G01 X51.3124 Y9.1844
G01 X51.5016 Y9.3035
G01 X51.6687 Y9.4509
G01 X51.8104 Y9.6233
G01 X51.9228 Y9.8165
G01 X52.0027 Y10.0245
G01 X52.0065 Y10.0424
G01 X51.7232 Y10.0424
G01 X51.7059 Y9.9940
G01 X51.7026 Y9.9857
G01 X51.6581 Y9.8916
G01 X51.6538 Y9.8838
G01 X51.6018 Y9.7971
G01 X51.5968 Y9.7898
G01 X51.5347 Y9.7063
G01 X51.4628 Y9.6269
G01 X51.4565 Y9.6206
G01 X51.3792 Y9.5508
G01 X51.2909 Y9.4853
G01 X51.1965 Y9.4287
G01 X51.1025 Y9.3841
G01 X51.0943 Y9.3806
G01 X50.9935 Y9.3446
G01 X50.8925 Y9.3192
G01 X50.8809 Y9.3169
G01 X50.7838 Y9.3025
G01 X50.7749 Y9.3015
G01 X50.6680 Y9.2964
G01 X50.0431 Y9.2964
G01 X50.0431 Y9.0306
G00 Z2.0000
G00 X47.2234 Y5.4347
G01 F40.00
G01 Z-0.1200
G01 F50.00
G01 X47.4059 Y5.4347
G01 X47.4070 Y5.4551
G01 X47.4092 Y5.4746
G01 X47.4246 Y5.5782
G01 X47.4272 Y5.5910
G01 X47.4308 Y5.6060
G01 X47.3987 Y5.5566
G01 X47.3870 Y5.5408
G01 X47.3785 Y5.5307
G01 X47.3696 Y5.5211
G01 X47.3602 Y5.5119
G01 X47.3503 Y5.5032
G01 X47.3400 Y5.4950
G01 X47.3294 Y5.4873
G01 X47.3184 Y5.4802
G01 X47.3070 Y5.4736
G01 X47.2894 Y5.4647
G01 X47.2234 Y5.4347
G00 Z2.0000
G00 X47.8758 Y4.3497
G01 F40.00
G01 Z-0.1200
G01 F50.00
G01 X47.8736 Y4.3513
G01 X47.8703 Y4.3513
G01 X47.8758 Y4.3497
G00 Z2.0000
G00 X43.4748 Y13.9831
G01 F40.00
G01 Z-0.1200
G01 F50.00
G01 X43.4748 Y14.0031
G01 X43.4537 Y14.0243
G01 X43.4671 Y13.9995
G01 X43.4748 Y13.9831
G00 Z2.0000
G00 X43.1713 Y14.3067
G01 F40.00
G01 Z-0.1200
G01 F50.00
G01 X43.1571 Y14.3208
G01 X43.1272 Y14.3208
G01 X43.1542 Y14.3128
G01 X43.1713 Y14.3067
G00 Z2.0000
G00 X43.5442 Y17.5306
G01 F40.00
G01 Z-0.1200
G01 F50.00
G01 X43.6884 Y17.4792
G01 X43.8369 Y17.4418
G01 X43.8486 Y17.4395
G01 X44.0001 Y17.4172
G01 X44.1531 Y17.4095
G01 X44.1649 Y17.4095
G01 X44.3120 Y17.4167
G01 X44.3238 Y17.4179
G01 X44.4753 Y17.4405
G01 X44.6296 Y17.4792
G01 X44.7794 Y17.5328
G01 X44.9206 Y17.5994
G01 X44.9284 Y17.6037
G01 X45.0597 Y17.6826
G01 X45.1874 Y17.7773
G01 X45.3053 Y17.8842
G01 X45.4083 Y17.9976
G01 X45.4140 Y18.0044
G01 X45.5069 Y18.1298
G01 X45.5858 Y18.2611
G01 X45.5901 Y18.2689
G01 X45.6543 Y18.4047
G01 X45.6579 Y18.4129
G01 X45.7094 Y18.5571
G01 X45.7119 Y18.5656
G01 X45.7291 Y18.6342
G01 X49.7534 Y18.6342
G01 X49.7534 Y17.7965
G01 X49.7587 Y17.6896
G01 X49.7743 Y17.5837
G01 X49.7762 Y17.5750
G01 X49.8016 Y17.4740
G01 X49.8366 Y17.3760
G01 X49.8411 Y17.3650
G01 X49.8857 Y17.2710
G01 X49.9391 Y17.1816
G01 X49.9457 Y17.1718
G01 X50.0042 Y17.0929
G01 X50.0117 Y17.0837
G01 X50.0776 Y17.0110
G01 X50.0860 Y17.0026
G01 X50.1633 Y16.9328
G01 X50.2516 Y16.8673
G01 X50.3460 Y16.8107
G01 X50.4400 Y16.7661
G01 X50.4510 Y16.7616
G01 X50.5490 Y16.7266
G01 X50.6500 Y16.7012
G01 X50.6616 Y16.6989
G01 X50.7646 Y16.6837
G01 X50.8745 Y16.6784
G01 X50.9844 Y16.6837
G01 X51.0874 Y16.6989
G01 X51.0990 Y16.7012
G01 X51.2000 Y16.7266
G01 X51.2980 Y16.7616
G01 X51.3090 Y16.7661
G01 X51.4030 Y16.8107
G01 X51.4924 Y16.8641
G01 X51.5022 Y16.8707
G01 X51.5857 Y16.9328
G01 X51.6630 Y17.0026
G01 X51.6714 Y17.0110
G01 X51.7412 Y17.0883
G01 X51.8033 Y17.1718
G01 X51.8099 Y17.1816
G01 X51.8633 Y17.2710
G01 X51.9079 Y17.3650
G01 X51.9124 Y17.3760
G01 X51.9474 Y17.4740
G01 X51.9735 Y17.5779
G01 X51.9751 Y17.5866
G01 X51.9903 Y17.6896
G01 X51.9956 Y17.7995
G01 X51.9956 Y19.7995
G01 X51.9907 Y19.9035
G01 X51.9895 Y19.9153
G01 X51.9741 Y20.0182
G01 X51.9474 Y20.1250
G01 X51.9103 Y20.2285
G01 X51.8659 Y20.3227
G01 X51.8603 Y20.3332
G01 X51.8099 Y20.4174
G01 X51.8033 Y20.4272
G01 X51.7412 Y20.5107
G01 X51.6673 Y20.5923
G01 X51.5857 Y20.6662
G01 X51.4974 Y20.7317
G01 X51.4030 Y20.7883
G01 X51.3035 Y20.8353
G01 X51.2000 Y20.8724
G01 X51.0990 Y20.8978
G01 X51.0874 Y20.9001
G01 X50.9903 Y20.9145
G01 X50.9785 Y20.9157
G01 X50.8745 Y20.9206
G01 X50.7705 Y20.9157
G01 X50.7617 Y20.9149
G01 X50.6558 Y20.8991
G01 X50.5548 Y20.8740
G01 X50.5434 Y20.8705
G01 X50.4455 Y20.8353
G01 X50.3513 Y20.7909
G01 X50.3408 Y20.7853
G01 X50.2566 Y20.7349
G01 X50.2468 Y20.7283
G01 X50.1633 Y20.6662
G01 X50.0817 Y20.5923
G01 X50.0078 Y20.5107
G01 X49.9423 Y20.4224
G01 X49.8857 Y20.3280
G01 X49.8387 Y20.2285
G01 X49.8016 Y20.1250
G01 X49.7749 Y20.0182
G01 X49.7587 Y19.9094
G01 X49.7534 Y19.8025
G01 X49.7534 Y19.4268
G01 X45.7291 Y19.4268
G01 X45.7119 Y19.4954
G01 X45.7094 Y19.5039
G01 X45.6579 Y19.6481
G01 X45.6543 Y19.6563
G01 X45.5901 Y19.7921
G01 X45.5858 Y19.7999
G01 X45.5069 Y19.9312
G01 X45.4140 Y20.0566
G01 X45.4083 Y20.0634
G01 X45.3053 Y20.1768
G01 X45.1874 Y20.2837
G01 X45.0597 Y20.3784
G01 X44.9258 Y20.4588
G01 X44.9179 Y20.4629
G01 X44.7794 Y20.5282
G01 X44.6296 Y20.5818
G01 X44.4753 Y20.6205
G01 X44.3179 Y20.6438
G01 X44.1590 Y20.6516
G01 X44.0001 Y20.6438
G01 X43.8427 Y20.6205
G01 X43.6884 Y20.5818
G01 X43.5386 Y20.5282
G01 X43.4001 Y20.4629
G01 X43.3896 Y20.4573
G01 X43.2583 Y20.3784
G01 X43.1306 Y20.2837
G01 X43.0170 Y20.1809
G01 X43.0086 Y20.1725
G01 X42.9097 Y20.0634
G01 X42.9022 Y20.0543
G01 X42.8111 Y19.9312
G01 X42.7322 Y19.7999
G01 X42.7266 Y19.7894
G01 X42.6637 Y19.6563
G01 X42.6591 Y19.6453
G01 X42.6077 Y19.5011
G01 X42.5690 Y19.3468
G01 X42.5457 Y19.1894
G01 X42.5380 Y19.0364
G01 X42.5380 Y19.0246
G01 X42.5452 Y18.8775
G01 X42.5464 Y18.8657
G01 X42.5690 Y18.7142
G01 X42.6077 Y18.5599
G01 X42.6591 Y18.4157
G01 X42.6637 Y18.4047
G01 X42.7293 Y18.2663
G01 X42.8111 Y18.1298
G01 X42.9058 Y18.0021
G01 X43.0086 Y17.8885
G01 X43.0170 Y17.8801
G01 X43.1306 Y17.7773
G01 X43.2583 Y17.6826
G01 X43.3896 Y17.6037
G01 X43.4001 Y17.5981
G01 X43.5332 Y17.5352
G01 X43.5442 Y17.5306
G00 Z2.0000
G00 X42.2673 Y19.0503
G01 F40.00
G01 Z-0.1200
G01 F50.00
G01 X42.2822 Y18.7934
G01 X42.3317 Y18.5409
G01 X42.4151 Y18.2974
G01 X42.5307 Y18.0675
G01 X42.6764 Y17.8554
G01 X42.8496 Y17.6651
G01 X43.0471 Y17.5000
G01 X43.2650 Y17.3633
G01 X43.4996 Y17.2574
G01 X43.7463 Y17.1843
G01 X44.0007 Y17.1454
G01 X44.2580 Y17.1413
G01 X44.5135 Y17.1722
G01 X44.7624 Y17.2375
G01 X45.0001 Y17.3360
G01 X45.2223 Y17.4659
G01 X45.4248 Y17.6246
G01 X45.6039 Y17.8094
G01 X45.7563 Y18.0168
G01 X45.8783 Y18.2414
G01 X45.8862 Y18.2535
G01 X45.8954 Y18.2645
G01 X45.9518 Y18.3210
G01 X45.9609 Y18.3285
G01 X45.9733 Y18.3366
G01 X45.9838 Y18.3420
G01 X45.9976 Y18.3472
G01 X46.0669 Y18.3651
G01 X46.0789 Y18.3672
G01 X46.0941 Y18.3681
G01 X49.2400 Y18.3681
G01 X49.2515 Y18.3676
G01 X49.2601 Y18.3665
G01 X49.2714 Y18.3640
G01 X49.3451 Y18.3424
G01 X49.3536 Y18.3393
G01 X49.3618 Y18.3356
G01 X49.3698 Y18.3313
G01 X49.3774 Y18.3264
G01 X49.3891 Y18.3171
G01 X49.3977 Y18.3086
G01 X49.4481 Y18.2504
G01 X49.4536 Y18.2431
G01 X49.4601 Y18.2329
G01 X49.4643 Y18.2248
G01 X49.4689 Y18.2136
G01 X49.4723 Y18.2020
G01 X49.4844 Y18.1468
G01 X49.4859 Y18.1382
G01 X49.4870 Y18.1268
G01 X49.4871 Y17.7434
G01 X49.5005 Y17.5770
G01 X49.5538 Y17.3602
G01 X49.5892 Y17.2768
G01 X49.6410 Y17.1547
G01 X49.7600 Y16.9657
G01 X49.9076 Y16.7983
G01 X50.0801 Y16.6566
G01 X50.2731 Y16.5443
G01 X50.4815 Y16.4643
G01 X50.7001 Y16.4186
G01 X50.9231 Y16.4085
G01 X51.1448 Y16.4341
G01 X51.3597 Y16.4949
G01 X51.5620 Y16.5893
G01 X51.7466 Y16.7148
G01 X51.9089 Y16.8682
G01 X52.0445 Y17.0455
G01 X52.1500 Y17.2423
G01 X52.2226 Y17.4534
G01 X52.2610 Y17.6754
G01 X52.2619 Y17.6942
G01 X52.2619 Y19.8556
G01 X52.2485 Y20.0220
G01 X52.1952 Y20.2388
G01 X52.1080 Y20.4443
G01 X51.9890 Y20.6333
G01 X51.8414 Y20.8007
G01 X51.6689 Y20.9424
G01 X51.4759 Y21.0547
G01 X51.2675 Y21.1347
G01 X51.0489 Y21.1804
G01 X50.8259 Y21.1905
G01 X50.6042 Y21.1649
G01 X50.3893 Y21.1041
G01 X50.1870 Y21.0097
G01 X50.0024 Y20.8842
G01 X49.8401 Y20.7308
G01 X49.7045 Y20.5535
G01 X49.5990 Y20.3567
G01 X49.5264 Y20.1456
G01 X49.4879 Y19.9229
G01 X49.4864 Y19.9098
G01 X49.4846 Y19.9011
G01 X49.4814 Y19.8896
G01 X49.4782 Y19.8813
G01 X49.4743 Y19.8730
G01 X49.4577 Y19.8249
G01 X49.4530 Y19.8139
G01 X49.4471 Y19.8034
G01 X49.4421 Y19.7959
G01 X49.4365 Y19.7888
G01 X49.4304 Y19.7821
G01 X49.4239 Y19.7759
G01 X49.3611 Y19.7262
G01 X49.3536 Y19.7210
G01 X49.3458 Y19.7164
G01 X49.3319 Y19.7101
G01 X49.3174 Y19.7055
G01 X49.2616 Y19.6945
G01 X49.2471 Y19.6930
G01 X46.0917 Y19.6929
G01 X46.0773 Y19.6937
G01 X46.0659 Y19.6956
G01 X46.0575 Y19.6978
G01 X45.9865 Y19.7186
G01 X45.9752 Y19.7229
G01 X45.9618 Y19.7297
G01 X45.9494 Y19.7382
G01 X45.9381 Y19.7481
G01 X45.8881 Y19.8029
G01 X45.8810 Y19.8119
G01 X45.8734 Y19.8241
G01 X45.7771 Y20.0105
G01 X45.6292 Y20.2210
G01 X45.4540 Y20.4095
G01 X45.2549 Y20.5725
G01 X45.0354 Y20.7070
G01 X44.7998 Y20.8104
G01 X44.5523 Y20.8809
G01 X44.2975 Y20.9172
G01 X44.0402 Y20.9185
G01 X43.7851 Y20.8849
G01 X43.5369 Y20.8170
G01 X43.3002 Y20.7161
G01 X43.0793 Y20.5839
G01 X42.8785 Y20.4230
G01 X42.7014 Y20.2364
G01 X42.5512 Y20.0274
G01 X42.4308 Y19.7999
G01 X42.3424 Y19.5583
G01 X42.2875 Y19.3069
G01 X42.2673 Y19.0503
G00 Z2.0000
G00 X45.7993 Y19.6844
G01 F40.00
G01 Z-0.1200
G01 F50.00
G01 X45.8395 Y19.5722
G01 X45.9692 Y19.5722
G01 X45.9358 Y19.5823
G01 X45.9173 Y19.5896
G01 X45.9053 Y19.5951
G01 X45.8935 Y19.6013
G01 X45.8766 Y19.6117
G01 X45.8657 Y19.6192
G01 X45.8552 Y19.6273
G01 X45.8403 Y19.6405
G01 X45.8264 Y19.6547
G01 X45.7993 Y19.6844
G00 Z2.0000
G00 X45.9643 Y18.4888
G01 F40.00
G01 Z-0.1200
G01 F50.00
G01 X45.8395 Y18.4888
G01 X45.7979 Y18.3727
G01 X45.8491 Y18.4240
G01 X45.8637 Y18.4370
G01 X45.8792 Y18.4488
G01 X45.8955 Y18.4595
G01 X45.9068 Y18.4660
G01 X45.9184 Y18.4719
G01 X45.9302 Y18.4772
G01 X45.9423 Y18.4819
G01 X45.9547 Y18.4861
G01 X45.9643 Y18.4888
G00 Z2.0000
G00 X49.3782 Y19.5722
G01 F40.00
G01 Z-0.1200
G01 F50.00
G01 X49.6080 Y19.5722
G01 X49.6080 Y19.7995
G01 X49.6083 Y19.8135
G01 X49.5920 Y19.7692
G01 X49.5868 Y19.7570
G01 X49.5779 Y19.7390
G01 X49.5676 Y19.7219
G01 X49.5600 Y19.7109
G01 X49.5519 Y19.7002
G01 X49.5388 Y19.6851
G01 X49.5295 Y19.6756
G01 X49.5146 Y19.6622
G01 X49.4537 Y19.6140
G01 X49.4430 Y19.6060
G01 X49.4262 Y19.5950
G01 X49.4145 Y19.5883
G01 X49.3965 Y19.5795
G01 X49.3782 Y19.5722
G00 Z2.0000
G00 X49.6080 Y18.2561
G01 F40.00
G01 Z-0.1200
G01 F50.00
G01 X49.6080 Y18.4888
G01 X49.3624 Y18.4888
G01 X49.3895 Y18.4808
G01 X49.4020 Y18.4764
G01 X49.4143 Y18.4715
G01 X49.4322 Y18.4629
G01 X49.4494 Y18.4530
G01 X49.4659 Y18.4418
G01 X49.4814 Y18.4295
G01 X49.4912 Y18.4207
G01 X49.5052 Y18.4065
G01 X49.5560 Y18.3479
G01 X49.5645 Y18.3376
G01 X49.5725 Y18.3269
G01 X49.5833 Y18.3102
G01 X49.5930 Y18.2926
G01 X49.6012 Y18.2745
G01 X49.6080 Y18.2561
G00 Z2.0000
G00 X39.7182 Y15.4183
G01 F40.00
G01 Z-0.1200
G01 F50.00
G01 X39.7324 Y15.4042
G01 X39.7623 Y15.4042
G01 X39.7353 Y15.4122
G01 X39.7182 Y15.4183
G00 Z2.0000
G00 X38.7007 Y16.4559
G01 F40.00
G01 Z-0.1200
G01 F50.00
G01 X38.7007 Y16.4359
G01 X38.7218 Y16.4147
G01 X38.7084 Y16.4395
G01 X38.7007 Y16.4559
G00 Z2.0000
G00 X38.8190 Y17.3924
G01 F40.00
G01 Z-0.1200
G01 F50.00
G01 X38.7007 Y17.3500
G01 X38.7007 Y17.2193
G01 X38.7108 Y17.2525
G01 X38.7179 Y17.2708
G01 X38.7234 Y17.2827
G01 X38.7294 Y17.2942
G01 X38.7361 Y17.3055
G01 X38.7432 Y17.3165
G01 X38.7509 Y17.3270
G01 X38.7591 Y17.3372
G01 X38.7724 Y17.3517
G01 X38.7866 Y17.3652
G01 X38.8190 Y17.3924
G00 Z2.0000
G00 X37.6173 Y17.2212
G01 F40.00
G01 Z-0.1200
G01 F50.00
G01 X37.6173 Y17.3500
G01 X37.5053 Y17.3901
G01 X37.5339 Y17.3655
G01 X37.5481 Y17.3516
G01 X37.5571 Y17.3417
G01 X37.5655 Y17.3315
G01 X37.5771 Y17.3153
G01 X37.5875 Y17.2983
G01 X37.5938 Y17.2866
G01 X37.5994 Y17.2745
G01 X37.6044 Y17.2622
G01 X37.6088 Y17.2497
G01 X37.6173 Y17.2212
G00 Z2.0000
G00 X36.5183 Y18.3775
G01 F40.00
G01 Z-0.1200
G01 F50.00
G01 X36.4785 Y18.4888
G01 X36.3496 Y18.4888
G01 X36.3765 Y18.4809
G01 X36.3886 Y18.4767
G01 X36.4004 Y18.4719
G01 X36.4178 Y18.4637
G01 X36.4290 Y18.4575
G01 X36.4399 Y18.4508
G01 X36.4505 Y18.4436
G01 X36.4607 Y18.4359
G01 X36.4754 Y18.4235
G01 X36.4890 Y18.4100
G01 X36.5183 Y18.3775
G00 Z2.0000
G00 X36.3539 Y19.5722
G01 F40.00
G01 Z-0.1200
G01 F50.00
G01 X36.4785 Y19.5722
G01 X36.5196 Y19.6869
G01 X36.4780 Y19.6442
G01 X36.4686 Y19.6350
G01 X36.4537 Y19.6221
G01 X36.4378 Y19.6104
G01 X36.4212 Y19.5999
G01 X36.4097 Y19.5935
G01 X36.3979 Y19.5878
G01 X36.3858 Y19.5826
G01 X36.3735 Y19.5781
G01 X36.3539 Y19.5722
G00 Z2.0000
G00 X31.7022 Y19.9515
G01 F40.00
G01 Z-0.1200
G01 F50.00
G01 X31.6614 Y19.8651
G01 X31.6555 Y19.8535
G01 X31.6490 Y19.8421
G01 X31.5986 Y19.7579
G01 X31.5916 Y19.7469
G01 X31.5840 Y19.7362
G01 X31.5256 Y19.6573
G01 X31.5175 Y19.6470
G01 X31.5090 Y19.6371
G01 X31.4501 Y19.5722
G01 X31.9709 Y19.5722
G01 X31.9375 Y19.5823
G01 X31.9252 Y19.5870
G01 X31.9130 Y19.5922
G01 X31.8953 Y19.6013
G01 X31.8839 Y19.6080
G01 X31.8729 Y19.6153
G01 X31.8622 Y19.6231
G01 X31.8470 Y19.6359
G01 X31.8374 Y19.6450
G01 X31.8282 Y19.6545
G01 X31.7773 Y19.7131
G01 X31.7689 Y19.7233
G01 X31.7610 Y19.7340
G01 X31.7502 Y19.7506
G01 X31.7436 Y19.7621
G01 X31.7377 Y19.7739
G01 X31.7299 Y19.7922
G01 X31.7255 Y19.8047
G01 X31.7217 Y19.8173
G01 X31.7185 Y19.8302
G01 X31.7149 Y19.8497
G01 X31.7040 Y19.9266
G01 X31.7027 Y19.9397
G01 X31.7022 Y19.9515
G00 Z2.0000
G00 X30.0533 Y19.1697
G01 F40.00
G01 Z-0.1200
G01 F50.00
G01 X30.0390 Y19.1840
G01 X30.0087 Y19.1840
G01 X30.0362 Y19.1758
G01 X30.0533 Y19.1697
G00 Z2.0000
G00 X28.5385 Y19.3294
G01 F40.00
G01 Z-0.1200
G01 F50.00
G01 X30.0992 Y19.3294
G01 X30.6783 Y18.7503
G01 X30.7048 Y18.7261
G01 X30.7335 Y18.7044
G01 X30.7434 Y18.6978
G01 X30.7717 Y18.6810
G01 X30.8068 Y18.6644
G01 X30.8378 Y18.6531
G01 X30.8492 Y18.6497
G01 X30.8812 Y18.6418
G01 X30.9197 Y18.6361
G01 X30.9585 Y18.6342
G01 X36.5889 Y18.6342
G01 X36.6061 Y18.5656
G01 X36.6086 Y18.5571
G01 X36.6601 Y18.4129
G01 X36.6637 Y18.4047
G01 X36.7266 Y18.2716
G01 X36.7307 Y18.2637
G01 X36.8111 Y18.1298
G01 X36.9022 Y18.0067
G01 X36.9097 Y17.9976
G01 X37.0127 Y17.8842
G01 X37.1261 Y17.7812
G01 X37.1352 Y17.7737
G01 X37.2583 Y17.6826
G01 X37.3922 Y17.6022
G01 X37.4001 Y17.5981
G01 X37.5332 Y17.5352
G01 X37.5414 Y17.5316
G01 X37.6856 Y17.4801
G01 X37.6941 Y17.4776
G01 X37.7627 Y17.4604
G01 X37.7629 Y16.2056
G01 X37.7646 Y16.1727
G01 X37.7693 Y16.1400
G01 X37.7716 Y16.1284
G01 X37.7798 Y16.0965
G01 X37.7929 Y16.0598
G01 X37.8068 Y16.0300
G01 X37.8124 Y16.0195
G01 X37.8295 Y15.9913
G01 X37.8527 Y15.9601
G01 X37.8788 Y15.9313
G01 X39.2278 Y14.5823
G01 X39.2566 Y14.5562
G01 X39.2830 Y14.5364
G01 X39.2903 Y14.5314
G01 X39.3212 Y14.5130
G01 X39.3509 Y14.4988
G01 X39.3619 Y14.4942
G01 X39.3930 Y14.4833
G01 X39.4249 Y14.4751
G01 X39.4365 Y14.4728
G01 X39.4692 Y14.4681
G01 X39.5050 Y14.4662
G01 X43.2174 Y14.4662
G01 X43.6202 Y14.0634
G01 X43.6202 Y8.7401
G01 X42.7094 Y7.8293
G01 X41.3652 Y7.8293
G01 X41.3554 Y7.8565
G01 X41.3521 Y7.8648
G01 X41.3076 Y7.9589
G01 X41.3033 Y7.9667
G01 X41.2529 Y8.0509
G01 X41.2480 Y8.0583
G01 X41.1842 Y8.1442
G01 X41.1144 Y8.2215
G01 X41.1060 Y8.2299
G01 X41.0333 Y8.2958
G01 X41.0264 Y8.3015
G01 X40.9404 Y8.3652
G01 X40.8512 Y8.4188
G01 X40.8407 Y8.4244
G01 X40.7465 Y8.4688
G01 X40.6486 Y8.5040
G01 X40.6372 Y8.5075
G01 X40.5362 Y8.5326
G01 X40.4303 Y8.5484
G01 X40.4215 Y8.5492
G01 X40.3175 Y8.5541
G01 X38.3145 Y8.5541
G01 X38.2076 Y8.5488
G01 X38.0988 Y8.5326
G01 X37.9920 Y8.5059
G01 X37.8912 Y8.4699
G01 X37.8830 Y8.4664
G01 X37.7943 Y8.4244
G01 X37.7838 Y8.4188
G01 X37.6946 Y8.3652
G01 X37.6109 Y8.3033
G01 X37.6017 Y8.2958
G01 X37.5247 Y8.2258
G01 X37.4547 Y8.1488
G01 X37.4472 Y8.1396
G01 X37.3853 Y8.0559
G01 X37.3317 Y7.9667
G01 X37.3261 Y7.9562
G01 X37.2817 Y7.8620
G01 X37.2465 Y7.7641
G01 X37.2430 Y7.7527
G01 X37.2179 Y7.6517
G01 X37.2017 Y7.5429
G01 X37.1965 Y7.4389
G01 X37.1965 Y7.4271
G01 X37.2017 Y7.3231
G01 X37.2169 Y7.2201
G01 X37.2192 Y7.2085
G01 X37.2446 Y7.1075
G01 X37.2796 Y7.0095
G01 X37.2841 Y6.9985
G01 X37.3287 Y6.9045
G01 X37.3821 Y6.8151
G01 X37.3887 Y6.8053
G01 X37.4508 Y6.7218
G01 X37.5206 Y6.6445
G01 X37.5290 Y6.6361
G01 X37.6063 Y6.5663
G01 X37.6922 Y6.5025
G01 X37.6996 Y6.4976
G01 X37.7838 Y6.4472
G01 X37.7943 Y6.4416
G01 X37.8885 Y6.3972
G01 X37.9920 Y6.3601
G01 X38.0930 Y6.3347
G01 X38.1046 Y6.3324
G01 X38.2076 Y6.3172
G01 X38.3116 Y6.3120
G01 X40.3205 Y6.3119
G01 X40.4215 Y6.3168
G01 X40.4333 Y6.3180
G01 X40.5362 Y6.3334
G01 X40.6401 Y6.3593
G01 X40.6486 Y6.3620
G01 X40.7465 Y6.3972
G01 X40.8407 Y6.4416
G01 X40.8512 Y6.4472
G01 X40.9404 Y6.5008
G01 X41.0241 Y6.5627
G01 X41.0333 Y6.5702
G01 X41.1081 Y6.6382
G01 X41.1144 Y6.6445
G01 X41.1842 Y6.7218
G01 X41.2463 Y6.8053
G01 X41.2513 Y6.8126
G01 X41.3033 Y6.8993
G01 X41.3076 Y6.9071
G01 X41.3521 Y7.0012
G01 X41.3554 Y7.0095
G01 X41.3652 Y7.0367
G01 X42.8765 Y7.0367
G01 X42.9094 Y7.0384
G01 X42.9182 Y7.0393
G01 X42.9508 Y7.0443
G01 X42.9828 Y7.0522
G01 X42.9942 Y7.0556
G01 X43.0252 Y7.0669
G01 X43.0603 Y7.0835
G01 X43.0937 Y7.1035
G01 X43.1202 Y7.1230
G01 X43.1294 Y7.1305
G01 X43.1537 Y7.1528
G01 X44.2967 Y8.2958
G01 X44.3228 Y8.3246
G01 X44.3443 Y8.3534
G01 X44.3631 Y8.3840
G01 X44.3687 Y8.3945
G01 X44.3826 Y8.4243
G01 X44.3957 Y8.4610
G01 X44.4052 Y8.4987
G01 X44.4102 Y8.5313
G01 X44.4113 Y8.5431
G01 X44.4128 Y8.5760
G01 X44.4128 Y14.2275
G01 X44.4109 Y14.2663
G01 X44.4052 Y14.3048
G01 X44.3957 Y14.3425
G01 X44.3848 Y14.3736
G01 X44.3815 Y14.3819
G01 X44.3660 Y14.4143
G01 X44.3460 Y14.4477
G01 X44.3228 Y14.4789
G01 X44.2988 Y14.5056
G01 X43.6596 Y15.1448
G01 X43.6329 Y15.1688
G01 X43.6065 Y15.1886
G01 X43.5966 Y15.1952
G01 X43.5683 Y15.2120
G01 X43.5332 Y15.2286
G01 X43.5022 Y15.2399
G01 X43.4908 Y15.2433
G01 X43.4588 Y15.2512
G01 X43.4203 Y15.2569
G01 X43.3815 Y15.2588
G01 X39.6721 Y15.2588
G01 X38.5553 Y16.3756
G01 X38.5553 Y17.4604
G01 X38.6239 Y17.4776
G01 X38.6324 Y17.4801
G01 X38.7738 Y17.5306
G01 X38.7821 Y17.5339
G01 X38.9232 Y17.6008
G01 X39.0572 Y17.6809
G01 X39.0645 Y17.6860
G01 X39.1828 Y17.7737
G01 X39.1919 Y17.7812
G01 X39.3053 Y17.8842
G01 X39.4103 Y17.9998
G01 X39.4158 Y18.0067
G01 X39.5035 Y18.1250
G01 X39.5101 Y18.1349
G01 X39.5887 Y18.2663
G01 X39.6567 Y18.4101
G01 X39.7085 Y18.5543
G01 X39.7119 Y18.5656
G01 X39.7490 Y18.7142
G01 X39.7720 Y18.8686
G01 X39.7728 Y18.8775
G01 X39.7800 Y19.0246
G01 X39.7800 Y19.0364
G01 X39.7723 Y19.1894
G01 X39.7500 Y19.3409
G01 X39.7477 Y19.3526
G01 X39.7103 Y19.5011
G01 X39.6589 Y19.6453
G01 X39.6543 Y19.6563
G01 X39.5887 Y19.7947
G01 X39.5101 Y19.9261
G01 X39.5035 Y19.9360
G01 X39.4122 Y20.0589
G01 X39.3094 Y20.1725
G01 X39.3010 Y20.1809
G01 X39.1874 Y20.2837
G01 X39.0621 Y20.3768
G01 X39.0546 Y20.3816
G01 X38.9232 Y20.4602
G01 X38.7848 Y20.5258
G01 X38.7738 Y20.5304
G01 X38.6296 Y20.5818
G01 X38.4811 Y20.6192
G01 X38.4694 Y20.6215
G01 X38.3179 Y20.6438
G01 X38.1590 Y20.6516
G01 X38.0060 Y20.6443
G01 X37.9942 Y20.6431
G01 X37.8427 Y20.6205
G01 X37.6941 Y20.5834
G01 X37.6828 Y20.5800
G01 X37.5414 Y20.5294
G01 X37.5332 Y20.5258
G01 X37.3948 Y20.4602
G01 X37.2634 Y20.3816
G01 X37.2535 Y20.3750
G01 X37.1306 Y20.2837
G01 X37.0170 Y20.1809
G01 X37.0086 Y20.1725
G01 X36.9077 Y20.0612
G01 X36.9022 Y20.0543
G01 X36.8111 Y19.9312
G01 X36.7322 Y19.7999
G01 X36.7279 Y19.7921
G01 X36.6637 Y19.6563
G01 X36.6601 Y19.6481
G01 X36.6086 Y19.5039
G01 X36.6061 Y19.4954
G01 X36.5889 Y19.4268
G01 X31.1226 Y19.4268
G01 X31.0801 Y19.4694
G01 X31.1614 Y19.5183
G01 X31.2451 Y19.5802
G01 X31.2543 Y19.5877
G01 X31.3313 Y19.6577
G01 X31.4013 Y19.7347
G01 X31.4088 Y19.7439
G01 X31.4707 Y19.8276
G01 X31.5258 Y19.9194
G01 X31.5299 Y19.9273
G01 X31.5743 Y20.0215
G01 X31.6114 Y20.1250
G01 X31.6381 Y20.2318
G01 X31.6535 Y20.3347
G01 X31.6545 Y20.3436
G01 X31.6595 Y20.4446
G01 X31.6595 Y20.4564
G01 X31.6543 Y20.5604
G01 X31.6391 Y20.6634
G01 X31.6368 Y20.6750
G01 X31.6114 Y20.7760
G01 X31.5743 Y20.8795
G01 X31.5299 Y20.9737
G01 X31.5243 Y20.9842
G01 X31.4707 Y21.0734
G01 X31.4088 Y21.1571
G01 X31.4013 Y21.1663
G01 X31.3313 Y21.2433
G01 X31.2543 Y21.3133
G01 X31.2474 Y21.3190
G01 X31.1614 Y21.3827
G01 X31.0722 Y21.4363
G01 X31.0617 Y21.4419
G01 X30.9675 Y21.4863
G01 X30.8696 Y21.5215
G01 X30.8582 Y21.5250
G01 X30.7572 Y21.5501
G01 X30.6484 Y21.5663
G01 X30.5385 Y21.5716
G01 X28.5385 Y21.5716
G01 X28.4286 Y21.5663
G01 X28.3198 Y21.5501
G01 X28.2130 Y21.5234
G01 X28.1095 Y21.4863
G01 X28.0100 Y21.4393
G01 X27.9156 Y21.3827
G01 X27.8273 Y21.3172
G01 X27.7457 Y21.2433
G01 X27.6757 Y21.1663
G01 X27.6682 Y21.1571
G01 X27.6063 Y21.0734
G01 X27.5527 Y20.9842
G01 X27.5471 Y20.9737
G01 X27.5051 Y20.8850
G01 X27.5006 Y20.8740
G01 X27.4656 Y20.7760
G01 X27.4389 Y20.6692
G01 X27.4227 Y20.5604
G01 X27.4175 Y20.4564
G01 X27.4175 Y20.4446
G01 X27.4227 Y20.3406
G01 X27.4389 Y20.2318
G01 X27.4656 Y20.1250
G01 X27.5027 Y20.0215
G01 X27.5497 Y19.9220
G01 X27.6063 Y19.8276
G01 X27.6718 Y19.7393
G01 X27.7457 Y19.6577
G01 X27.8273 Y19.5838
G01 X27.9156 Y19.5183
G01 X28.0100 Y19.4617
G01 X28.1095 Y19.4147
G01 X28.2130 Y19.3776
G01 X28.3198 Y19.3509
G01 X28.4286 Y19.3347
G01 X28.5385 Y19.3294
G00 Z2.0000
G00 X35.9958 Y14.1797
G01 F40.00
G01 Z-0.1200
G01 F50.00
G01 X35.9816 Y14.1938
G01 X35.9517 Y14.1938
G01 X35.9787 Y14.1858
G01 X35.9958 Y14.1797
G00 Z2.0000
G00 X38.2168 Y11.2349
G01 F40.00
G01 Z-0.1200
G01 F50.00
G01 X38.3044 Y11.2392
G01 X38.3175 Y11.2395
G01 X38.7758 Y11.2395
G01 X38.7758 Y11.3996
G01 X38.4098 Y11.7657
G01 X38.4262 Y11.7349
G01 X38.4317 Y11.7228
G01 X38.4387 Y11.7043
G01 X38.4444 Y11.6853
G01 X38.4474 Y11.6724
G01 X38.4506 Y11.6528
G01 X38.4520 Y11.6396
G01 X38.4528 Y11.6198
G01 X38.4525 Y11.6065
G01 X38.4470 Y11.5291
G01 X38.4457 Y11.5159
G01 X38.4438 Y11.5028
G01 X38.4413 Y11.4899
G01 X38.4380 Y11.4770
G01 X38.4320 Y11.4581
G01 X38.4246 Y11.4397
G01 X38.4189 Y11.4277
G01 X38.4127 Y11.4161
G01 X38.4022 Y11.3992
G01 X38.3945 Y11.3884
G01 X38.3479 Y11.3263
G01 X38.3394 Y11.3160
G01 X38.3303 Y11.3061
G01 X38.3208 Y11.2968
G01 X38.3057 Y11.2836
G01 X38.2896 Y11.2716
G01 X38.2784 Y11.2644
G01 X38.2668 Y11.2576
G01 X38.2550 Y11.2515
G01 X38.2168 Y11.2349
G00 Z2.0000
G00 X38.5593 Y11.3849
G01 F40.00
G01 Z-0.1200
G01 F50.00
G01 X38.5850 Y11.3849
G01 X38.5667 Y11.4032
G01 X38.5593 Y11.3849
G00 Z2.0000
G00 X39.8592 Y11.4720
G01 F40.00
G01 Z-0.1200
G01 F50.00
G01 X39.8592 Y11.2395
G01 X40.1050 Y11.2395
G01 X40.0775 Y11.2477
G01 X40.0650 Y11.2521
G01 X40.0467 Y11.2597
G01 X40.0348 Y11.2656
G01 X40.0232 Y11.2721
G01 X40.0065 Y11.2828
G01 X39.9907 Y11.2948
G01 X39.9758 Y11.3078
G01 X39.9618 Y11.3220
G01 X39.9110 Y11.3806
G01 X39.9025 Y11.3909
G01 X39.8945 Y11.4016
G01 X39.8837 Y11.4183
G01 X39.8740 Y11.4359
G01 X39.8658 Y11.4540
G01 X39.8592 Y11.4720
G00 Z2.0000
G00 X37.2596 Y30.3650
G01 F40.00
G01 Z-0.1200
G01 F50.00
G01 X37.2866 Y30.3796
G01 X37.2983 Y30.3852
G01 X37.3103 Y30.3902
G01 X37.3224 Y30.3947
G01 X37.3348 Y30.3985
G01 X37.3537 Y30.4032
G01 X37.3728 Y30.4064
G01 X37.3857 Y30.4078
G01 X37.3987 Y30.4086
G01 X37.4181 Y30.4085
G01 X37.4647 Y30.4067
G01 X37.3537 Y30.4592
G01 X37.2596 Y30.3650
G00 Z2.0000
G00 X36.4719 Y31.5076
G01 F40.00
G01 Z-0.1200
G01 F50.00
G01 X36.4665 Y31.4491
G01 X36.4649 Y31.4360
G01 X36.4614 Y31.4164
G01 X36.4564 Y31.3972
G01 X36.4523 Y31.3846
G01 X36.4476 Y31.3723
G01 X36.4394 Y31.3542
G01 X36.4331 Y31.3425
G01 X36.4264 Y31.3311
G01 X36.4151 Y31.3148
G01 X36.3674 Y31.2535
G01 X36.3590 Y31.2433
G01 X36.3501 Y31.2335
G01 X36.3407 Y31.2242
G01 X36.3309 Y31.2153
G01 X36.3206 Y31.2069
G01 X36.3044 Y31.1953
G01 X36.2932 Y31.1883
G01 X36.2816 Y31.1818
G01 X36.2698 Y31.1759
G01 X36.2576 Y31.1707
G01 X36.2452 Y31.1660
G01 X36.2025 Y31.1522
G01 X36.5146 Y31.1522
G01 X36.5877 Y31.2252
G01 X36.5322 Y31.3425
G01 X36.5269 Y31.3545
G01 X36.5222 Y31.3667
G01 X36.4719 Y31.5076
G00 Z2.0000
G00 X37.6173 Y33.8407
G01 F40.00
G01 Z-0.1200
G01 F50.00
G01 X37.6093 Y33.8137
G01 X37.6051 Y33.8015
G01 X37.6002 Y33.7895
G01 X37.5948 Y33.7777
G01 X37.5888 Y33.7662
G01 X37.5823 Y33.7550
G01 X37.5752 Y33.7441
G01 X37.5676 Y33.7336
G01 X37.5595 Y33.7235
G01 X37.5465 Y33.7091
G01 X37.5324 Y33.6957
G01 X37.5016 Y33.6696
G01 X37.6173 Y33.7110
G01 X37.6173 Y33.8407
G00 Z2.0000
G00 X38.8135 Y33.6706
G01 F40.00
G01 Z-0.1200
G01 F50.00
G01 X38.7871 Y33.6929
G01 X38.7731 Y33.7062
G01 X38.7644 Y33.7156
G01 X38.7561 Y33.7254
G01 X38.7482 Y33.7356
G01 X38.7409 Y33.7461
G01 X38.7341 Y33.7570
G01 X38.7278 Y33.7683
G01 X38.7221 Y33.7798
G01 X38.7169 Y33.7915
G01 X38.7103 Y33.8096
G01 X38.7007 Y33.8412
G01 X38.7007 Y33.7110
G01 X38.8135 Y33.6706
G00 Z2.0000
G00 X38.7007 Y34.6587
G01 F40.00
G01 Z-0.1200
G01 F50.00
G01 X38.7087 Y34.6857
G01 X38.7148 Y34.7028
G01 X38.7007 Y34.6886
G01 X38.7007 Y34.6587
G00 Z2.0000
G00 X38.8393 Y36.3893
G01 F40.00
G01 Z-0.1200
G01 F50.00
G01 X38.8313 Y36.3623
G01 X38.8252 Y36.3452
G01 X38.8393 Y36.3594
G01 X38.8393 Y36.3893
G00 Z2.0000
G00 X42.2673 Y32.0503
G01 F40.00
G01 Z-0.1200
G01 F50.00
G01 X42.2822 Y31.7934
G01 X42.3317 Y31.5409
G01 X42.4151 Y31.2974
G01 X42.5307 Y31.0675
G01 X42.6764 Y30.8554
G01 X42.8496 Y30.6651
G01 X43.0471 Y30.5000
G01 X43.2650 Y30.3633
G01 X43.4996 Y30.2574
G01 X43.7463 Y30.1843
G01 X44.0007 Y30.1454
G01 X44.2580 Y30.1413
G01 X44.5135 Y30.1722
G01 X44.7624 Y30.2375
G01 X45.0001 Y30.3360
G01 X45.2223 Y30.4659
G01 X45.4248 Y30.6246
G01 X45.6039 Y30.8094
G01 X45.7563 Y31.0168
G01 X45.8783 Y31.2414
G01 X45.8862 Y31.2535
G01 X45.8954 Y31.2645
G01 X45.9518 Y31.3210
G01 X45.9609 Y31.3285
G01 X45.9733 Y31.3366
G01 X45.9838 Y31.3420
G01 X45.9976 Y31.3472
G01 X46.0669 Y31.3651
G01 X46.0789 Y31.3672
G01 X46.0941 Y31.3681
G01 X49.3670 Y31.3681
G01 X49.3814 Y31.3673
G01 X49.3899 Y31.3660
G01 X49.3984 Y31.3640
G01 X49.4750 Y31.3414
G01 X49.4834 Y31.3381
G01 X49.4915 Y31.3342
G01 X49.4993 Y31.3297
G01 X49.5068 Y31.3247
G01 X49.5161 Y31.3171
G01 X49.5247 Y31.3086
G01 X49.5770 Y31.2480
G01 X49.5840 Y31.2381
G01 X49.5886 Y31.2303
G01 X49.5925 Y31.2221
G01 X49.5968 Y31.2108
G01 X49.6000 Y31.1991
G01 X49.6120 Y31.1439
G01 X49.6133 Y31.1354
G01 X49.6140 Y31.1268
G01 X49.6141 Y30.6339
G01 X49.6275 Y30.4675
G01 X49.6808 Y30.2507
G01 X49.7177 Y30.1638
G01 X49.7680 Y30.0452
G01 X49.8870 Y29.8562
G01 X50.0346 Y29.6888
G01 X50.2071 Y29.5471
G01 X50.4001 Y29.4348
G01 X50.6085 Y29.3548
G01 X50.8271 Y29.3091
G01 X51.0501 Y29.2990
G01 X51.2718 Y29.3246
G01 X51.4867 Y29.3854
G01 X51.6890 Y29.4798
G01 X51.8736 Y29.6053
G01 X52.0359 Y29.7587
G01 X52.1715 Y29.9360
G01 X52.2770 Y30.1328
G01 X52.3496 Y30.3439
G01 X52.3880 Y30.5659
G01 X52.3889 Y30.5847
G01 X52.3889 Y32.7461
G01 X52.3755 Y32.9125
G01 X52.3222 Y33.1293
G01 X52.2350 Y33.3348
G01 X52.1160 Y33.5238
G01 X51.9684 Y33.6912
G01 X51.7959 Y33.8329
G01 X51.6029 Y33.9452
G01 X51.3945 Y34.0252
G01 X51.1759 Y34.0709
G01 X50.9529 Y34.0810
G01 X50.7312 Y34.0554
G01 X50.5163 Y33.9946
G01 X50.3140 Y33.9002
G01 X50.1294 Y33.7747
G01 X49.9671 Y33.6213
G01 X49.8315 Y33.4440
G01 X49.7260 Y33.2472
G01 X49.6534 Y33.0361
G01 X49.6295 Y32.8979
G01 X49.6277 Y32.8895
G01 X49.6253 Y32.8812
G01 X49.6201 Y32.8677
G01 X49.5875 Y32.8014
G01 X49.5833 Y32.7935
G01 X49.5784 Y32.7859
G01 X49.5730 Y32.7786
G01 X49.5650 Y32.7697
G01 X49.5584 Y32.7635
G01 X49.5489 Y32.7561
G01 X49.5414 Y32.7511
G01 X49.4806 Y32.7144
G01 X49.4702 Y32.7088
G01 X49.4565 Y32.7033
G01 X49.4423 Y32.6995
G01 X49.4336 Y32.6980
G01 X49.4015 Y32.6939
G01 X49.3891 Y32.6929
G01 X46.0917 Y32.6929
G01 X46.0773 Y32.6937
G01 X46.0659 Y32.6956
G01 X46.0575 Y32.6978
G01 X45.9865 Y32.7186
G01 X45.9725 Y32.7241
G01 X45.9618 Y32.7297
G01 X45.9494 Y32.7382
G01 X45.9381 Y32.7481
G01 X45.8881 Y32.8028
G01 X45.8794 Y32.8143
G01 X45.8734 Y32.8241
G01 X45.7771 Y33.0105
G01 X45.6292 Y33.2210
G01 X45.4540 Y33.4095
G01 X45.2549 Y33.5725
G01 X45.0354 Y33.7070
G01 X44.7998 Y33.8104
G01 X44.5523 Y33.8809
G01 X44.2975 Y33.9172
G01 X44.0402 Y33.9185
G01 X43.7851 Y33.8849
G01 X43.5369 Y33.8170
G01 X43.3002 Y33.7161
G01 X43.0793 Y33.5839
G01 X42.8785 Y33.4230
G01 X42.7014 Y33.2364
G01 X42.5512 Y33.0274
G01 X42.4308 Y32.7999
G01 X42.3424 Y32.5583
G01 X42.2875 Y32.3069
G01 X42.2673 Y32.0503
G00 Z2.0000
G00 X43.5442 Y30.5306
G01 F40.00
G01 Z-0.1200
G01 F50.00
G01 X43.6884 Y30.4792
G01 X43.8369 Y30.4418
G01 X43.8486 Y30.4395
G01 X44.0001 Y30.4172
G01 X44.1531 Y30.4095
G01 X44.1649 Y30.4095
G01 X44.3120 Y30.4167
G01 X44.3238 Y30.4179
G01 X44.4753 Y30.4405
G01 X44.6296 Y30.4792
G01 X44.7794 Y30.5328
G01 X44.9206 Y30.5994
G01 X44.9284 Y30.6037
G01 X45.0597 Y30.6826
G01 X45.1874 Y30.7773
G01 X45.3053 Y30.8842
G01 X45.4083 Y30.9976
G01 X45.4140 Y31.0044
G01 X45.5069 Y31.1298
G01 X45.5858 Y31.2611
G01 X45.5901 Y31.2689
G01 X45.6543 Y31.4047
G01 X45.6579 Y31.4129
G01 X45.7094 Y31.5571
G01 X45.7119 Y31.5656
G01 X45.7291 Y31.6342
G01 X49.8804 Y31.6342
G01 X49.8804 Y30.6900
G01 X49.8853 Y30.5860
G01 X49.8861 Y30.5772
G01 X49.9009 Y30.4771
G01 X49.9032 Y30.4655
G01 X49.9286 Y30.3645
G01 X49.9636 Y30.2665
G01 X49.9681 Y30.2555
G01 X50.0127 Y30.1615
G01 X50.0661 Y30.0721
G01 X50.0710 Y30.0647
G01 X50.1348 Y29.9788
G01 X50.2046 Y29.9015
G01 X50.2130 Y29.8931
G01 X50.2857 Y29.8272
G01 X50.2949 Y29.8197
G01 X50.3786 Y29.7578
G01 X50.4730 Y29.7012
G01 X50.5725 Y29.6542
G01 X50.6704 Y29.6190
G01 X50.6818 Y29.6155
G01 X50.7770 Y29.5917
G01 X50.7886 Y29.5894
G01 X50.8916 Y29.5742
G01 X51.0015 Y29.5689
G01 X51.1114 Y29.5742
G01 X51.2144 Y29.5894
G01 X51.2260 Y29.5917
G01 X51.3270 Y29.6171
G01 X51.4250 Y29.6521
G01 X51.4360 Y29.6566
G01 X51.5300 Y29.7012
G01 X51.6194 Y29.7546
G01 X51.6292 Y29.7612
G01 X51.7127 Y29.8233
G01 X51.7900 Y29.8931
G01 X51.7984 Y29.9015
G01 X51.8682 Y29.9788
G01 X51.9303 Y30.0623
G01 X51.9369 Y30.0721
G01 X51.9903 Y30.1615
G01 X52.0349 Y30.2555
G01 X52.0394 Y30.2665
G01 X52.0744 Y30.3645
G01 X52.1005 Y30.4684
G01 X52.1021 Y30.4771
G01 X52.1173 Y30.5801
G01 X52.1226 Y30.6900
G01 X52.1226 Y32.6900
G01 X52.1177 Y32.7940
G01 X52.1165 Y32.8058
G01 X52.1011 Y32.9087
G01 X52.0744 Y33.0155
G01 X52.0373 Y33.1190
G01 X51.9929 Y33.2132
G01 X51.9873 Y33.2237
G01 X51.9369 Y33.3079
G01 X51.9303 Y33.3177
G01 X51.8682 Y33.4012
G01 X51.7943 Y33.4828
G01 X51.7127 Y33.5567
G01 X51.6244 Y33.6222
G01 X51.5300 Y33.6788
G01 X51.4305 Y33.7258
G01 X51.3270 Y33.7629
G01 X51.2260 Y33.7883
G01 X51.2144 Y33.7906
G01 X51.1173 Y33.8050
G01 X51.1055 Y33.8062
G01 X51.0015 Y33.8111
G01 X50.8916 Y33.8058
G01 X50.7828 Y33.7896
G01 X50.6760 Y33.7629
G01 X50.5725 Y33.7258
G01 X50.4783 Y33.6814
G01 X50.4678 Y33.6758
G01 X50.3836 Y33.6254
G01 X50.3738 Y33.6188
G01 X50.2903 Y33.5567
G01 X50.2130 Y33.4869
G01 X50.2046 Y33.4785
G01 X50.1348 Y33.4012
G01 X50.0727 Y33.3177
G01 X50.0661 Y33.3079
G01 X50.0127 Y33.2185
G01 X49.9657 Y33.1190
G01 X49.9286 Y33.0155
G01 X49.9025 Y32.9116
G01 X49.9009 Y32.9029
G01 X49.8857 Y32.7999
G01 X49.8805 Y32.6959
G01 X49.8804 Y32.4268
G01 X45.7291 Y32.4268
G01 X45.7119 Y32.4954
G01 X45.7094 Y32.5039
G01 X45.6579 Y32.6481
G01 X45.6543 Y32.6563
G01 X45.5901 Y32.7921
G01 X45.5858 Y32.7999
G01 X45.5069 Y32.9312
G01 X45.4140 Y33.0566
G01 X45.4083 Y33.0634
G01 X45.3053 Y33.1768
G01 X45.1874 Y33.2837
G01 X45.0597 Y33.3784
G01 X44.9258 Y33.4588
G01 X44.9179 Y33.4629
G01 X44.7794 Y33.5282
G01 X44.6296 Y33.5818
G01 X44.4753 Y33.6205
G01 X44.3179 Y33.6438
G01 X44.1590 Y33.6516
G01 X44.0001 Y33.6438
G01 X43.8427 Y33.6205
G01 X43.6884 Y33.5818
G01 X43.5386 Y33.5282
G01 X43.4001 Y33.4629
G01 X43.3896 Y33.4573
G01 X43.2583 Y33.3784
G01 X43.1306 Y33.2837
G01 X43.0170 Y33.1809
G01 X43.0086 Y33.1725
G01 X42.9097 Y33.0634
G01 X42.9022 Y33.0543
G01 X42.8111 Y32.9312
G01 X42.7322 Y32.7999
G01 X42.7266 Y32.7894
G01 X42.6637 Y32.6563
G01 X42.6591 Y32.6453
G01 X42.6077 Y32.5011
G01 X42.5690 Y32.3468
G01 X42.5457 Y32.1894
G01 X42.5380 Y32.0364
G01 X42.5380 Y32.0246
G01 X42.5452 Y31.8775
G01 X42.5464 Y31.8657
G01 X42.5690 Y31.7142
G01 X42.6077 Y31.5599
G01 X42.6591 Y31.4157
G01 X42.6637 Y31.4047
G01 X42.7293 Y31.2663
G01 X42.8111 Y31.1298
G01 X42.9058 Y31.0021
G01 X43.0086 Y30.8885
G01 X43.0170 Y30.8801
G01 X43.1306 Y30.7773
G01 X43.2583 Y30.6826
G01 X43.3896 Y30.6037
G01 X43.4001 Y30.5981
G01 X43.5332 Y30.5352
G01 X43.5442 Y30.5306
G00 Z2.0000
G00 X45.9643 Y31.4888
G01 F40.00
G01 Z-0.1200
G01 F50.00
G01 X45.8395 Y31.4888
G01 X45.7979 Y31.3727
G01 X45.8491 Y31.4240
G01 X45.8637 Y31.4370
G01 X45.8792 Y31.4488
G01 X45.8955 Y31.4595
G01 X45.9068 Y31.4660
G01 X45.9184 Y31.4719
G01 X45.9302 Y31.4772
G01 X45.9423 Y31.4819
G01 X45.9547 Y31.4861
G01 X45.9643 Y31.4888
G00 Z2.0000
G00 X45.7993 Y32.6844
G01 F40.00
G01 Z-0.1200
G01 F50.00
G01 X45.8395 Y32.5722
G01 X45.9692 Y32.5722
G01 X45.9358 Y32.5823
G01 X45.9173 Y32.5896
G01 X45.8994 Y32.5982
G01 X45.8878 Y32.6046
G01 X45.8766 Y32.6117
G01 X45.8604 Y32.6232
G01 X45.8501 Y32.6316
G01 X45.8403 Y32.6405
G01 X45.8264 Y32.6547
G01 X45.7993 Y32.6844
G00 Z2.0000
G00 X49.5206 Y32.5722
G01 F40.00
G01 Z-0.1200
G01 F50.00
G01 X49.7350 Y32.5722
G01 X49.7351 Y32.6965
G01 X49.7391 Y32.7802
G01 X49.7150 Y32.7314
G01 X49.7086 Y32.7198
G01 X49.7016 Y32.7086
G01 X49.6941 Y32.6977
G01 X49.6860 Y32.6872
G01 X49.6774 Y32.6771
G01 X49.6637 Y32.6628
G01 X49.6539 Y32.6539
G01 X49.6437 Y32.6454
G01 X49.6331 Y32.6375
G01 X49.6221 Y32.6301
G01 X49.5501 Y32.5867
G01 X49.5329 Y32.5776
G01 X49.5206 Y32.5722
G00 Z2.0000
G00 X49.7350 Y31.2561
G01 F40.00
G01 Z-0.1200
G01 F50.00
G01 X49.7350 Y31.4888
G01 X49.4894 Y31.4888
G01 X49.5165 Y31.4808
G01 X49.5290 Y31.4764
G01 X49.5473 Y31.4688
G01 X49.5592 Y31.4629
G01 X49.5764 Y31.4530
G01 X49.5929 Y31.4418
G01 X49.6033 Y31.4337
G01 X49.6182 Y31.4207
G01 X49.6322 Y31.4065
G01 X49.6830 Y31.3479
G01 X49.6915 Y31.3376
G01 X49.6995 Y31.3269
G01 X49.7103 Y31.3102
G01 X49.7200 Y31.2926
G01 X49.7282 Y31.2745
G01 X49.7350 Y31.2561
G00 Z2.0000
G00 X31.7742 Y31.1522
G01 F40.00
G01 Z-0.1200
G01 F50.00
G01 X31.7473 Y31.1602
G01 X31.7350 Y31.1644
G01 X31.7170 Y31.1719
G01 X31.7054 Y31.1776
G01 X31.6940 Y31.1839
G01 X31.6776 Y31.1943
G01 X31.6620 Y31.2059
G01 X31.6514 Y31.2149
G01 X31.6585 Y31.2017
G01 X31.6820 Y31.1522
G01 X31.7742 Y31.1522
G00 Z2.0000
G00 X31.6414 Y29.9893
G01 F40.00
G01 Z-0.1200
G01 F50.00
G01 X31.6646 Y30.0112
G01 X31.6747 Y30.0198
G01 X31.6852 Y30.0279
G01 X31.7016 Y30.0391
G01 X31.7188 Y30.0490
G01 X31.7307 Y30.0549
G01 X31.7490 Y30.0626
G01 X31.7676 Y30.0688
G01 X31.6820 Y30.0688
G01 X31.6585 Y30.0193
G01 X31.6523 Y30.0077
G01 X31.6414 Y29.9893
G00 Z2.0000
G00 X33.9141 Y50.1551
G01 F40.00
G01 Z-0.1200
G01 F50.00
G01 X34.5950 Y50.1551
G01 X34.7613 Y50.1685
G01 X34.9780 Y50.2217
G01 X35.1834 Y50.3089
G01 X35.3726 Y50.4280
G01 X35.5397 Y50.5754
G01 X35.6814 Y50.7478
G01 X35.7938 Y50.9410
G01 X35.8737 Y51.1490
G01 X35.8775 Y51.1669
G01 X35.5942 Y51.1669
G01 X35.5769 Y51.1185
G01 X35.5736 Y51.1102
G01 X35.5291 Y51.0161
G01 X35.5248 Y51.0083
G01 X35.4728 Y50.9216
G01 X35.4678 Y50.9143
G01 X35.4057 Y50.8308
G01 X35.3338 Y50.7514
G01 X35.3275 Y50.7451
G01 X35.2502 Y50.6753
G01 X35.1619 Y50.6098
G01 X35.0675 Y50.5532
G01 X34.9735 Y50.5086
G01 X34.9653 Y50.5051
G01 X34.8645 Y50.4691
G01 X34.7635 Y50.4437
G01 X34.7519 Y50.4414
G01 X34.6548 Y50.4270
G01 X34.6459 Y50.4260
G01 X34.5390 Y50.4209
G01 X33.9141 Y50.4209
G01 X33.9141 Y50.1551
G00 Z2.0000
G00 X33.9141 Y52.9289
G01 F40.00
G01 Z-0.1200
G01 F50.00
G01 X33.9141 Y52.6631
G01 X34.5390 Y52.6631
G01 X34.6459 Y52.6580
G01 X34.6548 Y52.6570
G01 X34.7519 Y52.6426
G01 X34.7635 Y52.6403
G01 X34.8645 Y52.6149
G01 X34.9653 Y52.5789
G01 X34.9735 Y52.5754
G01 X35.0675 Y52.5308
G01 X35.1619 Y52.4742
G01 X35.2502 Y52.4087
G01 X35.3275 Y52.3389
G01 X35.3338 Y52.3326
G01 X35.4057 Y52.2532
G01 X35.4678 Y52.1697
